DCI/Rec709 to DCI-XYZ.cube
# DaVinci Resolve Cube (3D LUT).
#
# Converts Rec.709 data to DCI-XYZ.
# Gamma as defined by ITU-Rec.1886.
# 
LUT_3D_SIZE 5
LUT_3D_INPUT_RANGE 0.0000000000 1.0000000000
0.0000000000 0.0000000000 0.0000000000
0.1913226612 0.1482947187 0.0589644207
0.3627774353 0.2811897838 0.1118056858
0.5274557732 0.4088324146 0.1625584965
0.6878822757 0.5331794361 0.2120009187
0.1810992204 0.2364271507 0.1186884229
0.2432470433 0.2613273723 0.1257527645
0.3846301960 0.3398890393 0.1505636401
0.5398154959 0.4442013775 0.1871031689
0.6960382807 0.5570692875 0.2289449717
0.3433922062 0.4483025422 0.2250516557
0.3705153403 0.4578539756 0.2276870776
0.4612341161 0.4955172237 0.2384467429
0.5881962021 0.5604476674 0.2581885801
0.7293184990 0.6444823274 0.2854920105
0.4992708588 0.6518039465 0.3272110764
0.5147440605 0.6571072198 0.3286675106
0.5738112093 0.6790580235 0.3347846931
0.6706056488 0.7204511497 0.3466866980
0.7903159894 0.7796654964 0.3644598555
0.6511248752 0.8500511413 0.4267328396
0.6613651002 0.8535298709 0.4276868095
0.7025545435 0.8681621404 0.4317300081
0.7760532423 0.8967239246 0.4397603036
0.8745714109 0.9395774994 0.4521320021
0.1392097905 0.0978624154 0.2637445839
0.2199790834 0.1659333614 0.2657956016
0.3740599304 0.2880106839 0.2742969240
0.5337498834 0.4126250271 0.2903747594
0.6920171239 0.5356683525 0.3134618843
0.2119126475 0.2453339476 0.2760073864
0.2637622919 0.2689663504 0.2779158705
0.3949396548 0.3449626576 0.2858532464
0.5458839562 0.4475272285 0.3009713766
0.7000964649 0.5593905635 0.3228853464
0.3556658486 0.4515803054 0.3206575054
0.3814372032 0.4610240006 0.3221615695
0.4690048137 0.4983134715 0.3284726997
0.5934953745 0.5627467147 0.3407258084
0.7330864684 0.6463226709 0.3589666081
0.5061331299 0.6536114450 0.3892823972
0.5212846730 0.6588915169 0.3903868622
0.5793219169 0.6807512348 0.3950563223
0.6749108447 0.7219918499 0.4042774330
0.7936321095 0.7810237152 0.4183570599
0.6556361716 0.8512342715 0.4701083390
0.6657661180 0.8547053090 0.4709257494
0.7065531147 0.8693060956 0.4743972995
0.7794668588 0.8978102333 0.4813255364
0.8773935294 0.9405857376 0.4920818307
0.2639633511 0.1855623158 0.5001006317
0.3031439720 0.2200819274 0.5008411820
0.4171144558 0.3146353857 0.5039896794
0.5594253369 0.4282537211 0.5102891359
0.7092756362 0.5461129205 0.5201095050
0.2983963313 0.2786275362 0.5046384769
0.3315259185 0.2982943265 0.5053684212
0.4348384950 0.3654301539 0.5084722701
0.5707036977 0.4613282844 0.5146844993
0.7170471776 0.5691513893 0.5243742446
0.4018192424 0.4651912103 0.5233528070
0.4233353430 0.4742076478 0.5240415106
0.5001342089 0.5100019109 0.5269715889
0.6153549307 0.5724166082 0.5328436040
0.7488668315 0.6541026945 0.5420220843
0.5339373066 0.6612552044 0.5583811479
0.5478882691 0.6664389479 0.5590021388
0.6020019723 0.6879199216 0.5616463814
0.6928512093 0.7285243967 0.5669563292
0.8075745568 0.7867920057 0.5752840633
0.6743976044 0.8562662888 0.6080163568
0.6840887548 0.8597049164 0.6085583411
0.7232640894 0.8741729994 0.6108682956
0.7938074549 0.9024339304 0.6155172288
0.8893058586 0.9448796189 0.6228351771
0.3837862555 0.2697960381 0.7271151393
0.4068254417 0.2904095258 0.7275223330
0.4876323833 0.3597822195 0.7292602183
0.6064584133 0.4574602346 0.7327695722
0.7423992491 0.5663951949 0.7383249888
0.4038801811 0.3315855046 0.7296196758
0.4252322401 0.3467644147 0.7300246371
0.5015888171 0.4021474111 0.7317530303
0.6163999000 0.4874907459 0.7352433937
0.7496304789 0.5881913846 0.7407692232
0.4758393648 0.4910304876 0.7401820804
0.4924966798 0.4993163337 0.7405778417
0.5552783735 0.5325062032 0.7422671133
0.6562910705 0.5912902972 0.7456791803
0.7793759324 0.6694637929 0.7510829546
0.5842201266 0.6763590170 0.7609223525
0.5963515622 0.6813605640 0.7613010071
0.6442785304 0.7021226774 0.7629175124
0.7271639584 0.7415109819 0.7661838357
0.8347643170 0.7983035207 0.7713601152
0.7101279345 0.8663431104 0.7923173354
0.7190634575 0.8697182912 0.7926722848
0.7554250474 0.8839263370 0.7941879066
0.8217226098 0.9117096664 0.7972519358
0.9127441613 0.9535055993 0.8021118245
0.5005154483 0.3518549271 0.9482683518
0.5159295121 0.3657282302 0.9485346530
0.5748079816 0.4173094640 0.9496725500
0.6713827538 0.4987635569 0.9519769013
0.7909136929 0.5965974840 0.9556425894
0.5139210356 0.3955434097 0.9499081778
0.5287202096 0.4071396281 0.9501737441
0.5856189168 0.4516479885 0.9513085070
0.6798566538 0.5251756514 0.9536065409
0.7974560465 0.6167302579 0.9572622609
0.5658057185 0.5283210174 0.9568728099
0.5785570847 0.5357080916 0.9571352914
0.6286245535 0.5656123016 0.9582568976
0.7143347631 0.6196043303 0.9605284105
0.8245212199 0.6929122415 0.9641422764
0.6526171686 0.6994424864 0.9707735452
0.6628207021 0.7041848812 0.9710300410
0.7038763610 0.7239189452 0.9721261163
0.7771809118 0.7615481271 0.9743461537
0.8755030989 0.8161745649 0.9778787546
0.7619115964 0.8820746751 0.9923580820
0.7699087035 0.8853545248 0.9926057128
0.8027094599 0.8991712390 0.9936639709
0.8634366080 0.9262332676 0.9958077351
0.9483320194 0.9670427125 0.9992198537
