DCI/Rec709 to DCI-XYZ.cube
# DaVinci Resolve Cube (3D LUT).
#
# Converts Rec.709 data to DCI-XYZ.
# Gamma as defined by ITU-Rec.1886.
# 
LUT_3D_SIZE 33
LUT_3D_INPUT_RANGE 0.0000000000 1.0000000000
0.0000000000 0.0000000000 0.0000000000
0.0280636951 0.0217522469 0.0086490514
0.0532131180 0.0412456335 0.0163999427
0.0773685559 0.0599685796 0.0238444942
0.1009003238 0.0782081173 0.0310968346
0.1239789517 0.0960964251 0.0382095201
0.1467027800 0.1137097266 0.0452128587
0.1691357380 0.1310975738 0.0521265529
0.1913226612 0.1482947187 0.0589644207
0.2132966958 0.1653268532 0.0657366777
0.2350833187 0.1822137243 0.0724511756
0.2567027062 0.1989709707 0.0791141326
0.2781712211 0.2156112755 0.0857305916
0.2995023928 0.2321451250 0.0923047223
0.3207075884 0.2485813302 0.0988400280
0.3417964890 0.2649273948 0.1053394923
0.3627774353 0.2811897838 0.1118056858
0.3836576858 0.2973741232 0.1182408455
0.4044436127 0.3134853520 0.1246469352
0.4251408531 0.3295278397 0.1310256923
0.4457544283 0.3455054784 0.1373786644
0.4662888387 0.3614217561 0.1437072384
0.4867481396 0.3772798163 0.1500126641
0.5071360040 0.3930825058 0.1562960735
0.5274557732 0.4088324146 0.1625584965
0.5477104997 0.4245319086 0.1688008736
0.5679029826 0.4401831574 0.1750240677
0.5880357974 0.4557881573 0.1812288725
0.6081113219 0.4713487513 0.1874160208
0.6281317574 0.4868666457 0.1935861910
0.6480991478 0.5023434247 0.1997400130
0.6680153955 0.5177805629 0.2058780732
0.6878822757 0.5331794361 0.2120009187
0.0265640948 0.0346797365 0.0174095201
0.0356800957 0.0383321644 0.0184457357
0.0564185365 0.0498557897 0.0220850581
0.0791815115 0.0651565891 0.0274447692
0.1020966673 0.0817123416 0.0335822314
0.1248427645 0.0986532266 0.0400422218
0.1473639724 0.1156774139 0.0466313316
0.1696628889 0.1326712368 0.0532647683
0.1917557543 0.1495900863 0.0599033084
0.2136608005 0.1664172531 0.0665280979
0.2353950485 0.1831480842 0.0731299891
0.2569735622 0.1997833200 0.0797047090
0.2784094513 0.2163260980 0.0862505282
0.2997140863 0.2327805407 0.0927670772
0.3208973522 0.2491510721 0.0992547177
0.3419678813 0.2654420851 0.1057141989
0.3629332542 0.2816577844 0.1121464639
0.3838001660 0.2978021182 0.1185525398
0.4045745636 0.3138787573 0.1249334740
0.4252617575 0.3298910962 0.1312902989
0.4458665148 0.3458422668 0.1376240117
0.4663931348 0.3617351566 0.1439355640
0.4868455124 0.3775724286 0.1502258576
0.5072271908 0.3933565418 0.1564957430
0.5275414059 0.4090897695 0.1627460202
0.5477911231 0.4247742172 0.1689774406
0.5679790692 0.4404118382 0.1751907100
0.5881077598 0.4560044481 0.1813864907
0.6081795215 0.4715537376 0.1875654050
0.6281965129 0.4870612842 0.1937280376
0.6481607412 0.5025285622 0.1998749384
0.6680740775 0.5179569521 0.2060066254
0.6879382699 0.5333477487 0.2121235866
0.0503696432 0.0657581584 0.0330111499
0.0543481336 0.0671591870 0.0333977203
0.0676549946 0.0726837281 0.0349759754
0.0862781167 0.0822078909 0.0378717584
0.1069782945 0.0945343088 0.0418766951
0.1284346090 0.1085548495 0.0466871550
0.1501404250 0.1235469973 0.0520395385
0.1718890265 0.1390889405 0.0577447365
0.1935911141 0.1549392713 0.0636771186
0.2152073603 0.1709579456 0.0697552320
0.2367212417 0.1870618165 0.0759262622
0.2581271693 0.2032003657 0.0821555991
0.2794249445 0.2193423157 0.0884202362
0.3006170291 0.2354680567 0.0947046572
0.3217071481 0.2515652392 0.1009982609
0.3426995562 0.2676261327 0.1072937268
0.3635986471 0.2836460016 0.1135859624
0.3844087475 0.2996220813 0.1198714111
0.4051340116 0.3155529193 0.1261475906
0.4257783709 0.3314379427 0.1324127793
0.4463455162 0.3472771697 0.1386658002
0.4668388960 0.3630710151 0.1449058693
0.4872617246 0.3788201566 0.1511324886
0.5076169952 0.3945254427 0.1573453696
0.5279074945 0.4101878290 0.1635443770
0.5481358182 0.4258083332 0.1697294885
0.5683043864 0.4413880040 0.1759007644
0.5884154579 0.4569278992 0.1820583256
0.6084711435 0.4724290703 0.1882023369
0.6284734185 0.4878925525 0.1943329940
0.6484241342 0.5033193573 0.2004505149
0.6683250279 0.5187104683 0.2065551320
0.6881777324 0.5340668377 0.2126470870
0.0732343209 0.0956082626 0.0479961539
0.0755039695 0.0963861602 0.0482097873
0.0841680893 0.0996059600 0.0491070712
0.0983661441 0.1056776091 0.0508528876
0.1159255617 0.1143633203 0.0534598996
0.1352729028 0.1251370052 0.0568465845
0.1555397705 0.1374469912 0.0608861038
0.1762736067 0.1508390554 0.0654445627
0.1972353800 0.1649782871 0.0704024565
0.2182948173 0.1796296314 0.0756622446
0.2393787294 0.1946310294 0.0811481052
0.2604450671 0.2098709264 0.0868025688
0.2814694103 0.2252720406 0.0925825604
0.3024376484 0.2407803035 0.0984558850
0.3233418618 0.2563574739 0.1043984303
0.3441779268 0.2719762186 0.1103920516
0.3649440805 0.2876168160 0.1164230117
0.3856400397 0.3032649244 0.1224808417
0.4062664483 0.3189100519 0.1285575108
0.4268245246 0.3345444940 0.1346468203
0.4473158332 0.3501625866 0.1407439591
0.4677421362 0.3657601737 0.1468451745
0.4881052954 0.3813342235 0.1529475279
0.5084072078 0.3968825490 0.1590487111
0.5286497639 0.4124036021 0.1651469077
0.5488348203 0.4278963204 0.1712406870
0.5689641823 0.4433600125 0.1773289231
0.5890395944 0.4587942712 0.1834107319
0.6090627335 0.4741989074 0.1894854225
0.6290352071 0.4895738993 0.1955524586
0.6489585528 0.5049193534 0.2016114282
0.6688342385 0.5202354745 0.2076620200
0.6886636652 0.5355225416 0.2137040039
0.0955086547 0.1246876659 0.0625942595
0.0970107169 0.1251979348 0.0627341902
0.1030524894 0.1273442334 0.0633272569
0.1138334656 0.1315337486 0.0645051611
0.1282843615 0.1378196201 0.0663198733
0.1451792769 0.1460305771 0.0687688715
0.1635966889 0.1558789098 0.0718107269
0.1829414343 0.1670491586 0.0753807374
0.2028474362 0.1792517096 0.0794047079
0.2230905898 0.1922447557 0.0838089365
0.2435319358 0.2058368291 0.0885260860
0.2640837252 0.2198806006 0.0934977735
0.2846895291 0.2342642661 0.0986750352
0.3053124896 0.2489033954 0.1040176483
0.3259282504 0.2637342007 0.1094929752
0.3465206074 0.2787083181 0.1150747065
0.3670787739 0.2937888859 0.1207416917
0.3875956219 0.3089476404 0.1264769307
0.4080665289 0.3241627764 0.1322667373
0.4284886078 0.3394173701 0.1381000648
0.4488601842 0.3546982130 0.1439679676
0.4691804361 0.3699949449 0.1498631752
0.4894491426 0.3852994051 0.1557797564
0.5096665063 0.4006051426 0.1617128548
0.5298330271 0.4159070454 0.1676584797
0.5499494114 0.4312010556 0.1736133408
0.5700165059 0.4464839512 0.1795747166
0.5900352503 0.4617531755 0.1855403502
0.6100066422 0.4770067055 0.1915083651
0.6299317118 0.4922429464 0.1974771981
0.6498115033 0.5074606502 0.2034455448
0.6696470612 0.5226588497 0.2094123155
0.6894394206 0.5378368060 0.2153765993
0.1173540624 0.1532071012 0.0769112565
0.1184399809 0.1535746019 0.0770119742
0.1229152651 0.1551311270 0.0774404876
0.1312800859 0.1582177415 0.0782993034
0.1431121621 0.1629613455 0.0796418489
0.1576264581 0.1693426878 0.0814890187
0.1740543686 0.1772405805 0.0838359018
0.1917936744 0.1864758543 0.0866579826
0.2104168638 0.1968488651 0.0899175316
0.2296324948 0.2081654809 0.0935695623
0.2492441210 0.2202514147 0.0975667083
0.2691189294 0.2329577735 0.1018627246
0.2891662735 0.2461612442 0.1064146699
0.3093235498 0.2597616078 0.1111840232
0.3295470020 0.2736782845 0.1161370472
0.3498057099 0.2878468280 0.1212446796
0.3700776215 0.3022157816 0.1264821628
0.3903468975 0.3167440309 0.1318285591
0.4106021086 0.3313986517 0.1372662380
0.4308349950 0.3461531952 0.1427803884
0.4510395992 0.3609863353 0.1483585762
0.4712116530 0.3758808094 0.1539903599
0.4913481379 0.3908225885 0.1596669612
0.5114469668 0.4058002273 0.1653809877
0.5315067506 0.4208043542 0.1711262019
0.5515266258 0.4358272698 0.1768973284
0.5715061263 0.4508626288 0.1826898956
0.5914450859 0.4659051882 0.1885001036
0.6113435657 0.4809506059 0.1943247160
0.6312017980 0.4959952790 0.2001609696
0.6510201439 0.5110362146 0.2060065002
0.6707990598 0.5260709240 0.2118592806
0.6905390725 0.5410973377 0.2177175692
0.1388636293 0.1812880925 0.0910081508
0.1396953608 0.1815690290 0.0910851210
0.1431672351 0.1827631070 0.0914132330
0.1498318946 0.1851505759 0.0920738833
0.1595957498 0.1888683467 0.0931146224
0.1720112773 0.1939567523 0.0945618674
0.1865174636 0.2003811351 0.0964249611
0.2025923209 0.2080529064 0.0986990939
0.2198128424 0.2168505904 0.1013682601
0.2378593861 0.2266382164 0.1044083198
0.2564984015 0.2372791678 0.1077899398
0.2755615008 0.2486451212 0.1114811691
0.2949275256 0.2606208102 0.1154494948
0.3145089490 0.2731057785 0.1196633389
0.3342420943 0.2860142408 0.1240930397
0.3540802515 0.2992739164 0.1287114097
0.3739888671 0.3128244167 0.1334939752
0.3939421754 0.3266155367 0.1384189967
0.4139208260 0.3406056375 0.1434673492
0.4339101985 0.3547602056 0.1486223237
0.4538991931 0.3690506146 0.1538693917
0.4738793557 0.3834530851 0.1591959596
0.4938442362 0.3979478226 0.1645911316
0.5137889154 0.4125183090 0.1700454892
0.5337096514 0.4271507235 0.1755508920
0.5536036139 0.4418334707 0.1811003014
0.5734686825 0.4565567950 0.1866876263
0.5933032917 0.4713124667 0.1923075897
0.6131063129 0.4860935257 0.1979556137
0.6328769610 0.5008940708 0.2036277206
0.6526147232 0.5157090877 0.2093204491
0.6723193022 0.5305343068 0.2150307820
0.6919905710 0.5453660859 0.2207560848
0.1600978688 0.2090096405 0.1049246017
0.1607612269 0.2092334607 0.1049859126
0.1635508729 0.2101866743 0.1052475583
0.1689936648 0.2121016278 0.1057757752
0.1771543661 0.2151069553 0.1066116082
0.1878058124 0.2192642483 0.1077812780
0.2005709392 0.2245811513 0.1092992024
0.2150386575 0.2310222831 0.1111697198
0.2308331376 0.2385206118 0.1133886135
0.2476416444 0.2469887163 0.1159446952
0.2652172277 0.2563288017 0.1188214457
0.2833702939 0.2664406680 0.1219986169
0.3019572316 0.2772273751 0.1254536935
0.3208697583 0.2885987950 0.1291631373
0.3400261720 0.3004734680 0.1331033775
0.3593645960 0.3127792438 0.1372515446
0.3788379164 0.3254531291 0.1415859736
0.3984100413 0.3384406755 0.1460865120
0.4180531493 0.3516951395 0.1507346770
0.4377456646 0.3651765675 0.1555136998
0.4574707617 0.3788508970 0.1604084922
0.4772152538 0.3926891220 0.1654055634
0.4969687625 0.4066665474 0.1704929068
0.5167230912 0.4207621361 0.1756598730
0.5364717506 0.4349579479 0.1808970381
0.5562095957 0.4492386607 0.1861960759
0.5759325458 0.4635911657 0.1915496361
0.5956373679 0.4780042265 0.1969512322
0.6153215077 0.4924681923 0.2023951399
0.6349829561 0.5069747575 0.2078763051
0.6546201446 0.5215167596 0.2133902631
0.6742318613 0.5360880095 0.2189330663
0.6938171846 0.5506831494 0.2245012209
0.1810992204 0.2364271507 0.1186884229
0.1816443397 0.2366109533 0.1187387665
0.1839473634 0.2373946997 0.1189537533
0.1884879131 0.2389738536 0.1193884833
0.1954035009 0.2414644146 0.1200782997
0.2046020261 0.2449334162 0.1210474942
0.2158459038 0.2494083852 0.1223117887
0.2288311545 0.2548837809 0.1238795621
0.2432470433 0.2613273723 0.1257527645
0.2588108734 0.2686869004 0.1279277991
0.2752824229 0.2768966201 0.1303964448
0.2924657294 0.2858831975 0.1331468099
0.3102046923 0.2955705861 0.1361642743
0.3283765521 0.3058837269 0.1394323708
0.3468853295 0.3167511101 0.1429335679
0.3656560801 0.3281063580 0.1466499291
0.3846301960 0.3398890393 0.1505636401
0.4037616962 0.3520449249 0.1546574072
0.4230143544 0.3645258696 0.1589147404
0.4423594963 0.3772894618 0.1633201373
0.4617743165 0.3902985485 0.1678591873
0.4812405919 0.4035207078 0.1725186153
0.5007436963 0.4169277171 0.1772862779
0.5202718422 0.4304950440 0.1821511301
0.5398154959 0.4442013775 0.1871031689
0.5593669217 0.4580282050 0.1921333657
0.5789198273 0.4719594369 0.1972335920
0.5984690840 0.4859810786 0.2023965426
0.6180105066 0.5000809437 0.2076156609
0.6375406779 0.5142484072 0.2128850667
0.6570568089 0.5284741924 0.2181994889
0.6765566260 0.5427501872 0.2235542024
0.6960382807 0.5570692875 0.2289449717
0.2018990594 0.2635815838 0.1323201773
0.2023574124 0.2637360629 0.1323624862
0.2042997655 0.2643953008 0.1325432413
0.2081562339 0.2657261630 0.1329091416
0.2140944871 0.2678320122 0.1334908047
0.2221028599 0.2707788242 0.1343102157
0.2320422701 0.2746028009 0.1353828557
0.2436982091 0.2793147226 0.1367186860
0.2568262593 0.2849037993 0.1383227826
0.2711847635 0.2913416775 0.1401958817
0.2865537818 0.2985865850 0.1423349275
0.3027432401 0.3065873799 0.1447336449
0.3195941684 0.3152872386 0.1473831303
0.3369762852 0.3246267938 0.1502724390
0.3547840894 0.3345466272 0.1533891451
0.3729326841 0.3449891166 0.1567198523
0.3913539227 0.3558996970 0.1602506420
0.4099931019 0.3672276333 0.1639674496
0.4288062346 0.3789264094 0.1678563676
0.4477578535 0.3909538366 0.1719038794
0.4668192642 0.4032719658 0.1760970302
0.4859671664 0.4158468743 0.1804235431
0.5051825682 0.4286483788 0.1848718910
0.5244499309 0.4416497136 0.1894313319
0.5437564960 0.4548271986 0.1940919172
0.5630917518 0.4681599150 0.1988444782
0.5824470110 0.4816293996 0.2036805994
0.6018150748 0.4952193616 0.2085925811
0.6211899627 0.5089154260 0.2135733961
0.6405666970 0.5227049033 0.2186166437
0.6599411280 0.5365765848 0.2237165024
0.6793097924 0.5505205611 0.2288676827
0.6986697981 0.5645280635 0.2340653825
0.2225215011 0.2905044227 0.1458356694
0.2229139613 0.2906366542 0.1458718834
0.2245805711 0.2912012610 0.1460266459
0.2279058450 0.2923426042 0.1463401595
0.2330664039 0.2941526740 0.1468391738
0.2400975567 0.2966938448 0.1475434485
0.2489274013 0.3000053739 0.1484676217
0.2594109191 0.3041066974 0.1496220486
0.2713628526 0.3089999826 0.1510132961
0.2845848117 0.3146726462 0.1526445202
0.2988842089 0.3210999971 0.1545158166
0.3140852954 0.3282479436 0.1566245785
0.3300340747 0.3360756265 0.1589658709
0.3465991915 0.3445378405 0.1615328153
0.3636705494 0.3535871379 0.1643169737
0.3811568797 0.3631755584 0.1673087198
0.3989830045 0.3732559749 0.1704975840
0.4170871968 0.3837830762 0.1738725650
0.4354188209 0.3947140335 0.1774224006
0.4539363144 0.4060089057 0.1811357960
0.4726055054 0.4176308382 0.1850016092
0.4913982327 0.4295461091 0.1890089967
0.5102912243 0.4417240649 0.1931475224
0.5292651915 0.4541369836 0.1974072346
0.5483040975 0.4667598929 0.2017787166
0.5673945688 0.4795703630 0.2062531150
0.5865254194 0.4925482914 0.2108221500
0.6056872669 0.5056756879 0.2154781126
0.6248722208 0.5189364686 0.2202138516
0.6440736294 0.5323162609 0.2250227531
0.6632858727 0.5458022243 0.2298987147
0.6825041942 0.5593828853 0.2348361174
0.7017245609 0.5730479886 0.2398297952
0.2429856437 0.3172206002 0.1592474158
0.2433266692 0.3173354773 0.1592788759
0.2447770275 0.3178261756 0.1594133511
0.2476810953 0.3188190584 0.1596859099
0.2522139649 0.3203962458 0.1601201278
0.2584376931 0.3226156856 0.1607337626
0.2663253581 0.3255168740 0.1615404133
0.2757838340 0.3291235624 0.1625502600
0.2866770167 0.3334456117 0.1637704782
0.2988469410 0.3384806752 0.1652055271
0.3121305110 0.3442159306 0.1668573940
0.3263710316 0.3506298902 0.1687258309
0.3414249927 0.3576942394 0.1708085990
0.3571651931 0.3653756212 0.1731017227
0.3734813953 0.3736372883 0.1755997508
0.3902795101 0.3824405638 0.1782960174
0.4074800340 0.3917460739 0.1811828969
0.4250162101 0.4015147419 0.1842520446
0.4428321826 0.4117085509 0.1874946179
0.4608812906 0.4222910978 0.1909014744
0.4791245607 0.4332279664 0.1944633433
0.4975294130 0.4444869522 0.1981709716
0.5160685703 0.4560381696 0.2020152429
0.5347191495 0.4678540700 0.2059872726
0.5534619091 0.4799093953 0.2100784806
0.5722806306 0.4921810855 0.2142806445
0.5911616079 0.5046481584 0.2185859359
0.6100932295 0.5172915715 0.2229869423
0.6290656334 0.5300940769 0.2274766782
0.6480704240 0.5430400741 0.2320485859
0.6671004375 0.5561154673 0.2366965302
0.6861495486 0.5693075278 0.2414147867
0.7052125096 0.5826047658 0.2461980271
0.2633069757 0.3437503369 0.1725655672
0.2636069388 0.3438513659 0.1725932342
0.2648840676 0.3442830362 0.1727115146
0.2674479981 0.3451570928 0.1729513410
0.2714672796 0.3465471932 0.1733336659
0.2770185045 0.3485067797 0.1738744923
0.2841045077 0.3510742045 0.1745863614
0.2926700733 0.3542750674 0.1754790160
0.3026182912 0.3581236745 0.1765597641
0.3138264870 0.3626242425 0.1778337151
0.3261600567 0.3677720805 0.1793039649
0.3394831572 0.3735548225 0.1809717630
0.3536660355 0.3799537066 0.1828366794
0.3685893927 0.3869448651 0.1848967766
0.3841464577 0.3945005747 0.1871487880
0.4002434801 0.4025904223 0.1895883010
0.4167992371 0.4111823479 0.1922099410
0.4337440028 0.4202435447 0.1950075514
0.4510182825 0.4297412046 0.1979743656
0.4685715001 0.4396431125 0.2011031683
0.4863607462 0.4499180987 0.2043864417
0.5043496421 0.4605363660 0.2078164964
0.5225073387 0.4714697089 0.2113855848
0.5408076515 0.4826916445 0.2150859981
0.5592283249 0.4941774724 0.2189101456
0.5777504097 0.5059042801 0.2228506201
0.5963577405 0.5178509084 0.2269002475
0.6150364980 0.5299978877 0.2310521249
0.6337748439 0.5423273547 0.2352996473
0.6525626147 0.5548229579 0.2396365250
0.6713910664 0.5674697559 0.2440567930
0.6902526614 0.5802541148 0.2485548146
0.7091408890 0.5931636059 0.2531252789
0.2834983034 0.3701103514 0.1857985167
0.2837648640 0.3702001197 0.1858230995
0.2849007216 0.3705837589 0.1859282068
0.2871855862 0.3713609711 0.1861413850
0.2907792720 0.3725981727 0.1864813979
0.2957655172 0.3743445360 0.1869627256
0.3021666135 0.3766366295 0.1875969063
0.3099546848 0.3795004999 0.1883931391
0.3190633143 0.3829528905 0.1893586099
0.3293993906 0.3870021625 0.1904986953
0.3408541267 0.3916491420 0.1918171127
0.3533123289 0.3968879823 0.1933160466
0.3666594496 0.4027070646 0.1949962678
0.3807864216 0.4090899260 0.1968572549
0.3955925733 0.4160161898 0.1988973179
0.4109870568 0.4234624673 0.2011137281
0.4268892245 0.4314032023 0.2035028500
0.4432283268 0.4398114356 0.2060602740
0.4599428163 0.4486594755 0.2087809473
0.4769794582 0.4579194657 0.2116592998
0.4942923812 0.4675638512 0.2146893639
0.5118421476 0.4775657466 0.2178648843
0.5295948878 0.4878992154 0.2211794187
0.5475215204 0.4985394711 0.2246264263
0.5655970651 0.5094630108 0.2281993463
0.5838000441 0.5206476951 0.2318916635
0.6021119681 0.5320727817 0.2356969644
0.6205168966 0.5437189260 0.2396089823
0.6390010635 0.5555681543 0.2436216330
0.6575525597 0.5676038184 0.2477290426
0.6761610639 0.5798105367 0.2519255676
0.6948176142 0.5921741275 0.2562058084
0.7135144157 0.6046815357 0.2605646179
0.3035703868 0.3963146910 0.1989533161
0.3038093410 0.3963951552 0.1989753507
0.3048282165 0.3967390888 0.1990695712
0.3068809251 0.3974361453 0.1992607114
0.3101178180 0.3985465295 0.1995656920
0.3146253057 0.4001154954 0.1999976732
0.3204381954 0.4021775784 0.2005672731
0.3275481595 0.4047584830 0.2012831187
0.3359121507 0.4078761454 0.2021521420
0.3454611861 0.4115414798 0.2031797633
0.3561089447 0.4157590176 0.2043700175
0.3677594868 0.4205275334 0.2057256560
0.3803136047 0.4258406902 0.2072482375
0.3936736132 0.4316877125 0.2089382156
0.4077466421 0.4380540749 0.2107950287
0.4224466476 0.4449221888 0.2128171923
0.4376954259 0.4522720690 0.2150023951
0.4534229056 0.4600819599 0.2173475959
0.4695669613 0.4683289083 0.2198491224
0.4860729334 0.4769892720 0.2225027683
0.5028929928 0.4860391588 0.2253038875
0.5199854432 0.4954547950 0.2282474840
0.5373140214 0.5052128253 0.2313282968
0.5548472325 0.5152905482 0.2345408768
0.5725577378 0.5256660948 0.2378796578
0.5904218048 0.5363185566 0.2413390187
0.6084188212 0.5472280703 0.2449133385
0.6265308684 0.5583758667 0.2485970431
0.6447423522 0.5697442919 0.2523846449
0.6630396835 0.5813168034 0.2562707758
0.6814110031 0.5930779511 0.2602502131
0.6998459459 0.6050133430 0.2643179004
0.7183354385 0.6171096030 0.2684689626
0.3235323893 0.4223753189 0.2120359710
0.3237482150 0.4224479897 0.2120558712
0.3246689358 0.4227586521 0.2121409711
0.3265261488 0.4233884783 0.2123136389
0.3294607657 0.4243923203 0.2125892286
0.3335591751 0.4258118917 0.2129797546
0.3388640205 0.4276796487 0.2134950038
0.3453808501 0.4300205222 0.2141430415
0.3530843562 0.4328528699 0.2149304843
0.3619249219 0.4361891095 0.2158626656
0.3718352640 0.4400362268 0.2169437486
0.3827367067 0.4443962468 0.2181768110
0.3945446694 0.4492667099 0.2195639175
0.4071731131 0.4546411655 0.2211061872
0.4205378814 0.4605096837 0.2228038599
0.4345590055 0.4668593766 0.2246563639
0.4491621314 0.4736749160 0.2266623866
0.4642792581 0.4809390362 0.2288199461
0.4798489683 0.4886330080 0.2311264654
0.4958163130 0.4967370761 0.2335788464
0.5121324746 0.5052308511 0.2361735434
0.5287543054 0.5140936537 0.2389066353
0.5456438082 0.5233048086 0.2417738943
0.5627676036 0.5328438893 0.2447708513
0.5800964136 0.5426909166 0.2478928573
0.5976045787 0.5528265139 0.2511351385
0.6152696154 0.5632320246 0.2544928478
0.6330718190 0.5738895959 0.2579611089
0.6509939103 0.5847822341 0.2615350567
0.6690207248 0.5958938361 0.2652098711
0.6871389398 0.6072092012 0.2689808057
0.7053368378 0.6187140279 0.2728432125
0.7236040996 0.6303948977 0.2767925614
0.3433922062 0.4483025422 0.2250516557
0.3435884248 0.4483686073 0.2250697468
0.3444258370 0.4486510603 0.2251471149
0.3461166477 0.4492238416 0.2253041169
0.3487927271 0.4501371651 0.2255547633
0.3525388423 0.4514295679 0.2259100702
0.3574023133 0.4531314858 0.2263790788
0.3633984559 0.4552668538 0.2269693222
0.3705153403 0.4578539756 0.2276870776
0.3787187237 0.4609060797 0.2285375194
0.3879571706 0.4644317406 0.2295248207
0.3981670807 0.4684352497 0.2306522275
0.4092773063 0.4729169758 0.2319221191
0.4212131122 0.4778737351 0.2333360619
0.4338993554 0.4832991751 0.2348948605
0.4472628690 0.4891841704 0.2365986089
0.4612341161 0.4955172237 0.2384467429
0.4757482277 0.5022848635 0.2404380941
0.4907455515 0.5094720303 0.2425709458
0.5061718368 0.5170624418 0.2448430891
0.5219781637 0.5250389320 0.2472518807
0.5381207034 0.5333837588 0.2497942989
0.5545603777 0.5420788763 0.2524669996
0.5712624673 0.5511061720 0.2552663700
0.5881962021 0.5604476674 0.2581885801
0.6053343568 0.5700856848 0.2612296305
0.6226528665 0.5800029817 0.2643853978
0.6401304688 0.5901828561 0.2676516753
0.6577483785 0.6006092256 0.2710242104
0.6754899935 0.6112666836 0.2744987375
0.6933406327 0.6221405366 0.2780710075
0.7112873039 0.6332168244 0.2817368132
0.7293184990 0.6444823274 0.2854920105
0.3631567081 0.4741053306 0.2380048730
0.3633361324 0.4741657384 0.2380214149
0.3641021194 0.4744240262 0.2380921605
0.3656499350 0.4749479112 0.2382357398
0.3681029747 0.4757835653 0.2384650024
0.3715434651 0.4769666831 0.2387900905
0.3760212660 0.4785257892 0.2392193780
0.3815584896 0.4804837243 0.2397599029
0.3881532414 0.4828584491 0.2404176016
0.3957833944 0.4856635450 0.2411974506
0.4044105465 0.4889085764 0.2421035603
0.4139840227 0.4925993937 0.2431392415
0.4244446945 0.4967384158 0.2443070575
0.4357284111 0.5013249135 0.2456088685
0.4477689030 0.5063553019 0.2470458728
0.4605000987 0.5118234427 0.2486186464
0.4738578615 0.5177209555 0.2503271833
0.4877812025 0.5240375306 0.2521709364
0.5022130508 0.5307612394 0.2541488600
0.5171006701 0.5378788359 0.2562594531
0.5323958087 0.5453760426 0.2585008040
0.5480546562 0.5532378173 0.2608706342
0.5640376714 0.5614485974 0.2633663437
0.5803093279 0.5699925181 0.2659850537
0.5968378151 0.5788536051 0.2687236499
0.6135947197 0.5880159406 0.2715788228
0.6305547066 0.5974638031 0.2745471063
0.6476952103 0.6071817837 0.2776249145
0.6649961448 0.6171548788 0.2808085744
0.6824396346 0.6273685632 0.2840943574
0.7000097701 0.6378088450 0.2874785070
0.7176923864 0.6484623037 0.2909572634
0.7354748647 0.6593161160 0.2945268856
0.3828319266 0.4997915584 0.2508995760
0.3829968341 0.4998470767 0.2509147788
0.3837010348 0.5000844747 0.2509798002
0.3851249199 0.5005660700 0.2511117743
0.3873840376 0.5013344919 0.2513225399
0.3905575790 0.5024228920 0.2516214706
0.3946964997 0.5038580131 0.2520163436
0.3998275582 0.5056615766 0.2525137406
0.4059563486 0.5078510297 0.2531192671
0.4130702414 0.5104400053 0.2538376847
0.4211414653 0.5134386422 0.2546729973
0.4301302846 0.5168538414 0.2556285129
0.4399881284 0.5206894951 0.2567068892
0.4506605082 0.5249467091 0.2579101724
0.4620895965 0.5296240293 0.2592398306
0.4742163877 0.5347176760 0.2606967860
0.4869824154 0.5402217855 0.2622814464
