DCI/sRGB to DCI-XYZ.cube
# DaVinci Resolve Cube (3D LUT).
#
# Converts sRGB data to DCI-XYZ.
# Gamma as defined by IEC 61966-2-1:1999
# 
LUT_3D_SIZE 33
LUT_3D_INPUT_RANGE 0.0000000000 1.0000000000
0.0000000000 0.0000000000 0.0000000000
0.0677956176 0.0525485689 0.0208941758
0.0907034257 0.0703044737 0.0279542158
0.1127624255 0.0874024649 0.0347526585
0.1344650808 0.1042242525 0.0414412781
0.1558783198 0.1208217127 0.0480407014
0.1770483548 0.1372306648 0.0545651708
0.1980089716 0.1534772963 0.0610250989
0.2187859217 0.1695815672 0.0674284220
0.2393994663 0.1855591821 0.0737813847
0.2598659510 0.2014228104 0.0800890244
0.2801988328 0.2171828828 0.0863554885
0.3004093778 0.2328481316 0.0925842492
0.3205071512 0.2484259708 0.0987782545
0.3405003729 0.2639227717 0.1049400376
0.3603961796 0.2793440660 0.1110717980
0.3802008240 0.2946947001 0.1171754627
0.3999198281 0.3099789542 0.1232527337
0.4195581028 0.3252006347 0.1293051244
0.4391200431 0.3403631482 0.1353339893
0.4586096046 0.3554695608 0.1413405475
0.4780303659 0.3705226460 0.1473259020
0.4973855787 0.3855249245 0.1532910548
0.5166782112 0.4004786968 0.1592369208
0.5359109825 0.4153860705 0.1651643379
0.5550863928 0.4302489835 0.1710740767
0.5742067481 0.4450692233 0.1769668480
0.5932741824 0.4598484438 0.1828433093
0.6122906754 0.4745881796 0.1887040708
0.6312580688 0.4892898582 0.1945497002
0.6501780801 0.5039548108 0.2003807267
0.6690523146 0.5185842816 0.2061976451
0.6878822757 0.5331794361 0.2120009187
0.0641729183 0.0837784955 0.0420575111
0.0861951398 0.0926019453 0.0445607765
0.1034251983 0.1011907714 0.0471461248
0.1221434096 0.1117794252 0.0504989249
0.1417070033 0.1238720836 0.0545066978
0.1616708539 0.1369831677 0.0590190209
0.1818115369 0.1507711247 0.0639073420
0.2020125557 0.1650062286 0.0690710785
0.2222111380 0.1795358150 0.0744349969
0.2423727737 0.1942580625 0.0799439768
0.2624784519 0.2091043442 0.0855579088
0.2825179587 0.2240278114 0.0912475788
0.3024862085 0.2389960727 0.0969915994
0.3223811610 0.2539864749 0.1027742010
0.3422026019 0.2689830257 0.1085836648
0.3619514110 0.2839743568 0.1144112142
0.3816291134 0.2989523546 0.1202502278
0.4012376009 0.3139112257 0.1260956778
0.4207789562 0.3288468498 0.1319437259
0.4402553422 0.3437563248 0.1377914292
0.4596689318 0.3586376431 0.1436365246
0.4790218647 0.3734894591 0.1494772695
0.4983162201 0.3883109189 0.1553123226
0.5175540020 0.4031015365 0.1611406540
0.5367371301 0.4178611008 0.1669614769
0.5558674370 0.4325896066 0.1727741955
0.5749466676 0.4472872026 0.1785783645
0.5939764803 0.4619541523 0.1843736577
0.6129584505 0.4765908035 0.1901598440
0.6318940733 0.4911975657 0.1959367673
0.6507847682 0.5057748924 0.2017043319
0.6696318824 0.5203232675 0.2074624903
0.6884366955 0.5348431950 0.2132112333
0.0858566340 0.1120868400 0.0562685386
0.1013960789 0.1178609157 0.0578783824
0.1153200566 0.1238916904 0.0596176452
0.1315304818 0.1317969808 0.0619783038
0.1492458298 0.1413474435 0.0649382078
0.1678486327 0.1522033293 0.0684259983
0.1869711844 0.1640588616 0.0723610205
0.2063949217 0.1766647300 0.0766647273
0.2259878014 0.1898281825 0.0812668919
0.2456683630 0.2034041805 0.0861079286
0.2653853474 0.2172848663 0.0911388826
0.2851059807 0.2313902547 0.0963202977
0.3048090826 0.2456608902 0.1016207100
0.3244809087 0.2600523488 0.1070151520
0.3441125794 0.2745312218 0.1124838362
0.3636984506 0.2890722082 0.1180110616
0.3832350608 0.3036560159 0.1235843364
0.4027204361 0.3182678394 0.1291936861
0.4221536241 0.3328962514 0.1348311145
0.4415343769 0.3475323885 0.1404901839
0.4608629317 0.3621693486 0.1461656895
0.4801398587 0.3768017419 0.1518534066
0.4993659533 0.3914253523 0.1575498926
0.5185421599 0.4060368812 0.1632523329
0.5376695179 0.4206337513 0.1689584193
0.5567491225 0.4352139557 0.1746662537
0.5757820970 0.4497759406 0.1803742721
0.5947695731 0.4643185141 0.1860811834
0.6137126764 0.4788407739 0.1917859213
0.6326125170 0.4933420511 0.1974876039
0.6514701820 0.5078218644 0.2031855030
0.6702867312 0.5222798846 0.2088790172
0.6890631940 0.5367159050 0.2145676512
0.1067368979 0.1393462688 0.0699530017
0.1183230096 0.1434925207 0.0711004203
0.1295573120 0.1479642470 0.0723640538
0.1433658011 0.1540220492 0.0741166083
0.1590962675 0.1616013026 0.0763704843
0.1761187409 0.1705126631 0.0790994929
0.1939944338 0.1805456614 0.0822631553
0.2124304020 0.1914978572 0.0858135423
0.2312330748 0.2031900839 0.0897007490
0.2502739303 0.2154716126 0.0938766854
0.2694666716 0.2282194931 0.0982973102
0.2887525827 0.2413352315 0.1029236583
0.3080911935 0.2547406885 0.1077220583
0.3274542888 0.2683741322 0.1126638701
0.3468220147 0.2821868236 0.1177249843
0.3661803089 0.2961402182 0.1228852346
0.3855191776 0.3102037402 0.1281278126
0.4048315211 0.3243530413 0.1334387292
0.4241123227 0.3385686494 0.1388063425
0.4433580789 0.3528349239 0.1442209542
0.4625663954 0.3671392480 0.1496744716
0.4817356958 0.3814714017 0.1551601271
0.5008650109 0.3958230756 0.1606722475
0.5199538232 0.4101874906 0.1662060648
0.5390019520 0.4245590992 0.1717575611
0.5580094678 0.4389333507 0.1773233415
0.5769766280 0.4533065043 0.1829005305
0.5959038279 0.4676754810 0.1884866863
0.6147915642 0.4820377443 0.1940797307
0.6336404059 0.4963912042 0.1996778911
0.6524509737 0.5107341404 0.2052796528
0.6712239227 0.5250651387 0.2108837190
0.6899599296 0.5393830400 0.2164889782
0.1272798589 0.1661653446 0.0834164039
0.1362812119 0.1693206958 0.0842863138
0.1454370621 0.1727813172 0.0852536555
0.1571463957 0.1775580118 0.0866108056
0.1709584904 0.1836656778 0.0883813530
0.1863314492 0.1910137100 0.0905606223
0.2028293547 0.1994759707 0.0931318576
0.2201270453 0.2089113364 0.0960696600
0.2379903487 0.2191789111 0.0993432699
0.2562528117 0.2301475512 0.1029194039
0.2747962489 0.2417006671 0.1067644751
0.2935363178 0.2537377273 0.1108461610
0.3124123425 0.2661737800 0.1151343902
0.3313802749 0.2789379636 0.1196018626
0.3504078474 0.2919716340 0.1242242331
0.3694712235 0.3052264660 0.1289800704
0.3885526659 0.3186627081 0.1338506824
0.4076388966 0.3322476613 0.1388198698
0.4267199316 0.3459543962 0.1438736540
0.4457882437 0.3597606902 0.1490000043
0.4648381543 0.3736481587 0.1541885810
0.4838653873 0.3876015495 0.1594305019
0.5028667382 0.4016081716 0.1647181347
0.5218398266 0.4156574332 0.1700449162
0.5407829099 0.4297404688 0.1754051961
0.5596947407 0.4438498364 0.1807941029
0.5785744583 0.4579792727 0.1862074302
0.5974215042 0.4721234927 0.1916415390
0.6162355573 0.4862780277 0.1970932760
0.6350164827 0.5004390906 0.2025599037
0.6537642913 0.5146034672 0.2080390414
0.6724791087 0.5287684253 0.2135286148
0.6911611497 0.5429316396 0.2190268135
0.1475488687 0.1926267740 0.0967002646
0.1547765611 0.1951296291 0.0973888180
0.1623528749 0.1979011885 0.0981586799
0.1723192151 0.2017701228 0.0992459963
0.1844027896 0.2067857392 0.1006767384
0.1981832167 0.2129139929 0.1024558697
0.2132751643 0.2200868677 0.1045792314
0.2293598410 0.2282147258 0.1070352783
0.2461878502 0.2371972502 0.1098068772
0.2635697241 0.2469320518 0.1128730583
0.2813634583 0.2573206704 0.1162105984
0.2994630604 0.2682722197 0.1197953532
0.3177893107 0.2797051856 0.1236032979
0.3362827380 0.2915479314 0.1276112811
0.3548984288 0.3037383920 0.1317975236
0.3736022391 0.3162233175 0.1361419091
0.3923680391 0.3289573157 0.1406261153
0.4111757053 0.3419018455 0.1452336305
0.4300096502 0.3550242542 0.1499496938
0.4488577394 0.3682968995 0.1547611884
0.4677104870 0.3816963770 0.1596565089
0.4865604538 0.3952028521 0.1646254190
0.5054017933 0.4087994922 0.1696589079
0.5242299064 0.4224719875 0.1747490538
0.5430411775 0.4362081486 0.1798888963
0.5618327700 0.4499975706 0.1850723201
0.5806024679 0.4638313526 0.1902939509
0.5993485519 0.4777018635 0.1955490629
0.6180697017 0.4916025470 0.2008334966
0.6367649186 0.5055277588 0.2061435878
0.6554334640 0.5194726295 0.2114761046
0.6740748103 0.5334329508 0.2168281931
0.6926886011 0.5474050793 0.2221973299
0.1675876702 0.2187876638 0.1098332518
0.1735456502 0.2208350664 0.1103957751
0.1799151813 0.2231157893 0.1110268223
0.1884634852 0.2263224066 0.1119217774
0.1990485806 0.2305171873 0.1131058143
0.2113654748 0.2356969302 0.1145879772
0.2250987341 0.2418301159 0.1163705331
0.2399612384 0.2488640722 0.1184499223
0.2557101299 0.2567320226 0.1208177519
0.2721486782 0.2653594217 0.1234618229
0.2891214124 0.2746691513 0.1263671427
0.3065070603 0.2845854089 0.1295168679
0.3242115537 0.2950363481 0.1328931334
0.3421619929 0.3059556571 0.1364777440
0.3603017713 0.3172833215 0.1402527178
0.3785867717 0.3289658074 0.1442006895
0.3969824523 0.3409558648 0.1483051893
0.4154616323 0.3532121072 0.1525508169
0.4340028144 0.3656984771 0.1569233328
0.4525889128 0.3783836719 0.1614096871
0.4712062852 0.3912405775 0.1659980029
0.4898439936 0.4042457350 0.1706775296
0.5084932362 0.4173788558 0.1754385764
0.5271469082 0.4306223888 0.1802724353
0.5457992612 0.4439611405 0.1851712997
0.5644456356 0.4573819450 0.1901281821
0.5830822517 0.4708733784 0.1951368351
0.6017060427 0.4844255143 0.2001916761
0.6203145230 0.4980297140 0.2052877185
0.6389056826 0.5116784471 0.2104205068
0.6574779015 0.5253651387 0.2155860599
0.6760298816 0.5390840384 0.2207808181
0.6945605904 0.5528301090 0.2260015968
0.1874282439 0.2446897649 0.1228363249
0.1924443420 0.2464047800 0.1233071274
0.1978791367 0.2483226693 0.1238364231
0.2052786811 0.2510320246 0.1245891117
0.2145895041 0.2545981846 0.1255885264
0.2256011092 0.2590343148 0.1268452021
0.2380685168 0.2643309419 0.1283645720
0.2517479979 0.2704601950 0.1301475498
0.2664178107 0.2773802062 0.1321911117
0.2818870386 0.2850394124 0.1344889042
0.2979968727 0.2933804660 0.1370318717
0.3146179676 0.3023435406 0.1398088801
0.3316462511 0.3118689330 0.1428073081
0.3489985065 0.3218989628 0.1460135847
0.3666083434 0.3323792442 0.1494136555
0.3844227775 0.3432594396 0.1529933709
0.4023994376 0.3544936139 0.1567387952
0.4205043360 0.3660403008 0.1606364403
0.4387101099 0.3778623734 0.1646734332
0.4569946434 0.3899267929 0.1688376262
0.4753399899 0.4022042903 0.1731176614
0.4937315286 0.4146690187 0.1775029984
0.5121573042 0.4272982015 0.1819839140
0.5306075069 0.4400717949 0.1865514828
0.5490740622 0.4529721712 0.1911975433
0.5675503055 0.4659838306 0.1959146553
0.5860307231 0.4790931405 0.2006960524
0.6045107449 0.4922881044 0.2055355917
0.6229865774 0.5055581571 0.2104277042
0.6414550691 0.5188939846 0.2153673456
0.6599136011 0.5322873675 0.2203499493
0.6783599980 0.5457310430 0.2253713830
0.6967924548 0.5592185862 0.2304279074
0.2070949653 0.2703648997 0.1357254590
0.2113913340 0.2718287121 0.1361270711
0.2160902730 0.2734700363 0.1365792445
0.2225556066 0.2757963514 0.1372234571
0.2307911313 0.2788716128 0.1380809738
0.2406583038 0.2827173578 0.1391626102
0.2519741425 0.2873371617 0.1404752530
0.2645403479 0.2927192773 0.1420222634
0.2781637484 0.2988394039 0.1438038460
0.2926681959 0.3056635305 0.1458174247
0.3078998188 0.3131507032 0.1480580357
0.3237279352 0.3212555651 0.1505187312
0.3400435543 0.3299305525 0.1531909834
0.3567567905 0.3391276882 0.1560650721
0.3737939877 0.3487999610 0.1591304456
0.3910949731 0.3589023204 0.1623760424
0.4086106251 0.3693923364 0.1657905708
0.4263008096 0.3802305878 0.1693627408
0.4441326739 0.3913808379 0.1730814515
0.4620792562 0.4028100560 0.1769359355
0.4801183640 0.4144883289 0.1809158654
0.4982316722 0.4263887033 0.1850114269
0.5164040008 0.4384869847 0.1892133650
0.5346227342 0.4507615161 0.1935130071
0.5528773567 0.4631929514 0.1979022697
0.5711590768 0.4757640315 0.2023736506
0.5894605253 0.4884593726 0.2069202120
0.6077755098 0.5012652673 0.2115355567
0.6260988159 0.5141695028 0.2162137996
0.6444260443 0.5271611954 0.2209495370
0.6627534780 0.5402306414 0.2257378142
0.6810779726 0.5533691840 0.2305740931
0.6993968661 0.5665690942 0.2354542208
0.2266070127 0.2958381059 0.1485132233
0.2303395959 0.2971066626 0.1488611235
0.2344497752 0.2985317369 0.1492532306
0.2401495167 0.3005563254 0.1498126053
0.2474785284 0.3032411115 0.1505585230
0.2563509881 0.3066115889 0.1515015211
0.2666346948 0.3106789055 0.1526490375
0.2781733837 0.3154416214 0.1540057187
0.2908045471 0.3208875056 0.1555736775
0.3043717456 0.3269954174 0.1573527387
0.3187318333 0.3337372202 0.1593406939
0.3337582584 0.3410796398 0.1615335653
0.3493417325 0.3489859828 0.1639258780
0.3653893512 0.3574176494 0.1665109319
0.3818229457 0.3663354035 0.1692810656
0.3985771605 0.3757003887 0.1722279064
0.4155975434 0.3854748992 0.1753425979
0.4328387916 0.3956229328 0.1786160029
0.4502632147 0.4061105550 0.1820388785
0.4678394235 0.4169061104 0.1856020229
0.4855412320 0.4279803155 0.1892963950
0.5033467469 0.4393062613 0.1931132077
0.5212376196 0.4508593517 0.1970439994
0.5391984319 0.4626171994 0.2010806838
0.5572161937 0.4745594938 0.2052155838
0.5752799315 0.4866678545 0.2094414506
0.5933803518 0.4989256787 0.2137514713
0.6115095644 0.5113179895 0.2181392679
0.6296608552 0.5238312885 0.2225988885
0.6478284989 0.5364534166 0.2271247941
0.6660076033 0.5491734235 0.2317118415
0.6841939815 0.5619814474 0.2363552640
0.7023840446 0.5748686052 0.2410506499
0.2459798586 0.3211295828 0.1612097580
0.2492614824 0.3222428332 0.1615149749
0.2528933683 0.3234951661 0.1618592367
0.2579598661 0.3252774386 0.1623508316
0.2645224886 0.3276463900 0.1630072272
0.2725332341 0.3306290230 0.1638384394
0.2818998304 0.3342407404 0.1648519814
0.2925023218 0.3384866046 0.1660531176
0.3042076151 0.3433625578 0.1674450589
0.3168807744 0.3488566904 0.1690291362
0.3303927713 0.3549505621 0.1708049718
0.3446250845 0.3616205343 0.1727706580
0.3594718705 0.3688390631 0.1749229408
0.3748404647 0.3765759019 0.1772574096
0.3906508525 0.3847991755 0.1797686867
0.4068345884 0.3934763021 0.1824506133
0.4233334801 0.4025747521 0.1852964267
0.4400982355 0.4120626487 0.1882989252
0.4570871805 0.4219092200 0.1914506180
0.4742651029 0.4320851216 0.1947438576
0.4916022394 0.4425626478 0.1981709547
0.5090734063 0.4533158530 0.2017242754
0.5266572618 0.4643206017 0.2053963198
0.5443356869 0.4755545646 0.2091797862
0.5620932664 0.4869971739 0.2130676198
0.5799168573 0.4986295526 0.2170530482
0.5977952289 0.5104344239 0.2211296069
0.6157187629 0.5223960110 0.2252911542
0.6336792046 0.5344999317 0.2295318791
0.6516694542 0.5467330914 0.2338463028
0.6696833934 0.5590835795 0.2382292745
0.6877157395 0.5715405681 0.2426759647
0.7057619240 0.5840942177 0.2471818542
0.2652262408 0.3462559599 0.1738234111
0.2681406804 0.3472432828 0.1740940425
0.2713785733 0.3483551075 0.1743994685
0.2759162093 0.3499394913 0.1748359247
0.2818277326 0.3520491313 0.1754192742
0.2890919376 0.3547111863 0.1761589227
0.2976472006 0.3579432988 0.1770622113
0.3074036594 0.3617545635 0.1781346377
0.3182546606 0.3661464001 0.1793800143
0.3300864504 0.3711134362 0.1808005989
0.3427855721 0.3766444292 0.1823972179
0.3562439348 0.3827232188 0.1841693902
0.3703618604 0.3893296819 0.1861154550
0.3850495656 0.3964406593 0.1882327042
0.4002275442 0.4040308218 0.1905175182
0.4158262431 0.4120734526 0.1929655023
0.4317853365 0.4205411310 0.1955716205
0.4480528060 0.4294063087 0.1983303253
0.4645839654 0.4386417795 0.2012356786
0.4813405113 0.4482210475 0.2042814647
0.4982896446 0.4581186038 0.2074612914
0.5154032830 0.4683101223 0.2107686802
0.5326573696 0.4787725880 0.2141971440
0.5500312752 0.4894843689 0.2177402532
0.5675072857 0.5004252442 0.2213916908
0.5850701657 0.5115763974 0.2251452967
0.6027067887 0.5229203840 0.2289951022
0.6204058244 0.5344410810 0.2329353567
0.6381574741 0.5461236239 0.2369605460
0.6559532481 0.5579543354 0.2410654051
0.6737857769 0.5699206504 0.2452449250
0.6916486518 0.5820110401 0.2494943549
0.7095362900 0.5942149352 0.2538092017
0.2843568232 0.3712311590 0.1863611716
0.2869676907 0.3721147013 0.1866033148
0.2898769349 0.3731104508 0.1868767092
0.2939686772 0.3745308588 0.1872676106
0.2993237726 0.3764247448 0.1877904721
0.3059398374 0.3788186869 0.1884540749
0.3137784325 0.3817313406 0.1892654659
0.3227740033 0.3851742292 0.1902301552
0.3328427137 0.3891524037 0.1913522505
0.3438904384 0.3936650807 0.1926345628
0.3558193675 0.3987063005 0.1940786996
0.3685329978 0.4042656120 0.1956851546
0.3819395595 0.4103287756 0.1974533990
0.3959541035 0.4168784653 0.1993819763
0.4104995457 0.4238949488 0.2014685999
0.4255069635 0.4313567271 0.2037102524
0.4409153953 0.4392411176 0.2061032862
0.4566713426 0.4475247704 0.2086435226
0.4727281150 0.4561841126 0.2113263481
0.4890451164 0.4651957183 0.2141468056
0.5055871329 0.4745366093 0.2170996800
0.5223236590 0.4841844880 0.2201795770
0.5392282806 0.4941179131 0.2233809935
0.5562781234 0.5043164231 0.2266983806
0.5734533661 0.5147606164 0.2301261981
0.5907368166 0.5254321956 0.2336589610
0.6081135453 0.5363139836 0.2372912788
0.6255705687 0.5473899160 0.2410178870
0.6430965795 0.5586450172 0.2448336731
0.6606817135 0.5700653637 0.2487336955
0.6783173526 0.5816380383 0.2527131984
0.6959959541 0.5933510792 0.2567676216
0.7137109066 0.6051934246 0.2608926068
0.3033806601 0.3960670006 0.1988289735
0.3057372048 0.3968638136 0.1990473185
0.3083691996 0.3977623787 0.1992939276
0.3120815954 0.3990451727 0.1996466855
0.3169581588 0.4007574114 0.2001188092
0.3230096188 0.4029247066 0.2007184782
0.3302149142 0.4055659812 0.2014523910
0.3385278046 0.4086941437 0.2023259446
0.3478836308 0.4123166143 0.2033433542
0.3582057518 0.4164358058 0.2045077417
0.3694112046 0.4210496060 0.2058212101
0.3814153066 0.4261518785 0.2072849124
0.3941351142 0.4317329817 0.2088991186
0.4074918069 0.4377802981 0.2106632851
0.4214121599 0.4442787613 0.2125761260
0.4358292993 0.4512113666 0.2146356858
0.4506829354 0.4585596530 0.2168394153
0.4659192383 0.4663041461 0.2191842462
0.4814904906 0.4744247552 0.2216666664
0.4973546125 0.4829011198 0.2242827923
0.5134746326 0.4917129050 0.2270284396
0.5298181469 0.5008400460 0.2298991887
0.5463567970 0.5102629444 0.2328904461
0.5630657839 0.5199626223 0.2359975011
0.5799234247 0.5299208356 0.2392155760
0.5969107554 0.5401201549 0.2425398710
0.6140111799 0.5505440172 0.2459656038
0.6312101611 0.5611767540 0.2494880432
0.6484949516 0.5720035998 0.2531025373
0.6658543597 0.5830106854 0.2568045373
0.6832785469 0.5941850199 0.2605896165
0.7007588517 0.6055144630 0.2644534850
0.7182876388 0.6169876914 0.2683920011
0.3223055320 0.4207736423 0.2112319159
0.3244465365 0.4214970950 0.2114301375
0.3268422638 0.4223133359 0.2116540790
0.3302291961 0.4234793404 0.2119745240
0.3346915910 0.4250370285 0.2124036053
0.3402492199 0.4270108627 0.2129489388
0.3468939622 0.4294195833 0.2136168579
0.3545947616 0.4322768041 0.2144125786
0.3633027950 0.4355914511 0.2153403079
0.3729565882 0.4393681408 0.2164033214
0.3834867413 0.4436075457 0.2176040254
0.3948199999 0.4483067677 0.2189440115
0.4068825285 0.4534597254 0.2204241088
0.4196023661 0.4590575545 0.2220444353
0.4329111275 0.4650890134 0.2238044514
0.4467450675 0.4715408862 0.2257030141
0.4610456406 0.4783983734 0.2277384336
0.4757596866 0.4856454615 0.2299085305
0.4908393541 0.4932652657 0.2322106937
0.5062418541 0.5012403395 0.2346419373
0.5219291112 0.5095529489 0.2371989577
0.5378673655 0.5181853097 0.2398781869
0.5540267572 0.5271197879 0.2426758450
0.5703809193 0.5363390649 0.2455879883
0.5869065911 0.5458262701 0.2486105544
0.6035832601 0.5555650841 0.2517394032
0.6203928368 0.5655398150 0.2549703540
0.6373193632 0.5757354523 0.2582992186
0.6543487521 0.5861377010 0.2617218299
0.6714685580 0.5967329998 0.2652340670
0.6886677750 0.6075085258 0.2688318763
0.7059366595 0.6184521883 0.2725112896
0.7232665758 0.6295526148 0.2762684378
0.3411381944 0.4453599033 0.2235744262
0.3430946591 0.4460206452 0.2237554500
0.3452872031 0.4467664300 0.2239600069
0.3483927103 0.4478323320 0.2242527961
0.3524944084 0.4492572819 0.2246449969
0.3576182083 0.4510645257 0.2251437057
0.3637655731 0.4532723552 0.2257548943
0.3709172988 0.4558946467 0.2264835638
0.3790374852 0.4589412401 0.2273338431
0.3880775765 0.4624182491 0.2283090595
0.3979802435 0.4663283475 0.2294117923
0.4086828864 0.4706710544 0.2306439181
0.4201206085 0.4754430278 0.2320066522
0.4322285909 0.4806383701 0.2335005893
0.4449438733 0.4862489400 0.2351257431
0.4582065950 0.4922646696 0.2368815886
0.4719607812 0.4986738767 0.2387671040
0.4861547662 0.5054635688 0.2407808153
0.5007413428 0.5126197318 0.2429208400
0.5156777162 0.5201275985 0.2451849330
0.5309253267 0.5279718936 0.2475705307
0.5464495906 0.5361370534 0.2500747952
0.5622195963 0.5446074174 0.2526946571
0.5782077829 0.5533673943 0.2554268563
0.5943896191 0.5624016007 0.2582679809
0.6107432935 0.5716949751 0.2612145036
0.6272494245 0.5812328699 0.2642628149
0.6438907924 0.5910011218 0.2674092537
0.6606520960 0.6009861044 0.2706501356
0.6775197338 0.6111747651 0.2739817767
0.6944816071 0.6215546481 0.2774005156
0.7115269465 0.6321139064 0.2809027326
0.7286461571 0.6428413037 0.2844848651
0.3598845658 0.4698335105 0.2358603833
0.3616816009 0.4704401436 0.2360265713
0.3636979747 0.4711250788 0.2362143973
0.3665583757 0.4721044217 0.2364833007
0.3703440667 0.4734144017 0.2368436191
0.3750850278 0.4750770476 0.2373019741
0.3807897761 0.4771100522 0.2378639905
0.3874483119 0.4795272670 0.2385344400
0.3950351956 0.4823390399 0.2393173330
0.4035127361 0.4855524779 0.2402159826
0.4128341490 0.4891716795 0.2412330529
0.4229465181 0.4931979583 0.2423705978
0.4337934205 0.4976300706 0.2436300950
0.4453171317 0.5024644497 0.2450124790
0.4574603793 0.5076954487 0.2465181718
0.4701676591 0.5133155886 0.2481471160
0.4833861590 0.5193158075 0.2498988066
0.4970663507 0.5256857082 0.2517723255
0.5111623155 0.5324137973 0.2537663759
0.5256318657 0.5394877136 0.2558793176
0.5404365185 0.5468944418 0.2581092021
0.5555413664 0.5546205089 0.2604538086
0.5709148824 0.5626521613 0.2629106785
0.5865286862 0.5709755224 0.2654771496
0.6023572923 0.5795767291 0.2681503888
0.6183778552 0.5884420496 0.2709274235
0.6345699198 0.5975579813 0.2738051710
0.6509151843 0.6069113316 0.2767804661
0.6673972792 0.6164892819 0.2798500866
0.6840015635 0.6262794379 0.2830107764
0.7007149394 0.6362698659 0.2862592663
0.7175256848 0.6464491187 0.2895922932
0.7344233026 0.6568062516 0.2930066165
0.3785498731 0.4942012875 0.2480932129
0.3802080595 0.4947608460 0.2482464958
0.3820705485 0.4953928008 0.2484197621
0.3847160527 0.4962967030 0.2486678680
0.3882233201 0.4975063439 0.2490004054
0.3926249196 0.4990425713 0.2494235633
0.3979345202 0.5009224007 0.2499426393
0.4041492402 0.5031594752 0.2505621737
0.4112520594 0.5057643718 0.2512860356
0.4192143420 0.5087448312 0.2521174825
0.4279983952 0.5121059519 0.2530592036
0.4375599423 0.5158503717 0.2541133543
0.4478503970 0.5199784460 0.2552815859
0.4588188532 0.5244884324 0.2565650718
0.4704137444 0.5293766796 0.2579645331
0.4825841590 0.5346378231 0.2594802644
0.4952808313 0.5402649842 0.2611121588
0.5084568402 0.5462499694 0.2628597348
0.5220680631 0.5525834678 0.2647221632
0.5360734297 0.5592552427 0.2666982949
0.5504350227 0.5662543145 0.2687866888
0.5651180631 0.5735691325 0.2709856405
0.5800908163 0.5811877342 0.2732932107
0.5953244424 0.5890978897 0.2757072527
0.6107928155 0.5972872317 0.2782254404
0.6264723244 0.6057433695 0.2808452947
0.6423416685 0.6144539885 0.2835642088
0.6583816556 0.6234069347 0.2863794725
0.6745750070 0.6325902850 0.2892882951
0.6909061744 0.6419924056 0.2922878263
0.7073611683 0.6516019978 0.2953751761
0.7239274016 0.6614081339 0.2985474324
0.7405935455 0.6714002829 0.3018016774
0.3971387648 0.5184693031 0.2602759613
0.3986751502 0.5189876027 0.2604179351
0.4004023141 0.5195730922 0.2605784377
0.4028582530 0.5204107759 0.2608083033
0.4061189005 0.5215322433 0.2611164601
0.4102183564 0.5229572169 0.2615087040
0.4151740107 0.5247020026 0.2619900269
0.4209884636 0.5267799198 0.2625647429
0.4276514430 0.5292015839 0.2632365691
0.4351418128 0.5319751121 0.2640086811
0.4434296433 0.5351062906 0.2648837532
0.4524782627 0.5385987245 0.2658639898
0.4622462008 0.5424539832 0.2669511510
0.4726889499 0.5466717458 0.2681465751
0.4837604905 0.5512499515 0.2694512000
0.4954145555 0.5561849544 0.2708655837
