DCI/sRGB to DCI-XYZ.cube
# DaVinci Resolve Cube (3D LUT).
#
# Converts sRGB data to DCI-XYZ.
# Gamma as defined by IEC 61966-2-1:1999
# 
LUT_3D_SIZE 5
LUT_3D_INPUT_RANGE 0.0000000000 1.0000000000
0.0000000000 0.0000000000 0.0000000000
0.2187859217 0.1695815672 0.0674284220
0.3802008240 0.2946947001 0.1171754627
0.5359109825 0.4153860705 0.1651643379
0.6878822757 0.5331794361 0.2120009187
0.2070949653 0.2703648997 0.1357254590
0.2781637484 0.2988394039 0.1438038460
0.4086106251 0.3693923364 0.1657905708
0.5528773567 0.4631929514 0.1979022697
0.6993968661 0.5665690942 0.2354542208
0.3598845658 0.4698335105 0.2358603833
0.3950351956 0.4823390399 0.2393173330
0.4833861590 0.5193158075 0.2498988066
0.6023572923 0.5795767291 0.2681503888
0.7344233026 0.6568062516 0.2930066165
0.5072742589 0.6622524790 0.3324563278
0.5284720439 0.6695629701 0.3344660929
0.5886804006 0.6921884026 0.3407848190
0.6813555759 0.7320001091 0.3522441471
0.7941884070 0.7875474800 0.3688877009
0.6511248752 0.8500511413 0.4267328396
0.6655640890 0.8549748115 0.4280838834
0.7087964206 0.8704674819 0.4323714693
0.7806483162 0.8986098452 0.4402967739
0.8745714109 0.9395774994 0.4521320021
0.1591925502 0.1119099986 0.3016035922
0.2515558075 0.1897521350 0.3039490217
0.3949454831 0.3036201606 0.3112824717
0.5445781395 0.4206124654 0.3244384810
0.6937309061 0.5367014924 0.3432628217
0.2423314814 0.2805502157 0.3156266491
0.3016238422 0.3075749131 0.3178090851
0.4218166950 0.3756760303 0.3246516275
0.5611310515 0.4675941567 0.3369928088
0.7050938166 0.5697674154 0.3547804589
0.3759107302 0.4741367844 0.3549914224
0.4089431112 0.4864671706 0.3568023426
0.4935689504 0.5229881391 0.3625132402
0.6095701722 0.5826617695 0.3729336386
0.7396958529 0.6593346742 0.3882001908
0.5167190524 0.6647478772 0.4146690665
0.5373310662 0.6720151255 0.4160832694
0.5961589241 0.6945141378 0.4205676968
0.6872930988 0.7341275561 0.4288430281
0.7988454812 0.7894407308 0.4411698612
0.6575040674 0.8517271988 0.4864401712
0.6717259418 0.8566354911 0.4875366206
0.7143742027 0.8720812377 0.4910267113
0.7854342827 0.9001436816 0.4975187742
0.8785668778 0.9410059510 0.5073081266
0.2766409204 0.1944744587 0.5241193464
0.3268896080 0.2385258111 0.5250927325
0.4371475300 0.3297466195 0.5281951764
0.5709873946 0.4367111742 0.5339823027
0.7119759086 0.5477550120 0.5427468921
0.3209130775 0.3097861864 0.5300748550
0.3621541752 0.3332189615 0.5310308433
0.4602620169 0.3947751067 0.5340783783
0.5863743458 0.4812808445 0.5397652411
0.7228856743 0.5798359223 0.5483831364
0.4211177217 0.4875333035 0.5484882716
0.4491223944 0.4993427354 0.5493935402
0.5241545362 0.5344961618 0.5522808555
0.6318292134 0.5923837549 0.5576745936
0.7562128324 0.6673407775 0.5658623162
0.5452904510 0.6726515145 0.5808286922
0.5642775404 0.6797844851 0.5816548206
0.6191862170 0.7018902474 0.5842917209
0.7058030478 0.7408848482 0.5892256839
0.8134959086 0.7954641226 0.5967348446
0.6773235192 0.8570672183 0.6258473345
0.6909024521 0.8619270305 0.6265806013
0.7318091155 0.8772247687 0.6289230544
0.8004772889 0.9050348707 0.6333139597
0.8911887108 0.9455639077 0.6400158786
0.3899384170 0.2741209163 0.7387709236
0.4212718412 0.3020474384 0.7393334439
0.5027771819 0.3716859808 0.7411329037
0.6161800489 0.4647934031 0.7445159981
0.7445624191 0.5677298616 0.7497045028
0.4173174191 0.3554298309 0.7422279772
0.4456979320 0.3745593954 0.7427863155
0.5214854733 0.4273186371 0.7445724519
0.6298529234 0.5055802648 0.7479307218
0.7547317711 0.5981426650 0.7530817138
0.4900797177 0.5113660118 0.7531450093
0.5124133977 0.5223313454 0.7536904670
0.5752503551 0.5552316229 0.7554355617
0.6707891322 0.6100973773 0.7587173342
0.7859535797 0.6820709638 0.7637526628
0.5935852785 0.6872011717 0.7731200723
0.6102502378 0.6940971740 0.7736431766
0.6593274413 0.7155064195 0.7753170223
0.7388205253 0.7533975340 0.7784658981
0.8400960747 0.8066567452 0.7833000509
0.7124498618 0.8670201391 0.8025024245
0.7249978024 0.8717916342 0.8029952474
0.7630690485 0.8868194487 0.8045725281
0.8277436316 0.9141683448 0.8075410967
0.9143000262 0.9540864354 0.8121018351
0.5005154483 0.3518549271 0.9482683518
0.5221486647 0.3712755150 0.9486457416
0.5833721858 0.4246644792 0.9498544536
0.6771641762 0.5035558611 0.9521329485
0.7909136929 0.5965974840 0.9556425894
0.5193528584 0.4116689410 0.9505911177
0.5398060600 0.4269903611 0.9509670339
0.5982567000 0.4710209661 0.9521710365
0.6889652979 0.5398737201 0.9544406957
0.8001608505 0.6248281472 0.9579368333
0.5734289450 0.5450901390 0.9579799053
0.5910051584 0.5550157732 0.9583511955
0.6424032261 0.5850778812 0.9595404133
0.7247902314 0.6359952071 0.9617823314
0.8287225188 0.7039154712 0.9652360660
0.6578642958 0.7087956235 0.9717053407
0.6720740534 0.7153625849 0.9720682795
0.7146896823 0.7357994074 0.9732308028
0.7857053706 0.7721340771 0.9754226229
0.8787934864 0.8235066191 0.9787997545
0.7619115964 0.8820746751 0.9923580820
0.7732068048 0.8867174302 0.9927090165
0.8077631264 0.9013511009 0.9938331643
0.8673149470 0.9280242184 0.9959529408
0.9483320194 0.9670427125 0.9992198537
