HDR Hybrid Log-Gamma/Gamma 2.4 to HLG.cube
# DaVinci Resolve Cube (1D shaper LUT).

LUT_1D_SIZE 4096
LUT_1D_INPUT_RANGE 0.0000000000 2.8161699299

0.0000000000 0.0000000000 0.0000000000
0.0000801412 0.0000801412 0.0000801412
0.0001841162 0.0001841162 0.0001841162
0.0002995032 0.0002995032 0.0002995032
0.0004229879 0.0004229879 0.0004229879
0.0005528661 0.0005528661 0.0005528661
0.0006880776 0.0006880776 0.0006880776
0.0008278918 0.0008278918 0.0008278918
0.0009717710 0.0009717710 0.0009717710
0.0011193012 0.0011193012 0.0011193012
0.0012701527 0.0012701527 0.0012701527
0.0014240564 0.0014240564 0.0014240564
0.0015807874 0.0015807874 0.0015807874
0.0017401552 0.0017401552 0.0017401552
0.0019019960 0.0019019960 0.0019019960
0.0020661671 0.0020661671 0.0020661671
0.0022325434 0.0022325434 0.0022325434
0.0024010139 0.0024010139 0.0024010139
0.0025714787 0.0025714787 0.0025714787
0.0027438493 0.0027438493 0.0027438493
0.0029180448 0.0029180448 0.0029180448
0.0030939914 0.0030939914 0.0030939914
0.0032716224 0.0032716224 0.0032716224
0.0034508759 0.0034508759 0.0034508759
0.0036316956 0.0036316956 0.0036316956
0.0038140286 0.0038140286 0.0038140286
0.0039978265 0.0039978265 0.0039978265
0.0041830442 0.0041830442 0.0041830442
0.0043696393 0.0043696393 0.0043696393
0.0045575718 0.0045575718 0.0045575718
0.0047468059 0.0047468059 0.0047468059
0.0049373051 0.0049373051 0.0049373051
0.0051290379 0.0051290379 0.0051290379
0.0053219730 0.0053219730 0.0053219730
0.0055160811 0.0055160811 0.0055160811
0.0057113348 0.0057113348 0.0057113348
0.0059077069 0.0059077069 0.0059077069
0.0061051734 0.0061051734 0.0061051734
0.0063037104 0.0063037104 0.0063037104
0.0065032952 0.0065032952 0.0065032952
0.0067039062 0.0067039062 0.0067039062
0.0069055231 0.0069055231 0.0069055231
0.0071081258 0.0071081258 0.0071081258
0.0073116953 0.0073116953 0.0073116953
0.0075162142 0.0075162142 0.0075162142
0.0077216653 0.0077216653 0.0077216653
0.0079280315 0.0079280315 0.0079280315
0.0081352964 0.0081352964 0.0081352964
0.0083434451 0.0083434451 0.0083434451
0.0085524637 0.0085524637 0.0085524637
0.0087623373 0.0087623373 0.0087623373
0.0089730518 0.0089730518 0.0089730518
0.0091845943 0.0091845943 0.0091845943
0.0093969516 0.0093969516 0.0093969516
0.0096101118 0.0096101118 0.0096101118
0.0098240636 0.0098240636 0.0098240636
0.0100387949 0.0100387949 0.0100387949
0.0102542946 0.0102542946 0.0102542946
0.0104705514 0.0104705514 0.0104705514
0.0106875552 0.0106875552 0.0106875552
0.0109052956 0.0109052956 0.0109052956
0.0111237634 0.0111237634 0.0111237634
0.0113429492 0.0113429492 0.0113429492
0.0115628419 0.0115628419 0.0115628419
0.0117834350 0.0117834350 0.0117834350
0.0120047182 0.0120047182 0.0120047182
0.0122266831 0.0122266831 0.0122266831
0.0124493223 0.0124493223 0.0124493223
0.0126726264 0.0126726264 0.0126726264
0.0128965890 0.0128965890 0.0128965890
0.0131212007 0.0131212007 0.0131212007
0.0133464560 0.0133464560 0.0133464560
0.0135723464 0.0135723464 0.0135723464
0.0137988655 0.0137988655 0.0137988655
0.0140260058 0.0140260058 0.0140260058
0.0142537607 0.0142537607 0.0142537607
0.0144821238 0.0144821238 0.0144821238
0.0147110885 0.0147110885 0.0147110885
0.0149406493 0.0149406493 0.0149406493
0.0151707986 0.0151707986 0.0151707986
0.0154015319 0.0154015319 0.0154015319
0.0156328436 0.0156328436 0.0156328436
0.0158647262 0.0158647262 0.0158647262
0.0160971750 0.0160971750 0.0160971750
0.0163301844 0.0163301844 0.0163301844
0.0165637489 0.0165637489 0.0165637489
0.0167978648 0.0167978648 0.0167978648
0.0170325264 0.0170325264 0.0170325264
0.0172677264 0.0172677264 0.0172677264
0.0175034627 0.0175034627 0.0175034627
0.0177397281 0.0177397281 0.0177397281
0.0179765206 0.0179765206 0.0179765206
0.0182138328 0.0182138328 0.0182138328
0.0184516609 0.0184516609 0.0184516609
0.0186900031 0.0186900031 0.0186900031
0.0189288519 0.0189288519 0.0189288519
0.0191682037 0.0191682037 0.0191682037
0.0194080546 0.0194080546 0.0194080546
0.0196484029 0.0196484029 0.0196484029
0.0198892392 0.0198892392 0.0198892392
0.0201305635 0.0201305635 0.0201305635
0.0203723721 0.0203723721 0.0203723721
0.0206146594 0.0206146594 0.0206146594
0.0208574217 0.0208574217 0.0208574217
0.0211006552 0.0211006552 0.0211006552
0.0213443581 0.0213443581 0.0213443581
0.0215885248 0.0215885248 0.0215885248
0.0218331534 0.0218331534 0.0218331534
0.0220782403 0.0220782403 0.0220782403
0.0223237798 0.0223237798 0.0223237798
0.0225697719 0.0225697719 0.0225697719
0.0228162110 0.0228162110 0.0228162110
0.0230630934 0.0230630934 0.0230630934
0.0233104192 0.0233104192 0.0233104192
0.0235581808 0.0235581808 0.0235581808
0.0238063801 0.0238063801 0.0238063801
0.0240550097 0.0240550097 0.0240550097
0.0243040677 0.0243040677 0.0243040677
0.0245535541 0.0245535541 0.0245535541
0.0248034615 0.0248034615 0.0248034615
0.0250537898 0.0250537898 0.0250537898
0.0253045373 0.0253045373 0.0253045373
0.0255556982 0.0255556982 0.0255556982
0.0258072708 0.0258072708 0.0258072708
0.0260592531 0.0260592531 0.0260592531
0.0263116434 0.0263116434 0.0263116434
0.0265644360 0.0265644360 0.0265644360
0.0268176310 0.0268176310 0.0268176310
0.0270712245 0.0270712245 0.0270712245
0.0273252148 0.0273252148 0.0273252148
0.0275796000 0.0275796000 0.0275796000
0.0278343763 0.0278343763 0.0278343763
0.0280895419 0.0280895419 0.0280895419
0.0283450950 0.0283450950 0.0283450950
0.0286010318 0.0286010318 0.0286010318
0.0288573522 0.0288573522 0.0288573522
0.0291140508 0.0291140508 0.0291140508
0.0293711275 0.0293711275 0.0293711275
0.0296285804 0.0296285804 0.0296285804
0.0298864078 0.0298864078 0.0298864078
0.0301446039 0.0301446039 0.0301446039
0.0304031707 0.0304031707 0.0304031707
0.0306621045 0.0306621045 0.0306621045
0.0309214033 0.0309214033 0.0309214033
0.0311810635 0.0311810635 0.0311810635
0.0314410850 0.0314410850 0.0314410850
0.0317014679 0.0317014679 0.0317014679
0.0319622047 0.0319622047 0.0319622047
0.0322232991 0.0322232991 0.0322232991
0.0324847437 0.0324847437 0.0324847437
0.0327465422 0.0327465422 0.0327465422
0.0330086909 0.0330086909 0.0330086909
0.0332711823 0.0332711823 0.0332711823
0.0335340239 0.0335340239 0.0335340239
0.0337972082 0.0337972082 0.0337972082
0.0340607315 0.0340607315 0.0340607315
0.0343245976 0.0343245976 0.0343245976
0.0345888026 0.0345888026 0.0345888026
0.0348533429 0.0348533429 0.0348533429
0.0351182185 0.0351182185 0.0351182185
0.0353834294 0.0353834294 0.0353834294
0.0356489718 0.0356489718 0.0356489718
0.0359148420 0.0359148420 0.0359148420
0.0361810438 0.0361810438 0.0361810438
0.0364475697 0.0364475697 0.0364475697
0.0367144197 0.0367144197 0.0367144197
0.0369815975 0.0369815975 0.0369815975
0.0372490920 0.0372490920 0.0372490920
0.0375169106 0.0375169106 0.0375169106
0.0377850495 0.0377850495 0.0377850495
0.0380535051 0.0380535051 0.0380535051
0.0383222736 0.0383222736 0.0383222736
0.0385913588 0.0385913588 0.0385913588
0.0388607569 0.0388607569 0.0388607569
0.0391304679 0.0391304679 0.0391304679
0.0394004881 0.0394004881 0.0394004881
0.0396708176 0.0396708176 0.0396708176
0.0399414524 0.0399414524 0.0399414524
0.0402123965 0.0402123965 0.0402123965
0.0404836424 0.0404836424 0.0404836424
0.0407551937 0.0407551937 0.0407551937
0.0410270430 0.0410270430 0.0410270430
0.0412991978 0.0412991978 0.0412991978
0.0415716507 0.0415716507 0.0415716507
0.0418443978 0.0418443978 0.0418443978
0.0421174467 0.0421174467 0.0421174467
0.0423907861 0.0423907861 0.0423907861
0.0426644236 0.0426644236 0.0426644236
0.0429383516 0.0429383516 0.0429383516
0.0432125703 0.0432125703 0.0432125703
0.0434870832 0.0434870832 0.0434870832
0.0437618829 0.0437618829 0.0437618829
0.0440369695 0.0440369695 0.0440369695
0.0443123430 0.0443123430 0.0443123430
0.0445880033 0.0445880033 0.0445880033
0.0448639467 0.0448639467 0.0448639467
0.0451401733 0.0451401733 0.0451401733
0.0454166830 0.0454166830 0.0454166830
0.0456934720 0.0456934720 0.0456934720
0.0459705442 0.0459705442 0.0459705442
0.0462478921 0.0462478921 0.0462478921
0.0465255193 0.0465255193 0.0465255193
0.0468034185 0.0468034185 0.0468034185
0.0470815971 0.0470815971 0.0470815971
0.0473600477 0.0473600477 0.0473600477
0.0476387739 0.0476387739 0.0476387739
0.0479177721 0.0479177721 0.0479177721
0.0481970385 0.0481970385 0.0481970385
0.0484765768 0.0484765768 0.0484765768
0.0487563834 0.0487563834 0.0487563834
0.0490364581 0.0490364581 0.0490364581
0.0493168011 0.0493168011 0.0493168011
0.0495974086 0.0495974086 0.0495974086
0.0498782806 0.0498782806 0.0498782806
0.0501594171 0.0501594171 0.0501594171
0.0504408143 0.0504408143 0.0504408143
0.0507224761 0.0507224761 0.0507224761
0.0510043986 0.0510043986 0.0510043986
0.0512865782 0.0512865782 0.0512865782
0.0515690222 0.0515690222 0.0515690222
0.0518517196 0.0518517196 0.0518517196
0.0521346740 0.0521346740 0.0521346740
0.0524178892 0.0524178892 0.0524178892
0.0527013540 0.0527013540 0.0527013540
0.0529850759 0.0529850759 0.0529850759
0.0532690510 0.0532690510 0.0532690510
0.0535532795 0.0535532795 0.0535532795
0.0538377576 0.0538377576 0.0538377576
0.0541224889 0.0541224889 0.0541224889
0.0544074699 0.0544074699 0.0544074699
0.0546926968 0.0546926968 0.0546926968
0.0549781770 0.0549781770 0.0549781770
0.0552638993 0.0552638993 0.0552638993
0.0555498712 0.0555498712 0.0555498712
0.0558360852 0.0558360852 0.0558360852
0.0561225489 0.0561225489 0.0561225489
0.0564092547 0.0564092547 0.0564092547
0.0566962026 0.0566962026 0.0566962026
0.0569833927 0.0569833927 0.0569833927
0.0572708249 0.0572708249 0.0572708249
0.0575584956 0.0575584956 0.0575584956
0.0578464083 0.0578464083 0.0578464083
0.0581345595 0.0581345595 0.0581345595
0.0584229492 0.0584229492 0.0584229492
0.0587115772 0.0587115772 0.0587115772
0.0590004399 0.0590004399 0.0590004399
0.0592895374 0.0592895374 0.0592895374
0.0595788732 0.0595788732 0.0595788732
0.0598684438 0.0598684438 0.0598684438
0.0601582453 0.0601582453 0.0601582453
0.0604482815 0.0604482815 0.0604482815
0.0607385486 0.0607385486 0.0607385486
0.0610290468 0.0610290468 0.0610290468
0.0613197759 0.0613197759 0.0613197759
0.0616107360 0.0616107360 0.0616107360
0.0619019270 0.0619019270 0.0619019270
0.0621933416 0.0621933416 0.0621933416
0.0624849871 0.0624849871 0.0624849871
0.0627768636 0.0627768636 0.0627768636
0.0630689561 0.0630689561 0.0630689561
0.0633612797 0.0633612797 0.0633612797
0.0636538342 0.0636538342 0.0636538342
0.0639466047 0.0639466047 0.0639466047
0.0642395988 0.0642395988 0.0642395988
0.0645328239 0.0645328239 0.0645328239
0.0648262650 0.0648262650 0.0648262650
0.0651199296 0.0651199296 0.0651199296
0.0654138103 0.0654138103 0.0654138103
0.0657079145 0.0657079145 0.0657079145
0.0660022423 0.0660022423 0.0660022423
0.0662967861 0.0662967861 0.0662967861
0.0665915459 0.0665915459 0.0665915459
0.0668865219 0.0668865219 0.0668865219
0.0671817213 0.0671817213 0.0671817213
0.0674771294 0.0674771294 0.0674771294
0.0677727610 0.0677727610 0.0677727610
0.0680686012 0.0680686012 0.0680686012
0.0683646649 0.0683646649 0.0683646649
0.0686609298 0.0686609298 0.0686609298
0.0689574182 0.0689574182 0.0689574182
0.0692541152 0.0692541152 0.0692541152
0.0695510209 0.0695510209 0.0695510209
0.0698481426 0.0698481426 0.0698481426
0.0701454729 0.0701454729 0.0701454729
0.0704430193 0.0704430193 0.0704430193
0.0707407668 0.0707407668 0.0707407668
0.0710387304 0.0710387304 0.0710387304
0.0713368952 0.0713368952 0.0713368952
0.0716352761 0.0716352761 0.0716352761
0.0719338581 0.0719338581 0.0719338581
0.0722326487 0.0722326487 0.0722326487
0.0725316480 0.0725316480 0.0725316480
0.0728308484 0.0728308484 0.0728308484
0.0731302574 0.0731302574 0.0731302574
0.0734298676 0.0734298676 0.0734298676
0.0737296790 0.0737296790 0.0737296790
0.0740296990 0.0740296990 0.0740296990
0.0743299201 0.0743299201 0.0743299201
0.0746303499 0.0746303499 0.0746303499
0.0749309734 0.0749309734 0.0749309734
0.0752317980 0.0752317980 0.0752317980
0.0755328238 0.0755328238 0.0755328238
0.0758340582 0.0758340582 0.0758340582
0.0761354789 0.0761354789 0.0761354789
0.0764371082 0.0764371082 0.0764371082
0.0767389312 0.0767389312 0.0767389312
0.0770409554 0.0770409554 0.0770409554
0.0773431733 0.0773431733 0.0773431733
0.0776455924 0.0776455924 0.0776455924
0.0779482052 0.0779482052 0.0779482052
0.0782510117 0.0782510117 0.0782510117
0.0785540193 0.0785540193 0.0785540193
0.0788572207 0.0788572207 0.0788572207
0.0791606158 0.0791606158 0.0791606158
0.0794642046 0.0794642046 0.0794642046
0.0797679797 0.0797679797 0.0797679797
0.0800719559 0.0800719559 0.0800719559
0.0803761259 0.0803761259 0.0803761259
0.0806804821 0.0806804821 0.0806804821
0.0809850320 0.0809850320 0.0809850320
0.0812897757 0.0812897757 0.0812897757
0.0815947056 0.0815947056 0.0815947056
0.0818998292 0.0818998292 0.0818998292
0.0822051391 0.0822051391 0.0822051391
0.0825106427 0.0825106427 0.0825106427
0.0828163326 0.0828163326 0.0828163326
0.0831222087 0.0831222087 0.0831222087
0.0834282711 0.0834282711 0.0834282711
0.0837345272 0.0837345272 0.0837345272
0.0840409622 0.0840409622 0.0840409622
0.0843475908 0.0843475908 0.0843475908
0.0846543983 0.0846543983 0.0846543983
0.0849613994 0.0849613994 0.0849613994
0.0852685794 0.0852685794 0.0852685794
0.0855759457 0.0855759457 0.0855759457
0.0858834982 0.0858834982 0.0858834982
0.0861912295 0.0861912295 0.0861912295
0.0864991471 0.0864991471 0.0864991471
0.0868072510 0.0868072510 0.0868072510
0.0871155336 0.0871155336 0.0871155336
0.0874239951 0.0874239951 0.0874239951
0.0877326429 0.0877326429 0.0877326429
0.0880414695 0.0880414695 0.0880414695
0.0883504748 0.0883504748 0.0883504748
0.0886596665 0.0886596665 0.0886596665
0.0889690295 0.0889690295 0.0889690295
0.0892785788 0.0892785788 0.0892785788
0.0895883068 0.0895883068 0.0895883068
0.0898982063 0.0898982063 0.0898982063
0.0902082920 0.0902082920 0.0902082920
0.0905185491 0.0905185491 0.0905185491
0.0908289924 0.0908289924 0.0908289924
0.0911396071 0.0911396071 0.0911396071
0.0914503932 0.0914503932 0.0914503932
0.0917613655 0.0917613655 0.0917613655
0.0920725092 0.0920725092 0.0920725092
0.0923838243 0.0923838243 0.0923838243
0.0926953182 0.0926953182 0.0926953182
0.0930069908 0.0930069908 0.0930069908
0.0933188275 0.0933188275 0.0933188275
0.0936308429 0.0936308429 0.0936308429
0.0939430371 0.0939430371 0.0939430371
0.0942553952 0.0942553952 0.0942553952
0.0945679322 0.0945679322 0.0945679322
0.0948806405 0.0948806405 0.0948806405
0.0951935202 0.0951935202 0.0951935202
0.0955065712 0.0955065712 0.0955065712
0.0958197936 0.0958197936 0.0958197936
0.0961331874 0.0961331874 0.0961331874
0.0964467451 0.0964467451 0.0964467451
0.0967604816 0.0967604816 0.0967604816
0.0970743820 0.0970743820 0.0970743820
0.0973884538 0.0973884538 0.0973884538
0.0977026969 0.0977026969 0.0977026969
0.0980171040 0.0980171040 0.0980171040
0.0983316824 0.0983316824 0.0983316824
0.0986464247 0.0986464247 0.0986464247
0.0989613384 0.0989613384 0.0989613384
0.0992764160 0.0992764160 0.0992764160
0.0995916650 0.0995916650 0.0995916650
0.0999070778 0.0999070778 0.0999070778
0.1002226546 0.1002226546 0.1002226546
0.1005384028 0.1005384028 0.1005384028
0.1008543149 0.1008543149 0.1008543149
0.1011703908 0.1011703908 0.1011703908
0.1014866307 0.1014866307 0.1014866307
0.1018030345 0.1018030345 0.1018030345
0.1021196023 0.1021196023 0.1021196023
0.1024363339 0.1024363339 0.1024363339
0.1027532294 0.1027532294 0.1027532294
0.1030702814 0.1030702814 0.1030702814
0.1033875048 0.1033875048 0.1033875048
0.1037048846 0.1037048846 0.1037048846
0.1040224358 0.1040224358 0.1040224358
0.1043401361 0.1043401361 0.1043401361
0.1046580076 0.1046580076 0.1046580076
0.1049760357 0.1049760357 0.1049760357
0.1052942276 0.1052942276 0.1052942276
0.1056125760 0.1056125760 0.1056125760
0.1059310883 0.1059310883 0.1059310883
0.1062497571 0.1062497571 0.1062497571
0.1065685824 0.1065685824 0.1065685824
0.1068875715 0.1068875715 0.1068875715
0.1072067171 0.1072067171 0.1072067171
0.1075260267 0.1075260267 0.1075260267
0.1078454852 0.1078454852 0.1078454852
0.1081651077 0.1081651077 0.1081651077
0.1084848866 0.1084848866 0.1084848866
0.1088048220 0.1088048220 0.1088048220
0.1091249138 0.1091249138 0.1091249138
0.1094451621 0.1094451621 0.1094451621
0.1097655669 0.1097655669 0.1097655669
0.1100861281 0.1100861281 0.1100861281
0.1104068458 0.1104068458 0.1104068458
0.1107277200 0.1107277200 0.1107277200
0.1110487431 0.1110487431 0.1110487431
0.1113699302 0.1113699302 0.1113699302
0.1116912663 0.1116912663 0.1116912663
0.1120127589 0.1120127589 0.1120127589
0.1123344004 0.1123344004 0.1123344004
0.1126561984 0.1126561984 0.1126561984
0.1129781529 0.1129781529 0.1129781529
0.1133002564 0.1133002564 0.1133002564
0.1136225089 0.1136225089 0.1136225089
0.1139449179 0.1139449179 0.1139449179
0.1142674834 0.1142674834 0.1142674834
0.1145901978 0.1145901978 0.1145901978
0.1149130613 0.1149130613 0.1149130613
0.1152360812 0.1152360812 0.1152360812
0.1155592427 0.1155592427 0.1155592427
0.1158825606 0.1158825606 0.1158825606
0.1162060350 0.1162060350 0.1162060350
0.1165296510 0.1165296510 0.1165296510
0.1168534160 0.1168534160 0.1168534160
0.1171773374 0.1171773374 0.1171773374
0.1175014004 0.1175014004 0.1175014004
0.1178256199 0.1178256199 0.1178256199
0.1181499884 0.1181499884 0.1181499884
0.1184744984 0.1184744984 0.1184744984
0.1187991574 0.1187991574 0.1187991574
0.1191239730 0.1191239730 0.1191239730
0.1194489300 0.1194489300 0.1194489300
0.1197740287 0.1197740287 0.1197740287
0.1200992838 0.1200992838 0.1200992838
0.1204246804 0.1204246804 0.1204246804
0.1207502261 0.1207502261 0.1207502261
0.1210759208 0.1210759208 0.1210759208
0.1214017570 0.1214017570 0.1214017570
0.1217277423 0.1217277423 0.1217277423
0.1220538691 0.1220538691 0.1220538691
0.1223801449 0.1223801449 0.1223801449
0.1227065623 0.1227065623 0.1227065623
0.1230331287 0.1230331287 0.1230331287
0.1233598366 0.1233598366 0.1233598366
0.1236866936 0.1236866936 0.1236866936
0.1240136847 0.1240136847 0.1240136847
0.1243408248 0.1243408248 0.1243408248
0.1246681139 0.1246681139 0.1246681139
0.1249955371 0.1249955371 0.1249955371
0.1253231168 0.1253231168 0.1253231168
0.1256508231 0.1256508231 0.1256508231
0.1259786785 0.1259786785 0.1259786785
0.1263066828 0.1263066828 0.1263066828
0.1266348213 0.1266348213 0.1266348213
0.1269630939 0.1269630939 0.1269630939
0.1272915304 0.1272915304 0.1272915304
0.1276200861 0.1276200861 0.1276200861
0.1279487908 0.1279487908 0.1279487908
0.1282776445 0.1282776445 0.1282776445
0.1286066324 0.1286066324 0.1286066324
0.1289357543 0.1289357543 0.1289357543
0.1292650253 0.1292650253 0.1292650253
0.1295944303 0.1295944303 0.1295944303
0.1299239844 0.1299239844 0.1299239844
0.1302536726 0.1302536726 0.1302536726
0.1305834949 0.1305834949 0.1305834949
0.1309134513 0.1309134513 0.1309134513
0.1312435567 0.1312435567 0.1312435567
0.1315737963 0.1315737963 0.1315737963
0.1319041848 0.1319041848 0.1319041848
0.1322346926 0.1322346926 0.1322346926
0.1325653493 0.1325653493 0.1325653493
0.1328961402 0.1328961402 0.1328961402
0.1332270801 0.1332270801 0.1332270801
0.1335581392 0.1335581392 0.1335581392
0.1338893473 0.1338893473 0.1338893473
0.1342206895 0.1342206895 0.1342206895
0.1345521659 0.1345521659 0.1345521659
0.1348837763 0.1348837763 0.1348837763
0.1352155358 0.1352155358 0.1352155358
0.1355474144 0.1355474144 0.1355474144
0.1358794421 0.1358794421 0.1358794421
0.1362115890 0.1362115890 0.1362115890
0.1365438849 0.1365438849 0.1365438849
0.1368763149 0.1368763149 0.1368763149
0.1372088641 0.1372088641 0.1372088641
0.1375415623 0.1375415623 0.1375415623
0.1378743947 0.1378743947 0.1378743947
0.1382073611 0.1382073611 0.1382073611
0.1385404468 0.1385404468 0.1385404468
0.1388736814 0.1388736814 0.1388736814
0.1392070502 0.1392070502 0.1392070502
0.1395405382 0.1395405382 0.1395405382
0.1398741752 0.1398741752 0.1398741752
0.1402079314 0.1402079314 0.1402079314
0.1405418217 0.1405418217 0.1405418217
0.1408758610 0.1408758610 0.1408758610
0.1412100196 0.1412100196 0.1412100196
0.1415443122 0.1415443122 0.1415443122
0.1418787241 0.1418787241 0.1418787241
0.1422132850 0.1422132850 0.1422132850
0.1425479650 0.1425479650 0.1425479650
0.1428827792 0.1428827792 0.1428827792
0.1432177275 0.1432177275 0.1432177275
0.1435528100 0.1435528100 0.1435528100
0.1438880116 0.1438880116 0.1438880116
0.1442233473 0.1442233473 0.1442233473
0.1445588171 0.1445588171 0.1445588171
0.1448944211 0.1448944211 0.1448944211
0.1452301443 0.1452301443 0.1452301443
0.1455660015 0.1455660015 0.1455660015
0.1459019929 0.1459019929 0.1459019929
0.1462381035 0.1462381035 0.1462381035
0.1465743482 0.1465743482 0.1465743482
0.1469107270 0.1469107270 0.1469107270
0.1472472250 0.1472472250 0.1472472250
0.1475838572 0.1475838572 0.1475838572
0.1479206085 0.1479206085 0.1479206085
0.1482574940 0.1482574940 0.1482574940
0.1485944986 0.1485944986 0.1485944986
0.1489316523 0.1489316523 0.1489316523
0.1492689103 0.1492689103 0.1492689103
0.1496063024 0.1496063024 0.1496063024
0.1499438286 0.1499438286 0.1499438286
0.1502814740 0.1502814740 0.1502814740
0.1506192535 0.1506192535 0.1506192535
0.1509571522 0.1509571522 0.1509571522
0.1512951851 0.1512951851 0.1512951851
0.1516333371 0.1516333371 0.1516333371
0.1519716084 0.1519716084 0.1519716084
0.1523100138 0.1523100138 0.1523100138
0.1526485384 0.1526485384 0.1526485384
0.1529871970 0.1529871970 0.1529871970
0.1533259749 0.1533259749 0.1533259749
0.1536648870 0.1536648870 0.1536648870
0.1540039033 0.1540039033 0.1540039033
0.1543430686 0.1543430686 0.1543430686
0.1546823382 0.1546823382 0.1546823382
0.1550217420 0.1550217420 0.1550217420
0.1553612649 0.1553612649 0.1553612649
0.1557009220 0.1557009220 0.1557009220
0.1560406834 0.1560406834 0.1560406834
0.1563805938 0.1563805938 0.1563805938
0.1567206085 0.1567206085 0.1567206085
0.1570607424 0.1570607424 0.1570607424
0.1574010104 0.1574010104 0.1574010104
0.1577413976 0.1577413976 0.1577413976
0.1580819190 0.1580819190 0.1580819190
0.1584225446 0.1584225446 0.1584225446
0.1587633044 0.1587633044 0.1587633044
0.1591041684 0.1591041684 0.1591041684
0.1594451666 0.1594451666 0.1594451666
0.1597862989 0.1597862989 0.1597862989
0.1601275355 0.1601275355 0.1601275355
0.1604688913 0.1604688913 0.1604688913
0.1608103812 0.1608103812 0.1608103812
0.1611519903 0.1611519903 0.1611519903
0.1614937186 0.1614937186 0.1614937186
0.1618355513 0.1618355513 0.1618355513
0.1621775180 0.1621775180 0.1621775180
0.1625196040 0.1625196040 0.1625196040
0.1628618240 0.1628618240 0.1628618240
0.1632041484 0.1632041484 0.1632041484
0.1635465920 0.1635465920 0.1635465920
0.1638891548 0.1638891548 0.1638891548
0.1642318368 0.1642318368 0.1642318368
0.1645746380 0.1645746380 0.1645746380
0.1649175733 0.1649175733 0.1649175733
0.1652606130 0.1652606130 0.1652606130
0.1656037718 0.1656037718 0.1656037718
0.1659470499 0.1659470499 0.1659470499
0.1662904471 0.1662904471 0.1662904471
0.1666339636 0.1666339636 0.1666339636
0.1669775993 0.1669775993 0.1669775993
0.1673213542 0.1673213542 0.1673213542
0.1676652133 0.1676652133 0.1676652133
0.1680092067 0.1680092067 0.1680092067
0.1683533192 0.1683533192 0.1683533192
0.1686975360 0.1686975360 0.1686975360
0.1690418720 0.1690418720 0.1690418720
0.1693863273 0.1693863273 0.1693863273
0.1697309017 0.1697309017 0.1697309017
0.1700755954 0.1700755954 0.1700755954
0.1704203933 0.1704203933 0.1704203933
0.1707653254 0.1707653254 0.1707653254
0.1711103618 0.1711103618 0.1711103618
0.1714555174 0.1714555174 0.1714555174
0.1718007773 0.1718007773 0.1718007773
0.1721461713 0.1721461713 0.1721461713
0.1724916697 0.1724916697 0.1724916697
0.1728372872 0.1728372872 0.1728372872
0.1731830239 0.1731830239 0.1731830239
0.1735288650 0.1735288650 0.1735288650
0.1738748252 0.1738748252 0.1738748252
0.1742209047 0.1742209047 0.1742209047
0.1745671034 0.1745671034 0.1745671034
0.1749134064 0.1749134064 0.1749134064
0.1752598286 0.1752598286 0.1752598286
0.1756063551 0.1756063551 0.1756063551
0.1759530157 0.1759530157 0.1759530157
0.1762997657 0.1762997657 0.1762997657
0.1766466498 0.1766466498 0.1766466498
