HDR Hybrid Log-Gamma/Gamma 2.2 to HLG.cube
# DaVinci Resolve Cube (1D shaper LUT).

LUT_1D_SIZE 4096
LUT_1D_INPUT_RANGE 0.0000000000 3.0941184454

0.0000000000 0.0000000000 0.0000000000
0.0001841117 0.0001841117 0.0001841117
0.0003946520 0.0003946520 0.0003946520
0.0006164739 0.0006164739 0.0006164739
0.0008459551 0.0008459551 0.0008459551
0.0010813053 0.0010813053 0.0010813053
0.0013214408 0.0013214408 0.0013214408
0.0015656302 0.0015656302 0.0015656302
0.0018133445 0.0018133445 0.0018133445
0.0020641824 0.0020641824 0.0020641824
0.0023178286 0.0023178286 0.0023178286
0.0025740282 0.0025740282 0.0025740282
0.0028325703 0.0028325703 0.0028325703
0.0030932785 0.0030932785 0.0030932785
0.0033560018 0.0033560018 0.0033560018
0.0036206099 0.0036206099 0.0036206099
0.0038869891 0.0038869891 0.0038869891
0.0041550393 0.0041550393 0.0041550393
0.0044246721 0.0044246721 0.0044246721
0.0046958076 0.0046958076 0.0046958076
0.0049683745 0.0049683745 0.0049683745
0.0052423081 0.0052423081 0.0052423081
0.0055175503 0.0055175503 0.0055175503
0.0057940464 0.0057940464 0.0057940464
0.0060717473 0.0060717473 0.0060717473
0.0063506085 0.0063506085 0.0063506085
0.0066305879 0.0066305879 0.0066305879
0.0069116456 0.0069116456 0.0069116456
0.0071937470 0.0071937470 0.0071937470
0.0074768579 0.0074768579 0.0074768579
0.0077609471 0.0077609471 0.0077609471
0.0080459844 0.0080459844 0.0080459844
0.0083319433 0.0083319433 0.0083319433
0.0086187972 0.0086187972 0.0086187972
0.0089065218 0.0089065218 0.0089065218
0.0091950940 0.0091950940 0.0091950940
0.0094844922 0.0094844922 0.0094844922
0.0097746952 0.0097746952 0.0097746952
0.0100656841 0.0100656841 0.0100656841
0.0103574395 0.0103574395 0.0103574395
0.0106499437 0.0106499437 0.0106499437
0.0109431809 0.0109431809 0.0109431809
0.0112371342 0.0112371342 0.0112371342
0.0115317879 0.0115317879 0.0115317879
0.0118271271 0.0118271271 0.0118271271
0.0121231396 0.0121231396 0.0121231396
0.0124198096 0.0124198096 0.0124198096
0.0127171259 0.0127171259 0.0127171259
0.0130150756 0.0130150756 0.0130150756
0.0133136464 0.0133136464 0.0133136464
0.0136128273 0.0136128273 0.0136128273
0.0139126070 0.0139126070 0.0139126070
0.0142129753 0.0142129753 0.0142129753
0.0145139219 0.0145139219 0.0145139219
0.0148154376 0.0148154376 0.0148154376
0.0151175112 0.0151175112 0.0151175112
0.0154201342 0.0154201342 0.0154201342
0.0157232992 0.0157232992 0.0157232992
0.0160269961 0.0160269961 0.0160269961
0.0163312163 0.0163312163 0.0163312163
0.0166359544 0.0166359544 0.0166359544
0.0169411991 0.0169411991 0.0169411991
0.0172469448 0.0172469448 0.0172469448
0.0175531860 0.0175531860 0.0175531860
0.0178599115 0.0178599115 0.0178599115
0.0181671176 0.0181671176 0.0181671176
0.0184747968 0.0184747968 0.0184747968
0.0187829416 0.0187829416 0.0187829416
0.0190915484 0.0190915484 0.0190915484
0.0194006078 0.0194006078 0.0194006078
0.0197101161 0.0197101161 0.0197101161
0.0200200658 0.0200200658 0.0200200658
0.0203304552 0.0203304552 0.0203304552
0.0206412729 0.0206412729 0.0206412729
0.0209525190 0.0209525190 0.0209525190
0.0212641843 0.0212641843 0.0212641843
0.0215762667 0.0215762667 0.0215762667
0.0218887590 0.0218887590 0.0218887590
0.0222016573 0.0222016573 0.0222016573
0.0225149579 0.0225149579 0.0225149579
0.0228286553 0.0228286553 0.0228286553
0.0231427439 0.0231427439 0.0231427439
0.0234572217 0.0234572217 0.0234572217
0.0237720832 0.0237720832 0.0237720832
0.0240873229 0.0240873229 0.0240873229
0.0244029406 0.0244029406 0.0244029406
0.0247189272 0.0247189272 0.0247189272
0.0250352826 0.0250352826 0.0250352826
0.0253520031 0.0253520031 0.0253520031
0.0256690830 0.0256690830 0.0256690830
0.0259865187 0.0259865187 0.0259865187
0.0263043065 0.0263043065 0.0263043065
0.0266224463 0.0266224463 0.0266224463
0.0269409306 0.0269409306 0.0269409306
0.0272597559 0.0272597559 0.0272597559
0.0275789239 0.0275789239 0.0275789239
0.0278984252 0.0278984252 0.0278984252
0.0282182600 0.0282182600 0.0282182600
0.0285384264 0.0285384264 0.0285384264
0.0288589187 0.0288589187 0.0288589187
0.0291797351 0.0291797351 0.0291797351
0.0295008719 0.0295008719 0.0295008719
0.0298223272 0.0298223272 0.0298223272
0.0301440973 0.0301440973 0.0301440973
0.0304661803 0.0304661803 0.0304661803
0.0307885725 0.0307885725 0.0307885725
0.0311112739 0.0311112739 0.0311112739
0.0314342789 0.0314342789 0.0314342789
0.0317575857 0.0317575857 0.0317575857
0.0320811905 0.0320811905 0.0320811905
0.0324050933 0.0324050933 0.0324050933
0.0327292904 0.0327292904 0.0327292904
0.0330537818 0.0330537818 0.0330537818
0.0333785638 0.0333785638 0.0333785638
0.0337036289 0.0337036289 0.0337036289
0.0340289809 0.0340289809 0.0340289809
0.0343546197 0.0343546197 0.0343546197
0.0346805342 0.0346805342 0.0346805342
0.0350067317 0.0350067317 0.0350067317
0.0353332013 0.0353332013 0.0353332013
0.0356599465 0.0356599465 0.0356599465
0.0359869674 0.0359869674 0.0359869674
0.0363142565 0.0363142565 0.0363142565
0.0366418138 0.0366418138 0.0366418138
0.0369696356 0.0369696356 0.0369696356
0.0372977257 0.0372977257 0.0372977257
0.0376260765 0.0376260765 0.0376260765
0.0379546881 0.0379546881 0.0379546881
0.0382835604 0.0382835604 0.0382835604
0.0386126861 0.0386126861 0.0386126861
0.0389420688 0.0389420688 0.0389420688
0.0392717049 0.0392717049 0.0392717049
0.0396015942 0.0396015942 0.0396015942
0.0399317332 0.0399317332 0.0399317332
0.0402621180 0.0402621180 0.0402621180
0.0405927524 0.0405927524 0.0405927524
0.0409236290 0.0409236290 0.0409236290
0.0412547514 0.0412547514 0.0412547514
0.0415861122 0.0415861122 0.0415861122
0.0419177152 0.0419177152 0.0419177152
0.0422495604 0.0422495604 0.0422495604
0.0425816365 0.0425816365 0.0425816365
0.0429139510 0.0429139510 0.0429139510
0.0432465002 0.0432465002 0.0432465002
0.0435792841 0.0435792841 0.0435792841
0.0439122953 0.0439122953 0.0439122953
0.0442455374 0.0442455374 0.0442455374
0.0445790067 0.0445790067 0.0445790067
0.0449127071 0.0449127071 0.0449127071
0.0452466309 0.0452466309 0.0452466309
0.0455807783 0.0455807783 0.0455807783
0.0459151454 0.0459151454 0.0459151454
0.0462497398 0.0462497398 0.0462497398
0.0465845503 0.0465845503 0.0465845503
0.0469195805 0.0469195805 0.0469195805
0.0472548306 0.0472548306 0.0472548306
0.0475902930 0.0475902930 0.0475902930
0.0479259752 0.0479259752 0.0479259752
0.0482618697 0.0482618697 0.0482618697
0.0485979766 0.0485979766 0.0485979766
0.0489342920 0.0489342920 0.0489342920
0.0492708199 0.0492708199 0.0492708199
0.0496075600 0.0496075600 0.0496075600
0.0499445051 0.0499445051 0.0499445051
0.0502816550 0.0502816550 0.0502816550
0.0506190136 0.0506190136 0.0506190136
0.0509565771 0.0509565771 0.0509565771
0.0512943417 0.0512943417 0.0512943417
0.0516323075 0.0516323075 0.0516323075
0.0519704781 0.0519704781 0.0519704781
0.0523088463 0.0523088463 0.0523088463
0.0526474155 0.0526474155 0.0526474155
0.0529861823 0.0529861823 0.0529861823
0.0533251464 0.0533251464 0.0533251464
0.0536643043 0.0536643043 0.0536643043
0.0540036596 0.0540036596 0.0540036596
0.0543432087 0.0543432087 0.0543432087
0.0546829477 0.0546829477 0.0546829477
0.0550228842 0.0550228842 0.0550228842
0.0553630069 0.0553630069 0.0553630069
0.0557033196 0.0557033196 0.0557033196
0.0560438260 0.0560438260 0.0560438260
0.0563845150 0.0563845150 0.0563845150
0.0567253940 0.0567253940 0.0567253940
0.0570664629 0.0570664629 0.0570664629
0.0574077107 0.0574077107 0.0574077107
0.0577491485 0.0577491485 0.0577491485
0.0580907650 0.0580907650 0.0580907650
0.0584325679 0.0584325679 0.0584325679
0.0587745495 0.0587745495 0.0587745495
0.0591167137 0.0591167137 0.0591167137
0.0594590604 0.0594590604 0.0594590604
0.0598015822 0.0598015822 0.0598015822
0.0601442866 0.0601442866 0.0601442866
0.0604871660 0.0604871660 0.0604871660
0.0608302243 0.0608302243 0.0608302243
0.0611734539 0.0611734539 0.0611734539
0.0615168624 0.0615168624 0.0615168624
0.0618604459 0.0618604459 0.0618604459
0.0622042008 0.0622042008 0.0622042008
0.0625481308 0.0625481308 0.0625481308
0.0628922284 0.0628922284 0.0628922284
0.0632365048 0.0632365048 0.0632365048
0.0635809451 0.0635809451 0.0635809451
0.0639255568 0.0639255568 0.0639255568
0.0642703399 0.0642703399 0.0642703399
0.0646152869 0.0646152869 0.0646152869
0.0649604052 0.0649604052 0.0649604052
0.0653056875 0.0653056875 0.0653056875
0.0656511337 0.0656511337 0.0656511337
0.0659967512 0.0659967512 0.0659967512
0.0663425326 0.0663425326 0.0663425326
0.0666884780 0.0666884780 0.0666884780
0.0670345798 0.0670345798 0.0670345798
0.0673808530 0.0673808530 0.0673808530
0.0677272826 0.0677272826 0.0677272826
0.0680738762 0.0680738762 0.0680738762
0.0684206262 0.0684206262 0.0684206262
0.0687675402 0.0687675402 0.0687675402
0.0691146106 0.0691146106 0.0691146106
0.0694618374 0.0694618374 0.0694618374
0.0698092282 0.0698092282 0.0698092282
0.0701567754 0.0701567754 0.0701567754
0.0705044717 0.0705044717 0.0705044717
0.0708523318 0.0708523318 0.0708523318
0.0712003484 0.0712003484 0.0712003484
0.0715485141 0.0715485141 0.0715485141
0.0718968362 0.0718968362 0.0718968362
0.0722453147 0.0722453147 0.0722453147
0.0725939423 0.0725939423 0.0725939423
0.0729427189 0.0729427189 0.0729427189
0.0732916519 0.0732916519 0.0732916519
0.0736407340 0.0736407340 0.0736407340
0.0739899725 0.0739899725 0.0739899725
0.0743393525 0.0743393525 0.0743393525
0.0746888891 0.0746888891 0.0746888891
0.0750385672 0.0750385672 0.0750385672
0.0753884017 0.0753884017 0.0753884017
0.0757383779 0.0757383779 0.0757383779
0.0760885030 0.0760885030 0.0760885030
0.0764387697 0.0764387697 0.0764387697
0.0767891929 0.0767891929 0.0767891929
0.0771397501 0.0771397501 0.0771397501
0.0774904564 0.0774904564 0.0774904564
0.0778413117 0.0778413117 0.0778413117
0.0781923085 0.0781923085 0.0781923085
0.0785434470 0.0785434470 0.0785434470
0.0788947269 0.0788947269 0.0788947269
0.0792461559 0.0792461559 0.0792461559
0.0795977190 0.0795977190 0.0795977190
0.0799494237 0.0799494237 0.0799494237
0.0803012699 0.0803012699 0.0803012699
0.0806532577 0.0806532577 0.0806532577
0.0810053870 0.0810053870 0.0810053870
0.0813576579 0.0813576579 0.0813576579
0.0817100629 0.0817100629 0.0817100629
0.0820626020 0.0820626020 0.0820626020
0.0824152827 0.0824152827 0.0824152827
0.0827681050 0.0827681050 0.0827681050
0.0831210613 0.0831210613 0.0831210613
0.0834741518 0.0834741518 0.0834741518
0.0838273838 0.0838273838 0.0838273838
0.0841807425 0.0841807425 0.0841807425
0.0845342427 0.0845342427 0.0845342427
0.0848878771 0.0848878771 0.0848878771
0.0852416381 0.0852416381 0.0852416381
0.0855955407 0.0855955407 0.0855955407
0.0859495699 0.0859495699 0.0859495699
0.0863037407 0.0863037407 0.0863037407
0.0866580382 0.0866580382 0.0866580382
0.0870124623 0.0870124623 0.0870124623
0.0873670280 0.0873670280 0.0873670280
0.0877217203 0.0877217203 0.0877217203
0.0880765393 0.0880765393 0.0880765393
0.0884314924 0.0884314924 0.0884314924
0.0887865722 0.0887865722 0.0887865722
0.0891417861 0.0891417861 0.0891417861
0.0894971266 0.0894971266 0.0894971266
0.0898525938 0.0898525938 0.0898525938
0.0902081877 0.0902081877 0.0902081877
0.0905639082 0.0905639082 0.0905639082
0.0909197628 0.0909197628 0.0909197628
0.0912757367 0.0912757367 0.0912757367
0.0916318446 0.0916318446 0.0916318446
0.0919880718 0.0919880718 0.0919880718
0.0923444256 0.0923444256 0.0923444256
0.0927009061 0.0927009061 0.0927009061
0.0930575058 0.0930575058 0.0930575058
0.0934142396 0.0934142396 0.0934142396
0.0937710926 0.0937710926 0.0937710926
0.0941280648 0.0941280648 0.0941280648
0.0944851637 0.0944851637 0.0944851637
0.0948423892 0.0948423892 0.0948423892
0.0951997340 0.0951997340 0.0951997340
0.0955571979 0.0955571979 0.0955571979
0.0959147811 0.0959147811 0.0959147811
0.0962724909 0.0962724909 0.0962724909
0.0966303200 0.0966303200 0.0966303200
0.0969882756 0.0969882756 0.0969882756
0.0973463431 0.0973463431 0.0973463431
0.0977045372 0.0977045372 0.0977045372
0.0980628431 0.0980628431 0.0980628431
0.0984212756 0.0984212756 0.0984212756
0.0987798199 0.0987798199 0.0987798199
0.0991384834 0.0991384834 0.0991384834
0.0994972661 0.0994972661 0.0994972661
0.0998561680 0.0998561680 0.0998561680
0.1002151892 0.1002151892 0.1002151892
0.1005743220 0.1005743220 0.1005743220
0.1009335741 0.1009335741 0.1009335741
0.1012929454 0.1012929454 0.1012929454
0.1016524285 0.1016524285 0.1016524285
0.1020120308 0.1020120308 0.1020120308
0.1023717448 0.1023717448 0.1023717448
0.1027315781 0.1027315781 0.1027315781
0.1030915231 0.1030915231 0.1030915231
0.1034515798 0.1034515798 0.1034515798
0.1038117558 0.1038117558 0.1038117558
0.1041720361 0.1041720361 0.1041720361
0.1045324430 0.1045324430 0.1045324430
0.1048929542 0.1048929542 0.1048929542
0.1052535772 0.1052535772 0.1052535772
0.1056143194 0.1056143194 0.1056143194
0.1059751660 0.1059751660 0.1059751660
0.1063361317 0.1063361317 0.1063361317
0.1066972017 0.1066972017 0.1066972017
0.1070583835 0.1070583835 0.1070583835
0.1074196845 0.1074196845 0.1074196845
0.1077810898 0.1077810898 0.1077810898
0.1081426069 0.1081426069 0.1081426069
0.1085042283 0.1085042283 0.1085042283
0.1088659689 0.1088659689 0.1088659689
0.1092278138 0.1092278138 0.1092278138
0.1095897630 0.1095897630 0.1095897630
0.1099518239 0.1099518239 0.1099518239
0.1103139967 0.1103139967 0.1103139967
0.1106762737 0.1106762737 0.1106762737
0.1110386625 0.1110386625 0.1110386625
0.1114011556 0.1114011556 0.1114011556
0.1117637604 0.1117637604 0.1117637604
0.1121264696 0.1121264696 0.1121264696
0.1124892831 0.1124892831 0.1124892831
0.1128522083 0.1128522083 0.1128522083
0.1132152304 0.1132152304 0.1132152304
0.1135783643 0.1135783643 0.1135783643
0.1139416099 0.1139416099 0.1139416099
0.1143049523 0.1143049523 0.1143049523
0.1146683991 0.1146683991 0.1146683991
0.1150319576 0.1150319576 0.1150319576
0.1153956130 0.1153956130 0.1153956130
0.1157593802 0.1157593802 0.1157593802
0.1161232442 0.1161232442 0.1161232442
0.1164872125 0.1164872125 0.1164872125
0.1168512926 0.1168512926 0.1168512926
0.1172154695 0.1172154695 0.1172154695
0.1175797507 0.1175797507 0.1175797507
0.1179441288 0.1179441288 0.1179441288
0.1183086187 0.1183086187 0.1183086187
0.1186732054 0.1186732054 0.1186732054
0.1190378889 0.1190378889 0.1190378889
0.1194026843 0.1194026843 0.1194026843
0.1197675765 0.1197675765 0.1197675765
0.1201325655 0.1201325655 0.1201325655
0.1204976663 0.1204976663 0.1204976663
0.1208628565 0.1208628565 0.1208628565
0.1212281510 0.1212281510 0.1212281510
0.1215935498 0.1215935498 0.1215935498
0.1219590455 0.1219590455 0.1219590455
0.1223246381 0.1223246381 0.1223246381
0.1226903275 0.1226903275 0.1226903275
0.1230561212 0.1230561212 0.1230561212
0.1234220192 0.1234220192 0.1234220192
0.1237880066 0.1237880066 0.1237880066
0.1241540983 0.1241540983 0.1241540983
0.1245202795 0.1245202795 0.1245202795
0.1248865649 0.1248865649 0.1248865649
0.1252529472 0.1252529472 0.1252529472
0.1256194264 0.1256194264 0.1256194264
0.1259860098 0.1259860098 0.1259860098
0.1263526827 0.1263526827 0.1263526827
0.1267194599 0.1267194599 0.1267194599
0.1270863265 0.1270863265 0.1270863265
0.1274532825 0.1274532825 0.1274532825
0.1278203428 0.1278203428 0.1278203428
0.1281875074 0.1281875074 0.1281875074
0.1285547465 0.1285547465 0.1285547465
0.1289221048 0.1289221048 0.1289221048
0.1292895377 0.1292895377 0.1292895377
0.1296570748 0.1296570748 0.1296570748
0.1300247163 0.1300247163 0.1300247163
0.1303924322 0.1303924322 0.1303924322
0.1307602525 0.1307602525 0.1307602525
0.1311281770 0.1311281770 0.1311281770
0.1314961761 0.1314961761 0.1314961761
0.1318642795 0.1318642795 0.1318642795
0.1322324723 0.1322324723 0.1322324723
0.1326007694 0.1326007694 0.1326007694
0.1329691559 0.1329691559 0.1329691559
0.1333376318 0.1333376318 0.1333376318
0.1337061971 0.1337061971 0.1337061971
0.1340748519 0.1340748519 0.1340748519
0.1344436109 0.1344436109 0.1344436109
0.1348124444 0.1348124444 0.1348124444
0.1351813823 0.1351813823 0.1351813823
0.1355504096 0.1355504096 0.1355504096
0.1359195262 0.1359195262 0.1359195262
0.1362887323 0.1362887323 0.1362887323
0.1366580427 0.1366580427 0.1366580427
0.1370274276 0.1370274276 0.1370274276
0.1373969167 0.1373969167 0.1373969167
0.1377664804 0.1377664804 0.1377664804
0.1381361485 0.1381361485 0.1381361485
0.1385059059 0.1385059059 0.1385059059
0.1388757378 0.1388757378 0.1388757378
0.1392456740 0.1392456740 0.1392456740
0.1396156996 0.1396156996 0.1396156996
0.1399857998 0.1399857998 0.1399857998
0.1403560042 0.1403560042 0.1403560042
0.1407262981 0.1407262981 0.1407262981
0.1410966665 0.1410966665 0.1410966665
0.1414671391 0.1414671391 0.1414671391
0.1418376863 0.1418376863 0.1418376863
0.1422083229 0.1422083229 0.1422083229
0.1425790638 0.1425790638 0.1425790638
0.1429498792 0.1429498792 0.1429498792
0.1433207840 0.1433207840 0.1433207840
0.1436917633 0.1436917633 0.1436917633
0.1440628469 0.1440628469 0.1440628469
0.1444340199 0.1444340199 0.1444340199
0.1448052675 0.1448052675 0.1448052675
0.1451766044 0.1451766044 0.1451766044
0.1455480307 0.1455480307 0.1455480307
0.1459195465 0.1459195465 0.1459195465
0.1462911367 0.1462911367 0.1462911367
0.1466628164 0.1466628164 0.1466628164
0.1470345855 0.1470345855 0.1470345855
0.1474064440 0.1474064440 0.1474064440
0.1477783918 0.1477783918 0.1477783918
0.1481504142 0.1481504142 0.1481504142
0.1485225260 0.1485225260 0.1485225260
0.1488947123 0.1488947123 0.1488947123
0.1492669880 0.1492669880 0.1492669880
0.1496393532 0.1496393532 0.1496393532
0.1500118077 0.1500118077 0.1500118077
0.1503843367 0.1503843367 0.1503843367
0.1507569551 0.1507569551 0.1507569551
0.1511296481 0.1511296481 0.1511296481
0.1515024304 0.1515024304 0.1515024304
0.1518753022 0.1518753022 0.1518753022
0.1522482485 0.1522482485 0.1522482485
0.1526212841 0.1526212841 0.1526212841
0.1529943943 0.1529943943 0.1529943943
0.1533675939 0.1533675939 0.1533675939
0.1537408829 0.1537408829 0.1537408829
0.1541142464 0.1541142464 0.1541142464
0.1544876844 0.1544876844 0.1544876844
0.1548612118 0.1548612118 0.1548612118
0.1552348286 0.1552348286 0.1552348286
0.1556085199 0.1556085199 0.1556085199
0.1559822857 0.1559822857 0.1559822857
0.1563561410 0.1563561410 0.1563561410
0.1567300856 0.1567300856 0.1567300856
0.1571040899 0.1571040899 0.1571040899
0.1574781984 0.1574781984 0.1574781984
0.1578523666 0.1578523666 0.1578523666
0.1582266390 0.1582266390 0.1582266390
0.1586009711 0.1586009711 0.1586009711
0.1589753926 0.1589753926 0.1589753926
0.1593498886 0.1593498886 0.1593498886
0.1597244740 0.1597244740 0.1597244740
0.1600991338 0.1600991338 0.1600991338
0.1604738683 0.1604738683 0.1604738683
0.1608486921 0.1608486921 0.1608486921
0.1612235904 0.1612235904 0.1612235904
0.1615985632 0.1615985632 0.1615985632
0.1619736254 0.1619736254 0.1619736254
0.1623487622 0.1623487622 0.1623487622
0.1627239734 0.1627239734 0.1627239734
0.1630992740 0.1630992740 0.1630992740
0.1634746492 0.1634746492 0.1634746492
0.1638500988 0.1638500988 0.1638500988
0.1642256230 0.1642256230 0.1642256230
0.1646012366 0.1646012366 0.1646012366
0.1649769098 0.1649769098 0.1649769098
0.1653526723 0.1653526723 0.1653526723
0.1657285243 0.1657285243 0.1657285243
0.1661044359 0.1661044359 0.1661044359
0.1664804369 0.1664804369 0.1664804369
0.1668564975 0.1668564975 0.1668564975
0.1672326475 0.1672326475 0.1672326475
0.1676088870 0.1676088870 0.1676088870
0.1679851860 0.1679851860 0.1679851860
0.1683615595 0.1683615595 0.1683615595
0.1687380224 0.1687380224 0.1687380224
0.1691145450 0.1691145450 0.1691145450
0.1694911569 0.1694911569 0.1694911569
0.1698678434 0.1698678434 0.1698678434
0.1702446043 0.1702446043 0.1702446043
0.1706214398 0.1706214398 0.1706214398
0.1709983498 0.1709983498 0.1709983498
0.1713753492 0.1713753492 0.1713753492
0.1717524081 0.1717524081 0.1717524081
0.1721295416 0.1721295416 0.1721295416
0.1725067645 0.1725067645 0.1725067645
0.1728840470 0.1728840470 0.1728840470
0.1732614189 0.1732614189 0.1732614189
0.1736388505 0.1736388505 0.1736388505
0.1740163714 0.1740163714 0.1740163714
0.1743939519 0.1743939519 0.1743939519
0.1747716069 0.1747716069 0.1747716069
0.1751493514 0.1751493514 0.1751493514
0.1755271554 0.1755271554 0.1755271554
0.1759050488 0.1759050488 0.1759050488
0.1762830019 0.1762830019 0.1762830019
0.1766610295 0.1766610295 0.1766610295
0.1770391315 0.1770391315 0.1770391315
0.1774173230 0.1774173230 0.1774173230
0.1777955741 0.1777955741 0.1777955741
0.1781738997 0.1781738997 0.1781738997
0.1785522848 0.1785522848 0.1785522848
0.1789307594 0.1789307594 0.1789307594
0.1793093085 0.1793093085 0.1793093085
0.1796879172 0.1796879172 0.1796879172
0.1800666153 0.1800666153 0.1800666153
0.1804453731 0.1804453731 0.1804453731
0.1808242053 0.1808242053 0.1808242053
0.1812031120 0.1812031120 0.1812031120
0.1815820932 0.1815820932 0.1815820932
0.1819611341 0.1819611341 0.1819611341
0.1823402643 0.1823402643 0.1823402643
0.1827194542 0.1827194542 0.1827194542
0.1830987185 0.1830987185 0.1830987185
0.1834780574 0.1834780574 0.1834780574
0.1838574708 0.1838574708 0.1838574708
0.1842369437 0.1842369437 0.1842369437
0.1846164912 0.1846164912 0.1846164912
0.1849961132 0.1849961132 0.1849961132
0.1853758097 0.1853758097 0.1853758097
0.1857555658 0.1857555658 0.1857555658
0.1861353964 0.1861353964 0.1861353964
0.1865153015 0.1865153015 0.1865153015
0.1868952811 0.1868952811 0.1868952811
0.1872753203 0.1872753203 0.1872753203
0.1876554340 0.1876554340 0.1876554340
0.1880356222 0.1880356222 0.1880356222
0.1884158701 0.1884158701 0.1884158701
0.1887961924 0.1887961924 0.1887961924
0.1891765893 0.1891765893 0.1891765893
0.1895570606 0.1895570606 0.1895570606
0.1899375916 0.1899375916 0.1899375916
0.1903181821 0.1903181821 0.1903181821
0.1906988621 0.1906988621 0.1906988621
0.1910796016 0.1910796016 0.1910796016
0.1914604008 0.1914604008 0.1914604008
0.1918412894 0.1918412894 0.1918412894
0.1922222376 0.1922222376 0.1922222376
0.1926032454 0.1926032454 0.1926032454
0.1929843277 0.1929843277 0.1929843277
0.1933654845 0.1933654845 0.1933654845
0.1937467009 0.1937467009 0.1937467009
0.1941279918 0.1941279918 0.1941279918
0.1945093572 0.1945093572 0.1945093572
0.1948907822 0.1948907822 0.1948907822
0.1952722669 0.1952722669 0.1952722669
0.1956538260 0.1956538260 0.1956538260
0.1960354596 0.1960354596 0.1960354596
0.1964171529 0.1964171529 0.1964171529
0.1967989206 0.1967989206 0.1967989206
0.1971807480 0.1971807480 0.1971807480
0.1975626498 0.1975626498 0.1975626498
0.1979446113 0.1979446113 0.1979446113
0.1983266473 0.1983266473 0.1983266473
0.1987087429 0.1987087429 0.1987087429
0.1990908980 0.1990908980 0.1990908980
0.1994731426 0.1994731426 0.1994731426
0.1998554319 0.1998554319 0.1998554319
0.2002377957 0.2002377957 0.2002377957
0.2006202340 0.2006202340 0.2006202340
0.2010027319 0.2010027319 0.2010027319
0.2013852894 0.2013852894 0.2013852894
0.2017679214 0.2017679214 0.2017679214
0.2021506280 0.2021506280 0.2021506280
0.2025333792 0.2025333792 0.2025333792
0.2029162049 0.2029162049 0.2029162049
0.2032991052 0.2032991052 0.2032991052
0.2036820650 0.2036820650 0.2036820650
0.2040650845 0.2040650845 0.2040650845
0.2044481784 0.2044481784 0.2044481784
0.2048313320 0.2048313320 0.2048313320
0.2052145600 0.2052145600 0.2052145600
0.2055978477 0.2055978477 0.2055978477
0.2059811950 0.2059811950 0.2059811950
0.2063646019 0.2063646019 0.2063646019
0.2067480832 0.2067480832 0.2067480832
0.2071316242 0.2071316242 0.2071316242
0.2075152397 0.2075152397 0.2075152397
0.2078989148 0.2078989148 0.2078989148
0.2082826495 0.2082826495 0.2082826495
0.2086664587 0.2086664587 0.2086664587
0.2090503275 0.2090503275 0.2090503275
0.2094342560 0.2094342560 0.2094342560
0.2098182440 0.2098182440 0.2098182440
0.2102023065 0.2102023065 0.2102023065
0.2105864286 0.2105864286 0.2105864286
0.2109706104 0.2109706104 0.2109706104
0.2113548666 0.2113548666 0.2113548666
0.2117391825 0.2117391825 0.2117391825
0.2121235579 0.2121235579 0.2121235579
0.2125079930 0.2125079930 0.2125079930
0.2128925025 0.2128925025 0.2128925025
0.2132770717 0.2132770717 0.2132770717
0.2136617005 0.2136617005 0.2136617005
