HDR Hybrid Log-Gamma/Gamma 1.0 to HLG.cube
# DaVinci Resolve Cube (1D shaper LUT).

LUT_1D_SIZE 4096
LUT_1D_INPUT_RANGE 0.0000000000 12.0000002924

0.0000000000 0.0000000000 0.0000000000
0.0270665977 0.0270665977 0.0270665977
0.0382779501 0.0382779501 0.0382779501
0.0468807220 0.0468807220 0.0468807220
0.0541331954 0.0541331954 0.0541331954
0.0605227537 0.0605227537 0.0605227537
0.0662993565 0.0662993565 0.0662993565
0.0716114864 0.0716114864 0.0716114864
0.0765559003 0.0765559003 0.0765559003
0.0811997950 0.0811997950 0.0811997950
0.0855920985 0.0855920985 0.0855920985
0.0897697508 0.0897697508 0.0897697508
0.0937614441 0.0937614441 0.0937614441
0.0975900069 0.0975900069 0.0975900069
0.1012739390 0.1012739390 0.1012739390
0.1048284844 0.1048284844 0.1048284844
0.1082663909 0.1082663909 0.1082663909
0.1115984470 0.1115984470 0.1115984470
0.1148338541 0.1148338541 0.1148338541
0.1179805696 0.1179805696 0.1179805696
0.1210455075 0.1210455075 0.1210455075
0.1240347326 0.1240347326 0.1240347326
0.1269536018 0.1269536018 0.1269536018
0.1298068464 0.1298068464 0.1298068464
0.1325987130 0.1325987130 0.1325987130
0.1353329867 0.1353329867 0.1353329867
0.1380131096 0.1380131096 0.1380131096
0.1406421661 0.1406421661 0.1406421661
0.1432229728 0.1432229728 0.1432229728
0.1457580924 0.1457580924 0.1457580924
0.1482498646 0.1482498646 0.1482498646
0.1507004350 0.1507004350 0.1507004350
0.1531118006 0.1531118006 0.1531118006
0.1554857641 0.1554857641 0.1554857641
0.1578240395 0.1578240395 0.1578240395
0.1601281613 0.1601281613 0.1601281613
0.1623995900 0.1623995900 0.1623995900
0.1646396965 0.1646396965 0.1646396965
0.1668497175 0.1668497175 0.1668497175
0.1690308601 0.1690308601 0.1690308601
0.1711841971 0.1711841971 0.1711841971
0.1733107865 0.1733107865 0.1733107865
0.1754116118 0.1754116118 0.1754116118
0.1774875522 0.1774875522 0.1774875522
0.1795395017 0.1795395017 0.1795395017
0.1815682650 0.1815682650 0.1815682650
0.1835746020 0.1835746020 0.1835746020
0.1855592430 0.1855592430 0.1855592430
0.1875228882 0.1875228882 0.1875228882
0.1894661933 0.1894661933 0.1894661933
0.1913897544 0.1913897544 0.1913897544
0.1932941824 0.1932941824 0.1932941824
0.1951800138 0.1951800138 0.1951800138
0.1970478147 0.1970478147 0.1970478147
0.1988980621 0.1988980621 0.1988980621
0.2007312626 0.2007312626 0.2007312626
0.2025478780 0.2025478780 0.2025478780
0.2043483406 0.2043483406 0.2043483406
0.2061330676 0.2061330676 0.2061330676
0.2079024911 0.2079024911 0.2079024911
0.2096569687 0.2096569687 0.2096569687
0.2113968879 0.2113968879 0.2113968879
0.2131226063 0.2131226063 0.2131226063
0.2148344666 0.2148344666 0.2148344666
0.2165327817 0.2165327817 0.2165327817
0.2182178944 0.2182178944 0.2182178944
0.2198900878 0.2198900878 0.2198900878
0.2215496600 0.2215496600 0.2215496600
0.2231968939 0.2231968939 0.2231968939
0.2248320580 0.2248320580 0.2248320580
0.2264554054 0.2264554054 0.2264554054
0.2280672193 0.2280672193 0.2280672193
0.2296677083 0.2296677083 0.2296677083
0.2312571257 0.2312571257 0.2312571257
0.2328356802 0.2328356802 0.2328356802
0.2344036251 0.2344036251 0.2344036251
0.2359611392 0.2359611392 0.2359611392
0.2375084311 0.2375084311 0.2375084311
0.2390457243 0.2390457243 0.2390457243
0.2405731827 0.2405731827 0.2405731827
0.2420910150 0.2420910150 0.2420910150
0.2435993850 0.2435993850 0.2435993850
0.2450984716 0.2450984716 0.2450984716
0.2465884537 0.2465884537 0.2465884537
0.2480694652 0.2480694652 0.2480694652
0.2495417148 0.2495417148 0.2495417148
0.2510053217 0.2510053217 0.2510053217
0.2524604201 0.2524604201 0.2524604201
0.2539072037 0.2539072037 0.2539072037
0.2553457916 0.2553457916 0.2553457916
0.2567763031 0.2567763031 0.2567763031
0.2581988871 0.2581988871 0.2581988871
0.2596136928 0.2596136928 0.2596136928
0.2610208094 0.2610208094 0.2610208094
0.2624204159 0.2624204159 0.2624204159
0.2638125718 0.2638125718 0.2638125718
0.2651974261 0.2651974261 0.2651974261
0.2665750682 0.2665750682 0.2665750682
0.2679456472 0.2679456472 0.2679456472
0.2693092525 0.2693092525 0.2693092525
0.2706659734 0.2706659734 0.2706659734
0.2720159590 0.2720159590 0.2720159590
0.2733592391 0.2733592391 0.2733592391
0.2746959627 0.2746959627 0.2746959627
0.2760262191 0.2760262191 0.2760262191
0.2773500979 0.2773500979 0.2773500979
0.2786676884 0.2786676884 0.2786676884
0.2799790800 0.2799790800 0.2799790800
0.2812843323 0.2812843323 0.2812843323
0.2825835943 0.2825835943 0.2825835943
0.2838768661 0.2838768661 0.2838768661
0.2851642966 0.2851642966 0.2851642966
0.2864459455 0.2864459455 0.2864459455
0.2877219021 0.2877219021 0.2877219021
0.2889921963 0.2889921963 0.2889921963
0.2902569175 0.2902569175 0.2902569175
0.2915161848 0.2915161848 0.2915161848
0.2927700281 0.2927700281 0.2927700281
0.2940185070 0.2940185070 0.2940185070
0.2952617407 0.2952617407 0.2952617407
0.2964997292 0.2964997292 0.2964997292
0.2977325916 0.2977325916 0.2977325916
0.2989603579 0.2989603579 0.2989603579
0.3001830876 0.3001830876 0.3001830876
0.3014008701 0.3014008701 0.3014008701
0.3026137650 0.3026137650 0.3026137650
0.3038218021 0.3038218021 0.3038218021
0.3050250709 0.3050250709 0.3050250709
0.3062236011 0.3062236011 0.3062236011
0.3074174523 0.3074174523 0.3074174523
0.3086067140 0.3086067140 0.3086067140
0.3097913861 0.3097913861 0.3097913861
0.3109715283 0.3109715283 0.3109715283
0.3121472299 0.3121472299 0.3121472299
0.3133185208 0.3133185208 0.3133185208
0.3144854605 0.3144854605 0.3144854605
0.3156480789 0.3156480789 0.3156480789
0.3168064058 0.3168064058 0.3168064058
0.3179605305 0.3179605305 0.3179605305
0.3191104829 0.3191104829 0.3191104829
0.3202563226 0.3202563226 0.3202563226
0.3213980496 0.3213980496 0.3213980496
0.3225357533 0.3225357533 0.3225357533
0.3236694336 0.3236694336 0.3236694336
0.3247991800 0.3247991800 0.3247991800
0.3259249926 0.3259249926 0.3259249926
0.3270469606 0.3270469606 0.3270469606
0.3281650543 0.3281650543 0.3281650543
0.3292793930 0.3292793930 0.3292793930
0.3303899467 0.3303899467 0.3303899467
0.3314967752 0.3314967752 0.3314967752
0.3325999379 0.3325999379 0.3325999379
0.3336994350 0.3336994350 0.3336994350
0.3347953260 0.3347953260 0.3347953260
0.3358876407 0.3358876407 0.3358876407
0.3369764388 0.3369764388 0.3369764388
0.3380617201 0.3380617201 0.3380617201
0.3391435146 0.3391435146 0.3391435146
0.3402218521 0.3402218521 0.3402218521
0.3412968218 0.3412968218 0.3412968218
0.3423683941 0.3423683941 0.3423683941
0.3434366286 0.3434366286 0.3434366286
0.3445015550 0.3445015550 0.3445015550
0.3455632031 0.3455632031 0.3455632031
0.3466215730 0.3466215730 0.3466215730
0.3476767540 0.3476767540 0.3476767540
0.3487287164 0.3487287164 0.3487287164
0.3497775495 0.3497775495 0.3497775495
0.3508232236 0.3508232236 0.3508232236
0.3518657684 0.3518657684 0.3518657684
0.3529052734 0.3529052734 0.3529052734
0.3539417088 0.3539417088 0.3539417088
0.3549751043 0.3549751043 0.3549751043
0.3560055196 0.3560055196 0.3560055196
0.3570329547 0.3570329547 0.3570329547
0.3580574393 0.3580574393 0.3580574393
0.3590790033 0.3590790033 0.3590790033
0.3600976765 0.3600976765 0.3600976765
0.3611134589 0.3611134589 0.3611134589
0.3621264100 0.3621264100 0.3621264100
0.3631365299 0.3631365299 0.3631365299
0.3641438484 0.3641438484 0.3641438484
0.3651483655 0.3651483655 0.3651483655
0.3661501706 0.3661501706 0.3661501706
0.3671492040 0.3671492040 0.3671492040
0.3681455255 0.3681455255 0.3681455255
0.3691391945 0.3691391945 0.3691391945
0.3701301813 0.3701301813 0.3701301813
0.3711184859 0.3711184859 0.3711184859
0.3721041977 0.3721041977 0.3721041977
0.3730873168 0.3730873168 0.3730873168
0.3740678430 0.3740678430 0.3740678430
0.3750457764 0.3750457764 0.3750457764
0.3760212064 0.3760212064 0.3760212064
0.3769941032 0.3769941032 0.3769941032
0.3779644668 0.3779644668 0.3779644668
0.3789323866 0.3789323866 0.3789323866
0.3798978031 0.3798978031 0.3798978031
0.3808608055 0.3808608055 0.3808608055
0.3818213642 0.3818213642 0.3818213642
0.3827795088 0.3827795088 0.3827795088
0.3837352693 0.3837352693 0.3837352693
0.3846886456 0.3846886456 0.3846886456
0.3856396675 0.3856396675 0.3856396675
0.3865883648 0.3865883648 0.3865883648
0.3875347078 0.3875347078 0.3875347078
0.3884787560 0.3884787560 0.3884787560
0.3894205391 0.3894205391 0.3894205391
0.3903600276 0.3903600276 0.3903600276
0.3912972808 0.3912972808 0.3912972808
0.3922322690 0.3922322690 0.3922322690
0.3931650519 0.3931650519 0.3931650519
0.3940956295 0.3940956295 0.3940956295
0.3950240016 0.3950240016 0.3950240016
0.3959501982 0.3959501982 0.3959501982
0.3968742490 0.3968742490 0.3968742490
0.3977961242 0.3977961242 0.3977961242
0.3987158835 0.3987158835 0.3987158835
0.3996335268 0.3996335268 0.3996335268
0.4005490839 0.4005490839 0.4005490839
0.4014625251 0.4014625251 0.4014625251
0.4023739100 0.4023739100 0.4023739100
0.4032832384 0.4032832384 0.4032832384
0.4041905105 0.4041905105 0.4041905105
0.4050957561 0.4050957561 0.4050957561
0.4059989750 0.4059989750 0.4059989750
0.4069001973 0.4069001973 0.4069001973
0.4077994227 0.4077994227 0.4077994227
0.4086966813 0.4086966813 0.4086966813
0.4095919430 0.4095919430 0.4095919430
0.4104852974 0.4104852974 0.4104852974
0.4113766849 0.4113766849 0.4113766849
0.4122661352 0.4122661352 0.4122661352
0.4131537080 0.4131537080 0.4131537080
0.4140393436 0.4140393436 0.4140393436
0.4149231017 0.4149231017 0.4149231017
0.4158049822 0.4158049822 0.4158049822
0.4166849852 0.4166849852 0.4166849852
0.4175631404 0.4175631404 0.4175631404
0.4184394479 0.4184394479 0.4184394479
0.4193139374 0.4193139374 0.4193139374
0.4201866090 0.4201866090 0.4201866090
0.4210574627 0.4210574627 0.4210574627
0.4219264984 0.4219264984 0.4219264984
0.4227937758 0.4227937758 0.4227937758
0.4236592650 0.4236592650 0.4236592650
0.4245229959 0.4245229959 0.4245229959
0.4253849983 0.4253849983 0.4253849983
0.4262452126 0.4262452126 0.4262452126
0.4271037281 0.4271037281 0.4271037281
0.4279604852 0.4279604852 0.4279604852
0.4288155735 0.4288155735 0.4288155735
0.4296689332 0.4296689332 0.4296689332
0.4305205941 0.4305205941 0.4305205941
0.4313705862 0.4313705862 0.4313705862
0.4322189093 0.4322189093 0.4322189093
0.4330655634 0.4330655634 0.4330655634
0.4339105785 0.4339105785 0.4339105785
0.4347539544 0.4347539544 0.4347539544
0.4355956912 0.4355956912 0.4355956912
0.4364357889 0.4364357889 0.4364357889
0.4372742772 0.4372742772 0.4372742772
0.4381111562 0.4381111562 0.4381111562
0.4389464557 0.4389464557 0.4389464557
0.4397801757 0.4397801757 0.4397801757
0.4406122863 0.4406122863 0.4406122863
0.4414428473 0.4414428473 0.4414428473
0.4422718585 0.4422718585 0.4422718585
0.4430993199 0.4430993199 0.4430993199
0.4439252317 0.4439252317 0.4439252317
0.4447495937 0.4447495937 0.4447495937
0.4455724359 0.4455724359 0.4455724359
0.4463937879 0.4463937879 0.4463937879
0.4472135901 0.4472135901 0.4472135901
0.4480319321 0.4480319321 0.4480319321
0.4488487542 0.4488487542 0.4488487542
0.4496641159 0.4496641159 0.4496641159
0.4504779875 0.4504779875 0.4504779875
0.4512903690 0.4512903690 0.4512903690
0.4521013200 0.4521013200 0.4521013200
0.4529108107 0.4529108107 0.4529108107
0.4537188709 0.4537188709 0.4537188709
0.4545254707 0.4545254707 0.4545254707
0.4553306699 0.4553306699 0.4553306699
0.4561344385 0.4561344385 0.4561344385
0.4569367766 0.4569367766 0.4569367766
0.4577377141 0.4577377141 0.4577377141
0.4585372508 0.4585372508 0.4585372508
0.4593354166 0.4593354166 0.4593354166
0.4601321816 0.4601321816 0.4601321816
0.4609275758 0.4609275758 0.4609275758
0.4617215693 0.4617215693 0.4617215693
0.4625142515 0.4625142515 0.4625142515
0.4633055329 0.4633055329 0.4633055329
0.4640954733 0.4640954733 0.4640954733
0.4648841023 0.4648841023 0.4648841023
0.4656713605 0.4656713605 0.4656713605
0.4664573073 0.4664573073 0.4664573073
0.4672419429 0.4672419429 0.4672419429
0.4680252373 0.4680252373 0.4680252373
0.4688072503 0.4688072503 0.4688072503
0.4695879221 0.4695879221 0.4695879221
0.4703673422 0.4703673422 0.4703673422
0.4711454511 0.4711454511 0.4711454511
0.4719222784 0.4719222784 0.4719222784
0.4726978242 0.4726978242 0.4726978242
0.4734720886 0.4734720886 0.4734720886
0.4742451310 0.4742451310 0.4742451310
0.4750168622 0.4750168622 0.4750168622
0.4757873714 0.4757873714 0.4757873714
0.4765566289 0.4765566289 0.4765566289
0.4773246646 0.4773246646 0.4773246646
0.4780914485 0.4780914485 0.4780914485
0.4788570106 0.4788570106 0.4788570106
0.4796213508 0.4796213508 0.4796213508
0.4803844690 0.4803844690 0.4803844690
0.4811463654 0.4811463654 0.4811463654
0.4819070697 0.4819070697 0.4819070697
0.4826665819 0.4826665819 0.4826665819
0.4834249020 0.4834249020 0.4834249020
0.4841820300 0.4841820300 0.4841820300
0.4849379659 0.4849379659 0.4849379659
0.4856927395 0.4856927395 0.4856927395
0.4864463508 0.4864463508 0.4864463508
0.4871987700 0.4871987700 0.4871987700
0.4879500568 0.4879500568 0.4879500568
0.4887001514 0.4887001514 0.4887001514
0.4894491136 0.4894491136 0.4894491136
0.4901969433 0.4901969433 0.4901969433
0.4909436405 0.4909436405 0.4909436405
0.4916891754 0.4916891754 0.4916891754
0.4924336076 0.4924336076 0.4924336076
0.4931769073 0.4931769073 0.4931769073
0.4939190745 0.4939190745 0.4939190745
0.4946601391 0.4946601391 0.4946601391
0.4954001009 0.4954001009 0.4954001009
0.4961389303 0.4961389303 0.4961389303
0.4968766868 0.4968766868 0.4968766868
0.4976133704 0.4976133704 0.4976133704
0.4983489215 0.4983489215 0.4983489215
0.4990834296 0.4990834296 0.4990834296
0.4998168349 0.4998168349 0.4998168349
0.5005486012 0.5005486012 0.5005486012
0.5012775064 0.5012775064 0.5012775064
0.5020033717 0.5020033717 0.5020033717
0.5027263761 0.5027263761 0.5027263761
0.5034464598 0.5034464598 0.5034464598
0.5041636229 0.5041636229 0.5041636229
0.5048779249 0.5048779249 0.5048779249
0.5055894256 0.5055894256 0.5055894256
0.5062980652 0.5062980652 0.5062980652
0.5070039034 0.5070039034 0.5070039034
0.5077069998 0.5077069998 0.5077069998
0.5084072948 0.5084072948 0.5084072948
0.5091049075 0.5091049075 0.5091049075
0.5097997785 0.5097997785 0.5097997785
0.5104919672 0.5104919672 0.5104919672
0.5111815333 0.5111815333 0.5111815333
0.5118683577 0.5118683577 0.5118683577
0.5125526190 0.5125526190 0.5125526190
0.5132342577 0.5132342577 0.5132342577
0.5139133334 0.5139133334 0.5139133334
0.5145897865 0.5145897865 0.5145897865
0.5152637362 0.5152637362 0.5152637362
0.5159351230 0.5159351230 0.5159351230
0.5166040659 0.5166040659 0.5166040659
0.5172704458 0.5172704458 0.5172704458
0.5179343820 0.5179343820 0.5179343820
0.5185958147 0.5185958147 0.5185958147
0.5192548633 0.5192548633 0.5192548633
0.5199114680 0.5199114680 0.5199114680
0.5205656886 0.5205656886 0.5205656886
0.5212175250 0.5212175250 0.5212175250
0.5218669772 0.5218669772 0.5218669772
0.5225141048 0.5225141048 0.5225141048
0.5231588483 0.5231588483 0.5231588483
0.5238013268 0.5238013268 0.5238013268
0.5244414806 0.5244414806 0.5244414806
0.5250793695 0.5250793695 0.5250793695
0.5257149935 0.5257149935 0.5257149935
0.5263483524 0.5263483524 0.5263483524
0.5269794464 0.5269794464 0.5269794464
0.5276083350 0.5276083350 0.5276083350
0.5282350779 0.5282350779 0.5282350779
0.5288595557 0.5288595557 0.5288595557
0.5294818878 0.5294818878 0.5294818878
0.5301020741 0.5301020741 0.5301020741
0.5307201147 0.5307201147 0.5307201147
0.5313360095 0.5313360095 0.5313360095
0.5319498181 0.5319498181 0.5319498181
0.5325615406 0.5325615406 0.5325615406
0.5331711173 0.5331711173 0.5331711173
0.5337786674 0.5337786674 0.5337786674
0.5343841314 0.5343841314 0.5343841314
0.5349875689 0.5349875689 0.5349875689
0.5355889797 0.5355889797 0.5355889797
0.5361883640 0.5361883640 0.5361883640
0.5367857814 0.5367857814 0.5367857814
0.5373811722 0.5373811722 0.5373811722
0.5379745960 0.5379745960 0.5379745960
0.5385660529 0.5385660529 0.5385660529
0.5391556025 0.5391556025 0.5391556025
0.5397431254 0.5397431254 0.5397431254
0.5403288007 0.5403288007 0.5403288007
0.5409125686 0.5409125686 0.5409125686
0.5414943695 0.5414943695 0.5414943695
0.5420743227 0.5420743227 0.5420743227
0.5426524282 0.5426524282 0.5426524282
0.5432286263 0.5432286263 0.5432286263
0.5438030362 0.5438030362 0.5438030362
0.5443755388 0.5443755388 0.5443755388
0.5449462533 0.5449462533 0.5449462533
0.5455151200 0.5455151200 0.5455151200
0.5460821986 0.5460821986 0.5460821986
0.5466474891 0.5466474891 0.5466474891
0.5472109914 0.5472109914 0.5472109914
0.5477727652 0.5477727652 0.5477727652
0.5483326912 0.5483326912 0.5483326912
0.5488909483 0.5488909483 0.5488909483
0.5494474173 0.5494474173 0.5494474173
0.5500022173 0.5500022173 0.5500022173
0.5505552292 0.5505552292 0.5505552292
0.5511066318 0.5511066318 0.5511066318
0.5516562462 0.5516562462 0.5516562462
0.5522042513 0.5522042513 0.5522042513
0.5527505279 0.5527505279 0.5527505279
0.5532951355 0.5532951355 0.5532951355
0.5538381338 0.5538381338 0.5538381338
0.5543794632 0.5543794632 0.5543794632
0.5549191833 0.5549191833 0.5549191833
0.5554572344 0.5554572344 0.5554572344
0.5559936762 0.5559936762 0.5559936762
0.5565285683 0.5565285683 0.5565285683
0.5570617914 0.5570617914 0.5570617914
0.5575934649 0.5575934649 0.5575934649
0.5581235886 0.5581235886 0.5581235886
0.5586521029 0.5586521029 0.5586521029
0.5591790676 0.5591790676 0.5591790676
0.5597045422 0.5597045422 0.5597045422
0.5602284074 0.5602284074 0.5602284074
0.5607507825 0.5607507825 0.5607507825
0.5612716079 0.5612716079 0.5612716079
0.5617909431 0.5617909431 0.5617909431
0.5623087287 0.5623087287 0.5623087287
0.5628250837 0.5628250837 0.5628250837
0.5633398890 0.5633398890 0.5633398890
0.5638532639 0.5638532639 0.5638532639
0.5643651485 0.5643651485 0.5643651485
0.5648756027 0.5648756027 0.5648756027
0.5653845668 0.5653845668 0.5653845668
0.5658921003 0.5658921003 0.5658921003
0.5663982034 0.5663982034 0.5663982034
0.5669028759 0.5669028759 0.5669028759
0.5674061179 0.5674061179 0.5674061179
0.5679079890 0.5679079890 0.5679079890
0.5684083700 0.5684083700 0.5684083700
0.5689074397 0.5689074397 0.5689074397
0.5694050789 0.5694050789 0.5694050789
0.5699013472 0.5699013472 0.5699013472
0.5703962445 0.5703962445 0.5703962445
0.5708897710 0.5708897710 0.5708897710
0.5713819265 0.5713819265 0.5713819265
0.5718727708 0.5718727708 0.5718727708
0.5723622441 0.5723622441 0.5723622441
0.5728503466 0.5728503466 0.5728503466
0.5733371973 0.5733371973 0.5733371973
0.5738226771 0.5738226771 0.5738226771
0.5743068457 0.5743068457 0.5743068457
0.5747897029 0.5747897029 0.5747897029
0.5752712488 0.5752712488 0.5752712488
0.5757515430 0.5757515430 0.5757515430
0.5762305260 0.5762305260 0.5762305260
0.5767082572 0.5767082572 0.5767082572
0.5771846771 0.5771846771 0.5771846771
0.5776598454 0.5776598454 0.5776598454
0.5781337619 0.5781337619 0.5781337619
0.5786064267 0.5786064267 0.5786064267
0.5790778399 0.5790778399 0.5790778399
0.5795480013 0.5795480013 0.5795480013
0.5800169110 0.5800169110 0.5800169110
0.5804846287 0.5804846287 0.5804846287
0.5809511542 0.5809511542 0.5809511542
0.5814164281 0.5814164281 0.5814164281
0.5818805099 0.5818805099 0.5818805099
0.5823433399 0.5823433399 0.5823433399
0.5828050375 0.5828050375 0.5828050375
0.5832655430 0.5832655430 0.5832655430
0.5837247968 0.5837247968 0.5837247968
0.5841829181 0.5841829181 0.5841829181
0.5846399069 0.5846399069 0.5846399069
0.5850957036 0.5850957036 0.5850957036
0.5855503082 0.5855503082 0.5855503082
0.5860037804 0.5860037804 0.5860037804
0.5864561200 0.5864561200 0.5864561200
0.5869073272 0.5869073272 0.5869073272
0.5873574018 0.5873574018 0.5873574018
0.5878062844 0.5878062844 0.5878062844
0.5882540941 0.5882540941 0.5882540941
0.5887007713 0.5887007713 0.5887007713
0.5891463757 0.5891463757 0.5891463757
0.5895908475 0.5895908475 0.5895908475
0.5900341868 0.5900341868 0.5900341868
0.5904764533 0.5904764533 0.5904764533
0.5909176469 0.5909176469 0.5909176469
0.5913577080 0.5913577080 0.5913577080
0.5917967558 0.5917967558 0.5917967558
0.5922346711 0.5922346711 0.5922346711
0.5926715136 0.5926715136 0.5926715136
0.5931073427 0.5931073427 0.5931073427
0.5935420394 0.5935420394 0.5935420394
0.5939757228 0.5939757228 0.5939757228
0.5944083929 0.5944083929 0.5944083929
0.5948399901 0.5948399901 0.5948399901
0.5952705145 0.5952705145 0.5952705145
0.5957000256 0.5957000256 0.5957000256
0.5961285233 0.5961285233 0.5961285233
0.5965560079 0.5965560079 0.5965560079
0.5969824195 0.5969824195 0.5969824195
0.5974078774 0.5974078774 0.5974078774
0.5978323221 0.5978323221 0.5978323221
0.5982556939 0.5982556939 0.5982556939
0.5986781120 0.5986781120 0.5986781120
0.5990995765 0.5990995765 0.5990995765
0.5995199680 0.5995199680 0.5995199680
0.5999394059 0.5999394059 0.5999394059
0.6003578901 0.6003578901 0.6003578901
0.6007753611 0.6007753611 0.6007753611
0.6011918783 0.6011918783 0.6011918783
0.6016074419 0.6016074419 0.6016074419
0.6020219922 0.6020219922 0.6020219922
0.6024356484 0.6024356484 0.6024356484
0.6028482914 0.6028482914 0.6028482914
0.6032600403 0.6032600403 0.6032600403
0.6036707759 0.6036707759 0.6036707759
0.6040806174 0.6040806174 0.6040806174
0.6044895053 0.6044895053 0.6044895053
0.6048974991 0.6048974991 0.6048974991
0.6053045392 0.6053045392 0.6053045392
0.6057106256 0.6057106256 0.6057106256
0.6061158180 0.6061158180 0.6061158180
0.6065201163 0.6065201163 0.6065201163
0.6069234610 0.6069234610 0.6069234610
0.6073259115 0.6073259115 0.6073259115
0.6077274680 0.6077274680 0.6077274680
0.6081281304 0.6081281304 0.6081281304
0.6085278392 0.6085278392 0.6085278392
0.6089267135 0.6089267135 0.6089267135
0.6093246937 0.6093246937 0.6093246937
0.6097217798 0.6097217798 0.6097217798
0.6101180315 0.6101180315 0.6101180315
0.6105133295 0.6105133295 0.6105133295
0.6109077930 0.6109077930 0.6109077930
0.6113014221 0.6113014221 0.6113014221
0.6116941571 0.6116941571 0.6116941571
0.6120859981 0.6120859981 0.6120859981
0.6124770045 0.6124770045 0.6124770045
0.6128671765 0.6128671765 0.6128671765
0.6132565141 0.6132565141 0.6132565141
0.6136449575 0.6136449575 0.6136449575
0.6140325665 0.6140325665 0.6140325665
0.6144193411 0.6144193411 0.6144193411
0.6148053408 0.6148053408 0.6148053408
0.6151904464 0.6151904464 0.6151904464
0.6155747175 0.6155747175 0.6155747175
0.6159582138 0.6159582138 0.6159582138
0.6163408160 0.6163408160 0.6163408160
0.6167226434 0.6167226434 0.6167226434
0.6171036959 0.6171036959 0.6171036959
0.6174839139 0.6174839139 0.6174839139
0.6178632975 0.6178632975 0.6178632975
0.6182419062 0.6182419062 0.6182419062
0.6186196804 0.6186196804 0.6186196804
0.6189966798 0.6189966798 0.6189966798
0.6193729043 0.6193729043 0.6193729043
0.6197482944 0.6197482944 0.6197482944
0.6201229692 0.6201229692 0.6201229692
0.6204968095 0.6204968095 0.6204968095
0.6208698750 0.6208698750 0.6208698750
0.6212421656 0.6212421656 0.6212421656
0.6216136813 0.6216136813 0.6216136813
0.6219844222 0.6219844222 0.6219844222
0.6223543882 0.6223543882 0.6223543882
0.6227236390 0.6227236390 0.6227236390
0.6230920553 0.6230920553 0.6230920553
0.6234597564 0.6234597564 0.6234597564
0.6238267422 0.6238267422 0.6238267422
0.6241928935 0.6241928935 0.6241928935
0.6245583296 0.6245583296 0.6245583296
0.6249230504 0.6249230504 0.6249230504
0.6252869964 0.6252869964 0.6252869964
0.6256502271 0.6256502271 0.6256502271
0.6260126829 0.6260126829 0.6260126829
0.6263744831 0.6263744831 0.6263744831
0.6267354488 0.6267354488 0.6267354488
0.6270957589 0.6270957589 0.6270957589
0.6274553537 0.6274553537 0.6274553537
0.6278141737 0.6278141737 0.6278141737
0.6281722784 0.6281722784 0.6281722784
0.6285297275 0.6285297275 0.6285297275
0.6288864017 0.6288864017 0.6288864017
0.6292424202 0.6292424202 0.6292424202
0.6295976639 0.6295976639 0.6295976639
0.6299522519 0.6299522519 0.6299522519
0.6303061247 0.6303061247 0.6303061247
0.6306592822 0.6306592822 0.6306592822
0.6310117841 0.6310117841 0.6310117841
0.6313635707 0.6313635707 0.6313635707
0.6317146420 0.6317146420 0.6317146420
0.6320650578 0.6320650578 0.6320650578
0.6324148178 0.6324148178 0.6324148178
0.6327638626 0.6327638626 0.6327638626
0.6331121922 0.6331121922 0.6331121922
