HDR Hybrid Log-Gamma/Gamma 2.6 to HLG.cube
# DaVinci Resolve Cube (1D shaper LUT).

LUT_1D_SIZE 4096
LUT_1D_INPUT_RANGE 0.0000000000 2.6005769811

0.0000000000 0.0000000000 0.0000000000
0.0000348843 0.0000348843 0.0000348843
0.0000858953 0.0000858953 0.0000858953
0.0001455084 0.0001455084 0.0001455084
0.0002114991 0.0002114991 0.0002114991
0.0002826777 0.0002826777 0.0002826777
0.0003582838 0.0003582838 0.0003582838
0.0004377821 0.0004377821 0.0004377821
0.0005207719 0.0005207719 0.0005207719
0.0006069401 0.0006069401 0.0006069401
0.0006960342 0.0006960342 0.0006960342
0.0007878455 0.0007878455 0.0007878455
0.0008821982 0.0008821982 0.0008821982
0.0009789419 0.0009789419 0.0009789419
0.0010779460 0.0010779460 0.0010779460
0.0011790961 0.0011790961 0.0011790961
0.0012822908 0.0012822908 0.0012822908
0.0013874398 0.0013874398 0.0013874398
0.0014944618 0.0014944618 0.0014944618
0.0016032832 0.0016032832 0.0016032832
0.0017138371 0.0017138371 0.0017138371
0.0018260624 0.0018260624 0.0018260624
0.0019399031 0.0019399031 0.0019399031
0.0020553072 0.0020553072 0.0020553072
0.0021722268 0.0021722268 0.0021722268
0.0022906174 0.0022906174 0.0022906174
0.0024104377 0.0024104377 0.0024104377
0.0025316488 0.0025316488 0.0025316488
0.0026542144 0.0026542144 0.0026542144
0.0027781005 0.0027781005 0.0027781005
0.0029032752 0.0029032752 0.0029032752
0.0030297078 0.0030297078 0.0030297078
0.0031573703 0.0031573703 0.0031573703
0.0032862355 0.0032862355 0.0032862355
0.0034162775 0.0034162775 0.0034162775
0.0035474722 0.0035474722 0.0035474722
0.0036797966 0.0036797966 0.0036797966
0.0038132281 0.0038132281 0.0038132281
0.0039477465 0.0039477465 0.0039477465
0.0040833307 0.0040833307 0.0040833307
0.0042199618 0.0042199618 0.0042199618
0.0043576220 0.0043576220 0.0043576220
0.0044962931 0.0044962931 0.0044962931
0.0046359585 0.0046359585 0.0046359585
0.0047766017 0.0047766017 0.0047766017
0.0049182074 0.0049182074 0.0049182074
0.0050607598 0.0050607598 0.0050607598
0.0052042454 0.0052042454 0.0052042454
0.0053486498 0.0053486498 0.0053486498
0.0054939594 0.0054939594 0.0054939594
0.0056401617 0.0056401617 0.0056401617
0.0057872441 0.0057872441 0.0057872441
0.0059351940 0.0059351940 0.0059351940
0.0060839998 0.0060839998 0.0060839998
0.0062336503 0.0062336503 0.0062336503
0.0063841348 0.0063841348 0.0063841348
0.0065354425 0.0065354425 0.0065354425
0.0066875629 0.0066875629 0.0066875629
0.0068404856 0.0068404856 0.0068404856
0.0069942018 0.0069942018 0.0069942018
0.0071487017 0.0071487017 0.0071487017
0.0073039760 0.0073039760 0.0073039760
0.0074600158 0.0074600158 0.0074600158
0.0076168124 0.0076168124 0.0076168124
0.0077743577 0.0077743577 0.0077743577
0.0079326434 0.0079326434 0.0079326434
0.0080916611 0.0080916611 0.0080916611
0.0082514025 0.0082514025 0.0082514025
0.0084118620 0.0084118620 0.0084118620
0.0085730301 0.0085730301 0.0085730301
0.0087349014 0.0087349014 0.0087349014
0.0088974675 0.0088974675 0.0088974675
0.0090607218 0.0090607218 0.0090607218
0.0092246579 0.0092246579 0.0092246579
0.0093892692 0.0093892692 0.0093892692
0.0095545491 0.0095545491 0.0095545491
0.0097204912 0.0097204912 0.0097204912
0.0098870900 0.0098870900 0.0098870900
0.0100543397 0.0100543397 0.0100543397
0.0102222329 0.0102222329 0.0102222329
0.0103907650 0.0103907650 0.0103907650
0.0105599314 0.0105599314 0.0105599314
0.0107297245 0.0107297245 0.0107297245
0.0109001398 0.0109001398 0.0109001398
0.0110711725 0.0110711725 0.0110711725
0.0112428172 0.0112428172 0.0112428172
0.0114150690 0.0114150690 0.0114150690
0.0115879225 0.0115879225 0.0115879225
0.0117613729 0.0117613729 0.0117613729
0.0119354157 0.0119354157 0.0119354157
0.0121100470 0.0121100470 0.0121100470
0.0122852605 0.0122852605 0.0122852605
0.0124610523 0.0124610523 0.0124610523
0.0126374187 0.0126374187 0.0126374187
0.0128143551 0.0128143551 0.0128143551
0.0129918577 0.0129918577 0.0129918577
0.0131699210 0.0131699210 0.0131699210
0.0133485412 0.0133485412 0.0133485412
0.0135277156 0.0135277156 0.0135277156
0.0137074385 0.0137074385 0.0137074385
0.0138877071 0.0138877071 0.0138877071
0.0140685178 0.0140685178 0.0140685178
0.0142498659 0.0142498659 0.0142498659
0.0144317485 0.0144317485 0.0144317485
0.0146141611 0.0146141611 0.0146141611
0.0147971008 0.0147971008 0.0147971008
0.0149805648 0.0149805648 0.0149805648
0.0151645476 0.0151645476 0.0151645476
0.0153490482 0.0153490482 0.0153490482
0.0155340610 0.0155340610 0.0155340610
0.0157195833 0.0157195833 0.0157195833
0.0159056131 0.0159056131 0.0159056131
0.0160921458 0.0160921458 0.0160921458
0.0162791796 0.0162791796 0.0162791796
0.0164667107 0.0164667107 0.0164667107
0.0166547354 0.0166547354 0.0166547354
0.0168432519 0.0168432519 0.0168432519
0.0170322563 0.0170322563 0.0170322563
0.0172217451 0.0172217451 0.0172217451
0.0174117163 0.0174117163 0.0174117163
0.0176021680 0.0176021680 0.0176021680
0.0177930966 0.0177930966 0.0177930966
0.0179844983 0.0179844983 0.0179844983
0.0181763712 0.0181763712 0.0181763712
0.0183687136 0.0183687136 0.0183687136
0.0185615215 0.0185615215 0.0185615215
0.0187547933 0.0187547933 0.0187547933
0.0189485233 0.0189485233 0.0189485233
0.0191427134 0.0191427134 0.0191427134
0.0193373598 0.0193373598 0.0193373598
0.0195324589 0.0195324589 0.0195324589
0.0197280087 0.0197280087 0.0197280087
0.0199240055 0.0199240055 0.0199240055
0.0201204494 0.0201204494 0.0201204494
0.0203173365 0.0203173365 0.0203173365
0.0205146670 0.0205146670 0.0205146670
0.0207124334 0.0207124334 0.0207124334
0.0209106393 0.0209106393 0.0209106393
0.0211092774 0.0211092774 0.0211092774
0.0213083494 0.0213083494 0.0213083494
0.0215078499 0.0215078499 0.0215078499
0.0217077788 0.0217077788 0.0217077788
0.0219081342 0.0219081342 0.0219081342
0.0221089143 0.0221089143 0.0221089143
0.0223101135 0.0223101135 0.0223101135
0.0225117337 0.0225117337 0.0225117337
0.0227137730 0.0227137730 0.0227137730
0.0229162257 0.0229162257 0.0229162257
0.0231190920 0.0231190920 0.0231190920
0.0233223718 0.0233223718 0.0233223718
0.0235260595 0.0235260595 0.0235260595
0.0237301551 0.0237301551 0.0237301551
0.0239346568 0.0239346568 0.0239346568
0.0241395645 0.0241395645 0.0241395645
0.0243448727 0.0243448727 0.0243448727
0.0245505795 0.0245505795 0.0245505795
0.0247566868 0.0247566868 0.0247566868
0.0249631908 0.0249631908 0.0249631908
0.0251700897 0.0251700897 0.0251700897
0.0253773816 0.0253773816 0.0253773816
0.0255850647 0.0255850647 0.0255850647
0.0257931389 0.0257931389 0.0257931389
0.0260016005 0.0260016005 0.0260016005
0.0262104478 0.0262104478 0.0262104478
0.0264196806 0.0264196806 0.0264196806
0.0266292952 0.0266292952 0.0266292952
0.0268392935 0.0268392935 0.0268392935
0.0270496700 0.0270496700 0.0270496700
0.0272604246 0.0272604246 0.0272604246
0.0274715573 0.0274715573 0.0274715573
0.0276830643 0.0276830643 0.0276830643
0.0278949440 0.0278949440 0.0278949440
0.0281071961 0.0281071961 0.0281071961
0.0283198208 0.0283198208 0.0283198208
0.0285328124 0.0285328124 0.0285328124
0.0287461728 0.0287461728 0.0287461728
0.0289598983 0.0289598983 0.0289598983
0.0291739888 0.0291739888 0.0291739888
0.0293884408 0.0293884408 0.0293884408
0.0296032578 0.0296032578 0.0296032578
0.0298184324 0.0298184324 0.0298184324
0.0300339665 0.0300339665 0.0300339665
0.0302498601 0.0302498601 0.0302498601
0.0304661077 0.0304661077 0.0304661077
0.0306827109 0.0306827109 0.0306827109
0.0308996662 0.0308996662 0.0308996662
0.0311169755 0.0311169755 0.0311169755
0.0313346349 0.0313346349 0.0313346349
0.0315526426 0.0315526426 0.0315526426
0.0317710005 0.0317710005 0.0317710005
0.0319897048 0.0319897048 0.0319897048
0.0322087556 0.0322087556 0.0322087556
0.0324281491 0.0324281491 0.0324281491
0.0326478854 0.0326478854 0.0326478854
0.0328679644 0.0328679644 0.0328679644
0.0330883823 0.0330883823 0.0330883823
0.0333091430 0.0333091430 0.0333091430
0.0335302390 0.0335302390 0.0335302390
0.0337516740 0.0337516740 0.0337516740
0.0339734405 0.0339734405 0.0339734405
0.0341955461 0.0341955461 0.0341955461
0.0344179831 0.0344179831 0.0344179831
0.0346407555 0.0346407555 0.0346407555
0.0348638557 0.0348638557 0.0348638557
0.0350872874 0.0350872874 0.0350872874
0.0353110470 0.0353110470 0.0353110470
0.0355351344 0.0355351344 0.0355351344
0.0357595459 0.0357595459 0.0357595459
0.0359842852 0.0359842852 0.0359842852
0.0362093486 0.0362093486 0.0362093486
0.0364347361 0.0364347361 0.0364347361
0.0366604477 0.0366604477 0.0366604477
0.0368864760 0.0368864760 0.0368864760
0.0371128283 0.0371128283 0.0371128283
0.0373394974 0.0373394974 0.0373394974
0.0375664830 0.0375664830 0.0375664830
0.0377937891 0.0377937891 0.0377937891
0.0380214080 0.0380214080 0.0380214080
0.0382493436 0.0382493436 0.0382493436
0.0384775922 0.0384775922 0.0384775922
0.0387061574 0.0387061574 0.0387061574
0.0389350280 0.0389350280 0.0389350280
0.0391642153 0.0391642153 0.0391642153
0.0393937081 0.0393937081 0.0393937081
0.0396235138 0.0396235138 0.0396235138
0.0398536250 0.0398536250 0.0398536250
0.0400840454 0.0400840454 0.0400840454
0.0403147675 0.0403147675 0.0403147675
0.0405457988 0.0405457988 0.0405457988
0.0407771319 0.0407771319 0.0407771319
0.0410087705 0.0410087705 0.0410087705
0.0412407108 0.0412407108 0.0412407108
0.0414729491 0.0414729491 0.0414729491
0.0417054929 0.0417054929 0.0417054929
0.0419383347 0.0419383347 0.0419383347
0.0421714745 0.0421714745 0.0421714745
0.0424049124 0.0424049124 0.0424049124
0.0426386446 0.0426386446 0.0426386446
0.0428726785 0.0428726785 0.0428726785
0.0431070030 0.0431070030 0.0431070030
0.0433416218 0.0433416218 0.0433416218
0.0435765348 0.0435765348 0.0435765348
0.0438117422 0.0438117422 0.0438117422
0.0440472402 0.0440472402 0.0440472402
0.0442830287 0.0442830287 0.0442830287
0.0445191078 0.0445191078 0.0445191078
0.0447554775 0.0447554775 0.0447554775
0.0449921340 0.0449921340 0.0449921340
0.0452290773 0.0452290773 0.0452290773
0.0454663113 0.0454663113 0.0454663113
0.0457038283 0.0457038283 0.0457038283
0.0459416285 0.0459416285 0.0459416285
0.0461797155 0.0461797155 0.0461797155
0.0464180857 0.0464180857 0.0464180857
0.0466567390 0.0466567390 0.0466567390
0.0468956754 0.0468956754 0.0468956754
0.0471348912 0.0471348912 0.0471348912
0.0473743901 0.0473743901 0.0473743901
0.0476141647 0.0476141647 0.0476141647
0.0478542224 0.0478542224 0.0478542224
0.0480945557 0.0480945557 0.0480945557
0.0483351648 0.0483351648 0.0483351648
0.0485760532 0.0485760532 0.0485760532
0.0488172174 0.0488172174 0.0488172174
0.0490586571 0.0490586571 0.0490586571
0.0493003726 0.0493003726 0.0493003726
0.0495423600 0.0495423600 0.0495423600
0.0497846194 0.0497846194 0.0497846194
0.0500271544 0.0500271544 0.0500271544
0.0502699576 0.0502699576 0.0502699576
0.0505130328 0.0505130328 0.0505130328
0.0507563800 0.0507563800 0.0507563800
0.0509999953 0.0509999953 0.0509999953
0.0512438789 0.0512438789 0.0512438789
0.0514880307 0.0514880307 0.0514880307
0.0517324507 0.0517324507 0.0517324507
0.0519771390 0.0519771390 0.0519771390
0.0522220917 0.0522220917 0.0522220917
0.0524673089 0.0524673089 0.0524673089
0.0527127907 0.0527127907 0.0527127907
0.0529585406 0.0529585406 0.0529585406
0.0532045513 0.0532045513 0.0532045513
0.0534508228 0.0534508228 0.0534508228
0.0536973588 0.0536973588 0.0536973588
0.0539441556 0.0539441556 0.0539441556
0.0541912131 0.0541912131 0.0541912131
0.0544385314 0.0544385314 0.0544385314
0.0546861067 0.0546861067 0.0546861067
0.0549339466 0.0549339466 0.0549339466
0.0551820397 0.0551820397 0.0551820397
0.0554303937 0.0554303937 0.0554303937
0.0556790009 0.0556790009 0.0556790009
0.0559278689 0.0559278689 0.0559278689
0.0561769903 0.0561769903 0.0561769903
0.0564263649 0.0564263649 0.0564263649
0.0566759966 0.0566759966 0.0566759966
0.0569258817 0.0569258817 0.0569258817
0.0571760237 0.0571760237 0.0571760237
0.0574264154 0.0574264154 0.0574264154
0.0576770566 0.0576770566 0.0576770566
0.0579279549 0.0579279549 0.0579279549
0.0581790991 0.0581790991 0.0581790991
0.0584304966 0.0584304966 0.0584304966
0.0586821437 0.0586821437 0.0586821437
0.0589340404 0.0589340404 0.0589340404
0.0591861866 0.0591861866 0.0591861866
0.0594385788 0.0594385788 0.0594385788
0.0596912168 0.0596912168 0.0596912168
0.0599441044 0.0599441044 0.0599441044
0.0601972416 0.0601972416 0.0601972416
0.0604506209 0.0604506209 0.0604506209
0.0607042462 0.0607042462 0.0607042462
0.0609581135 0.0609581135 0.0609581135
0.0612122305 0.0612122305 0.0612122305
0.0614665858 0.0614665858 0.0614665858
0.0617211871 0.0617211871 0.0617211871
0.0619760305 0.0619760305 0.0619760305
0.0622311160 0.0622311160 0.0622311160
0.0624864437 0.0624864437 0.0624864437
0.0627420098 0.0627420098 0.0627420098
0.0629978180 0.0629978180 0.0629978180
0.0632538721 0.0632538721 0.0632538721
0.0635101572 0.0635101572 0.0635101572
0.0637666807 0.0637666807 0.0637666807
0.0640234500 0.0640234500 0.0640234500
0.0642804503 0.0642804503 0.0642804503
0.0645376891 0.0645376891 0.0645376891
0.0647951663 0.0647951663 0.0647951663
0.0650528818 0.0650528818 0.0650528818
0.0653108358 0.0653108358 0.0653108358
0.0655690208 0.0655690208 0.0655690208
0.0658274367 0.0658274367 0.0658274367
0.0660860911 0.0660860911 0.0660860911
0.0663449764 0.0663449764 0.0663449764
0.0666041002 0.0666041002 0.0666041002
0.0668634549 0.0668634549 0.0668634549
0.0671230406 0.0671230406 0.0671230406
0.0673828572 0.0673828572 0.0673828572
0.0676429048 0.0676429048 0.0676429048
0.0679031909 0.0679031909 0.0679031909
0.0681637004 0.0681637004 0.0681637004
0.0684244409 0.0684244409 0.0684244409
0.0686854124 0.0686854124 0.0686854124
0.0689466074 0.0689466074 0.0689466074
0.0692080334 0.0692080334 0.0692080334
0.0694696903 0.0694696903 0.0694696903
0.0697315782 0.0697315782 0.0697315782
0.0699936897 0.0699936897 0.0699936897
0.0702560246 0.0702560246 0.0702560246
0.0705185905 0.0705185905 0.0705185905
0.0707813799 0.0707813799 0.0707813799
0.0710443929 0.0710443929 0.0710443929
0.0713076293 0.0713076293 0.0713076293
0.0715710968 0.0715710968 0.0715710968
0.0718347877 0.0718347877 0.0718347877
0.0720986947 0.0720986947 0.0720986947
0.0723628327 0.0723628327 0.0723628327
0.0726271868 0.0726271868 0.0726271868
0.0728917718 0.0728917718 0.0728917718
0.0731565729 0.0731565729 0.0731565729
0.0734215900 0.0734215900 0.0734215900
0.0736868382 0.0736868382 0.0736868382
0.0739523023 0.0739523023 0.0739523023
0.0742179900 0.0742179900 0.0742179900
0.0744838938 0.0744838938 0.0744838938
0.0747500136 0.0747500136 0.0747500136
0.0750163570 0.0750163570 0.0750163570
0.0752829164 0.0752829164 0.0752829164
0.0755496919 0.0755496919 0.0755496919
0.0758166909 0.0758166909 0.0758166909
0.0760839060 0.0760839060 0.0760839060
0.0763513371 0.0763513371 0.0763513371
0.0766189843 0.0766189843 0.0766189843
0.0768868476 0.0768868476 0.0768868476
0.0771549195 0.0771549195 0.0771549195
0.0774232149 0.0774232149 0.0774232149
0.0776917264 0.0776917264 0.0776917264
0.0779604465 0.0779604465 0.0779604465
0.0782293826 0.0782293826 0.0782293826
0.0784985274 0.0784985274 0.0784985274
0.0787678957 0.0787678957 0.0787678957
0.0790374652 0.0790374652 0.0790374652
0.0793072581 0.0793072581 0.0793072581
0.0795772597 0.0795772597 0.0795772597
0.0798474699 0.0798474699 0.0798474699
0.0801178887 0.0801178887 0.0801178887
0.0803885236 0.0803885236 0.0803885236
0.0806593671 0.0806593671 0.0806593671
0.0809304193 0.0809304193 0.0809304193
0.0812016875 0.0812016875 0.0812016875
0.0814731568 0.0814731568 0.0814731568
0.0817448348 0.0817448348 0.0817448348
0.0820167288 0.0820167288 0.0820167288
0.0822888240 0.0822888240 0.0822888240
0.0825611353 0.0825611353 0.0825611353
0.0828336477 0.0828336477 0.0828336477
0.0831063688 0.0831063688 0.0831063688
0.0833792910 0.0833792910 0.0833792910
0.0836524293 0.0836524293 0.0836524293
0.0839257687 0.0839257687 0.0839257687
0.0841993093 0.0841993093 0.0841993093
0.0844730660 0.0844730660 0.0844730660
0.0847470164 0.0847470164 0.0847470164
0.0850211754 0.0850211754 0.0850211754
0.0852955431 0.0852955431 0.0852955431
0.0855701119 0.0855701119 0.0855701119
0.0858448818 0.0858448818 0.0858448818
0.0861198530 0.0861198530 0.0861198530
0.0863950327 0.0863950327 0.0863950327
0.0866704136 0.0866704136 0.0866704136
0.0869459957 0.0869459957 0.0869459957
0.0872217789 0.0872217789 0.0872217789
0.0874977633 0.0874977633 0.0874977633
0.0877739489 0.0877739489 0.0877739489
0.0880503356 0.0880503356 0.0880503356
0.0883269161 0.0883269161 0.0883269161
0.0886037052 0.0886037052 0.0886037052
0.0888806954 0.0888806954 0.0888806954
0.0891578794 0.0891578794 0.0891578794
0.0894352645 0.0894352645 0.0894352645
0.0897128433 0.0897128433 0.0897128433
0.0899906307 0.0899906307 0.0899906307
0.0902686045 0.0902686045 0.0902686045
0.0905467868 0.0905467868 0.0905467868
0.0908251628 0.0908251628 0.0908251628
0.0911037326 0.0911037326 0.0911037326
0.0913824961 0.0913824961 0.0913824961
0.0916614681 0.0916614681 0.0916614681
0.0919406265 0.0919406265 0.0919406265
0.0922199860 0.0922199860 0.0922199860
0.0924995318 0.0924995318 0.0924995318
0.0927792788 0.0927792788 0.0927792788
0.0930592269 0.0930592269 0.0930592269
0.0933393613 0.0933393613 0.0933393613
0.0936196893 0.0936196893 0.0936196893
0.0939002186 0.0939002186 0.0939002186
0.0941809341 0.0941809341 0.0941809341
0.0944618434 0.0944618434 0.0944618434
0.0947429463 0.0947429463 0.0947429463
0.0950242430 0.0950242430 0.0950242430
0.0953057334 0.0953057334 0.0953057334
0.0955874175 0.0955874175 0.0955874175
0.0958692878 0.0958692878 0.0958692878
0.0961513519 0.0961513519 0.0961513519
0.0964336097 0.0964336097 0.0964336097
0.0967160538 0.0967160538 0.0967160538
0.0969986916 0.0969986916 0.0969986916
0.0972815156 0.0972815156 0.0972815156
0.0975645334 0.0975645334 0.0975645334
0.0978477374 0.0978477374 0.0978477374
0.0981311351 0.0981311351 0.0981311351
0.0984147191 0.0984147191 0.0984147191
0.0986984894 0.0986984894 0.0986984894
0.0989824533 0.0989824533 0.0989824533
0.0992666036 0.0992666036 0.0992666036
0.0995509401 0.0995509401 0.0995509401
0.0998354629 0.0998354629 0.0998354629
0.1001201794 0.1001201794 0.1001201794
0.1004050747 0.1004050747 0.1004050747
0.1006901637 0.1006901637 0.1006901637
0.1009754390 0.1009754390 0.1009754390
0.1012608930 0.1012608930 0.1012608930
0.1015465409 0.1015465409 0.1015465409
0.1018323675 0.1018323675 0.1018323675
0.1021183804 0.1021183804 0.1021183804
0.1024045795 0.1024045795 0.1024045795
0.1026909649 0.1026909649 0.1026909649
0.1029775366 0.1029775366 0.1029775366
0.1032642871 0.1032642871 0.1032642871
0.1035512239 0.1035512239 0.1035512239
0.1038383469 0.1038383469 0.1038383469
0.1041256487 0.1041256487 0.1041256487
0.1044131368 0.1044131368 0.1044131368
0.1047008112 0.1047008112 0.1047008112
0.1049886644 0.1049886644 0.1049886644
0.1052766964 0.1052766964 0.1052766964
0.1055649146 0.1055649146 0.1055649146
0.1058533117 0.1058533117 0.1058533117
0.1061418876 0.1061418876 0.1061418876
0.1064306498 0.1064306498 0.1064306498
0.1067195907 0.1067195907 0.1067195907
0.1070087180 0.1070087180 0.1070087180
0.1072980165 0.1072980165 0.1072980165
0.1075875014 0.1075875014 0.1075875014
0.1078771651 0.1078771651 0.1078771651
0.1081670076 0.1081670076 0.1081670076
0.1084570289 0.1084570289 0.1084570289
0.1087472290 0.1087472290 0.1087472290
0.1090376079 0.1090376079 0.1090376079
0.1093281657 0.1093281657 0.1093281657
0.1096189022 0.1096189022 0.1096189022
0.1099098176 0.1099098176 0.1099098176
0.1102009118 0.1102009118 0.1102009118
0.1104921848 0.1104921848 0.1104921848
0.1107836291 0.1107836291 0.1107836291
0.1110752523 0.1110752523 0.1110752523
0.1113670543 0.1113670543 0.1113670543
0.1116590351 0.1116590351 0.1116590351
0.1119511873 0.1119511873 0.1119511873
0.1122435182 0.1122435182 0.1122435182
0.1125360206 0.1125360206 0.1125360206
0.1128287017 0.1128287017 0.1128287017
0.1131215617 0.1131215617 0.1131215617
0.1134145930 0.1134145930 0.1134145930
0.1137077957 0.1137077957 0.1137077957
0.1140011773 0.1140011773 0.1140011773
0.1142947376 0.1142947376 0.1142947376
0.1145884618 0.1145884618 0.1145884618
0.1148823649 0.1148823649 0.1148823649
0.1151764467 0.1151764467 0.1151764467
0.1154706925 0.1154706925 0.1154706925
0.1157651171 0.1157651171 0.1157651171
0.1160597131 0.1160597131 0.1160597131
0.1163544878 0.1163544878 0.1163544878
0.1166494265 0.1166494265 0.1166494265
0.1169445440 0.1169445440 0.1169445440
0.1172398254 0.1172398254 0.1172398254
0.1175352857 0.1175352857 0.1175352857
0.1178309098 0.1178309098 0.1178309098
0.1181267127 0.1181267127 0.1181267127
0.1184226871 0.1184226871 0.1184226871
0.1187188253 0.1187188253 0.1187188253
0.1190151423 0.1190151423 0.1190151423
0.1193116233 0.1193116233 0.1193116233
0.1196082756 0.1196082756 0.1196082756
0.1199050993 0.1199050993 0.1199050993
0.1202020943 0.1202020943 0.1202020943
0.1204992533 0.1204992533 0.1204992533
0.1207965836 0.1207965836 0.1207965836
0.1210940853 0.1210940853 0.1210940853
0.1213917509 0.1213917509 0.1213917509
0.1216895878 0.1216895878 0.1216895878
0.1219875962 0.1219875962 0.1219875962
0.1222857684 0.1222857684 0.1222857684
0.1225841120 0.1225841120 0.1225841120
0.1228826195 0.1228826195 0.1228826195
0.1231812984 0.1231812984 0.1231812984
0.1234801412 0.1234801412 0.1234801412
0.1237791553 0.1237791553 0.1237791553
0.1240783334 0.1240783334 0.1240783334
0.1243776754 0.1243776754 0.1243776754
0.1246771887 0.1246771887 0.1246771887
0.1249768659 0.1249768659 0.1249768659
0.1252767146 0.1252767146 0.1252767146
0.1255767196 0.1255767196 0.1255767196
0.1258768886 0.1258768886 0.1258768886
0.1261772364 0.1261772364 0.1261772364
0.1264777333 0.1264777333 0.1264777333
0.1267784089 0.1267784089 0.1267784089
0.1270792335 0.1270792335 0.1270792335
0.1273802370 0.1273802370 0.1273802370
0.1276814044 0.1276814044 0.1276814044
0.1279827207 0.1279827207 0.1279827207
0.1282842159 0.1282842159 0.1282842159
0.1285858750 0.1285858750 0.1285858750
0.1288876832 0.1288876832 0.1288876832
0.1291896701 0.1291896701 0.1291896701
0.1294918060 0.1294918060 0.1294918060
0.1297941208 0.1297941208 0.1297941208
0.1300965846 0.1300965846 0.1300965846
0.1303992122 0.1303992122 0.1303992122
0.1307020187 0.1307020187 0.1307020187
0.1310049742 0.1310049742 0.1310049742
0.1313080788 0.1313080788 0.1313080788
0.1316113621 0.1316113621 0.1316113621
0.1319148093 0.1319148093 0.1319148093
0.1322184056 0.1322184056 0.1322184056
0.1325221658 0.1325221658 0.1325221658
0.1328260899 0.1328260899 0.1328260899
0.1331301779 0.1331301779 0.1331301779
0.1334344149 0.1334344149 0.1334344149
0.1337388158 0.1337388158 0.1337388158
0.1340433806 0.1340433806 0.1340433806
0.1343481094 0.1343481094 0.1343481094
0.1346529871 0.1346529871 0.1346529871
0.1349580437 0.1349580437 0.1349580437
0.1352632344 0.1352632344 0.1352632344
0.1355686039 0.1355686039 0.1355686039
0.1358741224 0.1358741224 0.1358741224
0.1361798048 0.1361798048 0.1361798048
0.1364856362 0.1364856362 0.1364856362
0.1367916316 0.1367916316 0.1367916316
0.1370977908 0.1370977908 0.1370977908
0.1374040991 0.1374040991 0.1374040991
0.1377105564 0.1377105564 0.1377105564
0.1380171925 0.1380171925 0.1380171925
0.1383239776 0.1383239776 0.1383239776
0.1386309117 0.1386309117 0.1386309117
0.1389380097 0.1389380097 0.1389380097
0.1392452717 0.1392452717 0.1392452717
0.1395526826 0.1395526826 0.1395526826
0.1398602426 0.1398602426 0.1398602426
0.1401679665 0.1401679665 0.1401679665
0.1404758394 0.1404758394 0.1404758394
0.1407838762 0.1407838762 0.1407838762
0.1410920769 0.1410920769 0.1410920769
0.1414004117 0.1414004117 0.1414004117
0.1417089254 0.1417089254 0.1417089254
0.1420175731 0.1420175731 0.1420175731
0.1423263848 0.1423263848 0.1423263848
0.1426353455 0.1426353455 0.1426353455
0.1429444700 0.1429444700 0.1429444700
0.1432537436 0.1432537436 0.1432537436
0.1435631812 0.1435631812 0.1435631812
0.1438727528 0.1438727528 0.1438727528
0.1441825032 0.1441825032 0.1441825032
0.1444923878 0.1444923878 0.1444923878
0.1448024362 0.1448024362 0.1448024362
0.1451126337 0.1451126337 0.1451126337
0.1454229802 0.1454229802 0.1454229802
0.1457334757 0.1457334757 0.1457334757
0.1460441351 0.1460441351 0.1460441351
