HDR Hybrid Log-Gamma/HLG to Gamma 1.0.cube
# DaVinci Resolve Cube (1D shaper LUT).

LUT_1D_SIZE 4096
LUT_1D_INPUT_RANGE 0.0000000000 1.0000000000

0.0000000000 0.0000000000 0.0000000000
0.0000002385 0.0000002385 0.0000002385
0.0000009541 0.0000009541 0.0000009541
0.0000021468 0.0000021468 0.0000021468
0.0000038166 0.0000038166 0.0000038166
0.0000059634 0.0000059634 0.0000059634
0.0000085873 0.0000085873 0.0000085873
0.0000116882 0.0000116882 0.0000116882
0.0000152662 0.0000152662 0.0000152662
0.0000193213 0.0000193213 0.0000193213
0.0000238535 0.0000238535 0.0000238535
0.0000288627 0.0000288627 0.0000288627
0.0000343490 0.0000343490 0.0000343490
0.0000403124 0.0000403124 0.0000403124
0.0000467529 0.0000467529 0.0000467529
0.0000536704 0.0000536704 0.0000536704
0.0000610650 0.0000610650 0.0000610650
0.0000689366 0.0000689366 0.0000689366
0.0000772854 0.0000772854 0.0000772854
0.0000861111 0.0000861111 0.0000861111
0.0000954140 0.0000954140 0.0000954140
0.0001051940 0.0001051940 0.0001051940
0.0001154510 0.0001154510 0.0001154510
0.0001261850 0.0001261850 0.0001261850
0.0001373962 0.0001373962 0.0001373962
0.0001490844 0.0001490844 0.0001490844
0.0001612497 0.0001612497 0.0001612497
0.0001738920 0.0001738920 0.0001738920
0.0001870115 0.0001870115 0.0001870115
0.0002006080 0.0002006080 0.0002006080
0.0002146815 0.0002146815 0.0002146815
0.0002292322 0.0002292322 0.0002292322
0.0002442599 0.0002442599 0.0002442599
0.0002597647 0.0002597647 0.0002597647
0.0002757465 0.0002757465 0.0002757465
0.0002922054 0.0002922054 0.0002922054
0.0003091414 0.0003091414 0.0003091414
0.0003265545 0.0003265545 0.0003265545
0.0003444446 0.0003444446 0.0003444446
0.0003628118 0.0003628118 0.0003628118
0.0003816561 0.0003816561 0.0003816561
0.0004009774 0.0004009774 0.0004009774
0.0004207758 0.0004207758 0.0004207758
0.0004410513 0.0004410513 0.0004410513
0.0004618038 0.0004618038 0.0004618038
0.0004830335 0.0004830335 0.0004830335
0.0005047401 0.0005047401 0.0005047401
0.0005269239 0.0005269239 0.0005269239
0.0005495847 0.0005495847 0.0005495847
0.0005727226 0.0005727226 0.0005727226
0.0005963376 0.0005963376 0.0005963376
0.0006204296 0.0006204296 0.0006204296
0.0006449987 0.0006449987 0.0006449987
0.0006700449 0.0006700449 0.0006700449
0.0006955682 0.0006955682 0.0006955682
0.0007215685 0.0007215685 0.0007215685
0.0007480459 0.0007480459 0.0007480459
0.0007750003 0.0007750003 0.0007750003
0.0008024319 0.0008024319 0.0008024319
0.0008303405 0.0008303405 0.0008303405
0.0008587261 0.0008587261 0.0008587261
0.0008875889 0.0008875889 0.0008875889
0.0009169287 0.0009169287 0.0009169287
0.0009467456 0.0009467456 0.0009467456
0.0009770395 0.0009770395 0.0009770395
0.0010078105 0.0010078105 0.0010078105
0.0010390586 0.0010390586 0.0010390586
0.0010707838 0.0010707838 0.0010707838
0.0011029860 0.0011029860 0.0011029860
0.0011356653 0.0011356653 0.0011356653
0.0011688217 0.0011688217 0.0011688217
0.0012024551 0.0012024551 0.0012024551
0.0012365656 0.0012365656 0.0012365656
0.0012711532 0.0012711532 0.0012711532
0.0013062179 0.0013062179 0.0013062179
0.0013417596 0.0013417596 0.0013417596
0.0013777784 0.0013777784 0.0013777784
0.0014142742 0.0014142742 0.0014142742
0.0014512472 0.0014512472 0.0014512472
0.0014886972 0.0014886972 0.0014886972
0.0015266242 0.0015266242 0.0015266242
0.0015650284 0.0015650284 0.0015650284
0.0016039096 0.0016039096 0.0016039096
0.0016432679 0.0016432679 0.0016432679
0.0016831032 0.0016831032 0.0016831032
0.0017234156 0.0017234156 0.0017234156
0.0017642051 0.0017642051 0.0017642051
0.0018054717 0.0018054717 0.0018054717
0.0018472153 0.0018472153 0.0018472153
0.0018894360 0.0018894360 0.0018894360
0.0019321338 0.0019321338 0.0019321338
0.0019753086 0.0019753086 0.0019753086
0.0020189606 0.0020189606 0.0020189606
0.0020630895 0.0020630895 0.0020630895
0.0021076956 0.0021076956 0.0021076956
0.0021527787 0.0021527787 0.0021527787
0.0021983389 0.0021983389 0.0021983389
0.0022443762 0.0022443762 0.0022443762
0.0022908905 0.0022908905 0.0022908905
0.0023378819 0.0023378819 0.0023378819
0.0023853504 0.0023853504 0.0023853504
0.0024332959 0.0024332959 0.0024332959
0.0024817185 0.0024817185 0.0024817185
0.0025306182 0.0025306182 0.0025306182
0.0025799950 0.0025799950 0.0025799950
0.0026298488 0.0026298488 0.0026298488
0.0026801797 0.0026801797 0.0026801797
0.0027309876 0.0027309876 0.0027309876
0.0027822727 0.0027822727 0.0027822727
0.0028340348 0.0028340348 0.0028340348
0.0028862739 0.0028862739 0.0028862739
0.0029389902 0.0029389902 0.0029389902
0.0029921835 0.0029921835 0.0029921835
0.0030458539 0.0030458539 0.0030458539
0.0031000013 0.0031000013 0.0031000013
0.0031546259 0.0031546259 0.0031546259
0.0032097275 0.0032097275 0.0032097275
0.0032653061 0.0032653061 0.0032653061
0.0033213619 0.0033213619 0.0033213619
0.0033778947 0.0033778947 0.0033778947
0.0034349045 0.0034349045 0.0034349045
0.0034923915 0.0034923915 0.0034923915
0.0035503555 0.0035503555 0.0035503555
0.0036087966 0.0036087966 0.0036087966
0.0036677147 0.0036677147 0.0036677147
0.0037271100 0.0037271100 0.0037271100
0.0037869822 0.0037869822 0.0037869822
0.0038473316 0.0038473316 0.0038473316
0.0039081580 0.0039081580 0.0039081580
0.0039694616 0.0039694616 0.0039694616
0.0040312421 0.0040312421 0.0040312421
0.0040934998 0.0040934998 0.0040934998
0.0041562345 0.0041562345 0.0041562345
0.0042194463 0.0042194463 0.0042194463
0.0042831351 0.0042831351 0.0042831351
0.0043473011 0.0043473011 0.0043473011
0.0044119440 0.0044119440 0.0044119440
0.0044770641 0.0044770641 0.0044770641
0.0045426612 0.0045426612 0.0045426612
0.0046087355 0.0046087355 0.0046087355
0.0046752867 0.0046752867 0.0046752867
0.0047423151 0.0047423151 0.0047423151
0.0048098205 0.0048098205 0.0048098205
0.0048778030 0.0048778030 0.0048778030
0.0049462625 0.0049462625 0.0049462625
0.0050151992 0.0050151992 0.0050151992
0.0050846129 0.0050846129 0.0050846129
0.0051545036 0.0051545036 0.0051545036
0.0052248715 0.0052248715 0.0052248715
0.0052957164 0.0052957164 0.0052957164
0.0053670383 0.0053670383 0.0053670383
0.0054388374 0.0054388374 0.0054388374
0.0055111135 0.0055111135 0.0055111135
0.0055838667 0.0055838667 0.0055838667
0.0056570969 0.0056570969 0.0056570969
0.0057308043 0.0057308043 0.0057308043
0.0058049887 0.0058049887 0.0058049887
0.0058796501 0.0058796501 0.0058796501
0.0059547887 0.0059547887 0.0059547887
0.0060304043 0.0060304043 0.0060304043
0.0061064969 0.0061064969 0.0061064969
0.0061830667 0.0061830667 0.0061830667
0.0062601135 0.0062601135 0.0062601135
0.0063376374 0.0063376374 0.0063376374
0.0064156384 0.0064156384 0.0064156384
0.0064941164 0.0064941164 0.0064941164
0.0065730715 0.0065730715 0.0065730715
0.0066525036 0.0066525036 0.0066525036
0.0067324129 0.0067324129 0.0067324129
0.0068127992 0.0068127992 0.0068127992
0.0068936626 0.0068936626 0.0068936626
0.0069750030 0.0069750030 0.0069750030
0.0070568205 0.0070568205 0.0070568205
0.0071391151 0.0071391151 0.0071391151
0.0072218868 0.0072218868 0.0072218868
0.0073051355 0.0073051355 0.0073051355
0.0073888613 0.0073888613 0.0073888613
0.0074730642 0.0074730642 0.0074730642
0.0075577441 0.0075577441 0.0075577441
0.0076429011 0.0076429011 0.0076429011
0.0077285352 0.0077285352 0.0077285352
0.0078146463 0.0078146463 0.0078146463
0.0079012346 0.0079012346 0.0079012346
0.0079882999 0.0079882999 0.0079882999
0.0080758422 0.0080758422 0.0080758422
0.0081638616 0.0081638616 0.0081638616
0.0082523581 0.0082523581 0.0082523581
0.0083413317 0.0083413317 0.0083413317
0.0084307824 0.0084307824 0.0084307824
0.0085207101 0.0085207101 0.0085207101
0.0086111148 0.0086111148 0.0086111148
0.0087019967 0.0087019967 0.0087019967
0.0087933556 0.0087933556 0.0087933556
0.0088851916 0.0088851916 0.0088851916
0.0089775047 0.0089775047 0.0089775047
0.0090702948 0.0090702948 0.0090702948
0.0091635620 0.0091635620 0.0091635620
0.0092573063 0.0092573063 0.0092573063
0.0093515276 0.0093515276 0.0093515276
0.0094462260 0.0094462260 0.0094462260
0.0095414015 0.0095414015 0.0095414015
0.0096370540 0.0096370540 0.0096370540
0.0097331837 0.0097331837 0.0097331837
0.0098297903 0.0098297903 0.0098297903
0.0099268741 0.0099268741 0.0099268741
0.0100244349 0.0100244349 0.0100244349
0.0101224728 0.0101224728 0.0101224728
0.0102209878 0.0102209878 0.0102209878
0.0103199798 0.0103199798 0.0103199798
0.0104194490 0.0104194490 0.0104194490
0.0105193951 0.0105193951 0.0105193951
0.0106198184 0.0106198184 0.0106198184
0.0107207187 0.0107207187 0.0107207187
0.0108220961 0.0108220961 0.0108220961
0.0109239506 0.0109239506 0.0109239506
0.0110262821 0.0110262821 0.0110262821
0.0111290907 0.0111290907 0.0111290907
0.0112323764 0.0112323764 0.0112323764
0.0113361391 0.0113361391 0.0113361391
0.0114403789 0.0114403789 0.0114403789
0.0115450958 0.0115450958 0.0115450958
0.0116502897 0.0116502897 0.0116502897
0.0117559608 0.0117559608 0.0117559608
0.0118621089 0.0118621089 0.0118621089
0.0119687340 0.0119687340 0.0119687340
0.0120758363 0.0120758363 0.0120758363
0.0121834156 0.0121834156 0.0121834156
0.0122914719 0.0122914719 0.0122914719
0.0124000054 0.0124000054 0.0124000054
0.0125090159 0.0125090159 0.0125090159
0.0126185035 0.0126185035 0.0126185035
0.0127284681 0.0127284681 0.0127284681
0.0128389098 0.0128389098 0.0128389098
0.0129498286 0.0129498286 0.0129498286
0.0130612245 0.0130612245 0.0130612245
0.0131730974 0.0131730974 0.0131730974
0.0132854474 0.0132854474 0.0132854474
0.0133982745 0.0133982745 0.0133982745
0.0135115786 0.0135115786 0.0135115786
0.0136253599 0.0136253599 0.0136253599
0.0137396181 0.0137396181 0.0137396181
0.0138543535 0.0138543535 0.0138543535
0.0139695659 0.0139695659 0.0139695659
0.0140852554 0.0140852554 0.0140852554
0.0142014220 0.0142014220 0.0142014220
0.0143180656 0.0143180656 0.0143180656
0.0144351863 0.0144351863 0.0144351863
0.0145527841 0.0145527841 0.0145527841
0.0146708589 0.0146708589 0.0146708589
0.0147894108 0.0147894108 0.0147894108
0.0149084398 0.0149084398 0.0149084398
0.0150279459 0.0150279459 0.0150279459
0.0151479290 0.0151479290 0.0151479290
0.0152683892 0.0152683892 0.0152683892
0.0153893265 0.0153893265 0.0153893265
0.0155107408 0.0155107408 0.0155107408
0.0156326322 0.0156326322 0.0156326322
0.0157550007 0.0157550007 0.0157550007
0.0158778462 0.0158778462 0.0158778462
0.0160011688 0.0160011688 0.0160011688
0.0161249685 0.0161249685 0.0161249685
0.0162492453 0.0162492453 0.0162492453
0.0163739991 0.0163739991 0.0163739991
0.0164992300 0.0164992300 0.0164992300
0.0166249379 0.0166249379 0.0166249379
0.0167511230 0.0167511230 0.0167511230
0.0168777851 0.0168777851 0.0168777851
0.0170049243 0.0170049243 0.0170049243
0.0171325405 0.0171325405 0.0171325405
0.0172606338 0.0172606338 0.0172606338
0.0173892042 0.0173892042 0.0173892042
0.0175182517 0.0175182517 0.0175182517
0.0176477762 0.0176477762 0.0176477762
0.0177777778 0.0177777778 0.0177777778
0.0179082564 0.0179082564 0.0179082564
0.0180392122 0.0180392122 0.0180392122
0.0181706450 0.0181706450 0.0181706450
0.0183025549 0.0183025549 0.0183025549
0.0184349418 0.0184349418 0.0184349418
0.0185678058 0.0185678058 0.0185678058
0.0187011469 0.0187011469 0.0187011469
0.0188349651 0.0188349651 0.0188349651
0.0189692603 0.0189692603 0.0189692603
0.0191040326 0.0191040326 0.0191040326
0.0192392819 0.0192392819 0.0192392819
0.0193750084 0.0193750084 0.0193750084
0.0195112119 0.0195112119 0.0195112119
0.0196478925 0.0196478925 0.0196478925
0.0197850501 0.0197850501 0.0197850501
0.0199226848 0.0199226848 0.0199226848
0.0200607966 0.0200607966 0.0200607966
0.0201993855 0.0201993855 0.0201993855
0.0203384514 0.0203384514 0.0203384514
0.0204779944 0.0204779944 0.0204779944
0.0206180145 0.0206180145 0.0206180145
0.0207585116 0.0207585116 0.0207585116
0.0208994858 0.0208994858 0.0208994858
0.0210409371 0.0210409371 0.0210409371
0.0211828654 0.0211828654 0.0211828654
0.0213252708 0.0213252708 0.0213252708
0.0214681533 0.0214681533 0.0214681533
0.0216115129 0.0216115129 0.0216115129
0.0217553495 0.0217553495 0.0217553495
0.0218996632 0.0218996632 0.0218996632
0.0220444540 0.0220444540 0.0220444540
0.0221897218 0.0221897218 0.0221897218
0.0223354667 0.0223354667 0.0223354667
0.0224816887 0.0224816887 0.0224816887
0.0226283878 0.0226283878 0.0226283878
0.0227755639 0.0227755639 0.0227755639
0.0229232171 0.0229232171 0.0229232171
0.0230713473 0.0230713473 0.0230713473
0.0232199546 0.0232199546 0.0232199546
0.0233690390 0.0233690390 0.0233690390
0.0235186005 0.0235186005 0.0235186005
0.0236686391 0.0236686391 0.0236686391
0.0238191547 0.0238191547 0.0238191547
0.0239701473 0.0239701473 0.0239701473
0.0241216171 0.0241216171 0.0241216171
0.0242735639 0.0242735639 0.0242735639
0.0244259878 0.0244259878 0.0244259878
0.0245788888 0.0245788888 0.0245788888
0.0247322668 0.0247322668 0.0247322668
0.0248861219 0.0248861219 0.0248861219
0.0250404541 0.0250404541 0.0250404541
0.0251952633 0.0251952633 0.0251952633
0.0253505496 0.0253505496 0.0253505496
0.0255063130 0.0255063130 0.0255063130
0.0256625534 0.0256625534 0.0256625534
0.0258192709 0.0258192709 0.0258192709
0.0259764655 0.0259764655 0.0259764655
0.0261341372 0.0261341372 0.0261341372
0.0262922859 0.0262922859 0.0262922859
0.0264509117 0.0264509117 0.0264509117
0.0266100146 0.0266100146 0.0266100146
0.0267695945 0.0267695945 0.0267695945
0.0269296515 0.0269296515 0.0269296515
0.0270901856 0.0270901856 0.0270901856
0.0272511968 0.0272511968 0.0272511968
0.0274126850 0.0274126850 0.0274126850
0.0275746503 0.0275746503 0.0275746503
0.0277370926 0.0277370926 0.0277370926
0.0279000121 0.0279000121 0.0279000121
0.0280634086 0.0280634086 0.0280634086
0.0282272821 0.0282272821 0.0282272821
0.0283916328 0.0283916328 0.0283916328
0.0285564605 0.0285564605 0.0285564605
0.0287217653 0.0287217653 0.0287217653
0.0288875471 0.0288875471 0.0288875471
0.0290538061 0.0290538061 0.0290538061
0.0292205420 0.0292205420 0.0292205420
0.0293877551 0.0293877551 0.0293877551
0.0295554452 0.0295554452 0.0295554452
0.0297236124 0.0297236124 0.0297236124
0.0298922567 0.0298922567 0.0298922567
0.0300613780 0.0300613780 0.0300613780
0.0302309765 0.0302309765 0.0302309765
0.0304010519 0.0304010519 0.0304010519
0.0305716045 0.0305716045 0.0305716045
0.0307426341 0.0307426341 0.0307426341
0.0309141408 0.0309141408 0.0309141408
0.0310861246 0.0310861246 0.0310861246
0.0312585854 0.0312585854 0.0312585854
0.0314315233 0.0314315233 0.0314315233
0.0316049383 0.0316049383 0.0316049383
0.0317788303 0.0317788303 0.0317788303
0.0319531994 0.0319531994 0.0319531994
0.0321280456 0.0321280456 0.0321280456
0.0323033689 0.0323033689 0.0323033689
0.0324791692 0.0324791692 0.0324791692
0.0326554466 0.0326554466 0.0326554466
0.0328322010 0.0328322010 0.0328322010
0.0330094326 0.0330094326 0.0330094326
0.0331871412 0.0331871412 0.0331871412
0.0333653268 0.0333653268 0.0333653268
0.0335439896 0.0335439896 0.0335439896
0.0337231294 0.0337231294 0.0337231294
0.0339027463 0.0339027463 0.0339027463
0.0340828402 0.0340828402 0.0340828402
0.0342634113 0.0342634113 0.0342634113
0.0344444594 0.0344444594 0.0344444594
0.0346259845 0.0346259845 0.0346259845
0.0348079867 0.0348079867 0.0348079867
0.0349904661 0.0349904661 0.0349904661
0.0351734224 0.0351734224 0.0351734224
0.0353568559 0.0353568559 0.0353568559
0.0355407664 0.0355407664 0.0355407664
0.0357251540 0.0357251540 0.0357251540
0.0359100186 0.0359100186 0.0359100186
0.0360953603 0.0360953603 0.0360953603
0.0362811791 0.0362811791 0.0362811791
0.0364674750 0.0364674750 0.0364674750
0.0366542479 0.0366542479 0.0366542479
0.0368414979 0.0368414979 0.0368414979
0.0370292250 0.0370292250 0.0370292250
0.0372174292 0.0372174292 0.0372174292
0.0374061104 0.0374061104 0.0374061104
0.0375952687 0.0375952687 0.0375952687
0.0377849040 0.0377849040 0.0377849040
0.0379750164 0.0379750164 0.0379750164
0.0381656059 0.0381656059 0.0381656059
0.0383566725 0.0383566725 0.0383566725
0.0385482161 0.0385482161 0.0385482161
0.0387402368 0.0387402368 0.0387402368
0.0389327346 0.0389327346 0.0389327346
0.0391257095 0.0391257095 0.0391257095
0.0393191614 0.0393191614 0.0393191614
0.0395130904 0.0395130904 0.0395130904
0.0397074964 0.0397074964 0.0397074964
0.0399023795 0.0399023795 0.0399023795
0.0400977397 0.0400977397 0.0400977397
0.0402935770 0.0402935770 0.0402935770
0.0404898913 0.0404898913 0.0404898913
0.0406866827 0.0406866827 0.0406866827
0.0408839512 0.0408839512 0.0408839512
0.0410816968 0.0410816968 0.0410816968
0.0412799194 0.0412799194 0.0412799194
0.0414786191 0.0414786191 0.0414786191
0.0416777958 0.0416777958 0.0416777958
0.0418774496 0.0418774496 0.0418774496
0.0420775805 0.0420775805 0.0420775805
0.0422781885 0.0422781885 0.0422781885
0.0424792735 0.0424792735 0.0424792735
0.0426808356 0.0426808356 0.0426808356
0.0428828748 0.0428828748 0.0428828748
0.0430853911 0.0430853911 0.0430853911
0.0432883844 0.0432883844 0.0432883844
0.0434918548 0.0434918548 0.0434918548
0.0436958022 0.0436958022 0.0436958022
0.0439002268 0.0439002268 0.0439002268
0.0441051284 0.0441051284 0.0441051284
0.0443105070 0.0443105070 0.0443105070
0.0445163628 0.0445163628 0.0445163628
0.0447226956 0.0447226956 0.0447226956
0.0449295054 0.0449295054 0.0449295054
0.0451367924 0.0451367924 0.0451367924
0.0453445564 0.0453445564 0.0453445564
0.0455527975 0.0455527975 0.0455527975
0.0457615157 0.0457615157 0.0457615157
0.0459707109 0.0459707109 0.0459707109
0.0461803832 0.0461803832 0.0461803832
0.0463905325 0.0463905325 0.0463905325
0.0466011590 0.0466011590 0.0466011590
0.0468122625 0.0468122625 0.0468122625
0.0470238431 0.0470238431 0.0470238431
0.0472359007 0.0472359007 0.0472359007
0.0474484354 0.0474484354 0.0474484354
0.0476614472 0.0476614472 0.0476614472
0.0478749361 0.0478749361 0.0478749361
0.0480889020 0.0480889020 0.0480889020
0.0483033450 0.0483033450 0.0483033450
0.0485182651 0.0485182651 0.0485182651
0.0487336622 0.0487336622 0.0487336622
0.0489495364 0.0489495364 0.0489495364
0.0491658877 0.0491658877 0.0491658877
0.0493827160 0.0493827160 0.0493827160
0.0496000215 0.0496000215 0.0496000215
0.0498178040 0.0498178040 0.0498178040
0.0500360635 0.0500360635 0.0500360635
0.0502548001 0.0502548001 0.0502548001
0.0504740138 0.0504740138 0.0504740138
0.0506937046 0.0506937046 0.0506937046
0.0509138725 0.0509138725 0.0509138725
0.0511345174 0.0511345174 0.0511345174
0.0513556393 0.0513556393 0.0513556393
0.0515772384 0.0515772384 0.0515772384
0.0517993145 0.0517993145 0.0517993145
0.0520218677 0.0520218677 0.0520218677
0.0522448980 0.0522448980 0.0522448980
0.0524684053 0.0524684053 0.0524684053
0.0526923897 0.0526923897 0.0526923897
0.0529168512 0.0529168512 0.0529168512
0.0531417897 0.0531417897 0.0531417897
0.0533672053 0.0533672053 0.0533672053
0.0535930980 0.0535930980 0.0535930980
0.0538194677 0.0538194677 0.0538194677
0.0540463146 0.0540463146 0.0540463146
0.0542736384 0.0542736384 0.0542736384
0.0545014394 0.0545014394 0.0545014394
0.0547297174 0.0547297174 0.0547297174
0.0549584725 0.0549584725 0.0549584725
0.0551877047 0.0551877047 0.0551877047
0.0554174140 0.0554174140 0.0554174140
0.0556476003 0.0556476003 0.0556476003
0.0558782636 0.0558782636 0.0558782636
0.0561094041 0.0561094041 0.0561094041
0.0563410216 0.0563410216 0.0563410216
0.0565731162 0.0565731162 0.0565731162
0.0568056879 0.0568056879 0.0568056879
0.0570387366 0.0570387366 0.0570387366
0.0572722624 0.0572722624 0.0572722624
0.0575062653 0.0575062653 0.0575062653
0.0577407452 0.0577407452 0.0577407452
0.0579757022 0.0579757022 0.0579757022
0.0582111363 0.0582111363 0.0582111363
0.0584470475 0.0584470475 0.0584470475
0.0586834357 0.0586834357 0.0586834357
0.0589203010 0.0589203010 0.0589203010
0.0591576433 0.0591576433 0.0591576433
0.0593954628 0.0593954628 0.0593954628
0.0596337593 0.0596337593 0.0596337593
0.0598725328 0.0598725328 0.0598725328
0.0601117835 0.0601117835 0.0601117835
0.0603515112 0.0603515112 0.0603515112
0.0605917160 0.0605917160 0.0605917160
0.0608323978 0.0608323978 0.0608323978
0.0610735568 0.0610735568 0.0610735568
0.0613151927 0.0613151927 0.0613151927
0.0615573058 0.0615573058 0.0615573058
0.0617998959 0.0617998959 0.0617998959
0.0620429631 0.0620429631 0.0620429631
0.0622865074 0.0622865074 0.0622865074
0.0625305288 0.0625305288 0.0625305288
0.0627750272 0.0627750272 0.0627750272
0.0630200027 0.0630200027 0.0630200027
0.0632654552 0.0632654552 0.0632654552
0.0635113848 0.0635113848 0.0635113848
0.0637577915 0.0637577915 0.0637577915
0.0640046753 0.0640046753 0.0640046753
0.0642520361 0.0642520361 0.0642520361
0.0644998740 0.0644998740 0.0644998740
0.0647481890 0.0647481890 0.0647481890
0.0649969810 0.0649969810 0.0649969810
0.0652462502 0.0652462502 0.0652462502
0.0654959963 0.0654959963 0.0654959963
0.0657462196 0.0657462196 0.0657462196
0.0659969199 0.0659969199 0.0659969199
0.0662480973 0.0662480973 0.0662480973
0.0664997518 0.0664997518 0.0664997518
0.0667518833 0.0667518833 0.0667518833
0.0670044919 0.0670044919 0.0670044919
0.0672575776 0.0672575776 0.0672575776
0.0675111403 0.0675111403 0.0675111403
0.0677651801 0.0677651801 0.0677651801
0.0680196970 0.0680196970 0.0680196970
0.0682746910 0.0682746910 0.0682746910
0.0685301620 0.0685301620 0.0685301620
0.0687861101 0.0687861101 0.0687861101
0.0690425353 0.0690425353 0.0690425353
0.0692994375 0.0692994375 0.0692994375
0.0695568168 0.0695568168 0.0695568168
0.0698146732 0.0698146732 0.0698146732
0.0700730066 0.0700730066 0.0700730066
0.0703318171 0.0703318171 0.0703318171
0.0705911047 0.0705911047 0.0705911047
0.0708508694 0.0708508694 0.0708508694
0.0711111111 0.0711111111 0.0711111111
0.0713718299 0.0713718299 0.0713718299
0.0716330258 0.0716330258 0.0716330258
0.0718946987 0.0718946987 0.0718946987
0.0721568487 0.0721568487 0.0721568487
0.0724194758 0.0724194758 0.0724194758
0.0726825799 0.0726825799 0.0726825799
0.0729461612 0.0729461612 0.0729461612
0.0732102194 0.0732102194 0.0732102194
0.0734747548 0.0734747548 0.0734747548
0.0737397672 0.0737397672 0.0737397672
0.0740052567 0.0740052567 0.0740052567
0.0742712233 0.0742712233 0.0742712233
0.0745376669 0.0745376669 0.0745376669
0.0748045876 0.0748045876 0.0748045876
0.0750719854 0.0750719854 0.0750719854
0.0753398602 0.0753398602 0.0753398602
0.0756082122 0.0756082122 0.0756082122
0.0758770412 0.0758770412 0.0758770412
0.0761463472 0.0761463472 0.0761463472
0.0764161303 0.0764161303 0.0764161303
0.0766863905 0.0766863905 0.0766863905
0.0769571278 0.0769571278 0.0769571278
0.0772283421 0.0772283421 0.0772283421
0.0775000335 0.0775000335 0.0775000335
0.0777722020 0.0777722020 0.0777722020
0.0780448476 0.0780448476 0.0780448476
0.0783179702 0.0783179702 0.0783179702
0.0785915699 0.0785915699 0.0785915699
0.0788656466 0.0788656466 0.0788656466
0.0791402005 0.0791402005 0.0791402005
0.0794152314 0.0794152314 0.0794152314
0.0796907393 0.0796907393 0.0796907393
0.0799667244 0.0799667244 0.0799667244
0.0802431865 0.0802431865 0.0802431865
0.0805201256 0.0805201256 0.0805201256
0.0807975419 0.0807975419 0.0807975419
0.0810754352 0.0810754352 0.0810754352
0.0813538056 0.0813538056 0.0813538056
0.0816326531 0.0816326531 0.0816326531
0.0819119776 0.0819119776 0.0819119776
0.0821917792 0.0821917792 0.0821917792
0.0824720579 0.0824720579 0.0824720579
0.0827528136 0.0827528136 0.0827528136
0.0830340464 0.0830340464 0.0830340464
0.0833157563 0.0833157563 0.0833157563
0.0835979432 0.0835979432 0.0835979432
0.0838806073 0.0838806073 0.0838806073
0.0841637483 0.0841637483 0.0841637483
0.0844473665 0.0844473665 0.0844473665
0.0847314617 0.0847314617 0.0847314617
0.0850160340 0.0850160340 0.0850160340
0.0853010834 0.0853010834 0.0853010834
0.0855866098 0.0855866098 0.0855866098
0.0858726133 0.0858726133 0.0858726133
0.0861590939 0.0861590939 0.0861590939
0.0864460516 0.0864460516 0.0864460516
0.0867334863 0.0867334863 0.0867334863
0.0870213981 0.0870213981 0.0870213981
0.0873097869 0.0873097869 0.0873097869
0.0875986529 0.0875986529 0.0875986529
0.0878879959 0.0878879959 0.0878879959
0.0881778159 0.0881778159 0.0881778159
0.0884681131 0.0884681131 0.0884681131
0.0887588873 0.0887588873 0.0887588873
0.0890501386 0.0890501386 0.0890501386
