HDR Hybrid Log-Gamma/HLG to Gamma 2.2.cube
# DaVinci Resolve Cube (1D shaper LUT).

LUT_1D_SIZE 4096
LUT_1D_INPUT_RANGE 0.0000000000 1.0000000000

0.0000000000 0.0000000000 0.0000000000
0.0009767793 0.0009767793 0.0009767793
0.0018342565 0.0018342565 0.0018342565
0.0026518139 0.0026518139 0.0026518139
0.0034444803 0.0034444803 0.0034444803
0.0042191379 0.0042191379 0.0042191379
0.0049797401 0.0049797401 0.0049797401
0.0057288492 0.0057288492 0.0057288492
0.0064682581 0.0064682581 0.0064682581
0.0071992895 0.0071992895 0.0071992895
0.0079229580 0.0079229580 0.0079229580
0.0086400662 0.0086400662 0.0086400662
0.0093512637 0.0093512637 0.0093512637
0.0100570873 0.0100570873 0.0100570873
0.0107579872 0.0107579872 0.0107579872
0.0114543465 0.0114543465 0.0114543465
0.0121464950 0.0121464950 0.0121464950
0.0128347193 0.0128347193 0.0128347193
0.0135192708 0.0135192708 0.0135192708
0.0142003719 0.0142003719 0.0142003719
0.0148782204 0.0148782204 0.0148782204
0.0155529933 0.0155529933 0.0155529933
0.0162248504 0.0162248504 0.0162248504
0.0168939359 0.0168939359 0.0168939359
0.0175603811 0.0175603811 0.0175603811
0.0182243060 0.0182243060 0.0182243060
0.0188858203 0.0188858203 0.0188858203
0.0195450250 0.0195450250 0.0195450250
0.0202020134 0.0202020134 0.0202020134
0.0208568717 0.0208568717 0.0208568717
0.0215096800 0.0215096800 0.0215096800
0.0221605127 0.0221605127 0.0221605127
0.0228094392 0.0228094392 0.0228094392
0.0234565244 0.0234565244 0.0234565244
0.0241018293 0.0241018293 0.0241018293
0.0247454108 0.0247454108 0.0247454108
0.0253873225 0.0253873225 0.0253873225
0.0260276151 0.0260276151 0.0260276151
0.0266663363 0.0266663363 0.0266663363
0.0273035310 0.0273035310 0.0273035310
0.0279392420 0.0279392420 0.0279392420
0.0285735097 0.0285735097 0.0285735097
0.0292063724 0.0292063724 0.0292063724
0.0298378666 0.0298378666 0.0298378666
0.0304680271 0.0304680271 0.0304680271
0.0310968868 0.0310968868 0.0310968868
0.0317244772 0.0317244772 0.0317244772
0.0323508285 0.0323508285 0.0323508285
0.0329759693 0.0329759693 0.0329759693
0.0335999272 0.0335999272 0.0335999272
0.0342227284 0.0342227284 0.0342227284
0.0348443982 0.0348443982 0.0348443982
0.0354649608 0.0354649608 0.0354649608
0.0360844394 0.0360844394 0.0360844394
0.0367028563 0.0367028563 0.0367028563
0.0373202328 0.0373202328 0.0373202328
0.0379365897 0.0379365897 0.0379365897
0.0385519468 0.0385519468 0.0385519468
0.0391663232 0.0391663232 0.0391663232
0.0397797372 0.0397797372 0.0397797372
0.0403922069 0.0403922069 0.0403922069
0.0410037491 0.0410037491 0.0410037491
0.0416143807 0.0416143807 0.0416143807
0.0422241175 0.0422241175 0.0422241175
0.0428329750 0.0428329750 0.0428329750
0.0434409682 0.0434409682 0.0434409682
0.0440481117 0.0440481117 0.0440481117
0.0446544195 0.0446544195 0.0446544195
0.0452599050 0.0452599050 0.0452599050
0.0458645817 0.0458645817 0.0458645817
0.0464684621 0.0464684621 0.0464684621
0.0470715588 0.0470715588 0.0470715588
0.0476738837 0.0476738837 0.0476738837
0.0482754486 0.0482754486 0.0482754486
0.0488762647 0.0488762647 0.0488762647
0.0494763432 0.0494763432 0.0494763432
0.0500756948 0.0500756948 0.0500756948
0.0506743298 0.0506743298 0.0506743298
0.0512722584 0.0512722584 0.0512722584
0.0518694906 0.0518694906 0.0518694906
0.0524660358 0.0524660358 0.0524660358
0.0530619035 0.0530619035 0.0530619035
0.0536571029 0.0536571029 0.0536571029
0.0542516427 0.0542516427 0.0542516427
0.0548455316 0.0548455316 0.0548455316
0.0554387782 0.0554387782 0.0554387782
0.0560313906 0.0560313906 0.0560313906
0.0566233768 0.0566233768 0.0566233768
0.0572147448 0.0572147448 0.0572147448
0.0578055022 0.0578055022 0.0578055022
0.0583956564 0.0583956564 0.0583956564
0.0589852148 0.0589852148 0.0589852148
0.0595741845 0.0595741845 0.0595741845
0.0601625725 0.0601625725 0.0601625725
0.0607503857 0.0607503857 0.0607503857
0.0613376305 0.0613376305 0.0613376305
0.0619243137 0.0619243137 0.0619243137
0.0625104416 0.0625104416 0.0625104416
0.0630960204 0.0630960204 0.0630960204
0.0636810563 0.0636810563 0.0636810563
0.0642655551 0.0642655551 0.0642655551
0.0648495228 0.0648495228 0.0648495228
0.0654329652 0.0654329652 0.0654329652
0.0660158877 0.0660158877 0.0660158877
0.0665982960 0.0665982960 0.0665982960
0.0671801954 0.0671801954 0.0671801954
0.0677615911 0.0677615911 0.0677615911
0.0683424885 0.0683424885 0.0683424885
0.0689228925 0.0689228925 0.0689228925
0.0695028082 0.0695028082 0.0695028082
0.0700822404 0.0700822404 0.0700822404
0.0706611939 0.0706611939 0.0706611939
0.0712396735 0.0712396735 0.0712396735
0.0718176837 0.0718176837 0.0718176837
0.0723952290 0.0723952290 0.0723952290
0.0729723140 0.0729723140 0.0729723140
0.0735489429 0.0735489429 0.0735489429
0.0741251201 0.0741251201 0.0741251201
0.0747008498 0.0747008498 0.0747008498
0.0752761361 0.0752761361 0.0752761361
0.0758509831 0.0758509831 0.0758509831
0.0764253948 0.0764253948 0.0764253948
0.0769993750 0.0769993750 0.0769993750
0.0775729277 0.0775729277 0.0775729277
0.0781460567 0.0781460567 0.0781460567
0.0787187656 0.0787187656 0.0787187656
0.0792910581 0.0792910581 0.0792910581
0.0798629379 0.0798629379 0.0798629379
0.0804344084 0.0804344084 0.0804344084
0.0810054732 0.0810054732 0.0810054732
0.0815761357 0.0815761357 0.0815761357
0.0821463993 0.0821463993 0.0821463993
0.0827162673 0.0827162673 0.0827162673
0.0832857429 0.0832857429 0.0832857429
0.0838548294 0.0838548294 0.0838548294
0.0844235300 0.0844235300 0.0844235300
0.0849918477 0.0849918477 0.0849918477
0.0855597857 0.0855597857 0.0855597857
0.0861273469 0.0861273469 0.0861273469
0.0866945343 0.0866945343 0.0866945343
0.0872613509 0.0872613509 0.0872613509
0.0878277996 0.0878277996 0.0878277996
0.0883938831 0.0883938831 0.0883938831
0.0889596044 0.0889596044 0.0889596044
0.0895249661 0.0895249661 0.0895249661
0.0900899710 0.0900899710 0.0900899710
0.0906546218 0.0906546218 0.0906546218
0.0912189211 0.0912189211 0.0912189211
0.0917828715 0.0917828715 0.0917828715
0.0923464756 0.0923464756 0.0923464756
0.0929097360 0.0929097360 0.0929097360
0.0934726551 0.0934726551 0.0934726551
0.0940352354 0.0940352354 0.0940352354
0.0945974793 0.0945974793 0.0945974793
0.0951593892 0.0951593892 0.0951593892
0.0957209675 0.0957209675 0.0957209675
0.0962822166 0.0962822166 0.0962822166
0.0968431387 0.0968431387 0.0968431387
0.0974037360 0.0974037360 0.0974037360
0.0979640109 0.0979640109 0.0979640109
0.0985239656 0.0985239656 0.0985239656
0.0990836022 0.0990836022 0.0990836022
0.0996429228 0.0996429228 0.0996429228
0.1002019297 0.1002019297 0.1002019297
0.1007606249 0.1007606249 0.1007606249
0.1013190105 0.1013190105 0.1013190105
0.1018770885 0.1018770885 0.1018770885
0.1024348610 0.1024348610 0.1024348610
0.1029923299 0.1029923299 0.1029923299
0.1035494973 0.1035494973 0.1035494973
0.1041063650 0.1041063650 0.1041063650
0.1046629350 0.1046629350 0.1046629350
0.1052192091 0.1052192091 0.1052192091
0.1057751894 0.1057751894 0.1057751894
0.1063308775 0.1063308775 0.1063308775
0.1068862754 0.1068862754 0.1068862754
0.1074413849 0.1074413849 0.1074413849
0.1079962077 0.1079962077 0.1079962077
0.1085507456 0.1085507456 0.1085507456
0.1091050004 0.1091050004 0.1091050004
0.1096589737 0.1096589737 0.1096589737
0.1102126673 0.1102126673 0.1102126673
0.1107660829 0.1107660829 0.1107660829
0.1113192221 0.1113192221 0.1113192221
0.1118720867 0.1118720867 0.1118720867
0.1124246781 0.1124246781 0.1124246781
0.1129769980 0.1129769980 0.1129769980
0.1135290481 0.1135290481 0.1135290481
0.1140808298 0.1140808298 0.1140808298
0.1146323448 0.1146323448 0.1146323448
0.1151835946 0.1151835946 0.1151835946
0.1157345807 0.1157345807 0.1157345807
0.1162853046 0.1162853046 0.1162853046
0.1168357678 0.1168357678 0.1168357678
0.1173859718 0.1173859718 0.1173859718
0.1179359180 0.1179359180 0.1179359180
0.1184856078 0.1184856078 0.1184856078
0.1190350428 0.1190350428 0.1190350428
0.1195842243 0.1195842243 0.1195842243
0.1201331537 0.1201331537 0.1201331537
0.1206818324 0.1206818324 0.1206818324
0.1212302617 0.1212302617 0.1212302617
0.1217784431 0.1217784431 0.1217784431
0.1223263778 0.1223263778 0.1223263778
0.1228740671 0.1228740671 0.1228740671
0.1234215125 0.1234215125 0.1234215125
0.1239687151 0.1239687151 0.1239687151
0.1245156763 0.1245156763 0.1245156763
0.1250623974 0.1250623974 0.1250623974
0.1256088795 0.1256088795 0.1256088795
0.1261551240 0.1261551240 0.1261551240
0.1267011321 0.1267011321 0.1267011321
0.1272469050 0.1272469050 0.1272469050
0.1277924438 0.1277924438 0.1277924438
0.1283377499 0.1283377499 0.1283377499
0.1288828244 0.1288828244 0.1288828244
0.1294276685 0.1294276685 0.1294276685
0.1299722833 0.1299722833 0.1299722833
0.1305166700 0.1305166700 0.1305166700
0.1310608297 0.1310608297 0.1310608297
0.1316047636 0.1316047636 0.1316047636
0.1321484728 0.1321484728 0.1321484728
0.1326919583 0.1326919583 0.1326919583
0.1332352214 0.1332352214 0.1332352214
0.1337782630 0.1337782630 0.1337782630
0.1343210842 0.1343210842 0.1343210842
0.1348636862 0.1348636862 0.1348636862
0.1354060700 0.1354060700 0.1354060700
0.1359482366 0.1359482366 0.1359482366
0.1364901871 0.1364901871 0.1364901871
0.1370319224 0.1370319224 0.1370319224
0.1375734437 0.1375734437 0.1375734437
0.1381147519 0.1381147519 0.1381147519
0.1386558481 0.1386558481 0.1386558481
0.1391967331 0.1391967331 0.1391967331
0.1397374081 0.1397374081 0.1397374081
0.1402778739 0.1402778739 0.1402778739
0.1408181316 0.1408181316 0.1408181316
0.1413581821 0.1413581821 0.1413581821
0.1418980264 0.1418980264 0.1418980264
0.1424376653 0.1424376653 0.1424376653
0.1429770999 0.1429770999 0.1429770999
0.1435163310 0.1435163310 0.1435163310
0.1440553597 0.1440553597 0.1440553597
0.1445941866 0.1445941866 0.1445941866
0.1451328129 0.1451328129 0.1451328129
0.1456712393 0.1456712393 0.1456712393
0.1462094669 0.1462094669 0.1462094669
0.1467474963 0.1467474963 0.1467474963
0.1472853286 0.1472853286 0.1472853286
0.1478229645 0.1478229645 0.1478229645
0.1483604049 0.1483604049 0.1483604049
0.1488976508 0.1488976508 0.1488976508
0.1494347028 0.1494347028 0.1494347028
0.1499715620 0.1499715620 0.1499715620
0.1505082290 0.1505082290 0.1505082290
0.1510447047 0.1510447047 0.1510447047
0.1515809899 0.1515809899 0.1515809899
0.1521170855 0.1521170855 0.1521170855
0.1526529922 0.1526529922 0.1526529922
0.1531887108 0.1531887108 0.1531887108
0.1537242422 0.1537242422 0.1537242422
0.1542595871 0.1542595871 0.1542595871
0.1547947462 0.1547947462 0.1547947462
0.1553297204 0.1553297204 0.1553297204
0.1558645104 0.1558645104 0.1558645104
0.1563991169 0.1563991169 0.1563991169
0.1569335408 0.1569335408 0.1569335408
0.1574677827 0.1574677827 0.1574677827
0.1580018435 0.1580018435 0.1580018435
0.1585357238 0.1585357238 0.1585357238
0.1590694244 0.1590694244 0.1590694244
0.1596029459 0.1596029459 0.1596029459
0.1601362892 0.1601362892 0.1601362892
0.1606694549 0.1606694549 0.1606694549
0.1612024438 0.1612024438 0.1612024438
0.1617352564 0.1617352564 0.1617352564
0.1622678937 0.1622678937 0.1622678937
0.1628003561 0.1628003561 0.1628003561
0.1633326444 0.1633326444 0.1633326444
0.1638647593 0.1638647593 0.1638647593
0.1643967015 0.1643967015 0.1643967015
0.1649284716 0.1649284716 0.1649284716
0.1654600703 0.1654600703 0.1654600703
0.1659914983 0.1659914983 0.1659914983
0.1665227562 0.1665227562 0.1665227562
0.1670538447 0.1670538447 0.1670538447
0.1675847643 0.1675847643 0.1675847643
0.1681155159 0.1681155159 0.1681155159
0.1686460999 0.1686460999 0.1686460999
0.1691765170 0.1691765170 0.1691765170
0.1697067679 0.1697067679 0.1697067679
0.1702368532 0.1702368532 0.1702368532
0.1707667734 0.1707667734 0.1707667734
0.1712965293 0.1712965293 0.1712965293
0.1718261214 0.1718261214 0.1718261214
0.1723555503 0.1723555503 0.1723555503
0.1728848166 0.1728848166 0.1728848166
0.1734139209 0.1734139209 0.1734139209
0.1739428639 0.1739428639 0.1739428639
0.1744716461 0.1744716461 0.1744716461
0.1750002680 0.1750002680 0.1750002680
0.1755287303 0.1755287303 0.1755287303
0.1760570336 0.1760570336 0.1760570336
0.1765851784 0.1765851784 0.1765851784
0.1771131652 0.1771131652 0.1771131652
0.1776409947 0.1776409947 0.1776409947
0.1781686675 0.1781686675 0.1781686675
0.1786961839 0.1786961839 0.1786961839
0.1792235448 0.1792235448 0.1792235448
0.1797507504 0.1797507504 0.1797507504
0.1802778015 0.1802778015 0.1802778015
0.1808046986 0.1808046986 0.1808046986
0.1813314421 0.1813314421 0.1813314421
0.1818580327 0.1818580327 0.1818580327
0.1823844709 0.1823844709 0.1823844709
0.1829107571 0.1829107571 0.1829107571
0.1834368920 0.1834368920 0.1834368920
0.1839628760 0.1839628760 0.1839628760
0.1844887096 0.1844887096 0.1844887096
0.1850143935 0.1850143935 0.1850143935
0.1855399279 0.1855399279 0.1855399279
0.1860653136 0.1860653136 0.1860653136
0.1865905510 0.1865905510 0.1865905510
0.1871156406 0.1871156406 0.1871156406
0.1876405828 0.1876405828 0.1876405828
0.1881653783 0.1881653783 0.1881653783
0.1886900274 0.1886900274 0.1886900274
0.1892145306 0.1892145306 0.1892145306
0.1897388886 0.1897388886 0.1897388886
0.1902631016 0.1902631016 0.1902631016
0.1907871703 0.1907871703 0.1907871703
0.1913110950 0.1913110950 0.1913110950
0.1918348763 0.1918348763 0.1918348763
0.1923585147 0.1923585147 0.1923585147
0.1928820105 0.1928820105 0.1928820105
0.1934053643 0.1934053643 0.1934053643
0.1939285764 0.1939285764 0.1939285764
0.1944516475 0.1944516475 0.1944516475
0.1949745779 0.1949745779 0.1949745779
0.1954973681 0.1954973681 0.1954973681
0.1960200186 0.1960200186 0.1960200186
0.1965425297 0.1965425297 0.1965425297
0.1970649019 0.1970649019 0.1970649019
0.1975871357 0.1975871357 0.1975871357
0.1981092315 0.1981092315 0.1981092315
0.1986311898 0.1986311898 0.1986311898
0.1991530109 0.1991530109 0.1991530109
0.1996746953 0.1996746953 0.1996746953
0.2001962435 0.2001962435 0.2001962435
0.2007176559 0.2007176559 0.2007176559
0.2012389328 0.2012389328 0.2012389328
0.2017600747 0.2017600747 0.2017600747
0.2022810821 0.2022810821 0.2022810821
0.2028019553 0.2028019553 0.2028019553
0.2033226947 0.2033226947 0.2033226947
0.2038433008 0.2038433008 0.2038433008
0.2043637740 0.2043637740 0.2043637740
0.2048841147 0.2048841147 0.2048841147
0.2054043232 0.2054043232 0.2054043232
0.2059244001 0.2059244001 0.2059244001
0.2064443456 0.2064443456 0.2064443456
0.2069641602 0.2069641602 0.2069641602
0.2074838443 0.2074838443 0.2074838443
0.2080033982 0.2080033982 0.2080033982
0.2085228224 0.2085228224 0.2085228224
0.2090421172 0.2090421172 0.2090421172
0.2095612831 0.2095612831 0.2095612831
0.2100803204 0.2100803204 0.2100803204
0.2105992295 0.2105992295 0.2105992295
0.2111180108 0.2111180108 0.2111180108
0.2116366646 0.2116366646 0.2116366646
0.2121551913 0.2121551913 0.2121551913
0.2126735913 0.2126735913 0.2126735913
0.2131918650 0.2131918650 0.2131918650
0.2137100128 0.2137100128 0.2137100128
0.2142280349 0.2142280349 0.2142280349
0.2147459318 0.2147459318 0.2147459318
0.2152637039 0.2152637039 0.2152637039
0.2157813514 0.2157813514 0.2157813514
0.2162988748 0.2162988748 0.2162988748
0.2168162744 0.2168162744 0.2168162744
0.2173335505 0.2173335505 0.2173335505
0.2178507036 0.2178507036 0.2178507036
0.2183677339 0.2183677339 0.2183677339
0.2188846418 0.2188846418 0.2188846418
0.2194014277 0.2194014277 0.2194014277
0.2199180919 0.2199180919 0.2199180919
0.2204346347 0.2204346347 0.2204346347
0.2209510566 0.2209510566 0.2209510566
0.2214673577 0.2214673577 0.2214673577
0.2219835385 0.2219835385 0.2219835385
0.2224995993 0.2224995993 0.2224995993
0.2230155405 0.2230155405 0.2230155405
0.2235313623 0.2235313623 0.2235313623
0.2240470651 0.2240470651 0.2240470651
0.2245626492 0.2245626492 0.2245626492
0.2250781150 0.2250781150 0.2250781150
0.2255934628 0.2255934628 0.2255934628
0.2261086929 0.2261086929 0.2261086929
0.2266238055 0.2266238055 0.2266238055
0.2271388012 0.2271388012 0.2271388012
0.2276536801 0.2276536801 0.2276536801
0.2281684425 0.2281684425 0.2281684425
0.2286830889 0.2286830889 0.2286830889
0.2291976194 0.2291976194 0.2291976194
0.2297120345 0.2297120345 0.2297120345
0.2302263344 0.2302263344 0.2302263344
0.2307405195 0.2307405195 0.2307405195
0.2312545900 0.2312545900 0.2312545900
0.2317685462 0.2317685462 0.2317685462
0.2322823885 0.2322823885 0.2322823885
0.2327961172 0.2327961172 0.2327961172
0.2333097325 0.2333097325 0.2333097325
0.2338232347 0.2338232347 0.2338232347
0.2343366242 0.2343366242 0.2343366242
0.2348499013 0.2348499013 0.2348499013
0.2353630662 0.2353630662 0.2353630662
0.2358761193 0.2358761193 0.2358761193
0.2363890607 0.2363890607 0.2363890607
0.2369018909 0.2369018909 0.2369018909
0.2374146101 0.2374146101 0.2374146101
0.2379272186 0.2379272186 0.2379272186
0.2384397167 0.2384397167 0.2384397167
0.2389521047 0.2389521047 0.2389521047
0.2394643828 0.2394643828 0.2394643828
0.2399765513 0.2399765513 0.2399765513
0.2404886106 0.2404886106 0.2404886106
0.2410005609 0.2410005609 0.2410005609
0.2415124024 0.2415124024 0.2415124024
0.2420241354 0.2420241354 0.2420241354
0.2425357603 0.2425357603 0.2425357603
0.2430472773 0.2430472773 0.2430472773
0.2435586867 0.2435586867 0.2435586867
0.2440699887 0.2440699887 0.2440699887
0.2445811836 0.2445811836 0.2445811836
0.2450922717 0.2450922717 0.2450922717
0.2456032532 0.2456032532 0.2456032532
0.2461141284 0.2461141284 0.2461141284
0.2466248976 0.2466248976 0.2466248976
0.2471355611 0.2471355611 0.2471355611
0.2476461191 0.2476461191 0.2476461191
0.2481565718 0.2481565718 0.2481565718
0.2486669195 0.2486669195 0.2486669195
0.2491771625 0.2491771625 0.2491771625
0.2496873011 0.2496873011 0.2496873011
0.2501973355 0.2501973355 0.2501973355
0.2507072659 0.2507072659 0.2507072659
0.2512170926 0.2512170926 0.2512170926
0.2517268158 0.2517268158 0.2517268158
0.2522364359 0.2522364359 0.2522364359
0.2527459530 0.2527459530 0.2527459530
0.2532553675 0.2532553675 0.2532553675
0.2537646795 0.2537646795 0.2537646795
0.2542738892 0.2542738892 0.2542738892
0.2547829971 0.2547829971 0.2547829971
0.2552920032 0.2552920032 0.2552920032
0.2558009079 0.2558009079 0.2558009079
0.2563097113 0.2563097113 0.2563097113
0.2568184137 0.2568184137 0.2568184137
0.2573270154 0.2573270154 0.2573270154
0.2578355166 0.2578355166 0.2578355166
0.2583439176 0.2583439176 0.2583439176
0.2588522185 0.2588522185 0.2588522185
0.2593604196 0.2593604196 0.2593604196
0.2598685211 0.2598685211 0.2598685211
0.2603765234 0.2603765234 0.2603765234
0.2608844265 0.2608844265 0.2608844265
0.2613922308 0.2613922308 0.2613922308
0.2618999364 0.2618999364 0.2618999364
0.2624075437 0.2624075437 0.2624075437
0.2629150527 0.2629150527 0.2629150527
0.2634224638 0.2634224638 0.2634224638
0.2639297772 0.2639297772 0.2639297772
0.2644369931 0.2644369931 0.2644369931
0.2649441118 0.2649441118 0.2649441118
0.2654511333 0.2654511333 0.2654511333
0.2659580581 0.2659580581 0.2659580581
0.2664648863 0.2664648863 0.2664648863
0.2669716180 0.2669716180 0.2669716180
0.2674782536 0.2674782536 0.2674782536
0.2679847933 0.2679847933 0.2679847933
0.2684912372 0.2684912372 0.2684912372
0.2689975857 0.2689975857 0.2689975857
0.2695038388 0.2695038388 0.2695038388
0.2700099969 0.2700099969 0.2700099969
0.2705160600 0.2705160600 0.2705160600
0.2710220286 0.2710220286 0.2710220286
0.2715279027 0.2715279027 0.2715279027
0.2720336825 0.2720336825 0.2720336825
0.2725393684 0.2725393684 0.2725393684
0.2730449604 0.2730449604 0.2730449604
0.2735504588 0.2735504588 0.2735504588
0.2740558639 0.2740558639 0.2740558639
0.2745611757 0.2745611757 0.2745611757
0.2750663946 0.2750663946 0.2750663946
0.2755715207 0.2755715207 0.2755715207
0.2760765542 0.2760765542 0.2760765542
0.2765814953 0.2765814953 0.2765814953
0.2770863443 0.2770863443 0.2770863443
0.2775911013 0.2775911013 0.2775911013
0.2780957666 0.2780957666 0.2780957666
0.2786003402 0.2786003402 0.2786003402
0.2791048225 0.2791048225 0.2791048225
0.2796092137 0.2796092137 0.2796092137
0.2801135139 0.2801135139 0.2801135139
0.2806177233 0.2806177233 0.2806177233
0.2811218421 0.2811218421 0.2811218421
0.2816258705 0.2816258705 0.2816258705
0.2821298087 0.2821298087 0.2821298087
0.2826336570 0.2826336570 0.2826336570
0.2831374154 0.2831374154 0.2831374154
0.2836410843 0.2836410843 0.2836410843
0.2841446637 0.2841446637 0.2841446637
0.2846481538 0.2846481538 0.2846481538
0.2851515550 0.2851515550 0.2851515550
0.2856548672 0.2856548672 0.2856548672
0.2861580909 0.2861580909 0.2861580909
0.2866612260 0.2866612260 0.2866612260
0.2871642728 0.2871642728 0.2871642728
0.2876672316 0.2876672316 0.2876672316
0.2881701024 0.2881701024 0.2881701024
0.2886728854 0.2886728854 0.2886728854
0.2891755810 0.2891755810 0.2891755810
0.2896781891 0.2896781891 0.2896781891
0.2901807101 0.2901807101 0.2901807101
0.2906831440 0.2906831440 0.2906831440
0.2911854911 0.2911854911 0.2911854911
0.2916877516 0.2916877516 0.2916877516
0.2921899256 0.2921899256 0.2921899256
0.2926920133 0.2926920133 0.2926920133
0.2931940149 0.2931940149 0.2931940149
0.2936959305 0.2936959305 0.2936959305
0.2941977604 0.2941977604 0.2941977604
0.2946995047 0.2946995047 0.2946995047
0.2952011636 0.2952011636 0.2952011636
0.2957027373 0.2957027373 0.2957027373
0.2962042259 0.2962042259 0.2962042259
0.2967056296 0.2967056296 0.2967056296
0.2972069486 0.2972069486 0.2972069486
0.2977081830 0.2977081830 0.2977081830
0.2982093331 0.2982093331 0.2982093331
0.2987103990 0.2987103990 0.2987103990
0.2992113808 0.2992113808 0.2992113808
0.2997122788 0.2997122788 0.2997122788
0.3002130930 0.3002130930 0.3002130930
0.3007138237 0.3007138237 0.3007138237
0.3012144711 0.3012144711 0.3012144711
0.3017150353 0.3017150353 0.3017150353
0.3022155164 0.3022155164 0.3022155164
0.3027159147 0.3027159147 0.3027159147
0.3032162302 0.3032162302 0.3032162302
0.3037164632 0.3037164632 0.3037164632
0.3042166139 0.3042166139 0.3042166139
0.3047166823 0.3047166823 0.3047166823
0.3052166687 0.3052166687 0.3052166687
0.3057165732 0.3057165732 0.3057165732
0.3062163959 0.3062163959 0.3062163959
0.3067161371 0.3067161371 0.3067161371
0.3072157969 0.3072157969 0.3072157969
0.3077153754 0.3077153754 0.3077153754
0.3082148728 0.3082148728 0.3082148728
0.3087142893 0.3087142893 0.3087142893
0.3092136250 0.3092136250 0.3092136250
0.3097128801 0.3097128801 0.3097128801
0.3102120547 0.3102120547 0.3102120547
0.3107111491 0.3107111491 0.3107111491
0.3112101632 0.3112101632 0.3112101632
0.3117090974 0.3117090974 0.3117090974
0.3122079517 0.3122079517 0.3122079517
0.3127067263 0.3127067263 0.3127067263
0.3132054213 0.3132054213 0.3132054213
0.3137040370 0.3137040370 0.3137040370
0.3142025734 0.3142025734 0.3142025734
0.3147010308 0.3147010308 0.3147010308
0.3151994092 0.3151994092 0.3151994092
0.3156977088 0.3156977088 0.3156977088
0.3161959298 0.3161959298 0.3161959298
0.3166940723 0.3166940723 0.3166940723
0.3171921364 0.3171921364 0.3171921364
0.3176901224 0.3176901224 0.3176901224
0.3181880303 0.3181880303 0.3181880303
0.3186858603 0.3186858603 0.3186858603
0.3191836125 0.3191836125 0.3191836125
0.3196812871 0.3196812871 0.3196812871
0.3201788843 0.3201788843 0.3201788843
0.3206764042 0.3206764042 0.3206764042
0.3211738468 0.3211738468 0.3211738468
0.3216712125 0.3216712125 0.3216712125
0.3221685012 0.3221685012 0.3221685012
0.3226657132 0.3226657132 0.3226657132
0.3231628486 0.3231628486 0.3231628486
0.3236599075 0.3236599075 0.3236599075
0.3241568901 0.3241568901 0.3241568901
0.3246537966 0.3246537966 0.3246537966
0.3251506269 0.3251506269 0.3251506269
0.3256473814 0.3256473814 0.3256473814
0.3261440601 0.3261440601 0.3261440601
0.3266406632 0.3266406632 0.3266406632
0.3271371908 0.3271371908 0.3271371908
0.3276336430 0.3276336430 0.3276336430
0.3281300201 0.3281300201 0.3281300201
0.3286263220 0.3286263220 0.3286263220
0.3291225490 0.3291225490 0.3291225490
0.3296187012 0.3296187012 0.3296187012
0.3301147787 0.3301147787 0.3301147787
0.3306107817 0.3306107817 0.3306107817
0.3311067103 0.3311067103 0.3311067103
0.3316025646 0.3316025646 0.3316025646
0.3320983448 0.3320983448 0.3320983448
0.3325940510 0.3325940510 0.3325940510
0.3330896833 0.3330896833 0.3330896833
