HDR Hybrid Log-Gamma/HLG to Gamma 2.6.cube
# DaVinci Resolve Cube (1D shaper LUT).

LUT_1D_SIZE 4096
LUT_1D_INPUT_RANGE 0.0000000000 1.0000000000

0.0000000000 0.0000000000 0.0000000000
0.0028372963 0.0028372963 0.0028372963
0.0048357765 0.0048357765 0.0048357765
0.0066057333 0.0066057333 0.0066057333
0.0082419079 0.0082419079 0.0082419079
0.0097852949 0.0097852949 0.0097852949
0.0112585528 0.0112585528 0.0112585528
0.0126759378 0.0126759378 0.0126759378
0.0140471846 0.0140471846 0.0140471846
0.0153793289 0.0153793289 0.0153793289
0.0166776730 0.0166776730 0.0166776730
0.0179463437 0.0179463437 0.0179463437
0.0191886360 0.0191886360 0.0191886360
0.0204072360 0.0204072360 0.0204072360
0.0216043714 0.0216043714 0.0216043714
0.0227819172 0.0227819172 0.0227819172
0.0239414707 0.0239414707 0.0239414707
0.0250844079 0.0250844079 0.0250844079
0.0262119251 0.0262119251 0.0262119251
0.0273250711 0.0273250711 0.0273250711
0.0284247719 0.0284247719 0.0284247719
0.0295118510 0.0295118510 0.0295118510
0.0305870446 0.0305870446 0.0305870446
0.0316510145 0.0316510145 0.0316510145
0.0327043588 0.0327043588 0.0327043588
0.0337476202 0.0337476202 0.0337476202
0.0347812929 0.0347812929 0.0347812929
0.0358058290 0.0358058290 0.0358058290
0.0368216436 0.0368216436 0.0368216436
0.0378291185 0.0378291185 0.0378291185
0.0388286064 0.0388286064 0.0388286064
0.0398204338 0.0398204338 0.0398204338
0.0408049039 0.0408049039 0.0408049039
0.0417822988 0.0417822988 0.0417822988
0.0427528814 0.0427528814 0.0427528814
0.0437168975 0.0437168975 0.0437168975
0.0446745775 0.0446745775 0.0446745775
0.0456261373 0.0456261373 0.0456261373
0.0465717798 0.0465717798 0.0465717798
0.0475116963 0.0475116963 0.0475116963
0.0484460668 0.0484460668 0.0484460668
0.0493750617 0.0493750617 0.0493750617
0.0502988418 0.0502988418 0.0502988418
0.0512175595 0.0512175595 0.0512175595
0.0521313595 0.0521313595 0.0521313595
0.0530403789 0.0530403789 0.0530403789
0.0539447482 0.0539447482 0.0539447482
0.0548445915 0.0548445915 0.0548445915
0.0557400270 0.0557400270 0.0557400270
0.0566311675 0.0566311675 0.0566311675
0.0575181207 0.0575181207 0.0575181207
0.0584009893 0.0584009893 0.0584009893
0.0592798719 0.0592798719 0.0592798719
0.0601548624 0.0601548624 0.0601548624
0.0610260512 0.0610260512 0.0610260512
0.0618935246 0.0618935246 0.0618935246
0.0627573657 0.0627573657 0.0627573657
0.0636176541 0.0636176541 0.0636176541
0.0644744664 0.0644744664 0.0644744664
0.0653278762 0.0653278762 0.0653278762
0.0661779544 0.0661779544 0.0661779544
0.0670247691 0.0670247691 0.0670247691
0.0678683862 0.0678683862 0.0678683862
0.0687088689 0.0687088689 0.0687088689
0.0695462784 0.0695462784 0.0695462784
0.0703806738 0.0703806738 0.0703806738
0.0712121119 0.0712121119 0.0712121119
0.0720406478 0.0720406478 0.0720406478
0.0728663348 0.0728663348 0.0728663348
0.0736892243 0.0736892243 0.0736892243
0.0745093662 0.0745093662 0.0745093662
0.0753268086 0.0753268086 0.0753268086
0.0761415984 0.0761415984 0.0761415984
0.0769537807 0.0769537807 0.0769537807
0.0777633995 0.0777633995 0.0777633995
0.0785704974 0.0785704974 0.0785704974
0.0793751156 0.0793751156 0.0793751156
0.0801772942 0.0801772942 0.0801772942
0.0809770723 0.0809770723 0.0809770723
0.0817744876 0.0817744876 0.0817744876
0.0825695768 0.0825695768 0.0825695768
0.0833623758 0.0833623758 0.0833623758
0.0841529192 0.0841529192 0.0841529192
0.0849412409 0.0849412409 0.0849412409
0.0857273738 0.0857273738 0.0857273738
0.0865113499 0.0865113499 0.0865113499
0.0872932004 0.0872932004 0.0872932004
0.0880729556 0.0880729556 0.0880729556
0.0888506452 0.0888506452 0.0888506452
0.0896262981 0.0896262981 0.0896262981
0.0903999423 0.0903999423 0.0903999423
0.0911716053 0.0911716053 0.0911716053
0.0919413138 0.0919413138 0.0919413138
0.0927090940 0.0927090940 0.0927090940
0.0934749714 0.0934749714 0.0934749714
0.0942389708 0.0942389708 0.0942389708
0.0950011166 0.0950011166 0.0950011166
0.0957614324 0.0957614324 0.0957614324
0.0965199415 0.0965199415 0.0965199415
0.0972766666 0.0972766666 0.0972766666
0.0980316298 0.0980316298 0.0980316298
0.0987848527 0.0987848527 0.0987848527
0.0995363565 0.0995363565 0.0995363565
0.1002861620 0.1002861620 0.1002861620
0.1010342894 0.1010342894 0.1010342894
0.1017807586 0.1017807586 0.1017807586
0.1025255890 0.1025255890 0.1025255890
0.1032687996 0.1032687996 0.1032687996
0.1040104089 0.1040104089 0.1040104089
0.1047504353 0.1047504353 0.1047504353
0.1054888966 0.1054888966 0.1054888966
0.1062258103 0.1062258103 0.1062258103
0.1069611935 0.1069611935 0.1069611935
0.1076950630 0.1076950630 0.1076950630
0.1084274353 0.1084274353 0.1084274353
0.1091583266 0.1091583266 0.1091583266
0.1098877526 0.1098877526 0.1098877526
0.1106157289 0.1106157289 0.1106157289
0.1113422708 0.1113422708 0.1113422708
0.1120673932 0.1120673932 0.1120673932
0.1127911108 0.1127911108 0.1127911108
0.1135134378 0.1135134378 0.1135134378
0.1142343886 0.1142343886 0.1142343886
0.1149539770 0.1149539770 0.1149539770
0.1156722165 0.1156722165 0.1156722165
0.1163891205 0.1163891205 0.1163891205
0.1171047023 0.1171047023 0.1171047023
0.1178189747 0.1178189747 0.1178189747
0.1185319503 0.1185319503 0.1185319503
0.1192436416 0.1192436416 0.1192436416
0.1199540610 0.1199540610 0.1199540610
0.1206632203 0.1206632203 0.1206632203
0.1213711315 0.1213711315 0.1213711315
0.1220778061 0.1220778061 0.1220778061
0.1227832556 0.1227832556 0.1227832556
0.1234874913 0.1234874913 0.1234874913
0.1241905241 0.1241905241 0.1241905241
0.1248923650 0.1248923650 0.1248923650
0.1255930247 0.1255930247 0.1255930247
0.1262925137 0.1262925137 0.1262925137
0.1269908424 0.1269908424 0.1269908424
0.1276880209 0.1276880209 0.1276880209
0.1283840592 0.1283840592 0.1283840592
0.1290789674 0.1290789674 0.1290789674
0.1297727549 0.1297727549 0.1297727549
0.1304654316 0.1304654316 0.1304654316
0.1311570067 0.1311570067 0.1311570067
0.1318474895 0.1318474895 0.1318474895
0.1325368892 0.1325368892 0.1325368892
0.1332252148 0.1332252148 0.1332252148
0.1339124752 0.1339124752 0.1339124752
0.1345986790 0.1345986790 0.1345986790
0.1352838349 0.1352838349 0.1352838349
0.1359679514 0.1359679514 0.1359679514
0.1366510368 0.1366510368 0.1366510368
0.1373330993 0.1373330993 0.1373330993
0.1380141472 0.1380141472 0.1380141472
0.1386941882 0.1386941882 0.1386941882
0.1393732305 0.1393732305 0.1393732305
0.1400512817 0.1400512817 0.1400512817
0.1407283494 0.1407283494 0.1407283494
0.1414044414 0.1414044414 0.1414044414
0.1420795649 0.1420795649 0.1420795649
0.1427537274 0.1427537274 0.1427537274
0.1434269362 0.1434269362 0.1434269362
0.1440991982 0.1440991982 0.1440991982
0.1447705208 0.1447705208 0.1447705208
0.1454409107 0.1454409107 0.1454409107
0.1461103748 0.1461103748 0.1461103748
0.1467789200 0.1467789200 0.1467789200
0.1474465529 0.1474465529 0.1474465529
0.1481132801 0.1481132801 0.1481132801
0.1487791082 0.1487791082 0.1487791082
0.1494440435 0.1494440435 0.1494440435
0.1501080924 0.1501080924 0.1501080924
0.1507712613 0.1507712613 0.1507712613
0.1514335561 0.1514335561 0.1514335561
0.1520949832 0.1520949832 0.1520949832
0.1527555484 0.1527555484 0.1527555484
0.1534152578 0.1534152578 0.1534152578
0.1540741173 0.1540741173 0.1540741173
0.1547321325 0.1547321325 0.1547321325
0.1553893094 0.1553893094 0.1553893094
0.1560456535 0.1560456535 0.1560456535
0.1567011705 0.1567011705 0.1567011705
0.1573558658 0.1573558658 0.1573558658
0.1580097450 0.1580097450 0.1580097450
0.1586628134 0.1586628134 0.1586628134
0.1593150763 0.1593150763 0.1593150763
0.1599665392 0.1599665392 0.1599665392
0.1606172070 0.1606172070 0.1606172070
0.1612670850 0.1612670850 0.1612670850
0.1619161784 0.1619161784 0.1619161784
0.1625644920 0.1625644920 0.1625644920
0.1632120309 0.1632120309 0.1632120309
0.1638588000 0.1638588000 0.1638588000
0.1645048041 0.1645048041 0.1645048041
0.1651500481 0.1651500481 0.1651500481
0.1657945366 0.1657945366 0.1657945366
0.1664382745 0.1664382745 0.1664382745
0.1670812662 0.1670812662 0.1670812662
0.1677235165 0.1677235165 0.1677235165
0.1683650298 0.1683650298 0.1683650298
0.1690058107 0.1690058107 0.1690058107
0.1696458635 0.1696458635 0.1696458635
0.1702851927 0.1702851927 0.1702851927
0.1709238026 0.1709238026 0.1709238026
0.1715616975 0.1715616975 0.1715616975
0.1721988816 0.1721988816 0.1721988816
0.1728353592 0.1728353592 0.1728353592
0.1734711345 0.1734711345 0.1734711345
0.1741062114 0.1741062114 0.1741062114
0.1747405942 0.1747405942 0.1747405942
0.1753742867 0.1753742867 0.1753742867
0.1760072931 0.1760072931 0.1760072931
0.1766396172 0.1766396172 0.1766396172
0.1772712630 0.1772712630 0.1772712630
0.1779022344 0.1779022344 0.1779022344
0.1785325350 0.1785325350 0.1785325350
0.1791621688 0.1791621688 0.1791621688
0.1797911395 0.1797911395 0.1797911395
0.1804194507 0.1804194507 0.1804194507
0.1810471063 0.1810471063 0.1810471063
0.1816741096 0.1816741096 0.1816741096
0.1823004645 0.1823004645 0.1823004645
0.1829261745 0.1829261745 0.1829261745
0.1835512430 0.1835512430 0.1835512430
0.1841756735 0.1841756735 0.1841756735
0.1847994696 0.1847994696 0.1847994696
0.1854226346 0.1854226346 0.1854226346
0.1860451720 0.1860451720 0.1860451720
0.1866670851 0.1866670851 0.1866670851
0.1872883771 0.1872883771 0.1872883771
0.1879090515 0.1879090515 0.1879090515
0.1885291115 0.1885291115 0.1885291115
0.1891485602 0.1891485602 0.1891485602
0.1897674010 0.1897674010 0.1897674010
0.1903856369 0.1903856369 0.1903856369
0.1910032711 0.1910032711 0.1910032711
0.1916203068 0.1916203068 0.1916203068
0.1922367469 0.1922367469 0.1922367469
0.1928525946 0.1928525946 0.1928525946
0.1934678529 0.1934678529 0.1934678529
0.1940825248 0.1940825248 0.1940825248
0.1946966132 0.1946966132 0.1946966132
0.1953101210 0.1953101210 0.1953101210
0.1959230513 0.1959230513 0.1959230513
0.1965354069 0.1965354069 0.1965354069
0.1971471906 0.1971471906 0.1971471906
0.1977584053 0.1977584053 0.1977584053
0.1983690538 0.1983690538 0.1983690538
0.1989791388 0.1989791388 0.1989791388
0.1995886633 0.1995886633 0.1995886633
0.2001976298 0.2001976298 0.2001976298
0.2008060411 0.2008060411 0.2008060411
0.2014138998 0.2014138998 0.2014138998
0.2020212088 0.2020212088 0.2020212088
0.2026279705 0.2026279705 0.2026279705
0.2032341876 0.2032341876 0.2032341876
0.2038398627 0.2038398627 0.2038398627
0.2044449984 0.2044449984 0.2044449984
0.2050495973 0.2050495973 0.2050495973
0.2056536618 0.2056536618 0.2056536618
0.2062571945 0.2062571945 0.2062571945
0.2068601978 0.2068601978 0.2068601978
0.2074626743 0.2074626743 0.2074626743
0.2080646264 0.2080646264 0.2080646264
0.2086660564 0.2086660564 0.2086660564
0.2092669669 0.2092669669 0.2092669669
0.2098673601 0.2098673601 0.2098673601
0.2104672385 0.2104672385 0.2104672385
0.2110666044 0.2110666044 0.2110666044
0.2116654602 0.2116654602 0.2116654602
0.2122638080 0.2122638080 0.2122638080
0.2128616503 0.2128616503 0.2128616503
0.2134589893 0.2134589893 0.2134589893
0.2140558272 0.2140558272 0.2140558272
0.2146521663 0.2146521663 0.2146521663
0.2152480088 0.2152480088 0.2152480088
0.2158433569 0.2158433569 0.2158433569
0.2164382128 0.2164382128 0.2164382128
0.2170325786 0.2170325786 0.2170325786
0.2176264565 0.2176264565 0.2176264565
0.2182198486 0.2182198486 0.2182198486
0.2188127570 0.2188127570 0.2188127570
0.2194051838 0.2194051838 0.2194051838
0.2199971311 0.2199971311 0.2199971311
0.2205886010 0.2205886010 0.2205886010
0.2211795955 0.2211795955 0.2211795955
0.2217701166 0.2217701166 0.2217701166
0.2223601664 0.2223601664 0.2223601664
0.2229497468 0.2229497468 0.2229497468
0.2235388599 0.2235388599 0.2235388599
0.2241275075 0.2241275075 0.2241275075
0.2247156918 0.2247156918 0.2247156918
0.2253034145 0.2253034145 0.2253034145
0.2258906776 0.2258906776 0.2258906776
0.2264774831 0.2264774831 0.2264774831
0.2270638328 0.2270638328 0.2270638328
0.2276497286 0.2276497286 0.2276497286
0.2282351724 0.2282351724 0.2282351724
0.2288201660 0.2288201660 0.2288201660
0.2294047113 0.2294047113 0.2294047113
0.2299888100 0.2299888100 0.2299888100
0.2305724641 0.2305724641 0.2305724641
0.2311556753 0.2311556753 0.2311556753
0.2317384454 0.2317384454 0.2317384454
0.2323207762 0.2323207762 0.2323207762
0.2329026694 0.2329026694 0.2329026694
0.2334841268 0.2334841268 0.2334841268
0.2340651501 0.2340651501 0.2340651501
0.2346457410 0.2346457410 0.2346457410
0.2352259013 0.2352259013 0.2352259013
0.2358056326 0.2358056326 0.2358056326
0.2363849366 0.2363849366 0.2363849366
0.2369638151 0.2369638151 0.2369638151
0.2375422696 0.2375422696 0.2375422696
0.2381203019 0.2381203019 0.2381203019
0.2386979135 0.2386979135 0.2386979135
0.2392751061 0.2392751061 0.2392751061
0.2398518812 0.2398518812 0.2398518812
0.2404282406 0.2404282406 0.2404282406
0.2410041858 0.2410041858 0.2410041858
0.2415797184 0.2415797184 0.2415797184
0.2421548399 0.2421548399 0.2421548399
0.2427295520 0.2427295520 0.2427295520
0.2433038561 0.2433038561 0.2433038561
0.2438777538 0.2438777538 0.2438777538
0.2444512466 0.2444512466 0.2444512466
0.2450243361 0.2450243361 0.2450243361
0.2455970238 0.2455970238 0.2455970238
0.2461693111 0.2461693111 0.2461693111
0.2467411995 0.2467411995 0.2467411995
0.2473126906 0.2473126906 0.2473126906
0.2478837858 0.2478837858 0.2478837858
0.2484544865 0.2484544865 0.2484544865
0.2490247943 0.2490247943 0.2490247943
0.2495947104 0.2495947104 0.2495947104
0.2501642365 0.2501642365 0.2501642365
0.2507333738 0.2507333738 0.2507333738
0.2513021238 0.2513021238 0.2513021238
0.2518704879 0.2518704879 0.2518704879
0.2524384676 0.2524384676 0.2524384676
0.2530060640 0.2530060640 0.2530060640
0.2535732788 0.2535732788 0.2535732788
0.2541401132 0.2541401132 0.2541401132
0.2547065685 0.2547065685 0.2547065685
0.2552726461 0.2552726461 0.2552726461
0.2558383475 0.2558383475 0.2558383475
0.2564036738 0.2564036738 0.2564036738
0.2569686264 0.2569686264 0.2569686264
0.2575332066 0.2575332066 0.2575332066
0.2580974158 0.2580974158 0.2580974158
0.2586612552 0.2586612552 0.2586612552
0.2592247261 0.2592247261 0.2592247261
0.2597878298 0.2597878298 0.2597878298
0.2603505676 0.2603505676 0.2603505676
0.2609129407 0.2609129407 0.2609129407
0.2614749505 0.2614749505 0.2614749505
0.2620365980 0.2620365980 0.2620365980
0.2625978847 0.2625978847 0.2625978847
0.2631588116 0.2631588116 0.2631588116
0.2637193801 0.2637193801 0.2637193801
0.2642795914 0.2642795914 0.2642795914
0.2648394466 0.2648394466 0.2648394466
0.2653989470 0.2653989470 0.2653989470
0.2659580938 0.2659580938 0.2659580938
0.2665168881 0.2665168881 0.2665168881
0.2670753312 0.2670753312 0.2670753312
0.2676334241 0.2676334241 0.2676334241
0.2681911682 0.2681911682 0.2681911682
0.2687485645 0.2687485645 0.2687485645
0.2693056142 0.2693056142 0.2693056142
0.2698623185 0.2698623185 0.2698623185
0.2704186784 0.2704186784 0.2704186784
0.2709746952 0.2709746952 0.2709746952
0.2715303698 0.2715303698 0.2715303698
0.2720857036 0.2720857036 0.2720857036
0.2726406975 0.2726406975 0.2726406975
0.2731953527 0.2731953527 0.2731953527
0.2737496703 0.2737496703 0.2737496703
0.2743036513 0.2743036513 0.2743036513
0.2748572969 0.2748572969 0.2748572969
0.2754106082 0.2754106082 0.2754106082
0.2759635861 0.2759635861 0.2759635861
0.2765162319 0.2765162319 0.2765162319
0.2770685465 0.2770685465 0.2770685465
0.2776205309 0.2776205309 0.2776205309
0.2781721864 0.2781721864 0.2781721864
0.2787235138 0.2787235138 0.2787235138
0.2792745142 0.2792745142 0.2792745142
0.2798251887 0.2798251887 0.2798251887
0.2803755383 0.2803755383 0.2803755383
0.2809255640 0.2809255640 0.2809255640
0.2814752668 0.2814752668 0.2814752668
0.2820246478 0.2820246478 0.2820246478
0.2825737079 0.2825737079 0.2825737079
0.2831224481 0.2831224481 0.2831224481
0.2836708694 0.2836708694 0.2836708694
0.2842189728 0.2842189728 0.2842189728
0.2847667594 0.2847667594 0.2847667594
0.2853142299 0.2853142299 0.2853142299
0.2858613855 0.2858613855 0.2858613855
0.2864082271 0.2864082271 0.2864082271
0.2869547557 0.2869547557 0.2869547557
0.2875009721 0.2875009721 0.2875009721
0.2880468774 0.2880468774 0.2880468774
0.2885924726 0.2885924726 0.2885924726
0.2891377584 0.2891377584 0.2891377584
0.2896827359 0.2896827359 0.2896827359
0.2902274060 0.2902274060 0.2902274060
0.2907717696 0.2907717696 0.2907717696
0.2913158277 0.2913158277 0.2913158277
0.2918595811 0.2918595811 0.2918595811
0.2924030307 0.2924030307 0.2924030307
0.2929461776 0.2929461776 0.2929461776
0.2934890224 0.2934890224 0.2934890224
0.2940315663 0.2940315663 0.2940315663
0.2945738099 0.2945738099 0.2945738099
0.2951157543 0.2951157543 0.2951157543
0.2956574003 0.2956574003 0.2956574003
0.2961987487 0.2961987487 0.2961987487
0.2967398005 0.2967398005 0.2967398005
0.2972805565 0.2972805565 0.2972805565
0.2978210176 0.2978210176 0.2978210176
0.2983611846 0.2983611846 0.2983611846
0.2989010584 0.2989010584 0.2989010584
0.2994406398 0.2994406398 0.2994406398
0.2999799296 0.2999799296 0.2999799296
0.3005189288 0.3005189288 0.3005189288
0.3010576381 0.3010576381 0.3010576381
0.3015960584 0.3015960584 0.3015960584
0.3021341904 0.3021341904 0.3021341904
0.3026720351 0.3026720351 0.3026720351
0.3032095932 0.3032095932 0.3032095932
0.3037468655 0.3037468655 0.3037468655
0.3042838529 0.3042838529 0.3042838529
0.3048205562 0.3048205562 0.3048205562
0.3053569761 0.3053569761 0.3053569761
0.3058931134 0.3058931134 0.3058931134
0.3064289690 0.3064289690 0.3064289690
0.3069645437 0.3069645437 0.3069645437
0.3074998381 0.3074998381 0.3074998381
0.3080348532 0.3080348532 0.3080348532
0.3085695896 0.3085695896 0.3085695896
0.3091040481 0.3091040481 0.3091040481
0.3096382296 0.3096382296 0.3096382296
0.3101721347 0.3101721347 0.3101721347
0.3107057643 0.3107057643 0.3107057643
0.3112391190 0.3112391190 0.3112391190
0.3117721997 0.3117721997 0.3117721997
0.3123050071 0.3123050071 0.3123050071
0.3128375420 0.3128375420 0.3128375420
0.3133698050 0.3133698050 0.3133698050
0.3139017970 0.3139017970 0.3139017970
0.3144335186 0.3144335186 0.3144335186
0.3149649706 0.3149649706 0.3149649706
0.3154961537 0.3154961537 0.3154961537
0.3160270686 0.3160270686 0.3160270686
0.3165577161 0.3165577161 0.3165577161
0.3170880969 0.3170880969 0.3170880969
0.3176182116 0.3176182116 0.3176182116
0.3181480611 0.3181480611 0.3181480611
0.3186776460 0.3186776460 0.3186776460
0.3192069670 0.3192069670 0.3192069670
0.3197360248 0.3197360248 0.3197360248
0.3202648201 0.3202648201 0.3202648201
0.3207933535 0.3207933535 0.3207933535
0.3213216259 0.3213216259 0.3213216259
0.3218496379 0.3218496379 0.3218496379
0.3223773901 0.3223773901 0.3223773901
0.3229048832 0.3229048832 0.3229048832
0.3234321180 0.3234321180 0.3234321180
0.3239590951 0.3239590951 0.3239590951
0.3244858151 0.3244858151 0.3244858151
0.3250122787 0.3250122787 0.3250122787
0.3255384867 0.3255384867 0.3255384867
0.3260644395 0.3260644395 0.3260644395
0.3265901380 0.3265901380 0.3265901380
0.3271155828 0.3271155828 0.3271155828
0.3276407744 0.3276407744 0.3276407744
0.3281657137 0.3281657137 0.3281657137
0.3286904011 0.3286904011 0.3286904011
0.3292148374 0.3292148374 0.3292148374
0.3297390232 0.3297390232 0.3297390232
0.3302629591 0.3302629591 0.3302629591
0.3307866458 0.3307866458 0.3307866458
0.3313100839 0.3313100839 0.3313100839
0.3318332740 0.3318332740 0.3318332740
0.3323562167 0.3323562167 0.3323562167
0.3328789128 0.3328789128 0.3328789128
0.3334013627 0.3334013627 0.3334013627
0.3339235671 0.3339235671 0.3339235671
0.3344455266 0.3344455266 0.3344455266
0.3349672419 0.3349672419 0.3349672419
0.3354887135 0.3354887135 0.3354887135
0.3360099421 0.3360099421 0.3360099421
0.3365309282 0.3365309282 0.3365309282
0.3370516724 0.3370516724 0.3370516724
0.3375721754 0.3375721754 0.3375721754
0.3380924378 0.3380924378 0.3380924378
0.3386124600 0.3386124600 0.3386124600
0.3391322428 0.3391322428 0.3391322428
0.3396517868 0.3396517868 0.3396517868
0.3401710924 0.3401710924 0.3401710924
0.3406901602 0.3406901602 0.3406901602
0.3412089910 0.3412089910 0.3412089910
0.3417275852 0.3417275852 0.3417275852
0.3422459433 0.3422459433 0.3422459433
0.3427640661 0.3427640661 0.3427640661
0.3432819540 0.3432819540 0.3432819540
0.3437996076 0.3437996076 0.3437996076
0.3443170275 0.3443170275 0.3443170275
0.3448342143 0.3448342143 0.3448342143
0.3453511684 0.3453511684 0.3453511684
0.3458678905 0.3458678905 0.3458678905
0.3463843811 0.3463843811 0.3463843811
0.3469006408 0.3469006408 0.3469006408
0.3474166701 0.3474166701 0.3474166701
0.3479324695 0.3479324695 0.3479324695
0.3484480396 0.3484480396 0.3484480396
0.3489633810 0.3489633810 0.3489633810
0.3494784942 0.3494784942 0.3494784942
0.3499933797 0.3499933797 0.3499933797
0.3505080381 0.3505080381 0.3505080381
0.3510224699 0.3510224699 0.3510224699
0.3515366755 0.3515366755 0.3515366755
0.3520506557 0.3520506557 0.3520506557
0.3525644108 0.3525644108 0.3525644108
0.3530779414 0.3530779414 0.3530779414
0.3535912481 0.3535912481 0.3535912481
0.3541043313 0.3541043313 0.3541043313
0.3546171916 0.3546171916 0.3546171916
0.3551298294 0.3551298294 0.3551298294
0.3556422454 0.3556422454 0.3556422454
0.3561544399 0.3561544399 0.3561544399
0.3566664136 0.3566664136 0.3566664136
0.3571781669 0.3571781669 0.3571781669
0.3576897003 0.3576897003 0.3576897003
0.3582010144 0.3582010144 0.3582010144
0.3587121095 0.3587121095 0.3587121095
0.3592229863 0.3592229863 0.3592229863
0.3597336453 0.3597336453 0.3597336453
0.3602440868 0.3602440868 0.3602440868
0.3607543115 0.3607543115 0.3607543115
0.3612643198 0.3612643198 0.3612643198
0.3617741121 0.3617741121 0.3617741121
0.3622836891 0.3622836891 0.3622836891
0.3627930511 0.3627930511 0.3627930511
0.3633021987 0.3633021987 0.3633021987
0.3638111322 0.3638111322 0.3638111322
0.3643198523 0.3643198523 0.3643198523
0.3648283594 0.3648283594 0.3648283594
0.3653366539 0.3653366539 0.3653366539
0.3658447364 0.3658447364 0.3658447364
0.3663526073 0.3663526073 0.3663526073
0.3668602670 0.3668602670 0.3668602670
0.3673677161 0.3673677161 0.3673677161
0.3678749550 0.3678749550 0.3678749550
0.3683819841 0.3683819841 0.3683819841
0.3688888040 0.3688888040 0.3688888040
0.3693954150 0.3693954150 0.3693954150
0.3699018177 0.3699018177 0.3699018177
0.3704080125 0.3704080125 0.3704080125
0.3709139999 0.3709139999 0.3709139999
0.3714197803 0.3714197803 0.3714197803
0.3719253541 0.3719253541 0.3719253541
0.3724307219 0.3724307219 0.3724307219
0.3729358840 0.3729358840 0.3729358840
0.3734408409 0.3734408409 0.3734408409
0.3739455930 0.3739455930 0.3739455930
0.3744501409 0.3744501409 0.3744501409
0.3749544848 0.3749544848 0.3749544848
0.3754586254 0.3754586254 0.3754586254
0.3759625629 0.3759625629 0.3759625629
0.3764662979 0.3764662979 0.3764662979
0.3769698308 0.3769698308 0.3769698308
0.3774731619 0.3774731619 0.3774731619
0.3779762918 0.3779762918 0.3779762918
0.3784792209 0.3784792209 0.3784792209
0.3789819495 0.3789819495 0.3789819495
0.3794844782 0.3794844782 0.3794844782
0.3799868073 0.3799868073 0.3799868073
0.3804889372 0.3804889372 0.3804889372
0.3809908685 0.3809908685 0.3809908685
0.3814926014 0.3814926014 0.3814926014
0.3819941364 0.3819941364 0.3819941364
0.3824954740 0.3824954740 0.3824954740
0.3829966146 0.3829966146 0.3829966146
0.3834975585 0.3834975585 0.3834975585
0.3839983061 0.3839983061 0.3839983061
0.3844988580 0.3844988580 0.3844988580
0.3849992144 0.3849992144 0.3849992144
0.3854993758 0.3854993758 0.3854993758
0.3859993426 0.3859993426 0.3859993426
0.3864991152 0.3864991152 0.3864991152
0.3869986940 0.3869986940 0.3869986940
0.3874980795 0.3874980795 0.3874980795
0.3879972719 0.3879972719 0.3879972719
0.3884962717 0.3884962717 0.3884962717
0.3889950793 0.3889950793 0.3889950793
0.3894936951 0.3894936951 0.3894936951
0.3899921195 0.3899921195 0.3899921195
0.3904903529 0.3904903529 0.3904903529
0.3909883956 0.3909883956 0.3909883956
0.3914862480 0.3914862480 0.3914862480
0.3919839106 0.3919839106 0.3919839106
0.3924813837 0.3924813837 0.3924813837
0.3929786678 0.3929786678 0.3929786678
0.3934757631 0.3934757631 0.3934757631
0.3939726701 0.3939726701 0.3939726701
0.3944693891 0.3944693891 0.3944693891
