HDR Hybrid Log-Gamma/HLG to Gamma 2.4.cube
# DaVinci Resolve Cube (1D shaper LUT).

LUT_1D_SIZE 4096
LUT_1D_INPUT_RANGE 0.0000000000 1.0000000000

0.0000000000 0.0000000000 0.0000000000
0.0017403906 0.0017403906 0.0017403906
0.0031010236 0.0031010236 0.0031010236
0.0043475820 0.0043475820 0.0043475820
0.0055253959 0.0055253959 0.0055253959
0.0066545968 0.0066545968 0.0066545968
0.0077465105 0.0077465105 0.0077465105
0.0088083611 0.0088083611 0.0088083611
0.0098451362 0.0098451362 0.0098451362
0.0108604753 0.0108604753 0.0108604753
0.0118571435 0.0118571435 0.0118571435
0.0128373085 0.0128373085 0.0128373085
0.0138027126 0.0138027126 0.0138027126
0.0147547844 0.0147547844 0.0147547844
0.0156947151 0.0156947151 0.0156947151
0.0166235124 0.0166235124 0.0166235124
0.0175420385 0.0175420385 0.0175420385
0.0184510397 0.0184510397 0.0184510397
0.0193511671 0.0193511671 0.0193511671
0.0202429938 0.0202429938 0.0202429938
0.0211270278 0.0211270278 0.0211270278
0.0220037222 0.0220037222 0.0220037222
0.0228734834 0.0228734834 0.0228734834
0.0237366780 0.0237366780 0.0237366780
0.0245936380 0.0245936380 0.0245936380
0.0254446657 0.0254446657 0.0254446657
0.0262900370 0.0262900370 0.0262900370
0.0271300053 0.0271300053 0.0271300053
0.0279648032 0.0279648032 0.0279648032
0.0287946457 0.0287946457 0.0287946457
0.0296197317 0.0296197317 0.0296197317
0.0304402457 0.0304402457 0.0304402457
0.0312563593 0.0312563593 0.0312563593
0.0320682326 0.0320682326 0.0320682326
0.0328760152 0.0328760152 0.0328760152
0.0336798471 0.0336798471 0.0336798471
0.0344798599 0.0344798599 0.0344798599
0.0352761769 0.0352761769 0.0352761769
0.0360689145 0.0360689145 0.0360689145
0.0368581823 0.0368581823 0.0368581823
0.0376440840 0.0376440840 0.0376440840
0.0384267176 0.0384267176 0.0384267176
0.0392061758 0.0392061758 0.0392061758
0.0399825468 0.0399825468 0.0399825468
0.0407559141 0.0407559141 0.0407559141
0.0415263573 0.0415263573 0.0415263573
0.0422939520 0.0422939520 0.0422939520
0.0430587703 0.0430587703 0.0430587703
0.0438208811 0.0438208811 0.0438208811
0.0445803501 0.0445803501 0.0445803501
0.0453372400 0.0453372400 0.0453372400
0.0460916110 0.0460916110 0.0460916110
0.0468435206 0.0468435206 0.0468435206
0.0475930239 0.0475930239 0.0475930239
0.0483401738 0.0483401738 0.0483401738
0.0490850212 0.0490850212 0.0490850212
0.0498276147 0.0498276147 0.0498276147
0.0505680012 0.0505680012 0.0505680012
0.0513062259 0.0513062259 0.0513062259
0.0520423323 0.0520423323 0.0520423323
0.0527763620 0.0527763620 0.0527763620
0.0535083555 0.0535083555 0.0535083555
0.0542383517 0.0542383517 0.0542383517
0.0549663880 0.0549663880 0.0549663880
0.0556925008 0.0556925008 0.0556925008
0.0564167250 0.0564167250 0.0564167250
0.0571390946 0.0571390946 0.0571390946
0.0578596422 0.0578596422 0.0578596422
0.0585783995 0.0585783995 0.0585783995
0.0592953973 0.0592953973 0.0592953973
0.0600106653 0.0600106653 0.0600106653
0.0607242321 0.0607242321 0.0607242321
0.0614361259 0.0614361259 0.0614361259
0.0621463736 0.0621463736 0.0621463736
0.0628550015 0.0628550015 0.0628550015
0.0635620351 0.0635620351 0.0635620351
0.0642674993 0.0642674993 0.0642674993
0.0649714180 0.0649714180 0.0649714180
0.0656738147 0.0656738147 0.0656738147
0.0663747122 0.0663747122 0.0663747122
0.0670741324 0.0670741324 0.0670741324
0.0677720970 0.0677720970 0.0677720970
0.0684686269 0.0684686269 0.0684686269
0.0691637425 0.0691637425 0.0691637425
0.0698574636 0.0698574636 0.0698574636
0.0705498096 0.0705498096 0.0705498096
0.0712407994 0.0712407994 0.0712407994
0.0719304513 0.0719304513 0.0719304513
0.0726187833 0.0726187833 0.0726187833
0.0733058128 0.0733058128 0.0733058128
0.0739915569 0.0739915569 0.0739915569
0.0746760323 0.0746760323 0.0746760323
0.0753592552 0.0753592552 0.0753592552
0.0760412414 0.0760412414 0.0760412414
0.0767220066 0.0767220066 0.0767220066
0.0774015657 0.0774015657 0.0774015657
0.0780799336 0.0780799336 0.0780799336
0.0787571249 0.0787571249 0.0787571249
0.0794331535 0.0794331535 0.0794331535
0.0801080334 0.0801080334 0.0801080334
0.0807817780 0.0807817780 0.0807817780
0.0814544007 0.0814544007 0.0814544007
0.0821259143 0.0821259143 0.0821259143
0.0827963316 0.0827963316 0.0827963316
0.0834656649 0.0834656649 0.0834656649
0.0841339264 0.0841339264 0.0841339264
0.0848011280 0.0848011280 0.0848011280
0.0854672813 0.0854672813 0.0854672813
0.0861323978 0.0861323978 0.0861323978
0.0867964887 0.0867964887 0.0867964887
0.0874595649 0.0874595649 0.0874595649
0.0881216371 0.0881216371 0.0881216371
0.0887827160 0.0887827160 0.0887827160
0.0894428119 0.0894428119 0.0894428119
0.0901019349 0.0901019349 0.0901019349
0.0907600950 0.0907600950 0.0907600950
0.0914173018 0.0914173018 0.0914173018
0.0920735651 0.0920735651 0.0920735651
0.0927288942 0.0927288942 0.0927288942
0.0933832983 0.0933832983 0.0933832983
0.0940367865 0.0940367865 0.0940367865
0.0946893677 0.0946893677 0.0946893677
0.0953410507 0.0953410507 0.0953410507
0.0959918439 0.0959918439 0.0959918439
0.0966417559 0.0966417559 0.0966417559
0.0972907950 0.0972907950 0.0972907950
0.0979389692 0.0979389692 0.0979389692
0.0985862866 0.0985862866 0.0985862866
0.0992327551 0.0992327551 0.0992327551
0.0998783824 0.0998783824 0.0998783824
0.1005231760 0.1005231760 0.1005231760
0.1011671435 0.1011671435 0.1011671435
0.1018102922 0.1018102922 0.1018102922
0.1024526294 0.1024526294 0.1024526294
0.1030941621 0.1030941621 0.1030941621
0.1037348974 0.1037348974 0.1037348974
0.1043748421 0.1043748421 0.1043748421
0.1050140031 0.1050140031 0.1050140031
0.1056523870 0.1056523870 0.1056523870
0.1062900003 0.1062900003 0.1062900003
0.1069268495 0.1069268495 0.1069268495
0.1075629411 0.1075629411 0.1075629411
0.1081982812 0.1081982812 0.1081982812
0.1088328760 0.1088328760 0.1088328760
0.1094667316 0.1094667316 0.1094667316
0.1100998540 0.1100998540 0.1100998540
0.1107322491 0.1107322491 0.1107322491
0.1113639227 0.1113639227 0.1113639227
0.1119948805 0.1119948805 0.1119948805
0.1126251282 0.1126251282 0.1126251282
0.1132546713 0.1132546713 0.1132546713
0.1138835152 0.1138835152 0.1138835152
0.1145116655 0.1145116655 0.1145116655
0.1151391274 0.1151391274 0.1151391274
0.1157659061 0.1157659061 0.1157659061
0.1163920069 0.1163920069 0.1163920069
0.1170174347 0.1170174347 0.1170174347
0.1176421948 0.1176421948 0.1176421948
0.1182662920 0.1182662920 0.1182662920
0.1188897311 0.1188897311 0.1188897311
0.1195125171 0.1195125171 0.1195125171
0.1201346548 0.1201346548 0.1201346548
0.1207561487 0.1207561487 0.1207561487
0.1213770035 0.1213770035 0.1213770035
0.1219972238 0.1219972238 0.1219972238
0.1226168142 0.1226168142 0.1226168142
0.1232357790 0.1232357790 0.1232357790
0.1238541227 0.1238541227 0.1238541227
0.1244718495 0.1244718495 0.1244718495
0.1250889639 0.1250889639 0.1250889639
0.1257054699 0.1257054699 0.1257054699
0.1263213718 0.1263213718 0.1263213718
0.1269366737 0.1269366737 0.1269366737
0.1275513797 0.1275513797 0.1275513797
0.1281654937 0.1281654937 0.1281654937
0.1287790198 0.1287790198 0.1287790198
0.1293919619 0.1293919619 0.1293919619
0.1300043238 0.1300043238 0.1300043238
0.1306161093 0.1306161093 0.1306161093
0.1312273223 0.1312273223 0.1312273223
0.1318379664 0.1318379664 0.1318379664
0.1324480454 0.1324480454 0.1324480454
0.1330575629 0.1330575629 0.1330575629
0.1336665225 0.1336665225 0.1336665225
0.1342749277 0.1342749277 0.1342749277
0.1348827820 0.1348827820 0.1348827820
0.1354900890 0.1354900890 0.1354900890
0.1360968521 0.1360968521 0.1360968521
0.1367030746 0.1367030746 0.1367030746
0.1373087599 0.1373087599 0.1373087599
0.1379139113 0.1379139113 0.1379139113
0.1385185321 0.1385185321 0.1385185321
0.1391226256 0.1391226256 0.1391226256
0.1397261949 0.1397261949 0.1397261949
0.1403292432 0.1403292432 0.1403292432
0.1409317736 0.1409317736 0.1409317736
0.1415337893 0.1415337893 0.1415337893
0.1421352932 0.1421352932 0.1421352932
0.1427362885 0.1427362885 0.1427362885
0.1433367781 0.1433367781 0.1433367781
0.1439367650 0.1439367650 0.1439367650
0.1445362521 0.1445362521 0.1445362521
0.1451352424 0.1451352424 0.1451352424
0.1457337386 0.1457337386 0.1457337386
0.1463317436 0.1463317436 0.1463317436
0.1469292603 0.1469292603 0.1469292603
0.1475262914 0.1475262914 0.1475262914
0.1481228396 0.1481228396 0.1481228396
0.1487189077 0.1487189077 0.1487189077
0.1493144984 0.1493144984 0.1493144984
0.1499096143 0.1499096143 0.1499096143
0.1505042581 0.1505042581 0.1505042581
0.1510984324 0.1510984324 0.1510984324
0.1516921398 0.1516921398 0.1516921398
0.1522853827 0.1522853827 0.1522853827
0.1528781638 0.1528781638 0.1528781638
0.1534704856 0.1534704856 0.1534704856
0.1540623505 0.1540623505 0.1540623505
0.1546537610 0.1546537610 0.1546537610
0.1552447195 0.1552447195 0.1552447195
0.1558352285 0.1558352285 0.1558352285
0.1564252902 0.1564252902 0.1564252902
0.1570149071 0.1570149071 0.1570149071
0.1576040816 0.1576040816 0.1576040816
0.1581928158 0.1581928158 0.1581928158
0.1587811122 0.1587811122 0.1587811122
0.1593689730 0.1593689730 0.1593689730
0.1599564004 0.1599564004 0.1599564004
0.1605433966 0.1605433966 0.1605433966
0.1611299639 0.1611299639 0.1611299639
0.1617161045 0.1617161045 0.1617161045
0.1623018205 0.1623018205 0.1623018205
0.1628871140 0.1628871140 0.1628871140
0.1634719872 0.1634719872 0.1634719872
0.1640564422 0.1640564422 0.1640564422
0.1646404811 0.1646404811 0.1646404811
0.1652241059 0.1652241059 0.1652241059
0.1658073187 0.1658073187 0.1658073187
0.1663901215 0.1663901215 0.1663901215
0.1669725163 0.1669725163 0.1669725163
0.1675545051 0.1675545051 0.1675545051
0.1681360899 0.1681360899 0.1681360899
0.1687172726 0.1687172726 0.1687172726
0.1692980552 0.1692980552 0.1692980552
0.1698784396 0.1698784396 0.1698784396
0.1704584277 0.1704584277 0.1704584277
0.1710380214 0.1710380214 0.1710380214
0.1716172225 0.1716172225 0.1716172225
0.1721960330 0.1721960330 0.1721960330
0.1727744545 0.1727744545 0.1727744545
0.1733524891 0.1733524891 0.1733524891
0.1739301384 0.1739301384 0.1739301384
0.1745074043 0.1745074043 0.1745074043
0.1750842885 0.1750842885 0.1750842885
0.1756607928 0.1756607928 0.1756607928
0.1762369189 0.1762369189 0.1762369189
0.1768126687 0.1768126687 0.1768126687
0.1773880437 0.1773880437 0.1773880437
0.1779630456 0.1779630456 0.1779630456
0.1785376763 0.1785376763 0.1785376763
0.1791119373 0.1791119373 0.1791119373
0.1796858303 0.1796858303 0.1796858303
0.1802593569 0.1802593569 0.1802593569
0.1808325189 0.1808325189 0.1808325189
0.1814053177 0.1814053177 0.1814053177
0.1819777550 0.1819777550 0.1819777550
0.1825498324 0.1825498324 0.1825498324
0.1831215514 0.1831215514 0.1831215514
0.1836929137 0.1836929137 0.1836929137
0.1842639208 0.1842639208 0.1842639208
0.1848345742 0.1848345742 0.1848345742
0.1854048755 0.1854048755 0.1854048755
0.1859748261 0.1859748261 0.1859748261
0.1865444276 0.1865444276 0.1865444276
0.1871136815 0.1871136815 0.1871136815
0.1876825892 0.1876825892 0.1876825892
0.1882511522 0.1882511522 0.1882511522
0.1888193720 0.1888193720 0.1888193720
0.1893872500 0.1893872500 0.1893872500
0.1899547876 0.1899547876 0.1899547876
0.1905219864 0.1905219864 0.1905219864
0.1910888476 0.1910888476 0.1910888476
0.1916553726 0.1916553726 0.1916553726
0.1922215630 0.1922215630 0.1922215630
0.1927874200 0.1927874200 0.1927874200
0.1933529450 0.1933529450 0.1933529450
0.1939181394 0.1939181394 0.1939181394
0.1944830045 0.1944830045 0.1944830045
0.1950475417 0.1950475417 0.1950475417
0.1956117523 0.1956117523 0.1956117523
0.1961756376 0.1961756376 0.1961756376
0.1967391990 0.1967391990 0.1967391990
0.1973024376 0.1973024376 0.1973024376
0.1978653549 0.1978653549 0.1978653549
0.1984279520 0.1984279520 0.1984279520
0.1989902303 0.1989902303 0.1989902303
0.1995521910 0.1995521910 0.1995521910
0.2001138354 0.2001138354 0.2001138354
0.2006751647 0.2006751647 0.2006751647
0.2012361801 0.2012361801 0.2012361801
0.2017968829 0.2017968829 0.2017968829
0.2023572743 0.2023572743 0.2023572743
0.2029173555 0.2029173555 0.2029173555
0.2034771277 0.2034771277 0.2034771277
0.2040365920 0.2040365920 0.2040365920
0.2045957497 0.2045957497 0.2045957497
0.2051546020 0.2051546020 0.2051546020
0.2057131499 0.2057131499 0.2057131499
0.2062713947 0.2062713947 0.2062713947
0.2068293375 0.2068293375 0.2068293375
0.2073869794 0.2073869794 0.2073869794
0.2079443216 0.2079443216 0.2079443216
0.2085013652 0.2085013652 0.2085013652
0.2090581113 0.2090581113 0.2090581113
0.2096145611 0.2096145611 0.2096145611
0.2101707155 0.2101707155 0.2101707155
0.2107265758 0.2107265758 0.2107265758
0.2112821430 0.2112821430 0.2112821430
0.2118374181 0.2118374181 0.2118374181
0.2123924023 0.2123924023 0.2123924023
0.2129470967 0.2129470967 0.2129470967
0.2135015022 0.2135015022 0.2135015022
0.2140556199 0.2140556199 0.2140556199
0.2146094508 0.2146094508 0.2146094508
0.2151629961 0.2151629961 0.2151629961
0.2157162567 0.2157162567 0.2157162567
0.2162692337 0.2162692337 0.2162692337
0.2168219280 0.2168219280 0.2168219280
0.2173743407 0.2173743407 0.2173743407
0.2179264727 0.2179264727 0.2179264727
0.2184783252 0.2184783252 0.2184783252
0.2190298989 0.2190298989 0.2190298989
0.2195811951 0.2195811951 0.2195811951
0.2201322145 0.2201322145 0.2201322145
0.2206829582 0.2206829582 0.2206829582
0.2212334272 0.2212334272 0.2212334272
0.2217836224 0.2217836224 0.2217836224
0.2223335447 0.2223335447 0.2223335447
0.2228831951 0.2228831951 0.2228831951
0.2234325746 0.2234325746 0.2234325746
0.2239816840 0.2239816840 0.2239816840
0.2245305243 0.2245305243 0.2245305243
0.2250790964 0.2250790964 0.2250790964
0.2256274013 0.2256274013 0.2256274013
0.2261754398 0.2261754398 0.2261754398
0.2267232128 0.2267232128 0.2267232128
0.2272707213 0.2272707213 0.2272707213
0.2278179661 0.2278179661 0.2278179661
0.2283649481 0.2283649481 0.2283649481
0.2289116683 0.2289116683 0.2289116683
0.2294581274 0.2294581274 0.2294581274
0.2300043263 0.2300043263 0.2300043263
0.2305502660 0.2305502660 0.2305502660
0.2310959472 0.2310959472 0.2310959472
0.2316413708 0.2316413708 0.2316413708
0.2321865377 0.2321865377 0.2321865377
0.2327314487 0.2327314487 0.2327314487
0.2332761047 0.2332761047 0.2332761047
0.2338205064 0.2338205064 0.2338205064
0.2343646548 0.2343646548 0.2343646548
0.2349085506 0.2349085506 0.2349085506
0.2354521947 0.2354521947 0.2354521947
0.2359955878 0.2359955878 0.2359955878
0.2365387308 0.2365387308 0.2365387308
0.2370816245 0.2370816245 0.2370816245
0.2376242696 0.2376242696 0.2376242696
0.2381666671 0.2381666671 0.2381666671
0.2387088176 0.2387088176 0.2387088176
0.2392507219 0.2392507219 0.2392507219
0.2397923809 0.2397923809 0.2397923809
0.2403337952 0.2403337952 0.2403337952
0.2408749658 0.2408749658 0.2408749658
0.2414158933 0.2414158933 0.2414158933
0.2419565785 0.2419565785 0.2419565785
0.2424970221 0.2424970221 0.2424970221
0.2430372250 0.2430372250 0.2430372250
0.2435771878 0.2435771878 0.2435771878
0.2441169113 0.2441169113 0.2441169113
0.2446563963 0.2446563963 0.2446563963
0.2451956435 0.2451956435 0.2451956435
0.2457346536 0.2457346536 0.2457346536
0.2462734273 0.2462734273 0.2462734273
0.2468119654 0.2468119654 0.2468119654
0.2473502686 0.2473502686 0.2473502686
0.2478883376 0.2478883376 0.2478883376
0.2484261731 0.2484261731 0.2484261731
0.2489637758 0.2489637758 0.2489637758
0.2495011464 0.2495011464 0.2495011464
0.2500382857 0.2500382857 0.2500382857
0.2505751943 0.2505751943 0.2505751943
0.2511118729 0.2511118729 0.2511118729
0.2516483222 0.2516483222 0.2516483222
0.2521845428 0.2521845428 0.2521845428
0.2527205356 0.2527205356 0.2527205356
0.2532563011 0.2532563011 0.2532563011
0.2537918400 0.2537918400 0.2537918400
0.2543271529 0.2543271529 0.2543271529
0.2548622407 0.2548622407 0.2548622407
0.2553971038 0.2553971038 0.2553971038
0.2559317430 0.2559317430 0.2559317430
0.2564661589 0.2564661589 0.2564661589
0.2570003522 0.2570003522 0.2570003522
0.2575343235 0.2575343235 0.2575343235
0.2580680735 0.2580680735 0.2580680735
0.2586016028 0.2586016028 0.2586016028
0.2591349120 0.2591349120 0.2591349120
0.2596680018 0.2596680018 0.2596680018
0.2602008728 0.2602008728 0.2602008728
0.2607335256 0.2607335256 0.2607335256
0.2612659609 0.2612659609 0.2612659609
0.2617981793 0.2617981793 0.2617981793
0.2623301814 0.2623301814 0.2623301814
0.2628619678 0.2628619678 0.2628619678
0.2633935391 0.2633935391 0.2633935391
0.2639248959 0.2639248959 0.2639248959
0.2644560388 0.2644560388 0.2644560388
0.2649869685 0.2649869685 0.2649869685
0.2655176856 0.2655176856 0.2655176856
0.2660481905 0.2660481905 0.2660481905
0.2665784840 0.2665784840 0.2665784840
0.2671085665 0.2671085665 0.2671085665
0.2676384388 0.2676384388 0.2676384388
0.2681681013 0.2681681013 0.2681681013
0.2686975547 0.2686975547 0.2686975547
0.2692267995 0.2692267995 0.2692267995
0.2697558363 0.2697558363 0.2697558363
0.2702846657 0.2702846657 0.2702846657
0.2708132883 0.2708132883 0.2708132883
0.2713417045 0.2713417045 0.2713417045
0.2718699150 0.2718699150 0.2718699150
0.2723979204 0.2723979204 0.2723979204
0.2729257211 0.2729257211 0.2729257211
0.2734533178 0.2734533178 0.2734533178
0.2739807109 0.2739807109 0.2739807109
0.2745079011 0.2745079011 0.2745079011
0.2750348889 0.2750348889 0.2750348889
0.2755616748 0.2755616748 0.2755616748
0.2760882594 0.2760882594 0.2760882594
0.2766146432 0.2766146432 0.2766146432
0.2771408267 0.2771408267 0.2771408267
0.2776668105 0.2776668105 0.2776668105
0.2781925951 0.2781925951 0.2781925951
0.2787181811 0.2787181811 0.2787181811
0.2792435688 0.2792435688 0.2792435688
0.2797687590 0.2797687590 0.2797687590
0.2802937520 0.2802937520 0.2802937520
0.2808185485 0.2808185485 0.2808185485
0.2813431489 0.2813431489 0.2813431489
0.2818675537 0.2818675537 0.2818675537
0.2823917635 0.2823917635 0.2823917635
0.2829157787 0.2829157787 0.2829157787
0.2834395999 0.2834395999 0.2834395999
0.2839632275 0.2839632275 0.2839632275
0.2844866621 0.2844866621 0.2844866621
0.2850099041 0.2850099041 0.2850099041
0.2855329541 0.2855329541 0.2855329541
0.2860558125 0.2860558125 0.2860558125
0.2865784799 0.2865784799 0.2865784799
0.2871009567 0.2871009567 0.2871009567
0.2876232434 0.2876232434 0.2876232434
0.2881453404 0.2881453404 0.2881453404
0.2886672484 0.2886672484 0.2886672484
0.2891889677 0.2891889677 0.2891889677
0.2897104988 0.2897104988 0.2897104988
0.2902318422 0.2902318422 0.2902318422
0.2907529984 0.2907529984 0.2907529984
0.2912739678 0.2912739678 0.2912739678
0.2917947509 0.2917947509 0.2917947509
0.2923153482 0.2923153482 0.2923153482
0.2928357601 0.2928357601 0.2928357601
0.2933559872 0.2933559872 0.2933559872
0.2938760297 0.2938760297 0.2938760297
0.2943958883 0.2943958883 0.2943958883
0.2949155634 0.2949155634 0.2949155634
0.2954350554 0.2954350554 0.2954350554
0.2959543647 0.2959543647 0.2959543647
0.2964734919 0.2964734919 0.2964734919
0.2969924373 0.2969924373 0.2969924373
0.2975112015 0.2975112015 0.2975112015
0.2980297848 0.2980297848 0.2980297848
0.2985481876 0.2985481876 0.2985481876
0.2990664106 0.2990664106 0.2990664106
0.2995844539 0.2995844539 0.2995844539
0.3001023182 0.3001023182 0.3001023182
0.3006200038 0.3006200038 0.3006200038
0.3011375112 0.3011375112 0.3011375112
0.3016548408 0.3016548408 0.3016548408
0.3021719930 0.3021719930 0.3021719930
0.3026889682 0.3026889682 0.3026889682
0.3032057669 0.3032057669 0.3032057669
0.3037223895 0.3037223895 0.3037223895
0.3042388364 0.3042388364 0.3042388364
0.3047551080 0.3047551080 0.3047551080
0.3052712048 0.3052712048 0.3052712048
0.3057871271 0.3057871271 0.3057871271
0.3063028754 0.3063028754 0.3063028754
0.3068184501 0.3068184501 0.3068184501
0.3073338515 0.3073338515 0.3073338515
0.3078490802 0.3078490802 0.3078490802
0.3083641364 0.3083641364 0.3083641364
0.3088790206 0.3088790206 0.3088790206
0.3093937333 0.3093937333 0.3093937333
0.3099082747 0.3099082747 0.3099082747
0.3104226453 0.3104226453 0.3104226453
0.3109368456 0.3109368456 0.3109368456
0.3114508758 0.3114508758 0.3114508758
0.3119647364 0.3119647364 0.3119647364
0.3124784277 0.3124784277 0.3124784277
0.3129919503 0.3129919503 0.3129919503
0.3135053043 0.3135053043 0.3135053043
0.3140184904 0.3140184904 0.3140184904
0.3145315087 0.3145315087 0.3145315087
0.3150443597 0.3150443597 0.3150443597
0.3155570438 0.3155570438 0.3155570438
0.3160695614 0.3160695614 0.3160695614
0.3165819128 0.3165819128 0.3165819128
0.3170940985 0.3170940985 0.3170940985
0.3176061187 0.3176061187 0.3176061187
0.3181179739 0.3181179739 0.3181179739
0.3186296644 0.3186296644 0.3186296644
0.3191411907 0.3191411907 0.3191411907
0.3196525530 0.3196525530 0.3196525530
0.3201637517 0.3201637517 0.3201637517
0.3206747873 0.3206747873 0.3206747873
0.3211856600 0.3211856600 0.3211856600
0.3216963703 0.3216963703 0.3216963703
0.3222069185 0.3222069185 0.3222069185
0.3227173049 0.3227173049 0.3227173049
0.3232275299 0.3232275299 0.3232275299
0.3237375939 0.3237375939 0.3237375939
0.3242474973 0.3242474973 0.3242474973
0.3247572403 0.3247572403 0.3247572403
0.3252668233 0.3252668233 0.3252668233
0.3257762467 0.3257762467 0.3257762467
0.3262855109 0.3262855109 0.3262855109
0.3267946161 0.3267946161 0.3267946161
0.3273035628 0.3273035628 0.3273035628
0.3278123512 0.3278123512 0.3278123512
0.3283209817 0.3283209817 0.3283209817
0.3288294547 0.3288294547 0.3288294547
0.3293377705 0.3293377705 0.3293377705
0.3298459294 0.3298459294 0.3298459294
0.3303539318 0.3303539318 0.3303539318
0.3308617780 0.3308617780 0.3308617780
0.3313694684 0.3313694684 0.3313694684
0.3318770032 0.3318770032 0.3318770032
0.3323843829 0.3323843829 0.3323843829
0.3328916077 0.3328916077 0.3328916077
0.3333986780 0.3333986780 0.3333986780
0.3339055940 0.3339055940 0.3339055940
0.3344123563 0.3344123563 0.3344123563
0.3349189649 0.3349189649 0.3349189649
0.3354254204 0.3354254204 0.3354254204
0.3359317230 0.3359317230 0.3359317230
0.3364378729 0.3364378729 0.3364378729
0.3369438707 0.3369438707 0.3369438707
0.3374497165 0.3374497165 0.3374497165
0.3379554107 0.3379554107 0.3379554107
0.3384609536 0.3384609536 0.3384609536
0.3389663456 0.3389663456 0.3389663456
0.3394715868 0.3394715868 0.3394715868
0.3399766778 0.3399766778 0.3399766778
0.3404816187 0.3404816187 0.3404816187
0.3409864098 0.3409864098 0.3409864098
0.3414910516 0.3414910516 0.3414910516
0.3419955443 0.3419955443 0.3419955443
0.3424998881 0.3424998881 0.3424998881
0.3430040835 0.3430040835 0.3430040835
0.3435081307 0.3435081307 0.3435081307
0.3440120300 0.3440120300 0.3440120300
0.3445157817 0.3445157817 0.3445157817
0.3450193862 0.3450193862 0.3450193862
0.3455228437 0.3455228437 0.3455228437
0.3460261545 0.3460261545 0.3460261545
0.3465293189 0.3465293189 0.3465293189
0.3470323373 0.3470323373 0.3470323373
0.3475352098 0.3475352098 0.3475352098
0.3480379369 0.3480379369 0.3480379369
0.3485405188 0.3485405188 0.3485405188
0.3490429558 0.3490429558 0.3490429558
0.3495452482 0.3495452482 0.3495452482
0.3500473963 0.3500473963 0.3500473963
0.3505494003 0.3505494003 0.3505494003
0.3510512606 0.3510512606 0.3510512606
0.3515529775 0.3515529775 0.3515529775
0.3520545512 0.3520545512 0.3520545512
0.3525559820 0.3525559820 0.3525559820
0.3530572702 0.3530572702 0.3530572702
0.3535584161 0.3535584161 0.3535584161
0.3540594200 0.3540594200 0.3540594200
0.3545602822 0.3545602822 0.3545602822
0.3550610028 0.3550610028 0.3550610028
0.3555615823 0.3555615823 0.3555615823
0.3560620209 0.3560620209 0.3560620209
0.3565623189 0.3565623189 0.3565623189
0.3570624764 0.3570624764 0.3570624764
0.3575624939 0.3575624939 0.3575624939
0.3580623716 0.3580623716 0.3580623716
0.3585621098 0.3585621098 0.3585621098
0.3590617087 0.3590617087 0.3590617087
0.3595611686 0.3595611686 0.3595611686
0.3600604898 0.3600604898 0.3600604898
0.3605596726 0.3605596726 0.3605596726
0.3610587171 0.3610587171 0.3610587171
0.3615576238 0.3615576238 0.3615576238
0.3620563928 0.3620563928 0.3620563928
0.3625550244 0.3625550244 0.3625550244
0.3630535189 0.3630535189 0.3630535189
0.3635518766 0.3635518766 0.3635518766
0.3640500976 0.3640500976 0.3640500976
0.3645481823 0.3645481823 0.3645481823
0.3650461310 0.3650461310 0.3650461310
