Astrodesign/ALog to ARRI Log C.cube
#ASTRODESIGN Inc LUT  ALog To ARRI Log C full in full out v1.00.00

TITLE	ALog To ARRI Log C
LUT_1D_SIZE 4096
LUT_1D_INPUT_RANGE 0.0000000000 1.0000000000

0.011447058 0.011447058 0.011447058
0.011661012 0.011661012 0.011661012
0.011874965 0.011874965 0.011874965
0.012088919 0.012088919 0.012088919
0.012302873 0.012302873 0.012302873
0.012516826 0.012516826 0.012516826
0.01273078 0.01273078 0.01273078
0.012944733 0.012944733 0.012944733
0.013158687 0.013158687 0.013158687
0.01337264 0.01337264 0.01337264
0.013586594 0.013586594 0.013586594
0.013800547 0.013800547 0.013800547
0.014014501 0.014014501 0.014014501
0.014228454 0.014228454 0.014228454
0.014442408 0.014442408 0.014442408
0.014656361 0.014656361 0.014656361
0.014870315 0.014870315 0.014870315
0.015084268 0.015084268 0.015084268
0.015298222 0.015298222 0.015298222
0.015512175 0.015512175 0.015512175
0.015726129 0.015726129 0.015726129
0.015940082 0.015940082 0.015940082
0.016154036 0.016154036 0.016154036
0.016367989 0.016367989 0.016367989
0.016581943 0.016581943 0.016581943
0.016795896 0.016795896 0.016795896
0.01700985 0.01700985 0.01700985
0.017223803 0.017223803 0.017223803
0.017437757 0.017437757 0.017437757
0.01765171 0.01765171 0.01765171
0.017865664 0.017865664 0.017865664
0.018079617 0.018079617 0.018079617
0.018293571 0.018293571 0.018293571
0.018507524 0.018507524 0.018507524
0.018721478 0.018721478 0.018721478
0.018935431 0.018935431 0.018935431
0.019149385 0.019149385 0.019149385
0.019363339 0.019363339 0.019363339
0.019577292 0.019577292 0.019577292
0.019791246 0.019791246 0.019791246
0.020005199 0.020005199 0.020005199
0.020219153 0.020219153 0.020219153
0.020433106 0.020433106 0.020433106
0.02064706 0.02064706 0.02064706
0.020861013 0.020861013 0.020861013
0.021074967 0.021074967 0.021074967
0.02128892 0.02128892 0.02128892
0.021502874 0.021502874 0.021502874
0.021716827 0.021716827 0.021716827
0.021930781 0.021930781 0.021930781
0.022144734 0.022144734 0.022144734
0.022358688 0.022358688 0.022358688
0.022572641 0.022572641 0.022572641
0.022786595 0.022786595 0.022786595
0.023000548 0.023000548 0.023000548
0.023214502 0.023214502 0.023214502
0.023428455 0.023428455 0.023428455
0.023642409 0.023642409 0.023642409
0.023856362 0.023856362 0.023856362
0.024070316 0.024070316 0.024070316
0.024284269 0.024284269 0.024284269
0.024498223 0.024498223 0.024498223
0.024712176 0.024712176 0.024712176
0.02492613 0.02492613 0.02492613
0.025140083 0.025140083 0.025140083
0.025354037 0.025354037 0.025354037
0.02556799 0.02556799 0.02556799
0.025781944 0.025781944 0.025781944
0.025995897 0.025995897 0.025995897
0.026209851 0.026209851 0.026209851
0.026423805 0.026423805 0.026423805
0.026637758 0.026637758 0.026637758
0.026851712 0.026851712 0.026851712
0.027065665 0.027065665 0.027065665
0.027279619 0.027279619 0.027279619
0.027493572 0.027493572 0.027493572
0.027707526 0.027707526 0.027707526
0.027921479 0.027921479 0.027921479
0.028135433 0.028135433 0.028135433
0.028349386 0.028349386 0.028349386
0.02856334 0.02856334 0.02856334
0.028777293 0.028777293 0.028777293
0.028991247 0.028991247 0.028991247
0.0292052 0.0292052 0.0292052
0.029419154 0.029419154 0.029419154
0.029633107 0.029633107 0.029633107
0.029847061 0.029847061 0.029847061
0.030061014 0.030061014 0.030061014
0.030274968 0.030274968 0.030274968
0.030488921 0.030488921 0.030488921
0.030702875 0.030702875 0.030702875
0.030916828 0.030916828 0.030916828
0.031130782 0.031130782 0.031130782
0.031344735 0.031344735 0.031344735
0.031558689 0.031558689 0.031558689
0.031772642 0.031772642 0.031772642
0.031986596 0.031986596 0.031986596
0.032200549 0.032200549 0.032200549
0.032414503 0.032414503 0.032414503
0.032628456 0.032628456 0.032628456
0.03284241 0.03284241 0.03284241
0.033056363 0.033056363 0.033056363
0.033270317 0.033270317 0.033270317
0.033484271 0.033484271 0.033484271
0.033698224 0.033698224 0.033698224
0.033912178 0.033912178 0.033912178
0.034126131 0.034126131 0.034126131
0.034340085 0.034340085 0.034340085
0.034554038 0.034554038 0.034554038
0.034767992 0.034767992 0.034767992
0.034981945 0.034981945 0.034981945
0.035195899 0.035195899 0.035195899
0.035409852 0.035409852 0.035409852
0.035623806 0.035623806 0.035623806
0.035837759 0.035837759 0.035837759
0.036051713 0.036051713 0.036051713
0.036265666 0.036265666 0.036265666
0.03647962 0.03647962 0.03647962
0.036693573 0.036693573 0.036693573
0.036907527 0.036907527 0.036907527
0.03712148 0.03712148 0.03712148
0.037335434 0.037335434 0.037335434
0.037549387 0.037549387 0.037549387
0.037763341 0.037763341 0.037763341
0.037977294 0.037977294 0.037977294
0.038191248 0.038191248 0.038191248
0.038405201 0.038405201 0.038405201
0.038619155 0.038619155 0.038619155
0.038833108 0.038833108 0.038833108
0.039047062 0.039047062 0.039047062
0.039261015 0.039261015 0.039261015
0.039474969 0.039474969 0.039474969
0.039688922 0.039688922 0.039688922
0.039902876 0.039902876 0.039902876
0.040116829 0.040116829 0.040116829
0.040330783 0.040330783 0.040330783
0.040544737 0.040544737 0.040544737
0.04075869 0.04075869 0.04075869
0.040972644 0.040972644 0.040972644
0.041186597 0.041186597 0.041186597
0.041400551 0.041400551 0.041400551
0.041614504 0.041614504 0.041614504
0.041828458 0.041828458 0.041828458
0.042042411 0.042042411 0.042042411
0.042256365 0.042256365 0.042256365
0.042470318 0.042470318 0.042470318
0.042684272 0.042684272 0.042684272
0.042898225 0.042898225 0.042898225
0.043112179 0.043112179 0.043112179
0.043326132 0.043326132 0.043326132
0.043540086 0.043540086 0.043540086
0.043754039 0.043754039 0.043754039
0.043967993 0.043967993 0.043967993
0.044181946 0.044181946 0.044181946
0.0443959 0.0443959 0.0443959
0.044609853 0.044609853 0.044609853
0.044823807 0.044823807 0.044823807
0.04503776 0.04503776 0.04503776
0.045251714 0.045251714 0.045251714
0.045465667 0.045465667 0.045465667
0.045679621 0.045679621 0.045679621
0.045893574 0.045893574 0.045893574
0.046107528 0.046107528 0.046107528
0.046321481 0.046321481 0.046321481
0.046535435 0.046535435 0.046535435
0.046749388 0.046749388 0.046749388
0.046963342 0.046963342 0.046963342
0.047177295 0.047177295 0.047177295
0.047391249 0.047391249 0.047391249
0.047605203 0.047605203 0.047605203
0.047819156 0.047819156 0.047819156
0.04803311 0.04803311 0.04803311
0.048247063 0.048247063 0.048247063
0.048461017 0.048461017 0.048461017
0.04867497 0.04867497 0.04867497
0.048888924 0.048888924 0.048888924
0.049102877 0.049102877 0.049102877
0.049316831 0.049316831 0.049316831
0.049530784 0.049530784 0.049530784
0.049744738 0.049744738 0.049744738
0.049958691 0.049958691 0.049958691
0.050172645 0.050172645 0.050172645
0.050386598 0.050386598 0.050386598
0.050600552 0.050600552 0.050600552
0.050814505 0.050814505 0.050814505
0.051028459 0.051028459 0.051028459
0.051242412 0.051242412 0.051242412
0.051456366 0.051456366 0.051456366
0.051670319 0.051670319 0.051670319
0.051884273 0.051884273 0.051884273
0.052098226 0.052098226 0.052098226
0.05231218 0.05231218 0.05231218
0.052526133 0.052526133 0.052526133
0.052740087 0.052740087 0.052740087
0.05295404 0.05295404 0.05295404
0.053167994 0.053167994 0.053167994
0.053381947 0.053381947 0.053381947
0.053595901 0.053595901 0.053595901
0.053809854 0.053809854 0.053809854
0.054023808 0.054023808 0.054023808
0.054237761 0.054237761 0.054237761
0.054451715 0.054451715 0.054451715
0.054665669 0.054665669 0.054665669
0.054879622 0.054879622 0.054879622
0.055093576 0.055093576 0.055093576
0.055307529 0.055307529 0.055307529
0.055521483 0.055521483 0.055521483
0.055735436 0.055735436 0.055735436
0.05594939 0.05594939 0.05594939
0.056163343 0.056163343 0.056163343
0.056377297 0.056377297 0.056377297
0.05659125 0.05659125 0.05659125
0.056805204 0.056805204 0.056805204
0.057019157 0.057019157 0.057019157
0.057233111 0.057233111 0.057233111
0.057447064 0.057447064 0.057447064
0.057661018 0.057661018 0.057661018
0.057874971 0.057874971 0.057874971
0.058088925 0.058088925 0.058088925
0.058302878 0.058302878 0.058302878
0.058516832 0.058516832 0.058516832
0.058730785 0.058730785 0.058730785
0.058944739 0.058944739 0.058944739
0.059158692 0.059158692 0.059158692
0.059372646 0.059372646 0.059372646
0.059586599 0.059586599 0.059586599
0.059800553 0.059800553 0.059800553
0.060014506 0.060014506 0.060014506
0.06022846 0.06022846 0.06022846
0.060442413 0.060442413 0.060442413
0.060656367 0.060656367 0.060656367
0.06087032 0.06087032 0.06087032
0.061084274 0.061084274 0.061084274
0.061298227 0.061298227 0.061298227
0.061512181 0.061512181 0.061512181
0.061726135 0.061726135 0.061726135
0.061940088 0.061940088 0.061940088
0.062154042 0.062154042 0.062154042
0.062367995 0.062367995 0.062367995
0.062581949 0.062581949 0.062581949
0.062795902 0.062795902 0.062795902
0.063009856 0.063009856 0.063009856
0.063223809 0.063223809 0.063223809
0.063437763 0.063437763 0.063437763
0.063651716 0.063651716 0.063651716
0.06386567 0.06386567 0.06386567
0.064079623 0.064079623 0.064079623
0.064293577 0.064293577 0.064293577
0.06450753 0.06450753 0.06450753
0.064721484 0.064721484 0.064721484
0.064935437 0.064935437 0.064935437
0.065149391 0.065149391 0.065149391
0.065363344 0.065363344 0.065363344
0.065577298 0.065577298 0.065577298
0.065791251 0.065791251 0.065791251
0.066005205 0.066005205 0.066005205
0.066219158 0.066219158 0.066219158
0.066433112 0.066433112 0.066433112
0.066647065 0.066647065 0.066647065
0.066861019 0.066861019 0.066861019
0.067074972 0.067074972 0.067074972
0.067288926 0.067288926 0.067288926
0.067502879 0.067502879 0.067502879
0.067716833 0.067716833 0.067716833
0.067930786 0.067930786 0.067930786
0.06814474 0.06814474 0.06814474
0.068358693 0.068358693 0.068358693
0.068572647 0.068572647 0.068572647
0.068786601 0.068786601 0.068786601
0.069000554 0.069000554 0.069000554
0.069214508 0.069214508 0.069214508
0.069428461 0.069428461 0.069428461
0.069642415 0.069642415 0.069642415
0.069856368 0.069856368 0.069856368
0.070070322 0.070070322 0.070070322
0.070284275 0.070284275 0.070284275
0.070498229 0.070498229 0.070498229
0.070712182 0.070712182 0.070712182
0.070926136 0.070926136 0.070926136
0.071140089 0.071140089 0.071140089
0.071354043 0.071354043 0.071354043
0.071567996 0.071567996 0.071567996
0.07178195 0.07178195 0.07178195
0.071995903 0.071995903 0.071995903
0.072209857 0.072209857 0.072209857
0.07242381 0.07242381 0.07242381
0.072637764 0.072637764 0.072637764
0.072851717 0.072851717 0.072851717
0.073065671 0.073065671 0.073065671
0.073279624 0.073279624 0.073279624
0.073493578 0.073493578 0.073493578
0.073707531 0.073707531 0.073707531
0.073921485 0.073921485 0.073921485
0.074135438 0.074135438 0.074135438
0.074349392 0.074349392 0.074349392
0.074563345 0.074563345 0.074563345
0.074777299 0.074777299 0.074777299
0.074991252 0.074991252 0.074991252
0.075205206 0.075205206 0.075205206
0.075419159 0.075419159 0.075419159
0.075633113 0.075633113 0.075633113
0.075847067 0.075847067 0.075847067
0.07606102 0.07606102 0.07606102
0.076274974 0.076274974 0.076274974
0.076488927 0.076488927 0.076488927
0.076702881 0.076702881 0.076702881
0.076916834 0.076916834 0.076916834
0.077130788 0.077130788 0.077130788
0.077344741 0.077344741 0.077344741
0.077558695 0.077558695 0.077558695
0.077772648 0.077772648 0.077772648
0.077986602 0.077986602 0.077986602
0.078200555 0.078200555 0.078200555
0.078414509 0.078414509 0.078414509
0.078628462 0.078628462 0.078628462
0.078842416 0.078842416 0.078842416
0.079056369 0.079056369 0.079056369
0.079270323 0.079270323 0.079270323
0.079484276 0.079484276 0.079484276
0.07969823 0.07969823 0.07969823
0.079912183 0.079912183 0.079912183
0.080126137 0.080126137 0.080126137
0.08034009 0.08034009 0.08034009
0.080554044 0.080554044 0.080554044
0.080767997 0.080767997 0.080767997
0.080981951 0.080981951 0.080981951
0.081195904 0.081195904 0.081195904
0.081409858 0.081409858 0.081409858
0.081623811 0.081623811 0.081623811
0.081837765 0.081837765 0.081837765
0.082051718 0.082051718 0.082051718
0.082265672 0.082265672 0.082265672
0.082479625 0.082479625 0.082479625
0.082693579 0.082693579 0.082693579
0.082907533 0.082907533 0.082907533
0.083121486 0.083121486 0.083121486
0.08333544 0.08333544 0.08333544
0.083549393 0.083549393 0.083549393
0.083763347 0.083763347 0.083763347
0.0839773 0.0839773 0.0839773
0.084191254 0.084191254 0.084191254
0.084405207 0.084405207 0.084405207
0.084619161 0.084619161 0.084619161
0.084833114 0.084833114 0.084833114
0.085047068 0.085047068 0.085047068
0.085261021 0.085261021 0.085261021
0.085474975 0.085474975 0.085474975
0.085688928 0.085688928 0.085688928
0.085902882 0.085902882 0.085902882
0.086116835 0.086116835 0.086116835
0.086330789 0.086330789 0.086330789
0.086544742 0.086544742 0.086544742
0.086758696 0.086758696 0.086758696
0.086972649 0.086972649 0.086972649
0.087186603 0.087186603 0.087186603
0.087400556 0.087400556 0.087400556
0.08761451 0.08761451 0.08761451
0.087828463 0.087828463 0.087828463
0.088042417 0.088042417 0.088042417
0.08825637 0.08825637 0.08825637
0.088470324 0.088470324 0.088470324
0.088684277 0.088684277 0.088684277
0.088898231 0.088898231 0.088898231
0.089112184 0.089112184 0.089112184
0.089326138 0.089326138 0.089326138
0.089540091 0.089540091 0.089540091
0.089754045 0.089754045 0.089754045
0.089967999 0.089967999 0.089967999
0.090181952 0.090181952 0.090181952
0.090395906 0.090395906 0.090395906
0.090609859 0.090609859 0.090609859
0.090823813 0.090823813 0.090823813
0.091037766 0.091037766 0.091037766
0.09125172 0.09125172 0.09125172
0.091465673 0.091465673 0.091465673
0.091679627 0.091679627 0.091679627
0.09189358 0.09189358 0.09189358
0.092107534 0.092107534 0.092107534
0.092321487 0.092321487 0.092321487
0.092535441 0.092535441 0.092535441
0.092749394 0.092749394 0.092749394
0.092963348 0.092963348 0.092963348
0.093177301 0.093177301 0.093177301
0.093391255 0.093391255 0.093391255
0.093605208 0.093605208 0.093605208
0.093819162 0.093819162 0.093819162
0.094033115 0.094033115 0.094033115
0.094247069 0.094247069 0.094247069
0.094461022 0.094461022 0.094461022
0.094674976 0.094674976 0.094674976
0.094888929 0.094888929 0.094888929
0.095102883 0.095102883 0.095102883
0.095316836 0.095316836 0.095316836
0.09553079 0.09553079 0.09553079
0.095744743 0.095744743 0.095744743
0.095958697 0.095958697 0.095958697
0.09617265 0.09617265 0.09617265
0.096386604 0.096386604 0.096386604
0.096600557 0.096600557 0.096600557
0.096814511 0.096814511 0.096814511
0.097028465 0.097028465 0.097028465
0.097242418 0.097242418 0.097242418
0.097456372 0.097456372 0.097456372
0.097670325 0.097670325 0.097670325
0.097884279 0.097884279 0.097884279
0.098098232 0.098098232 0.098098232
0.098312186 0.098312186 0.098312186
0.098526139 0.098526139 0.098526139
0.098740093 0.098740093 0.098740093
0.098954046 0.098954046 0.098954046
0.099168 0.099168 0.099168
0.099381953 0.099381953 0.099381953
0.099595907 0.099595907 0.099595907
0.09980986 0.09980986 0.09980986
0.100023814 0.100023814 0.100023814
0.100237767 0.100237767 0.100237767
0.100451721 0.100451721 0.100451721
0.100665674 0.100665674 0.100665674
0.100879628 0.100879628 0.100879628
0.101093581 0.101093581 0.101093581
0.101307535 0.101307535 0.101307535
0.101521488 0.101521488 0.101521488
0.101735442 0.101735442 0.101735442
0.101949395 0.101949395 0.101949395
0.102163349 0.102163349 0.102163349
0.102377302 0.102377302 0.102377302
0.102591256 0.102591256 0.102591256
0.102805209 0.102805209 0.102805209
0.103019163 0.103019163 0.103019163
0.103233116 0.103233116 0.103233116
0.10344707 0.10344707 0.10344707
0.103661023 0.103661023 0.103661023
0.103874977 0.103874977 0.103874977
0.104088931 0.104088931 0.104088931
0.104302884 0.104302884 0.104302884
0.104516838 0.104516838 0.104516838
0.104730791 0.104730791 0.104730791
0.104944745 0.104944745 0.104944745
0.105158698 0.105158698 0.105158698
0.105372652 0.105372652 0.105372652
0.105586605 0.105586605 0.105586605
0.105800559 0.105800559 0.105800559
0.106014512 0.106014512 0.106014512
0.106228466 0.106228466 0.106228466
0.106442419 0.106442419 0.106442419
0.106656373 0.106656373 0.106656373
0.106870326 0.106870326 0.106870326
0.10708428 0.10708428 0.10708428
0.107298233 0.107298233 0.107298233
0.107512187 0.107512187 0.107512187
0.10772614 0.10772614 0.10772614
0.107940094 0.107940094 0.107940094
0.108154047 0.108154047 0.108154047
0.108368001 0.108368001 0.108368001
0.108581954 0.108581954 0.108581954
0.108795908 0.108795908 0.108795908
0.109009861 0.109009861 0.109009861
0.109223815 0.109223815 0.109223815
0.109437768 0.109437768 0.109437768
0.109651722 0.109651722 0.109651722
0.109865675 0.109865675 0.109865675
0.110079629 0.110079629 0.110079629
0.110293582 0.110293582 0.110293582
0.110507536 0.110507536 0.110507536
0.110721489 0.110721489 0.110721489
0.110935443 0.110935443 0.110935443
0.111149397 0.111149397 0.111149397
0.11136335 0.11136335 0.11136335
0.111577304 0.111577304 0.111577304
0.111791257 0.111791257 0.111791257
0.112005211 0.112005211 0.112005211
0.112219164 0.112219164 0.112219164
0.112433118 0.112433118 0.112433118
0.112647071 0.112647071 0.112647071
0.112861025 0.112861025 0.112861025
0.113074978 0.113074978 0.113074978
0.113288932 0.113288932 0.113288932
0.113502885 0.113502885 0.113502885
0.113716839 0.113716839 0.113716839
0.113930792 0.113930792 0.113930792
0.114144746 0.114144746 0.114144746
0.114358699 0.114358699 0.114358699
0.114572653 0.114572653 0.114572653
0.114786606 0.114786606 0.114786606
0.11500056 0.11500056 0.11500056
0.115214513 0.115214513 0.115214513
0.115428467 0.115428467 0.115428467
0.11564242 0.11564242 0.11564242
0.115856374 0.115856374 0.115856374
0.116070327 0.116070327 0.116070327
0.116284281 0.116284281 0.116284281
0.116498234 0.116498234 0.116498234
0.116712188 0.116712188 0.116712188
0.116926141 0.116926141 0.116926141
0.117140095 0.117140095 0.117140095
0.117354048 0.117354048 0.117354048
0.117568002 0.117568002 0.117568002
0.117781955 0.117781955 0.117781955
0.117995909 0.117995909 0.117995909
0.118209863 0.118209863 0.118209863
0.118423816 0.118423816 0.118423816
0.11863777 0.11863777 0.11863777
0.118851723 0.118851723 0.118851723
0.119065677 0.119065677 0.119065677
0.11927963 0.11927963 0.11927963
0.119493584 0.119493584 0.119493584
0.119707537 0.119707537 0.119707537
0.119921491 0.119921491 0.119921491
0.120135444 0.120135444 0.120135444
0.120349398 0.120349398 0.120349398
0.120563351 0.120563351 0.120563351
0.120777305 0.120777305 0.120777305
0.120991258 0.120991258 0.120991258
0.121205212 0.121205212 0.121205212
0.121419165 0.121419165 0.121419165
0.121633119 0.121633119 0.121633119
0.121847072 0.121847072 0.121847072
0.122061026 0.122061026 0.122061026
0.122274979 0.122274979 0.122274979
0.122488933 0.122488933 0.122488933
0.122702886 0.122702886 0.122702886
0.12291684 0.12291684 0.12291684
0.123130793 0.123130793 0.123130793
0.123344747 0.123344747 0.123344747
0.1235587 0.1235587 0.1235587
0.123772654 0.123772654 0.123772654
0.123986607 0.123986607 0.123986607
0.124200561 0.124200561 0.124200561
0.124414514 0.124414514 0.124414514
0.124628468 0.124628468 0.124628468
0.124842421 0.124842421 0.124842421
0.125056375 0.125056375 0.125056375
0.125270329 0.125270329 0.125270329
0.125484282 0.125484282 0.125484282
0.125698236 0.125698236 0.125698236
0.125912189 0.125912189 0.125912189
0.126126143 0.126126143 0.126126143
0.126340096 0.126340096 0.126340096
0.12655405 0.12655405 0.12655405
0.126768003 0.126768003 0.126768003
0.126981957 0.126981957 0.126981957
0.12719591 0.12719591 0.12719591
0.127409864 0.127409864 0.127409864
0.127623817 0.127623817 0.127623817
0.127837771 0.127837771 0.127837771
0.128051724 0.128051724 0.128051724
0.128265678 0.128265678 0.128265678
0.128479631 0.128479631 0.128479631
0.128693585 0.128693585 0.128693585
0.128907538 0.128907538 0.128907538
0.129121492 0.129121492 0.129121492
0.129335445 0.129335445 0.129335445
0.129549399 0.129549399 0.129549399
0.129763352 0.129763352 0.129763352
0.129977306 0.129977306 0.129977306
0.130191259 0.130191259 0.130191259
0.130405213 0.130405213 0.130405213
0.130619166 0.130619166 0.130619166
0.13083312 0.13083312 0.13083312
0.131047073 0.131047073 0.131047073
0.131261027 0.131261027 0.131261027
0.13147498 0.13147498 0.13147498
0.131688934 0.131688934 0.131688934
0.131902887 0.131902887 0.131902887
0.132116841 0.132116841 0.132116841
0.132330795 0.132330795 0.132330795
0.132544748 0.132544748 0.132544748
0.132758702 0.132758702 0.132758702
0.132972655 0.132972655 0.132972655
0.133186609 0.133186609 0.133186609
0.133400562 0.133400562 0.133400562
0.133614516 0.133614516 0.133614516
0.133828469 0.133828469 0.133828469
0.134042423 0.134042423 0.134042423
0.134256376 0.134256376 0.134256376
0.13447033 0.13447033 0.13447033
0.134684283 0.134684283 0.134684283
0.134898237 0.134898237 0.134898237
0.13511219 0.13511219 0.13511219
0.135326144 0.135326144 0.135326144
0.135540097 0.135540097 0.135540097
0.135754051 0.135754051 0.135754051
0.135968004 0.135968004 0.135968004
0.136181958 0.136181958 0.136181958
0.136395911 0.136395911 0.136395911
0.136610052 0.136610052 0.136610052
0.136824666 0.136824666 0.136824666
0.137039761 0.137039761 0.137039761
0.137255337 0.137255337 0.137255337
0.137471396 0.137471396 0.137471396
0.137687939 0.137687939 0.137687939
0.137904967 0.137904967 0.137904967
0.13812248 0.13812248 0.13812248
0.138340481 0.138340481 0.138340481
0.138558969 0.138558969 0.138558969
0.138777947 0.138777947 0.138777947
0.138997415 0.138997415 0.138997415
0.139217375 0.139217375 0.139217375
0.139437827 0.139437827 0.139437827
0.139658773 0.139658773 0.139658773
0.139880213 0.139880213 0.139880213
0.14010215 0.14010215 0.14010215
0.140324583 0.140324583 0.140324583
0.140547514 0.140547514 0.140547514
0.140770945 0.140770945 0.140770945
0.140994875 0.140994875 0.140994875
0.141219308 0.141219308 0.141219308
0.141444242 0.141444242 0.141444242
0.141669681 0.141669681 0.141669681
0.141895624 0.141895624 0.141895624
0.142122073 0.142122073 0.142122073
0.142349029 0.142349029 0.142349029
0.142576493 0.142576493 0.142576493
0.142804466 0.142804466 0.142804466
0.14303295 0.14303295 0.14303295
0.143261946 0.143261946 0.143261946
0.143491454 0.143491454 0.143491454
0.143721477 0.143721477 0.143721477
0.143952014 0.143952014 0.143952014
0.144183067 0.144183067 0.144183067
0.144414638 0.144414638 0.144414638
0.144646727 0.144646727 0.144646727
0.144879336 0.144879336 0.144879336
0.145112466 0.145112466 0.145112466
0.145346118 0.145346118 0.145346118
0.145580293 0.145580293 0.145580293
0.145814992 0.145814992 0.145814992
0.146050217 0.146050217 0.146050217
0.146285969 0.146285969 0.146285969
0.146522248 0.146522248 0.146522248
0.146759057 0.146759057 0.146759057
0.146996395 0.146996395 0.146996395
0.147234266 0.147234266 0.147234266
0.147472668 0.147472668 0.147472668
0.147711605 0.147711605 0.147711605
0.147951076 0.147951076 0.147951076
0.148191084 0.148191084 0.148191084
0.148431629 0.148431629 0.148431629
0.148672713 0.148672713 0.148672713
0.148914337 0.148914337 0.148914337
0.149156501 0.149156501 0.149156501
0.149399208 0.149399208 0.149399208
0.149642458 0.149642458 0.149642458
0.149885761 0.149885761 0.149885761
0.150129308 0.150129308 0.150129308
0.150372846 0.150372846 0.150372846
0.150616377 0.150616377 0.150616377
0.1508599 0.1508599 0.1508599
0.151103415 0.151103415 0.151103415
0.151346923 0.151346923 0.151346923
0.151590423 0.151590423 0.151590423
0.151833915 0.151833915 0.151833915
0.152077399 0.152077399 0.152077399
0.152320876 0.152320876 0.152320876
0.152564345 0.152564345 0.152564345
0.152807807 0.152807807 0.152807807
0.153051261 0.153051261 0.153051261
0.153294707 0.153294707 0.153294707
0.153538146 0.153538146 0.153538146
0.153781578 0.153781578 0.153781578
0.154025001 0.154025001 0.154025001
0.154268418 0.154268418 0.154268418
0.154511826 0.154511826 0.154511826
0.154755228 0.154755228 0.154755228
0.154998621 0.154998621 0.154998621
0.155242008 0.155242008 0.155242008
0.155485387 0.155485387 0.155485387
0.155728758 0.155728758 0.155728758
