DJI/DJI_X5_DLOG2sRGB_Improv.cube
# DaVinci Resolve Cube (3D LUT).
#
# Converts DJI X5 DLOG data to sRGB with some color tuning.
# Gamma as defined by ITU-Rec.1886.
# 
LUT_3D_SIZE 33
LUT_3D_INPUT_RANGE 0.0000000000 1.0000000000
0 0 0
0.00993362 0 0
0.0215915 0 0
0.04654 0 0
0.0712902 0 0
0.0942092 0 0
0.120104 0 0
0.151659 0 0
0.186297 0 0
0.223011 0 0
0.261738 0 0
0.302953 0 0
0.348241 0 0
0.396841 0 0
0.449042 0 0
0.505425 0 0
0.56527 0 0
0.628138 0 0
0.694102 0 0
0.763088 0 0
0.835309 0 0
0.91075 0 0
0.981414 0 0
1 0 0
1 0 0.000106813
1 0 0.00224308
1 0 0.00903334
1 0 0.0160983
1 0 0.0238193
1 0 0.0322728
1 0 0.0417029
1 0 0.052491
1 0 0.0647746
0 0.000549325 0
0.00453193 0.000259403 0
0.0106813 0 0
0.0347295 0 0
0.0597543 0 0
0.0844892 0 0
0.112627 0 0
0.146471 0 0
0.183093 0 0
0.220493 0 0
0.259174 0 0
0.300435 0 0
0.345541 0 0
0.394446 0 0
0.446708 0 0
0.502861 0 0
0.562951 0 0
0.626261 0 0
0.69308 0 0
0.762875 0 0
0.835538 0 0
0.912062 0 0
0.982467 0 0
1 0 0
1 0 0.000137331
1 0 0.00326543
1 0 0.0103914
1 0 0.0180362
1 0 0.0264134
1 0 0.0357366
1 0 0.0460517
1 0 0.0577859
1 0 0.0658274
0 0.00216678 0
0 0.0010071 0
0.000183108 0.000106813 0
0.0239261 0 0
0.0490578 0 0
0.0751354 0 0
0.104982 0 0
0.139925 0 0
0.177218 0 0
0.2159 0 0
0.256596 0 0
0.299489 0 0
0.344823 0 0
0.393851 0 0
0.446708 0 0
0.503532 0 0
0.564202 0 0
0.628138 0 0
0.696361 0 0
0.767636 0 0
0.842634 0 0
0.921767 0 0
0.986206 0 0
1 0 0
1 0 0.000228885
1 0 0.00564584
1 0 0.0134432
1 0 0.0217594
1 0 0.030869
1 0 0.0408942
1 0 0.0519112
1 0 0.0644846
1 0 0.0658274
0 0.0173953 0
0 0.0154269 0
0 0.0136416 0
0.0180819 0.0124056 0
0.0386511 0.0108797 0
0.0661936 0.0090486 0
0.0977035 0.00640879 0
0.134066 0.00294499 0
0.172244 0.000427253 0
0.211475 0 0
0.252888 0 0
0.296712 0 0
0.344076 0 0
0.394949 0 0
0.449042 0 0
0.507134 0 0
0.569558 0 0
0.635416 0 0
0.704967 0 0
0.778454 0 0
0.856947 0 0
0.941192 0 0
0.993973 0 0
1 0 0
1 0 0.000900282
1 0 0.00889601
1 0 0.0173037
1 0 0.0262608
1 0 0.0361791
1 0 0.047013
1 0 0.0590677
1 0 0.0658274
1 0 0.0658274
0 0.0327611 0
0 0.0302739 0
0 0.0278019 0
0.0123598 0.0257115 0
0.027924 0.0232547 0
0.0563211 0.0200198 0
0.0899672 0.0156863 0
0.128054 0.0096437 0
0.16759 0.00366217 0
0.207889 0.00030518 0
0.24979 0 0
0.294453 0 0
0.34287 0 0
0.395438 0 0
0.451408 0 0
0.512291 0 0
0.576913 0 0
0.646433 0 0
0.719982 0 0
0.79707 0 0
0.879438 0 0
0.966903 0 0
1 0 0
1 0 0.000122072
1 0 0.00421149
1 0 0.0127718
1 0 0.0218814
1 0 0.0315709
1 0 0.0420539
1 0 0.0530709
1 0 0.0646982
1 0 0.0641184
1 0 0.0634928
0 0.0499886 0
0 0.048188 0
0 0.0459449 0
0.00598154 0.0440681 0
0.0154116 0.0421149 0
0.0426947 0.0390478 0
0.0793927 0.0340124 0
0.120256 0.0251926 0
0.161868 0.0139315 0
0.203693 0.00357061 0
0.246967 0 0
0.292988 0 0
0.342718 0 0
0.396933 0 0
0.455894 0 0
0.519448 0 0
0.586984 0 0
0.658534 0 0
0.733944 0 0
0.814878 0 0
0.90016 0 0
0.980758 0 0
1 0 0
1 0 6.10361e-05
1 0 0.00344854
1 0 0.0119631
1 0 0.02121
1 0 0.0311131
1 0 0.0419318
1 0 0.0539254
1 0 0.058732
1 0 0.0580606
1 0 0.0574655
0 0.069337 0
0 0.0688334 0
0 0.0671855 0
0.00102235 0.0657816 0
0.0040589 0.0644083 0
0.0242161 0.0623789 0
0.0632486 0.058732 0
0.108843 0.0515908 0
0.153155 0.0412604 0
0.19707 0.0288701 0
0.24271 0.0166934 0
0.290944 0.00509651 0
0.343038 0 0
0.398764 0 0
0.459312 0 0
0.524117 0 0
0.594385 0 0
0.66775 0 0
0.745739 0 0
0.827955 0 0
0.915694 0 0
0.986587 0 0
1 0 0
1 0 3.0518e-05
1 0 0.00173953
1 0 0.00903334
1 0 0.0187839
1 0 0.0290684
1 0 0.0403296
1 0 0.0527962
1 0 0.0520638
1 0 0.0513619
1 0 0.0506142
0 0.0906844 0
0 0.0911421 0
0 0.0910658 0
0 0.0908522 0
0.000122072 0.0903639 0
0.00514229 0.0894179 0
0.033875 0.0874952 0
0.0884871 0.0828717 0
0.137911 0.0758221 0
0.18555 0.0667277 0
0.233371 0.0545357 0
0.283543 0.0387579 0
0.337179 0.0203861 0
0.394339 0.0034638 0
0.455833 0 0
0.521645 0 0
0.592767 0 0
0.667582 0 0
0.746746 0 0
0.830106 0 0
0.919097 0 0
0.988342 0 0
1 0 0
1 0 0
1 0 0
1 0 0.00378424
1 0 0.0128023
1 0 0.023331
1 0 0.0348974
1 0 0.0445411
1 0 0.0436408
1 0 0.0427405
1 0 0.0418097
0 0.114382 0
0 0.11545 0
0 0.117113 0
0 0.117876 0
0 0.119097 0
0 0.119768 0
0.00469978 0.11899 0
0.0564431 0.115572 0
0.116289 0.110338 0
0.168505 0.10396 0
0.219623 0.0955978 0
0.271794 0.0842145 0
0.326574 0.0676127 0
0.384955 0.0448463 0
0.447547 0.017792 0
0.514061 0.000320439 0
0.58555 0 0
0.660777 0 0
0.741176 0 0
0.82536 0 0
0.915419 0 0
0.987655 0 0
1 0 0
1 0 0
1 0 0
1 0 0.000640879
1 0 0.00509651
1 0 0.0139925
1 0 0.0255894
1 0 0.0337987
1 0 0.032639
1 0 0.031342
1 0 0.0299382
0 0.140871 0
0 0.143496 0
0 0.146426 0
0 0.148882 0
0 0.150591 0
0 0.151812 0
0 0.151766 0
0.0194858 0.149508 0
0.0850385 0.145281 0
0.145907 0.13994 0
0.201373 0.133135 0
0.256245 0.124346 0
0.313252 0.112779 0
0.373175 0.0973068 0
0.436896 0.0752422 0
0.504326 0.0416266 0
0.576043 0.00489815 0
0.651377 0 0
0.73196 0 0
0.817502 0 0
0.908736 0 0
0.985519 0 0
1 0 0
1 0 0
1 0 0
1 0 0
1 0 0.000259403
1 0 0.00393683
1 0 0.0129091
1 0 0.0197452
1 0 0.0181125
1 0 0.0164492
1 0 0.0147707
0 0.171603 0
0 0.174868 0
0 0.17847 0
0 0.181765 0
0 0.184054 0
0 0.185702 0
0 0.186282 0
0 0.184817 0
0.0386664 0.181201 0
0.114244 0.176593 0
0.177371 0.170733 0
0.236683 0.163607 0
0.29659 0.154345 0
0.358694 0.142641 0
0.423682 0.126802 0
0.492119 0.104784 0
0.56437 0.0704967 0
0.640223 0.014313 0
0.720638 0.00135805 0
0.806073 0 0
0.898238 0 0
0.98146 0 0
1 0 0
1 0 0
1 0 0
1 0 0
1 0 0
1 0 0
1 0 0.00218204
1 0 0.00364691
1 0 0.00195315
1 0 0.000427253
1 0 0
0 0.205249 0
0 0.208896 0
0 0.212757 0
0 0.216907 0
0 0.219638 0
0 0.221942 0
0 0.223209 0
0 0.221973 0
0.00294499 0.218997 0
0.0652171 0.214969 0
0.144381 0.20972 0
0.211368 0.203784 0
0.275761 0.196231 0
0.340841 0.186572 0
0.407736 0.174273 0
0.477806 0.158083 0
0.550851 0.135973 0
0.627497 0.103807 0
0.707591 0.0504616 0
0.79234 0.00610361 0
0.883284 0 0
0.974502 0 0
1 0 0
1 0 0
1 0 0
1 0 0
1 0 0
1 0 0
1 0 0
1 0 0
1 0 0
1 0 0
1 0 0
0 0.241779 0
0 0.245823 0
0 0.250217 0
0 0.254734 0
0 0.258427 0
0 0.261372 0
0 0.263127 0
0 0.262257 0
0 0.259861 0
0 0.256321 0
0.0918593 0.251881 0
0.176135 0.246281 0
0.248295 0.239628 0
0.317861 0.231403 0
0.388083 0.221378 0
0.460334 0.208728 0
0.535378 0.193057 0
0.61265 0.171252 0
0.692653 0.140444 0
0.776486 0.0888991 0
0.86569 0.0100404 0
0.962112 0 0
0.999588 0 0
1 0 0
1 0 0
1 0 0
1 0 0
1 0 0
1 0 0
1 0 0
1 0 0
1 0 0
1 0 0
0 0.281361 0
0 0.285817 0
0 0.290745 0
0 0.296056 0
0 0.300755 0
0 0.304326 0
0 0.306584 0
0 0.306416 0
0 0.304463 0
0 0.301503 0
0.0189059 0.29723 0
0.119432 0.291936 0
0.210163 0.285679 0
0.287739 0.278538 0
0.362966 0.270008 0
0.439048 0.259648 0
0.516182 0.246876 0
0.595254 0.230823 0
0.675883 0.209842 0
0.75964 0.179812 0
0.847715 0.134325 0
0.942306 0.0534981 0
0.99617 0.00552377 0
1 0 0
1 0 0
1 0 0
1 0 0
1 0 0
1 0 0
1 0 0
1 0 0
1 0 0
1 0 0
0 0.324742 0
0 0.329915 0
0 0.335958 0
0 0.341863 0
0 0.34725 0
0 0.351431 0
0 0.354131 0
0 0.354589 0
0 0.353262 0
0 0.350805 0
0 0.346746 0
0.0348363 0.341268 0
0.154482 0.335256 0
0.248157 0.328847 0
0.331914 0.321233 0
0.412634 0.312123 0
0.49337 0.301549 0
0.57467 0.288655 0
0.657023 0.273075 0
0.741939 0.252461 0
0.829328 0.224552 0
0.921569 0.180255 0
0.989944 0.106859 0
1 0.00141909 0
1 0 0
1 0 0
1 0 0
1 0 0
1 0 0
1 0 0
1 0 0
1 0 0
1 0 0
0 0.3729 0
0 0.379156 0
0 0.385275 0
0 0.391836 0
0 0.398169 0
0 0.403204 0
0 0.407034 0
0 0.408133 0
0 0.407004 0
0 0.404974 0
0 0.401419 0
0 0.39649 0
0.053727 0.389944 0
0.187579 0.383108 0
0.288426 0.375875 0
0.378714 0.367483 0
0.465202 0.35816 0
0.550484 0.347219 0
0.63595 0.335073 0
0.721492 0.319661 0
0.809354 0.299901 0
0.90071 0.272786 0
0.980682 0.233722 0
1 0.172396 0
1 0.0546578 0
1 0.0009308 0
1 0 0
1 0 0
1 0 0
1 0 0
1 0 0
1 0 0
1 0 0
0 0.426246 0
0 0.432776 0
0 0.440009 0
0 0.447425 0
0 0.454841 0
0 0.461097 0
0 0.465278 0
0 0.466682 0
0 0.465873 0
0 0.464149 0
0 0.461112 0
0 0.457115 0
0.00106813 0.450462 0
0.0767529 0.441962 0
0.226429 0.434256 0
0.333852 0.426169 0
0.429969 0.417639 0
0.521614 0.408255 0
0.6103 0.397635 0
0.698421 0.385626 0
0.787137 0.370459 0
0.878477 0.351293 0
0.96846 0.325765 0
1 0.291417 0
1 0.244465 0
1 0.165225 0
1 0.0315404 0
1 0.00852979 0
1 0.000213626 0
1 0 0
1 0 0
1 0 0
1 0 0
0 0.48481 0
0 0.492363 0
0 0.500435 0
0 0.508843 0
0 0.51725 0
0 0.524254 0
0 0.529397 0
0 0.531243 0
0 0.531243 0
0 0.529778 0
0 0.527398 0
0 0.523201 0
0 0.517067 0
0.00297551 0.50869 0
0.118883 0.498314 0
0.269749 0.489174 0
0.383429 0.480842 0
0.485084 0.471733 0
0.579904 0.462333 0
0.671916 0.451987 0
0.762982 0.439933 0
0.855039 0.426001 0
0.949493 0.407462 0
0.997787 0.383795 0
1 0.354635 0
1 0.318776 0
1 0.270115 0
1 0.181567 0
1 0.0881666 0
1 0.0200198 0
1 0 0
1 0.0122377 0
1 0.0290532 0
0 0.549905 0
0 0.558236 0
0 0.567117 0
0 0.57734 0
0 0.586847 0
0 0.594965 0
0 0.600488 0
0 0.60267 0
0 0.60322 0
0 0.601785 0
0 0.599222 0
0 0.595285 0
0 0.589349 0
0 0.581537 0
0.0126802 0.570779 0
0.16112 0.557549 0
0.317525 0.547692 0
0.437644 0.538247 0
0.54287 0.52903 0
0.641154 0.519921 0
0.735958 0.510048 0
0.829267 0.498787 0
0.923949 0.484428 0
0.98967 0.466804 0
1 0.446113 0
1 0.423163 0
1 0.396094 0
1 0.361898 0
1 0.312505 0
1 0.223819 0
1 0.197131 0
1 0.219821 0
1 0.24181 0
0 0.621515 0
0 0.632029 0
0 0.642557 0
0 0.653284 0
0 0.6636 0
0 0.672541 0
0 0.679179 0
0 0.682445 0
0 0.682643 0
0 0.681529 0
0 0.678462 0
0 0.67425 0
0 0.668208 0
0 0.660975 0
0 0.650599 0
0.00202945 0.635615 0
0.208209 0.619593 0
0.373678 0.608133 0
0.496406 0.598566 0
0.605234 0.589776 0
0.70515 0.580438 0
0.801404 0.570703 0
0.897612 0.559213 0
0.977691 0.545571 0
1 0.530404 0
1 0.513741 0
1 0.494865 0
1 0.472679 0
1 0.444556 0
1 0.407889 0
1 0.391653 0
1 0.403388 0
1 0.41471 0
0 0.702602 0
0 0.713298 0
0 0.724468 0
0 0.736141 0
0 0.747921 0
0 0.758251 0
0 0.766491 0
0 0.769772 0
0 0.770397 0
0 0.769207 0
0 0.766308 0
0 0.762417 0
0 0.755108 0
0 0.746777 0
0 0.736522 0
0 0.723568 0
0.0428016 0.703273 0
0.267521 0.684215 0
0.430823 0.672084 0
0.558633 0.661845 0
0.668025 0.652628 0
0.770428 0.643427 0
0.868925 0.633768 0
0.96228 0.622629 0
1 0.610315 0
1 0.597559 0
1 0.583841 0
1 0.568475 0
1 0.550195 0
1 0.528008 0
1 0.512917 0
1 0.520974 0
1 0.52874 0
0 0.789685 0
0 0.801724 0
0 0.814755 0
0 0.828046 0
0 0.841337 0
0 0.852796 0
0 0.860761 0
0 0.864805 0
0 0.865583 0
0 0.864378 0
0 0.862409 0
0 0.857832 0
0 0.850767 0
0 0.840543 0
0 0.828763 0
0 0.815595 0
0 0.798795 0
0.0277104 0.771267 0
0.330541 0.749737 0
0.496574 0.736736 0
0.622843 0.726421 0
0.734203 0.717342 0
0.838483 0.708843 0
0.938949 0.698711 0
0.994904 0.688396 0
1 0.678141 0
1 0.667842 0
1 0.656825 0
1 0.643503 0
1 0.627298 0
1 0.613352 0
1 0.620447 0
1 0.627237 0
0 0.886473 0
0 0.899733 0
0 0.913863 0
0 0.928847 0
0 0.942092 0
0 0.95201 0
0 0.959823 0
0 0.963623 0
0 0.964752 0
0 0.965438 0
0 0.963638 0
0 0.960479 0
0 0.95462 0
0 0.945037 0
0 0.932921 0
0 0.917311 0
0 0.899504 0
0 0.876799 0
0.1187 0.840406 0
0.402182 0.81651 0
0.563287 0.803754 0
0.690806 0.7935 0
0.80296 0.784634 0
0.908309 0.775326 0
0.982132 0.766079 0
1 0.757534 0
1 0.749722 0
1 0.740887 0
1 0.730709 0
1 0.718486 0
1 0.705226 0
1 0.711589 0
1 0.718242 0
0 0.980529 0
0 0.992111 0
0 1 0
0 1 0
0 1 0
0 1 0
0 1 0
0 1 0
0 1 0
0 1 0
0 1 0
0 1 0
0 0.999527 0
0 0.997742 0
0 0.994675 0
0 0.989654 0
0 0.98175 0
0 0.971283 0
0 0.949584 0
0.17879 0.908217 0
0.472572 0.885725 0
0.633066 0.872404 0
0.760113 0.862486 0
0.872694 0.853437 0
0.965637 0.844892 0
1 0.837919 0
1 0.830564 0
1 0.823255 0
1 0.815167 0
1 0.805432 0
1 0.794339 0
1 0.79913 0
1 0.804105 0
0 1 0
0 1 0
0 1 0
0 1 0
0 1 0
0 1 0
0 1 0
0 1 0
0 1 0
0 1 0
0 1 0
0 1 0
0 1 0
0 1 0
0 1 0
0 1 0
0 1 0
0 1 0
0 0.998932 0
0.010132 0.983627 0
0.286625 0.969497 0
0.55642 0.954452 0
0.709102 0.942153 0
0.834012 0.932845 0
0.94374 0.924697 0
0.994385 0.917662 0
1 0.911055 0
1 0.904524 0
1 0.897276 0
1 0.889555 0
1 0.879423 0
1 0.88275 0
1 0.886061 0
0 1 0
0 1 0
0 1 0
0 1 0
0 1 0
0 1 0
0 1 0
0 1 0
0 1 0
0 1 0
0 1 0
0 1 0
0 1 0
0 1 0
0 1 0
0 1 0
0 1 0
0 1 0
0 1 0
0.000976577 1 0
0.0897688 0.999283 0
0.446555 0.995193 0
0.648005 0.991135 0
0.792126 0.98732 0
0.912825 0.983734 0
0.982879 0.981155 0
1 0.980087 0
1 0.979614 0
1 0.976822 0
1 0.968811 0
1 0.958999 0
1 0.960418 0
1 0.962936 0
0 1 0
0 1 0
0 1 0
0 1 0
0 1 0
0 1 0
0 1 0
0 1 0
0 1 0
0 1 0
0 1 0
0 1 0
0 1 0
0 1 0
0 1 0
0 1 0
0 1 0
0 1 0
0 1 0
0 1 0
0.00822461 1 0
0.209216 1 0
0.563455 1 0
0.741573 1 0
0.876768 1 0
0.975692 1 0
1 1 0
1 0.999771 0
1 0.998291 0
1 0.995575 0
1 0.992996 0
1 0.993271 0
1 0.993866 0
0 1 0
0 1 0
0 1 0
0 1 0
0 1 0
0 1 0
0 1 0
0 1 0
0 1 0
