DJI/DJI_X7_DLOG2Rec709.cube
# DaVinci Resolve Cube (3D LUT).
#
#DJI Color Space to Rec709.
#Not-Clipped.
#
LUT_3D_SIZE 5
0.0032484508 0.0032453058 0.0032557239
0.2270686041 0.0000000000 0.0022253292
0.6766461579 0.0000000000 0.0000000000
0.9710116743 0.0000000000 0.4190461040
1.0000000000 0.7068899779 0.9077411032
0.0000000000 0.1954182808 0.0000000000
0.1720944328 0.1882266153 0.0000000000
0.6700320653 0.1261632946 0.0000000000
0.9708374614 0.1655345058 0.4101321014
1.0000000000 0.7214482103 0.9074003131
0.0000000000 0.6401690405 0.0000000000
0.0000000000 0.6390848070 0.0000000000
0.6082945289 0.6305516990 0.0000000000
0.9694501284 0.6253995013 0.3242265702
1.0000000000 0.8042002292 0.9047185801
0.0000000000 0.9619511032 0.0000000000
0.0000000000 0.9619239125 0.0000000000
0.0000000000 0.9617015733 0.0000000000
0.9524850211 0.9595782114 0.0000000000
1.0000000000 0.9659113382 0.8756763100
0.0000000000 1.0000000000 0.0000000000
0.0000000000 1.0000000000 0.0000000000
0.0000000000 1.0000000000 0.0000000000
0.0000000000 1.0000000000 0.0000000000
1.0000000000 1.0000000000 0.0000000000
0.0000000000 0.0000000000 0.1786251511
0.2154717808 0.0000000000 0.1775992475
0.6752370261 0.0000000000 0.1702867080
0.9709731024 0.0000000000 0.4721699891
1.0000000000 0.7041517017 0.9101437156
0.0000000000 0.1675121326 0.1606945118
0.1596355259 0.1596439344 0.1596160787
0.6685680143 0.0886446410 0.1517696543
0.9707978720 0.1348168717 0.4653050359
1.0000000000 0.7188999192 0.9098087388
0.0000000000 0.6361023703 0.0000000000
0.0000000000 0.6350050076 0.0000000000
0.6062334163 0.6262941577 0.0000000000
0.9694095245 0.6210695713 0.4028344864
1.0000000000 0.8026961262 0.9071837623
0.0000000000 0.9618476049 0.0000000000
0.0000000000 0.9618192779 0.0000000000
0.0000000000 0.9615971670 0.0000000000
0.9524078428 0.9594648701 0.0000000000
1.0000000000 0.9658136846 0.8791096884
0.0000000000 1.0000000000 0.0000000000
0.0000000000 1.0000000000 0.0000000000
0.0000000000 1.0000000000 0.0000000000
0.0000000000 1.0000000000 0.0000000000
1.0000000000 1.0000000000 0.0000000000
0.0000000000 0.0000000000 0.6174239372
0.1205056588 0.0000000000 0.6172614606
0.6639010790 0.0000000000 0.6161539951
0.9706786684 0.0000000000 0.6775299941
1.0000000000 0.6815403654 0.9237767099
0.0000000000 0.0000000000 0.6146182779
0.0432464405 0.0000000000 0.6144535421
0.6566903521 0.0000000000 0.6133097663
0.9705016825 0.0000000000 0.6751960949
1.0000000000 0.6980189167 0.9235528717
0.0000000000 0.6014827934 0.5912260032
0.0000000000 0.6001583997 0.5910364518
0.5895918546 0.5896091981 0.5895517433
0.9691077237 0.5837127272 0.6559468358
1.0000000000 0.7906597790 0.9217866069
0.0000000000 0.9610172804 0.2847503839
0.0000000000 0.9609898929 0.2836853732
0.0000000000 0.9607617340 0.2750261079
0.9518055478 0.9585115198 0.1822722484
1.0000000000 0.9650706516 0.9008417564
0.0000000000 1.0000000000 0.0000000000
0.0000000000 1.0000000000 0.0000000000
0.0000000000 1.0000000000 0.0000000000
0.0000000000 1.0000000000 0.0000000000
1.0000000000 1.0000000000 0.0000000000
0.3319499319 0.0000000000 0.9553691246
0.4237096415 0.0000000000 0.9553630131
0.6936058390 0.0000000000 0.9553157838
0.9678171435 0.0000000000 0.9567421940
1.0000000000 0.9148982443 0.9853810708
0.2943108395 0.0000000000 0.9552641448
0.3997446184 0.0000000000 0.9552580326
0.6878473149 0.0000000000 0.9552107975
0.9676271479 0.0000000000 0.9566170658
1.0000000000 0.9164904102 0.9853514148
0.0000000000 0.3733421518 0.9544647815
0.0434792057 0.3695288363 0.9544586908
0.6358707095 0.3377629618 0.9544114315
0.9661506874 0.1442652670 0.9556424913
1.0000000000 0.9279544312 0.9851042881
0.0000000000 0.9499363105 0.9467811271
0.0000000000 0.9498884605 0.9467705617
0.0000000000 0.9495160786 0.9466889287
0.9459063976 0.9459120584 0.9458933062
1.0000000000 0.9750666504 0.9822071897
0.0000000000 1.0000000000 0.8604659946
0.0000000000 1.0000000000 0.8604227629
0.0000000000 1.0000000000 0.8600886004
0.0000000000 1.0000000000 0.8569118471
1.0000000000 1.0000000000 0.8208893297
0.9339808094 0.0000000000 1.0000000000
0.9356937112 0.0000000000 1.0000000000
0.9456340056 0.0000000000 1.0000000000
0.9833683232 0.0000000000 1.0000000000
1.0000000000 0.0000000000 1.0000000000
0.9334568017 0.0000000000 1.0000000000
0.9351767195 0.0000000000 1.0000000000
0.9452964405 0.0000000000 1.0000000000
0.9833202063 0.0000000000 1.0000000000
1.0000000000 0.0000000000 1.0000000000
0.9292919698 0.0000000000 1.0000000000
0.9310940673 0.0000000000 1.0000000000
0.9426130641 0.0000000000 1.0000000000
0.9827361773 0.0000000000 1.0000000000
1.0000000000 0.0000000000 1.0000000000
0.8641209523 0.9393724606 1.0000000000
0.8692119078 0.9393241446 1.0000000000
0.8982086876 0.9389460936 1.0000000000
0.9765153238 0.9342326305 1.0000000000
1.0000000000 0.9284563714 1.0000000000
0.0000000000 1.0000000000 1.0000000000
0.0000000000 1.0000000000 1.0000000000
0.0000000000 1.0000000000 1.0000000000
0.0000000000 1.0000000000 1.0000000000
0.9999992879 1.0000000000 0.9999957744
