DJI/DJI_Phantom3_DLOG2sRGB_Improv.cube
# DaVinci Resolve Cube (3D LUT).
#
# Converts DJI Phantom3 DLOG data to sRGB with some color tuning.
# Gamma as defined by ITU-Rec.1886.
# 
LUT_3D_SIZE 33
LUT_3D_INPUT_RANGE 0.0000000000 1.0000000000
0 0 0
0.0352941 0 0
0.0661784 0 0
0.104402 0 0
0.138979 0 0
0.173709 0 0
0.206073 0 0
0.238849 0 0
0.271824 0 0
0.305577 0 0
0.339467 0 0
0.375082 0 0
0.412055 0 0
0.451423 0 0
0.492775 0 0
0.533867 0 0
0.575265 0 0
0.622446 0 0
0.67013 0 0
0.718425 0 0
0.769421 0 0
0.820417 0 0
0.876219 0 0
0.938994 0.00440986 0.00440986
1 0.00881972 0.00881972
1 0.0132296 0.0132296
1 0.0176547 0.0176547
1 0.0220645 0.0220645
1 0.0264744 0.0264744
1 0.0308843 0.0308843
1 0.0352941 0.0352941
1 0.039704 0.039704
1 0.0441291 0.0441291
0 0.0308843 0
0.0308843 0.0308843 0
0.0661784 0.0308843 0
0.1028 0.0308843 0
0.13579 0.0308843 0
0.171023 0.027512 0
0.206073 0.0264744 0
0.238849 0.0264744 0
0.271824 0.0264744 0
0.304891 0.0264744 0
0.338689 0.0220645 0
0.37409 0.0220645 0
0.410803 0.0220645 0
0.450843 0.0220645 0
0.492287 0.0220645 0
0.533242 0.0220645 0
0.574639 0.0220645 0
0.622019 0.0220645 0
0.669596 0.0264744 0
0.718486 0.0264744 0
0.768933 0.0264744 0
0.820127 0.0308843 0
0.875883 0.0308843 0
0.938491 0.0352941 0.00440986
1 0.039704 0.00881972
1 0.0441291 0.0132296
1 0.0485389 0.0176547
1 0.0529488 0.0220645
1 0.0573587 0.0264744
1 0.0617685 0.0308843
1 0.0661784 0.0352941
1 0.0705882 0.039704
1 0.0764324 0.0441291
0 0.0617685 0
0.0308843 0.0617685 0
0.0617685 0.0617685 0
0.100526 0.0617685 0
0.13579 0.0617685 0
0.171023 0.0588235 0
0.203723 0.0573587 0
0.236774 0.0573587 0
0.269917 0.0573587 0
0.303243 0.0573587 0
0.337072 0.0573587 0
0.372763 0.0565499 0
0.410163 0.0553902 0
0.448768 0.0538643 0
0.490471 0.0538491 0
0.53167 0.0552377 0
0.573251 0.0573587 0
0.619989 0.0573587 0
0.667918 0.0573587 0
0.71696 0.0573587 0
0.766629 0.0596475 0
0.817914 0.0617685 0
0.873671 0.0661784 0
0.935775 0.0690623 0.00401312
1 0.0705882 0.00881972
1 0.0761883 0.0111543
1 0.084062 0.0171969
1 0.0883497 0.0220645
1 0.0925154 0.0264744
1 0.100526 0.0308843
1 0.104402 0.0352941
1 0.109133 0.039704
1 0.11548 0.0441291
0 0.100526 0
0.0264744 0.100526 0
0.0603494 0.0982223 0
0.0965744 0.0965744 0
0.132555 0.0965744 0
0.168292 0.0965744 0
0.201358 0.0965744 0
0.234852 0.0926375 0
0.268132 0.0925154 0
0.301564 0.0925154 0
0.336461 0.0925154 0
0.370977 0.0925154 0
0.407706 0.0924697 0
0.447349 0.0912947 0
0.488167 0.0914321 0
0.530556 0.0925154 0
0.57171 0.0925154 0
0.618585 0.0925154 0
0.665537 0.0925154 0
0.714382 0.0965744 0
0.764035 0.0965744 0
0.815351 0.100526 0
0.870939 0.102464 0
0.929458 0.10602 0
1 0.111864 0.00440986
1 0.11548 0.00881972
1 0.119036 0.0132296
1 0.122515 0.0176547
1 0.129274 0.0220645
1 0.132555 0.0271
1 0.138979 0.0343023
1 0.142107 0.0364538
1 0.148211 0.0424659
0 0.132555 0
0.0261692 0.132555 0
0.0573587 0.132555 0
0.0965744 0.132113 0
0.129274 0.129274 0
0.165545 0.129274 0
0.200092 0.129274 0
0.232609 0.129274 0
0.26627 0.127642 0
0.29926 0.125917 0
0.333974 0.125917 0
0.36875 0.125917 0
0.405188 0.125917 0
0.44416 0.125917 0
0.485298 0.125917 0
0.528267 0.125917 0
0.569299 0.125917 0
0.615137 0.126619 0
0.662226 0.129274 0
0.71133 0.129274 0
0.760525 0.130343 0
0.81207 0.132555 0
0.865324 0.13579 0
0.919448 0.138979 0
1 0.145052 0.00440986
1 0.148211 0.00881972
1 0.152972 0.0132296
1 0.157061 0.0176547
1 0.162753 0.0220645
1 0.166384 0.0264744
1 0.171023 0.0308843
1 0.176364 0.0352941
1 0.178988 0.039704
0 0.165545 0
0.0220645 0.165545 0
0.0552071 0.165545 0
0.0925154 0.165545 0
0.129274 0.164874 0
0.162753 0.162753 0
0.196811 0.162753 0
0.230488 0.162753 0
0.264393 0.162478 0
0.297353 0.15993 0
0.331899 0.15993 0
0.366842 0.15993 0
0.40354 0.15993 0
0.441993 0.15993 0
0.483467 0.15993 0
0.525322 0.15993 0
0.566537 0.15993 0
0.611688 0.16112 0
0.658244 0.162753 0
0.707424 0.162753 0
0.756848 0.165545 0
0.807538 0.167269 0
0.857923 0.169894 0
0.910964 0.173709 0
0.996811 0.176364 0
1 0.181582 0.00440986
1 0.185245 0.00881972
1 0.189197 0.0132296
1 0.194141 0.0176547
1 0.198978 0.0220645
1 0.203723 0.0264744
1 0.208392 0.0332799
1 0.21117 0.0352941
0 0.198337 0
0.0217136 0.198718 0
0.0529488 0.197513 0
0.0883497 0.196567 0
0.125917 0.196567 0
0.160922 0.196567 0
0.196384 0.196384 0
0.228367 0.19443 0
0.260838 0.194141 0
0.29482 0.194141 0
0.328832 0.19266 0
0.36405 0.191684 0
0.401022 0.191684 0
0.439628 0.191684 0
0.480095 0.191684 0
0.521202 0.191684 0
0.562707 0.193164 0
0.607904 0.194141 0
0.65507 0.194598 0
0.703349 0.196567 0
0.751659 0.196567 0
0.802457 0.198978 0
0.851194 0.201358 0
0.904585 0.206073 0
0.986419 0.208515 0
1 0.212955 0.00407416
1 0.217456 0.00881972
1 0.221866 0.0132296
1 0.225696 0.0176547
1 0.230488 0.0220645
1 0.234699 0.0264744
1 0.238849 0.0308843
1 0.242924 0.0352941
0 0.230488 0
0.0176547 0.230442 0
0.0485389 0.22948 0
0.0876631 0.228367 0
0.122515 0.228367 0
0.15993 0.228367 0
0.19379 0.227115 0
0.226215 0.226215 0
0.258701 0.226215 0
0.293111 0.225116 0
0.326833 0.224048 0
0.361425 0.224048 0
0.398291 0.224048 0
0.436881 0.224048 0
0.477073 0.224048 0
0.517861 0.224048 0
0.559731 0.224048 0
0.604318 0.226215 0
0.650813 0.226215 0
0.698848 0.228016 0
0.746136 0.228367 0
0.796674 0.230488 0
0.84419 0.233433 0
0.898161 0.236774 0
0.970169 0.239948 0
1 0.243488 0
1 0.247532 0.00440986
1 0.250919 0.00881972
1 0.256779 0.0132296
1 0.260609 0.0176547
1 0.264393 0.0220645
1 0.268132 0.0264744
1 0.272908 0.0308843
0 0.260609 0
0.0141604 0.260609 0
0.0485389 0.260609 0
0.084062 0.260609 0
0.122515 0.259922 0
0.157061 0.258701 0
0.19089 0.258701 0
0.224048 0.25803 0
0.256779 0.256779 0
0.291127 0.256779 0
0.325444 0.256779 0
0.359609 0.25594 0
0.3953 0.254932 0
0.434089 0.254841 0
0.473854 0.254841 0
0.514519 0.255131 0
0.556664 0.256687 0
0.600412 0.256779 0
0.646357 0.256779 0
0.693965 0.258701 0
0.741421 0.259159 0
0.791257 0.260609 0
0.836576 0.264393 0
0.889372 0.267048 0
0.955627 0.271077 0
1 0.274037 0
1 0.279088 0
1 0.282658 0.00440986
1 0.287343 0.00881972
1 0.291386 0.0132296
1 0.29482 0.0176547
1 0.299611 0.0220645
1 0.303243 0.0264744
0 0.293111 0
0.0132296 0.293111 0
0.0468605 0.292943 0
0.0798352 0.292485 0
0.119036 0.291386 0
0.154147 0.291386 0
0.189197 0.29099 0
0.222309 0.289662 0
0.254841 0.289174 0
0.288029 0.288014 0
0.322606 0.287922 0
0.356985 0.287922 0
0.393637 0.287663 0
0.431327 0.287037 0
0.471641 0.287526 0
0.5122 0.287816 0
0.552407 0.287922 0
0.596414 0.287922 0
0.641855 0.288365 0
0.689021 0.289662 0
0.737118 0.291386 0
0.785534 0.293111 0
0.828916 0.29482 0
0.88098 0.298207 0
0.937697 0.301823 0
1 0.306127 0
1 0.309819 0
1 0.314076 0
1 0.317876 0.00708019
1 0.322606 0.00881972
1 0.326497 0.0132296
1 0.33106 0.0176547
1 0.335195 0.0220645
0 0.325734 0
0.0132296 0.325734 0
0.0441291 0.325734 0
0.0794232 0.325734 0
0.119036 0.325231 0
0.153094 0.324178 0
0.186679 0.323507 0
0.221454 0.322606 0
0.253162 0.322164 0
0.286473 0.321035 0
0.320607 0.320592 0
0.354986 0.319463 0
0.39086 0.319463 0
0.429099 0.319463 0
0.468025 0.319371 0
0.508843 0.319463 0
0.549142 0.319463 0
0.591562 0.319463 0
0.637522 0.321035 0
0.684596 0.32192 0
0.73164 0.322805 0
0.779568 0.324773 0
0.822751 0.32697 0
0.872816 0.330373 0
0.922393 0.333654 0
1 0.337484 0
1 0.341314 0
1 0.345403 0
1 0.349783 0.00129702
1 0.354116 0.00881972
1 0.358404 0.00972
1 0.362646 0.0132296
1 0.366842 0.0176547
0 0.359823 0
0.00881972 0.359823 0
0.0441291 0.359594 0
0.076585 0.358557 0
0.11548 0.358404 0
0.151202 0.357092 0
0.186679 0.356985 0
0.219669 0.355718 0
0.250919 0.355428 0
0.284413 0.354116 0
0.317891 0.353704 0
0.352682 0.352682 0
0.388861 0.352682 0
0.426108 0.352392 0
0.465644 0.351934 0
0.505531 0.351904 0
0.546014 0.352255 0
0.587991 0.352682 0
0.633722 0.35317 0
0.6804 0.354116 0
0.726162 0.355337 0
0.773037 0.35697 0
0.817029 0.358816 0
0.864622 0.362234 0
0.910582 0.366033 0
0.988434 0.369604 0
1 0.373739 0
1 0.378576 0
1 0.382193 0
1 0.387137 0.00404364
1 0.391073 0.00881972
1 0.395102 0.00881972
1 0.399176 0.0132296
0 0.39498 0
0.00881972 0.39498 0
0.042359 0.39498 0
0.0750134 0.393973 0
0.11548 0.393683 0
0.150408 0.392859 0
0.184146 0.391241 0
0.217456 0.39089 0
0.250919 0.389761 0
0.282994 0.388861 0
0.316274 0.387701 0
0.351232 0.387137 0
0.386557 0.386542 0
0.423697 0.385809 0
0.462928 0.385809 0
0.502312 0.385809 0
0.543206 0.385809 0
0.584436 0.38584 0
0.629587 0.386709 0
0.675563 0.387137 0
0.72134 0.38819 0
0.76701 0.389761 0
0.811566 0.392676 0
0.855299 0.395224 0
0.90251 0.39884 0
0.969253 0.403479 0
1 0.407568 0
1 0.411902 0
1 0.41648 0
1 0.421271 0
1 0.425879 0.00292973
1 0.429694 0.00816358
1 0.434424 0.00881972
0 0.432624 0
0.00881972 0.432334 0
0.039704 0.432059 0
0.0750134 0.431937 0
0.11548 0.430808 0
0.148211 0.429694 0
0.182467 0.42887 0
0.216312 0.427161 0
0.248951 0.426108 0
0.281758 0.425361 0
0.315923 0.423896 0
0.349783 0.423667 0
0.384665 0.42237 0
0.421347 0.421347 0
0.460487 0.421271 0
0.500816 0.421271 0
0.540368 0.421271 0
0.581308 0.421271 0
0.625757 0.421347 0
0.671412 0.422293 0
0.717388 0.423697 0
0.762356 0.424872 0
0.80528 0.427161 0
0.847242 0.430503 0
0.894682 0.434424 0
0.954116 0.437949 0
1 0.442741 0
1 0.447547 0
1 0.452399 0
1 0.457191 0
1 0.461784 0
1 0.466148 3.0518e-05
1 0.470573 0.00468452
0 0.472221 0
0.00881972 0.47187 0
0.039704 0.471687 0
0.0750134 0.471412 0
0.113649 0.470054 0
0.148211 0.468544 0
0.181582 0.467323 0
0.215213 0.466529 0
0.248951 0.464988 0
0.280873 0.463294 0
0.314672 0.462821 0
0.348333 0.461372 0
0.383566 0.460014 0
0.420371 0.459098 0
0.458381 0.458381 0
0.49839 0.457832 0
0.538003 0.457572 0
0.578073 0.457557 0
0.622583 0.457862 0
0.66775 0.458808 0
0.713695 0.459876 0
0.757839 0.461646 0
0.800137 0.463523 0
0.839796 0.467323 0
0.885634 0.470878 0
0.938262 0.475105 0
1 0.47921 0
1 0.483467 0
1 0.488685 0
1 0.492882 0
1 0.498024 0
1 0.502159 0
1 0.506752 0
0 0.513024 0
0.00881972 0.51284 0
0.039704 0.5122 0
0.0750134 0.511864 0
0.11313 0.510475 0
0.148211 0.508904 0
0.181582 0.507408 0
0.215213 0.505943 0
0.248692 0.504204 0
0.280873 0.502464 0
0.313222 0.501823 0
0.347326 0.500313 0
0.381918 0.499107 0
0.418845 0.498039 0
0.457374 0.497047 0
0.496315 0.4963 0
0.535912 0.495872 0
0.575204 0.49572 0
0.619974 0.496147 0
0.664195 0.496513 0
0.709957 0.497185 0
0.752972 0.498634 0
0.795361 0.501244 0
0.833371 0.503868 0
0.879301 0.507912 0
0.92459 0.5122 0
0.998154 0.515877 0
1 0.520607 0
1 0.526284 0
1 0.5308 0
1 0.534722 0
1 0.539071 0
1 0.543175 0
0 0.555718 0
0.00881972 0.555138 0
0.0399329 0.554055 0
0.0750134 0.552102 0
0.114549 0.550698 0
0.148211 0.549432 0
0.181582 0.547753 0
0.215213 0.545998 0
0.248096 0.544259 0
0.280537 0.542535 0
0.313069 0.540932 0
0.346868 0.539544 0
0.381826 0.538048 0
0.418326 0.536751 0
0.455985 0.535698 0
0.494728 0.534844 0
0.534356 0.53434 0
0.573617 0.534142 0
0.617929 0.534081 0
0.661646 0.534264 0
0.70695 0.534691 0
0.748562 0.53579 0
0.791165 0.53817 0
0.827802 0.541283 0
0.873014 0.544823 0
0.913558 0.548653 0
0.985245 0.552941 0
1 0.557809 0
1 0.562264 0
1 0.567346 0
1 0.571344 0
1 0.57528 0
1 0.579934 0
0 0.600137 0
0.00881972 0.599512 0
0.0441291 0.597696 0
0.0750134 0.596399 0
0.11548 0.594568 0
0.148211 0.592264 0
0.181582 0.590265 0
0.215213 0.587625 0
0.248463 0.585809 0
0.280629 0.583215 0
0.313069 0.581735 0
0.346868 0.579232 0
0.381338 0.577646 0
0.417365 0.575662 0
0.454871 0.574182 0
0.493675 0.573358 0
0.533242 0.572793 0
0.572244 0.572244 0
0.615763 0.571954 0
0.659037 0.571939 0
0.70396 0.572198 0
0.745998 0.573312 0
0.787717 0.575265 0
0.823758 0.578607 0
0.867201 0.582605 0
0.907668 0.586908 0
0.972168 0.591516 0
1 0.597009 0
1 0.602167 0
1 0.606958 0
1 0.611734 0
1 0.616403 0
1 0.621042 0
0 0.647211 0
0.0119478 0.646128 0
0.0441291 0.64448 0
0.0776379 0.643244 0
0.11548 0.641001 0
0.150118 0.638529 0
0.184024 0.635935 0
0.21593 0.633219 0
0.248951 0.631174 0
0.280873 0.628534 0
0.313069 0.625956 0
0.346868 0.623606 0
0.381216 0.621897 0
0.417075 0.619654 0
0.454627 0.618585 0
0.49305 0.616693 0
0.532326 0.615717 0
0.571252 0.61445 0
0.613947 0.613947 0
0.657404 0.613794 0
0.701732 0.613993 0
0.74374 0.614954 0
0.784573 0.617273 0
0.820829 0.620081 0
0.861082 0.623774 0
0.902556 0.62829 0
0.961105 0.632639 0
1 0.637644 0
1 0.642618 0
1 0.647517 0
1 0.652293 0
1 0.657038 0
1 0.661585 0
0 0.696025 0
0.0132296 0.694774 0
0.0441291 0.693324 0
0.0794232 0.69073 0
0.116854 0.688472 0
0.151202 0.685878 0
0.184146 0.683024 0
0.217456 0.68072 0
0.248951 0.67744 0
0.280873 0.674235 0
0.314153 0.671565 0
0.346975 0.66865 0
0.381598 0.666148 0
0.417548 0.663905 0
0.454566 0.66183 0
0.492882 0.660136 0
0.531777 0.658152 0
0.57055 0.657359 0
0.613214 0.656413 0
0.656062 0.656062 0
0.700435 0.655772 0
0.741512 0.656535 0
0.781552 0.658366 0
0.817746 0.661707 0
0.856931 0.665843 0
0.898283 0.670314 0
0.952346 0.674403 0
1 0.679515 0
1 0.683879 0
1 0.688884 0
1 0.693858 0
1 0.698238 0
1 0.702312 0
0 0.745907 0
0.0161288 0.74464 0
0.0485389 0.74226 0
0.0811017 0.739834 0
0.119036 0.737133 0
0.153307 0.733837 0
0.186679 0.73077 0
0.219272 0.727108 0
0.250919 0.723888 0
0.282658 0.720668 0
0.314672 0.717525 0
0.348333 0.715129 0
0.381826 0.712444 0
0.418219 0.7093 0
0.454963 0.707057 0
0.492958 0.704845 0
0.531777 0.702708 0
0.57055 0.701305 0
0.612955 0.700526 0
0.655375 0.699718 0
0.699199 0.699184 0
0.740078 0.699626 0
0.779828 0.701045 0
0.816098 0.704585 0
0.853513 0.708003 0
0.894804 0.712596 0
0.942657 0.716701 0
1 0.720592 0
1 0.724681 0
1 0.729793 0
1 0.734157 0
1 0.737789 0
1 0.740215 0
0 0.800107 0
0.0176547 0.798123 0
0.05066 0.795254 0
0.084062 0.791836 0
0.122515 0.788937 0
0.157061 0.785046 0
0.189197 0.780926 0
0.221866 0.776669 0
0.252888 0.77229 0
0.284413 0.768124 0
0.316686 0.764538 0
0.350256 0.76109 0
0.384497 0.757671 0
0.420035 0.753887 0
0.457374 0.750805 0
0.495003 0.747585 0
0.533776 0.745968 0
0.572 0.744472 0
0.614099 0.742855 0
0.656641 0.741588 0
0.70042 0.74078 0
0.740963 0.740948 0
0.780697 0.742885 0
0.81622 0.745495 0
0.852857 0.748196 0
0.893339 0.752773 0
0.938918 0.757473 0
1 0.761593 0
1 0.765057 0
1 0.768826 0
1 0.772137 0
1 0.775525 0
1 0.777768 0
0 0.857221 0
0.0261387 0.854124 0
0.0573587 0.849912 0
0.0925154 0.845777 0
0.126772 0.84094 0
0.161761 0.835187 0
0.194141 0.829831 0
0.226215 0.825544 0
0.256779 0.821256 0
0.289662 0.817243 0
0.322148 0.812909 0
0.354788 0.808682 0
0.389227 0.804608 0
0.424598 0.800748 0
0.46276 0.797742 0
0.500725 0.79472 0
0.538567 0.791669 0
0.577157 0.789593 0
0.619562 0.787488 0
0.66186 0.785672 0
0.705776 0.784741 0
0.745846 0.784451 0
0.78555 0.785534 0
0.820279 0.787823 0
0.85687 0.790265 0
0.895567 0.792844 0
0.940093 0.796201 0
1 0.799634 0
1 0.802853 0
1 0.805158 0
1 0.807752 0
1 0.809506 0
1 0.81178 0
0 0.928176 0
0.0308843 0.921233 0
0.0631723 0.914717 0
0.100526 0.909331 0
0.13341 0.904112 0
0.168292 0.898787 0
0.201358 0.892409 0
0.232609 0.885771 0
0.264393 0.879881 0
0.29514 0.873793 0
0.328008 0.867735 0
0.361242 0.860731 0
0.39498 0.854688 0
0.431998 0.849454 0
0.469215 0.844465 0
0.507424 0.840192 0
0.545419 0.835615 0
0.584344 0.831998 0
0.62652 0.828901 0
0.670039 0.826978 0
0.713115 0.82501 0
0.752544 0.823194 0
0.79089 0.82298 0
0.823819 0.823819 0
0.861875 0.825788 0
0.899092 0.827634 0
0.944076 0.829923 0
1 0.832471 0
1 0.835142 0
1 0.837919 0
1 0.840635 0
1 0.842161 0
1 0.84329 0
0.00881972 1 0.00881972
0.039704 1 0.00881972
0.0705882 1 0.00881972
0.108614 1 0.00440986
0.142107 1 0.002121
0.176364 0.992569 0
0.208392 0.981796 0
0.239094 0.968231 0
0.271809 0.957046 0
0.303243 0.942901 0
0.335805 0.931624 0
0.368231 0.919387 0
0.403647 0.911284 0
0.439506 0.905715 0
0.477073 0.900664 0
0.515023 0.895613 0
0.553643 0.889601 0
0.593301 0.884443 0
0.634394 0.879789 0
0.676905 0.874937 0
0.718486 0.871122 0
0.758877 0.867689 0
0.796139 0.866102 0
0.828031 0.866056 0
0.867063 0.867048 0
0.901839 0.868421 0
0.948791 0.870481 0
1 0.872282 0
1 0.873838 0
1 0.875593 0
1 0.877302 0
1 0.878569 0
1 0.879088 0
0.0191501 1 0.0191348
0.0485389 1 0.0176547
0.084062 1 0.0176547
0.119036 1 0.0132296
0.151202 1 0.0125582
0.184146 1 0.00881972
0.215213 1 0.00828565
0.246952 1 0.00440986
0.279088 1 0
0.309819 1 0
0.342992 1 0
0.37644 1 0
0.411231 1 0
0.448218 0.992905 0
0.484962 0.980194 0
0.523201 0.964874 0
0.560296 0.954452 0
0.600336 0.941253 0
0.641245 0.930861 0
0.68275 0.919097 0
0.723507 0.911101 0
0.763363 0.907256 0
0.80058 0.904845 0
0.832654 0.904021 0
0.871092 0.903838 0
0.904204 0.904204 0
0.952895 0.905058 0
1 0.906493 0
1 0.907897 0
1 0.908751 0
1 0.909453 0
1 0.909911 0
1 0.910063 0
0.0304417 1 0.0304265
0.0573587 1 0.0264744
0.0925154 1 0.0264744
0.127489 1 0.0220645
0.15993 1 0.0220645
0.192721 1 0.0176547
0.224048 1 0.0132296
0.254841 1 0.0132296
0.286183 1 0.00881972
0.317876 1 0.00730907
0.351171 1 0.00440986
0.384497 1 0
0.418845 1 0
0.454627 1 0
0.492393 1 0
0.530114 1 0
0.566476 1 0
0.606165 1 0
0.646204 1 0
0.687175 0.99028 0
0.727718 0.977447 0
0.767407 0.965591 0
0.804196 0.960067 0
0.836164 0.95761 0
0.873945 0.956374 0
0.90695 0.956054 0
0.95671 0.956695 0
1 0.957671 0
1 0.958602 0
1 0.959442 0
1 0.960006 0
1 0.959976 0
1 0.959747 0
0.039704 1 0.039704
0.0687114 1 0.0352941
0.104402 1 0.0352941
0.13579 1 0.0308843
0.168841 1 0.0308385
0.201358 1 0.0264744
0.232609 1 0.0220645
0.262516 1 0.0209049
0.293111 1 0.0176547
