DJI/DJI_X7_Linear2DLOG.cube
# DaVinci Resolve Cube (1D shaper LUT).

LUT_1D_SIZE 4096
LUT_1D_INPUT_RANGE -0.015419 42.005197

0.0000000000 0.0000000000 0.0000000000
0.0618252044 0.0618252044 0.0618252044
0.1236504088 0.1236504088 0.1236504088
0.1777349288 0.1777349288 0.1777349288
0.2144750956 0.2144750956 0.2144750956
0.2420608794 0.2420608794 0.2420608794
0.2641561587 0.2641561587 0.2641561587
0.2825878726 0.2825878726 0.2825878726
0.2983998714 0.2983998714 0.2983998714
0.3122450061 0.3122450061 0.3122450061
0.3245589048 0.3245589048 0.3245589048
0.3356467911 0.3356467911 0.3356467911
0.3457308425 0.3457308425 0.3457308425
0.3549778280 0.3549778280 0.3549778280
0.3635161268 0.3635161268 0.3635161268
0.3714466759 0.3714466759 0.3714466759
0.3788502744 0.3788502744 0.3788502744
0.3857926075 0.3857926075 0.3857926075
0.3923277961 0.3923277961 0.3923277961
0.3985009616 0.3985009616 0.3985009616
0.4043501166 0.4043501166 0.4043501166
0.4099075842 0.4099075842 0.4099075842
0.4152010797 0.4152010797 0.4152010797
0.4202545468 0.4202545468 0.4202545468
0.4250888121 0.4250888121 0.4250888121
0.4297221043 0.4297221043 0.4297221043
0.4341704683 0.4341704683 0.4341704683
0.4384481015 0.4384481015 0.4384481015
0.4425676262 0.4425676262 0.4425676262
0.4465403152 0.4465403152 0.4465403152
0.4503762765 0.4503762765 0.4503762765
0.4540846095 0.4540846095 0.4540846095
0.4576735342 0.4576735342 0.4576735342
0.4611505011 0.4611505011 0.4611505011
0.4645222847 0.4645222847 0.4645222847
0.4677950623 0.4677950623 0.4677950623
0.4709744827 0.4709744827 0.4709744827
0.4740657247 0.4740657247 0.4740657247
0.4770735477 0.4770735477 0.4770735477
0.4800023358 0.4800023358 0.4800023358
0.4828561364 0.4828561364 0.4828561364
0.4856386938 0.4856386938 0.4856386938
0.4883534785 0.4883534785 0.4883534785
0.4910037137 0.4910037137 0.4910037137
0.4935923976 0.4935923976 0.4935923976
0.4961223247 0.4961223247 0.4961223247
0.4985961030 0.4985961030 0.4985961030
0.5010161709 0.5010161709 0.5010161709
0.5033848113 0.5033848113 0.5033848113
0.5057041643 0.5057041643 0.5057041643
0.5079762395 0.5079762395 0.5079762395
0.5102029258 0.5102029258 0.5102029258
0.5123860013 0.5123860013 0.5123860013
0.5145271414 0.5145271414 0.5145271414
0.5166279269 0.5166279269 0.5166279269
0.5186898509 0.5186898509 0.5186898509
0.5207143251 0.5207143251 0.5207143251
0.5227026856 0.5227026856 0.5227026856
0.5246561983 0.5246561983 0.5246561983
0.5265760636 0.5265760636 0.5265760636
0.5284634211 0.5284634211 0.5284634211
0.5303193532 0.5303193532 0.5303193532
0.5321448895 0.5321448895 0.5321448895
0.5339410095 0.5339410095 0.5339410095
0.5357086461 0.5357086461 0.5357086461
0.5374486888 0.5374486888 0.5374486888
0.5391619857 0.5391619857 0.5391619857
0.5408493467 0.5408493467 0.5408493467
0.5425115453 0.5425115453 0.5425115453
0.5441493210 0.5441493210 0.5441493210
0.5457633810 0.5457633810 0.5457633810
0.5473544025 0.5473544025 0.5473544025
0.5489230337 0.5489230337 0.5489230337
0.5504698963 0.5504698963 0.5504698963
0.5519955861 0.5519955861 0.5519955861
0.5535006750 0.5535006750 0.5535006750
0.5549857118 0.5549857118 0.5549857118
0.5564512238 0.5564512238 0.5564512238
0.5578977178 0.5578977178 0.5578977178
0.5593256811 0.5593256811 0.5593256811
0.5607355825 0.5607355825 0.5607355825
0.5621278731 0.5621278731 0.5621278731
0.5635029875 0.5635029875 0.5635029875
0.5648613444 0.5648613444 0.5648613444
0.5662033472 0.5662033472 0.5662033472
0.5675293850 0.5675293850 0.5675293850
0.5688398333 0.5688398333 0.5688398333
0.5701350544 0.5701350544 0.5701350544
0.5714153980 0.5714153980 0.5714153980
0.5726812020 0.5726812020 0.5726812020
0.5739327931 0.5739327931 0.5739327931
0.5751704868 0.5751704868 0.5751704868
0.5763945883 0.5763945883 0.5763945883
0.5776053930 0.5776053930 0.5776053930
0.5788031866 0.5788031866 0.5788031866
0.5799882458 0.5799882458 0.5799882458
0.5811608385 0.5811608385 0.5811608385
0.5823212243 0.5823212243 0.5823212243
0.5834696547 0.5834696547 0.5834696547
0.5846063735 0.5846063735 0.5846063735
0.5857316173 0.5857316173 0.5857316173
0.5868456153 0.5868456153 0.5868456153
0.5879485901 0.5879485901 0.5879485901
0.5890407578 0.5890407578 0.5890407578
0.5901223281 0.5901223281 0.5901223281
0.5911935046 0.5911935046 0.5911935046
0.5922544853 0.5922544853 0.5922544853
0.5933054623 0.5933054623 0.5933054623
0.5943466226 0.5943466226 0.5943466226
0.5953781479 0.5953781479 0.5953781479
0.5964002148 0.5964002148 0.5964002148
0.5974129953 0.5974129953 0.5974129953
0.5984166565 0.5984166565 0.5984166565
0.5994113613 0.5994113613 0.5994113613
0.6003972680 0.6003972680 0.6003972680
0.6013745309 0.6013745309 0.6013745309
0.6023433004 0.6023433004 0.6023433004
0.6033037227 0.6033037227 0.6033037227
0.6042559404 0.6042559404 0.6042559404
0.6052000926 0.6052000926 0.6052000926
0.6061363148 0.6061363148 0.6061363148
0.6070647390 0.6070647390 0.6070647390
0.6079854941 0.6079854941 0.6079854941
0.6088987057 0.6088987057 0.6088987057
0.6098044964 0.6098044964 0.6098044964
0.6107029859 0.6107029859 0.6107029859
0.6115942910 0.6115942910 0.6115942910
0.6124785255 0.6124785255 0.6124785255
0.6133558009 0.6133558009 0.6133558009
0.6142262258 0.6142262258 0.6142262258
0.6150899063 0.6150899063 0.6150899063
0.6159469462 0.6159469462 0.6159469462
0.6167974468 0.6167974468 0.6167974468
0.6176415072 0.6176415072 0.6176415072
0.6184792241 0.6184792241 0.6184792241
0.6193106922 0.6193106922 0.6193106922
0.6201360040 0.6201360040 0.6201360040
0.6209552500 0.6209552500 0.6209552500
0.6217685188 0.6217685188 0.6217685188
0.6225758968 0.6225758968 0.6225758968
0.6233774689 0.6233774689 0.6233774689
0.6241733180 0.6241733180 0.6241733180
0.6249635251 0.6249635251 0.6249635251
0.6257481698 0.6257481698 0.6257481698
0.6265273297 0.6265273297 0.6265273297
0.6273010811 0.6273010811 0.6273010811
0.6280694984 0.6280694984 0.6280694984
0.6288326548 0.6288326548 0.6288326548
0.6295906218 0.6295906218 0.6295906218
0.6303434695 0.6303434695 0.6303434695
0.6310912665 0.6310912665 0.6310912665
0.6318340803 0.6318340803 0.6318340803
0.6325719766 0.6325719766 0.6325719766
0.6333050204 0.6333050204 0.6333050204
0.6340332749 0.6340332749 0.6340332749
0.6347568023 0.6347568023 0.6347568023
0.6354756636 0.6354756636 0.6354756636
0.6361899186 0.6361899186 0.6361899186
0.6368996259 0.6368996259 0.6368996259
0.6376048432 0.6376048432 0.6376048432
0.6383056268 0.6383056268 0.6383056268
0.6390020321 0.6390020321 0.6390020321
0.6396941136 0.6396941136 0.6396941136
0.6403819246 0.6403819246 0.6403819246
0.6410655174 0.6410655174 0.6410655174
0.6417449435 0.6417449435 0.6417449435
0.6424202534 0.6424202534 0.6424202534
0.6430914966 0.6430914966 0.6430914966
0.6437587218 0.6437587218 0.6437587218
0.6444219769 0.6444219769 0.6444219769
0.6450813088 0.6450813088 0.6450813088
0.6457367637 0.6457367637 0.6457367637
0.6463883869 0.6463883869 0.6463883869
0.6470362228 0.6470362228 0.6470362228
0.6476803154 0.6476803154 0.6476803154
0.6483207076 0.6483207076 0.6483207076
0.6489574416 0.6489574416 0.6489574416
0.6495905591 0.6495905591 0.6495905591
0.6502201008 0.6502201008 0.6502201008
0.6508461071 0.6508461071 0.6508461071
0.6514686172 0.6514686172 0.6514686172
0.6520876701 0.6520876701 0.6520876701
0.6527033040 0.6527033040 0.6527033040
0.6533155564 0.6533155564 0.6533155564
0.6539244643 0.6539244643 0.6539244643
0.6545300639 0.6545300639 0.6545300639
0.6551323912 0.6551323912 0.6551323912
0.6557314811 0.6557314811 0.6557314811
0.6563273684 0.6563273684 0.6563273684
0.6569200871 0.6569200871 0.6569200871
0.6575096708 0.6575096708 0.6575096708
0.6580961523 0.6580961523 0.6580961523
0.6586795643 0.6586795643 0.6586795643
0.6592599386 0.6592599386 0.6592599386
0.6598373067 0.6598373067 0.6598373067
0.6604116996 0.6604116996 0.6604116996
0.6609831478 0.6609831478 0.6609831478
0.6615516814 0.6615516814 0.6615516814
0.6621173299 0.6621173299 0.6621173299
0.6626801225 0.6626801225 0.6626801225
0.6632400878 0.6632400878 0.6632400878
0.6637972541 0.6637972541 0.6637972541
0.6643516493 0.6643516493 0.6643516493
0.6649033008 0.6649033008 0.6649033008
0.6654522356 0.6654522356 0.6654522356
0.6659984804 0.6659984804 0.6659984804
0.6665420613 0.6665420613 0.6665420613
0.6670830043 0.6670830043 0.6670830043
0.6676213348 0.6676213348 0.6676213348
0.6681570779 0.6681570779 0.6681570779
0.6686902583 0.6686902583 0.6686902583
0.6692209006 0.6692209006 0.6692209006
0.6697490287 0.6697490287 0.6697490287
0.6702746663 0.6702746663 0.6702746663
0.6707978369 0.6707978369 0.6707978369
0.6713185634 0.6713185634 0.6713185634
0.6718368686 0.6718368686 0.6718368686
0.6723527749 0.6723527749 0.6723527749
0.6728663045 0.6728663045 0.6728663045
0.6733774790 0.6733774790 0.6733774790
0.6738863201 0.6738863201 0.6738863201
0.6743928489 0.6743928489 0.6743928489
0.6748970863 0.6748970863 0.6748970863
0.6753990530 0.6753990530 0.6753990530
0.6758987694 0.6758987694 0.6758987694
0.6763962555 0.6763962555 0.6763962555
0.6768915311 0.6768915311 0.6768915311
0.6773846158 0.6773846158 0.6773846158
0.6778755290 0.6778755290 0.6778755290
0.6783642895 0.6783642895 0.6783642895
0.6788509164 0.6788509164 0.6788509164
0.6793354280 0.6793354280 0.6793354280
0.6798178427 0.6798178427 0.6798178427
0.6802981785 0.6802981785 0.6802981785
0.6807764534 0.6807764534 0.6807764534
0.6812526849 0.6812526849 0.6812526849
0.6817268904 0.6817268904 0.6817268904
0.6821990871 0.6821990871 0.6821990871
0.6826692919 0.6826692919 0.6826692919
0.6831375216 0.6831375216 0.6831375216
0.6836037926 0.6836037926 0.6836037926
0.6840681213 0.6840681213 0.6840681213
0.6845305238 0.6845305238 0.6845305238
0.6849910161 0.6849910161 0.6849910161
0.6854496138 0.6854496138 0.6854496138
0.6859063325 0.6859063325 0.6859063325
0.6863611874 0.6863611874 0.6863611874
0.6868141939 0.6868141939 0.6868141939
0.6872653667 0.6872653667 0.6872653667
0.6877147207 0.6877147207 0.6877147207
0.6881622706 0.6881622706 0.6881622706
0.6886080307 0.6886080307 0.6886080307
0.6890520152 0.6890520152 0.6890520152
0.6894942384 0.6894942384 0.6894942384
0.6899347140 0.6899347140 0.6899347140
0.6903734559 0.6903734559 0.6903734559
0.6908104777 0.6908104777 0.6908104777
0.6912457928 0.6912457928 0.6912457928
0.6916794144 0.6916794144 0.6916794144
0.6921113557 0.6921113557 0.6921113557
0.6925416297 0.6925416297 0.6925416297
0.6929702491 0.6929702491 0.6929702491
0.6933972267 0.6933972267 0.6933972267
0.6938225751 0.6938225751 0.6938225751
0.6942463065 0.6942463065 0.6942463065
0.6946684332 0.6946684332 0.6946684332
0.6950889673 0.6950889673 0.6950889673
0.6955079209 0.6955079209 0.6955079209
0.6959253057 0.6959253057 0.6959253057
0.6963411334 0.6963411334 0.6963411334
0.6967554157 0.6967554157 0.6967554157
0.6971681640 0.6971681640 0.6971681640
0.6975793895 0.6975793895 0.6975793895
0.6979891035 0.6979891035 0.6979891035
0.6983973170 0.6983973170 0.6983973170
0.6988040411 0.6988040411 0.6988040411
0.6992092865 0.6992092865 0.6992092865
0.6996130639 0.6996130639 0.6996130639
0.7000153839 0.7000153839 0.7000153839
0.7004162571 0.7004162571 0.7004162571
0.7008156938 0.7008156938 0.7008156938
0.7012137042 0.7012137042 0.7012137042
0.7016102985 0.7016102985 0.7016102985
0.7020054868 0.7020054868 0.7020054868
0.7023992790 0.7023992790 0.7023992790
0.7027916848 0.7027916848 0.7027916848
0.7031827141 0.7031827141 0.7031827141
0.7035723764 0.7035723764 0.7035723764
0.7039606813 0.7039606813 0.7039606813
0.7043476382 0.7043476382 0.7043476382
0.7047332565 0.7047332565 0.7047332565
0.7051175453 0.7051175453 0.7051175453
0.7055005138 0.7055005138 0.7055005138
0.7058821710 0.7058821710 0.7058821710
0.7062625259 0.7062625259 0.7062625259
0.7066415874 0.7066415874 0.7066415874
0.7070193642 0.7070193642 0.7070193642
0.7073958649 0.7073958649 0.7073958649
0.7077710983 0.7077710983 0.7077710983
0.7081450727 0.7081450727 0.7081450727
0.7085177966 0.7085177966 0.7085177966
0.7088892784 0.7088892784 0.7088892784
0.7092595263 0.7092595263 0.7092595263
0.7096285484 0.7096285484 0.7096285484
0.7099963529 0.7099963529 0.7099963529
0.7103629477 0.7103629477 0.7103629477
0.7107283408 0.7107283408 0.7107283408
0.7110925401 0.7110925401 0.7110925401
0.7114555532 0.7114555532 0.7114555532
0.7118173880 0.7118173880 0.7118173880
0.7121780521 0.7121780521 0.7121780521
0.7125375529 0.7125375529 0.7125375529
0.7128958980 0.7128958980 0.7128958980
0.7132530948 0.7132530948 0.7132530948
0.7136091506 0.7136091506 0.7136091506
0.7139640727 0.7139640727 0.7139640727
0.7143178683 0.7143178683 0.7143178683
0.7146705445 0.7146705445 0.7146705445
0.7150221084 0.7150221084 0.7150221084
0.7153725669 0.7153725669 0.7153725669
0.7157219270 0.7157219270 0.7157219270
0.7160701956 0.7160701956 0.7160701956
0.7164173794 0.7164173794 0.7164173794
0.7167634852 0.7167634852 0.7167634852
0.7171085197 0.7171085197 0.7171085197
0.7174524895 0.7174524895 0.7174524895
0.7177954011 0.7177954011 0.7177954011
0.7181372610 0.7181372610 0.7181372610
0.7184780757 0.7184780757 0.7184780757
0.7188178515 0.7188178515 0.7188178515
0.7191565947 0.7191565947 0.7191565947
0.7194943116 0.7194943116 0.7194943116
0.7198310084 0.7198310084 0.7198310084
0.7201666913 0.7201666913 0.7201666913
0.7205013663 0.7205013663 0.7205013663
0.7208350394 0.7208350394 0.7208350394
0.7211677167 0.7211677167 0.7211677167
0.7214994041 0.7214994041 0.7214994041
0.7218301074 0.7218301074 0.7218301074
0.7221598324 0.7221598324 0.7221598324
0.7224885850 0.7224885850 0.7224885850
0.7228163709 0.7228163709 0.7228163709
0.7231431956 0.7231431956 0.7231431956
0.7234690650 0.7234690650 0.7234690650
0.7237939844 0.7237939844 0.7237939844
0.7241179594 0.7241179594 0.7241179594
0.7244409956 0.7244409956 0.7244409956
0.7247630983 0.7247630983 0.7247630983
0.7250842729 0.7250842729 0.7250842729
0.7254045248 0.7254045248 0.7254045248
0.7257238592 0.7257238592 0.7257238592
0.7260422814 0.7260422814 0.7260422814
0.7263597965 0.7263597965 0.7263597965
0.7266764098 0.7266764098 0.7266764098
0.7269921263 0.7269921263 0.7269921263
0.7273069511 0.7273069511 0.7273069511
0.7276208892 0.7276208892 0.7276208892
0.7279339456 0.7279339456 0.7279339456
0.7282461253 0.7282461253 0.7282461253
0.7285574331 0.7285574331 0.7285574331
0.7288678739 0.7288678739 0.7288678739
0.7291774525 0.7291774525 0.7291774525
0.7294861737 0.7294861737 0.7294861737
0.7297940422 0.7297940422 0.7297940422
0.7301010627 0.7301010627 0.7301010627
0.7304072399 0.7304072399 0.7304072399
0.7307125784 0.7307125784 0.7307125784
0.7310170828 0.7310170828 0.7310170828
0.7313207576 0.7313207576 0.7313207576
0.7316236074 0.7316236074 0.7316236074
0.7319256365 0.7319256365 0.7319256365
0.7322268495 0.7322268495 0.7322268495
0.7325272507 0.7325272507 0.7325272507
0.7328268446 0.7328268446 0.7328268446
0.7331256353 0.7331256353 0.7331256353
0.7334236273 0.7334236273 0.7334236273
0.7337208248 0.7337208248 0.7337208248
0.7340172320 0.7340172320 0.7340172320
0.7343128531 0.7343128531 0.7343128531
0.7346076922 0.7346076922 0.7346076922
0.7349017535 0.7349017535 0.7349017535
0.7351950411 0.7351950411 0.7351950411
0.7354875591 0.7354875591 0.7354875591
0.7357793114 0.7357793114 0.7357793114
0.7360703021 0.7360703021 0.7360703021
0.7363605351 0.7363605351 0.7363605351
0.7366500144 0.7366500144 0.7366500144
0.7369387438 0.7369387438 0.7369387438
0.7372267273 0.7372267273 0.7372267273
0.7375139687 0.7375139687 0.7375139687
0.7378004718 0.7378004718 0.7378004718
0.7380862404 0.7380862404 0.7380862404
0.7383712782 0.7383712782 0.7383712782
0.7386555890 0.7386555890 0.7386555890
0.7389391765 0.7389391765 0.7389391765
0.7392220443 0.7392220443 0.7392220443
0.7395041961 0.7395041961 0.7395041961
0.7397856356 0.7397856356 0.7397856356
0.7400663662 0.7400663662 0.7400663662
0.7403463915 0.7403463915 0.7403463915
0.7406257152 0.7406257152 0.7406257152
0.7409043407 0.7409043407 0.7409043407
0.7411822714 0.7411822714 0.7411822714
0.7414595109 0.7414595109 0.7414595109
0.7417360625 0.7417360625 0.7417360625
0.7420119297 0.7420119297 0.7420119297
0.7422871159 0.7422871159 0.7422871159
0.7425616243 0.7425616243 0.7425616243
0.7428354584 0.7428354584 0.7428354584
0.7431086214 0.7431086214 0.7431086214
0.7433811167 0.7433811167 0.7433811167
0.7436529474 0.7436529474 0.7436529474
0.7439241168 0.7439241168 0.7439241168
0.7441946282 0.7441946282 0.7441946282
0.7444644847 0.7444644847 0.7444644847
0.7447336894 0.7447336894 0.7447336894
0.7450022455 0.7450022455 0.7450022455
0.7452701562 0.7452701562 0.7452701562
0.7455374245 0.7455374245 0.7455374245
0.7458040535 0.7458040535 0.7458040535
0.7460700462 0.7460700462 0.7460700462
0.7463354057 0.7463354057 0.7463354057
0.7466001350 0.7466001350 0.7466001350
0.7468642370 0.7468642370 0.7468642370
0.7471277148 0.7471277148 0.7471277148
0.7473905713 0.7473905713 0.7473905713
0.7476528094 0.7476528094 0.7476528094
0.7479144320 0.7479144320 0.7479144320
0.7481754419 0.7481754419 0.7481754419
0.7484358421 0.7484358421 0.7484358421
0.7486956355 0.7486956355 0.7486956355
0.7489548247 0.7489548247 0.7489548247
0.7492134126 0.7492134126 0.7492134126
0.7494714021 0.7494714021 0.7494714021
0.7497287958 0.7497287958 0.7497287958
0.7499855965 0.7499855965 0.7499855965
0.7502418070 0.7502418070 0.7502418070
0.7504974299 0.7504974299 0.7504974299
0.7507524679 0.7507524679 0.7507524679
0.7510069237 0.7510069237 0.7510069237
0.7512608000 0.7512608000 0.7512608000
0.7515140994 0.7515140994 0.7515140994
0.7517668245 0.7517668245 0.7517668245
0.7520189779 0.7520189779 0.7520189779
0.7522705621 0.7522705621 0.7522705621
0.7525215799 0.7525215799 0.7525215799
0.7527720336 0.7527720336 0.7527720336
0.7530219258 0.7530219258 0.7530219258
0.7532712591 0.7532712591 0.7532712591
0.7535200358 0.7535200358 0.7535200358
0.7537682586 0.7537682586 0.7537682586
0.7540159299 0.7540159299 0.7540159299
0.7542630521 0.7542630521 0.7542630521
0.7545096276 0.7545096276 0.7545096276
0.7547556589 0.7547556589 0.7547556589
0.7550011483 0.7550011483 0.7550011483
0.7552460983 0.7552460983 0.7552460983
0.7554905112 0.7554905112 0.7554905112
0.7557343893 0.7557343893 0.7557343893
0.7559777350 0.7559777350 0.7559777350
0.7562205506 0.7562205506 0.7562205506
0.7564628384 0.7564628384 0.7564628384
0.7567046008 0.7567046008 0.7567046008
0.7569458398 0.7569458398 0.7569458398
0.7571865580 0.7571865580 0.7571865580
0.7574267574 0.7574267574 0.7574267574
0.7576664403 0.7576664403 0.7576664403
0.7579056089 0.7579056089 0.7579056089
0.7581442655 0.7581442655 0.7581442655
0.7583824122 0.7583824122 0.7583824122
0.7586200512 0.7586200512 0.7586200512
0.7588571846 0.7588571846 0.7588571846
0.7590938147 0.7590938147 0.7590938147
0.7593299434 0.7593299434 0.7593299434
0.7595655730 0.7595655730 0.7595655730
0.7598007056 0.7598007056 0.7598007056
0.7600353432 0.7600353432 0.7600353432
0.7602694879 0.7602694879 0.7602694879
0.7605031419 0.7605031419 0.7605031419
0.7607363070 0.7607363070 0.7607363070
0.7609689855 0.7609689855 0.7609689855
0.7612011793 0.7612011793 0.7612011793
0.7614328904 0.7614328904 0.7614328904
0.7616641208 0.7616641208 0.7616641208
0.7618948726 0.7618948726 0.7618948726
0.7621251477 0.7621251477 0.7621251477
0.7623549480 0.7623549480 0.7623549480
0.7625842755 0.7625842755 0.7625842755
0.7628131322 0.7628131322 0.7628131322
0.7630415200 0.7630415200 0.7630415200
0.7632694409 0.7632694409 0.7632694409
0.7634968966 0.7634968966 0.7634968966
0.7637238891 0.7637238891 0.7637238891
0.7639504203 0.7639504203 0.7639504203
0.7641764921 0.7641764921 0.7641764921
0.7644021063 0.7644021063 0.7644021063
0.7646272648 0.7646272648 0.7646272648
0.7648519693 0.7648519693 0.7648519693
0.7650762219 0.7650762219 0.7650762219
0.7653000241 0.7653000241 0.7653000241
0.7655233779 0.7655233779 0.7655233779
0.7657462851 0.7657462851 0.7657462851
0.7659687474 0.7659687474 0.7659687474
0.7661907666 0.7661907666 0.7661907666
0.7664123444 0.7664123444 0.7664123444
0.7666334827 0.7666334827 0.7666334827
0.7668541831 0.7668541831 0.7668541831
0.7670744474 0.7670744474 0.7670744474
0.7672942774 0.7672942774 0.7672942774
0.7675136746 0.7675136746 0.7675136746
0.7677326408 0.7677326408 0.7677326408
0.7679511778 0.7679511778 0.7679511778
0.7681692871 0.7681692871 0.7681692871
0.7683869705 0.7683869705 0.7683869705
0.7686042297 0.7686042297 0.7686042297
0.7688210661 0.7688210661 0.7688210661
0.7690374816 0.7690374816 0.7690374816
0.7692534777 0.7692534777 0.7692534777
0.7694690561 0.7694690561 0.7694690561
0.7696842184 0.7696842184 0.7696842184
0.7698989661 0.7698989661 0.7698989661
0.7701133010 0.7701133010 0.7701133010
0.7703272244 0.7703272244 0.7703272244
0.7705407381 0.7705407381 0.7705407381
0.7707538436 0.7707538436 0.7707538436
0.7709665425 0.7709665425 0.7709665425
0.7711788363 0.7711788363 0.7711788363
0.7713907265 0.7713907265 0.7713907265
0.7716022147 0.7716022147 0.7716022147
0.7718133024 0.7718133024 0.7718133024
0.7720239911 0.7720239911 0.7720239911
0.7722342823 0.7722342823 0.7722342823
0.7724441775 0.7724441775 0.7724441775
0.7726536783 0.7726536783 0.7726536783
0.7728627860 0.7728627860 0.7728627860
0.7730715022 0.7730715022 0.7730715022
0.7732798283 0.7732798283 0.7732798283
0.7734877658 0.7734877658 0.7734877658
0.7736953161 0.7736953161 0.7736953161
0.7739024807 0.7739024807 0.7739024807
0.7741092610 0.7741092610 0.7741092610
0.7743156584 0.7743156584 0.7743156584
0.7745216743 0.7745216743 0.7745216743
0.7747273101 0.7747273101 0.7747273101
0.7749325673 0.7749325673 0.7749325673
0.7751374473 0.7751374473 0.7751374473
0.7753419513 0.7753419513 0.7753419513
0.7755460808 0.7755460808 0.7755460808
0.7757498372 0.7757498372 0.7757498372
0.7759532219 0.7759532219 0.7759532219
0.7761562361 0.7761562361 0.7761562361
0.7763588812 0.7763588812 0.7763588812
0.7765611586 0.7765611586 0.7765611586
0.7767630696 0.7767630696 0.7767630696
0.7769646155 0.7769646155 0.7769646155
0.7771657976 0.7771657976 0.7771657976
0.7773666173 0.7773666173 0.7773666173
0.7775670758 0.7775670758 0.7775670758
0.7777671745 0.7777671745 0.7777671745
0.7779669147 0.7779669147 0.7779669147
0.7781662975 0.7781662975 0.7781662975
0.7783653244 0.7783653244 0.7783653244
0.7785639965 0.7785639965 0.7785639965
0.7787623151 0.7787623151 0.7787623151
0.7789602816 0.7789602816 0.7789602816
0.7791578970 0.7791578970 0.7791578970
0.7793551628 0.7793551628 0.7793551628
0.7795520800 0.7795520800 0.7795520800
0.7797486500 0.7797486500 0.7797486500
0.7799448740 0.7799448740 0.7799448740
0.7801407531 0.7801407531 0.7801407531
0.7803362887 0.7803362887 0.7803362887
0.7805314818 0.7805314818 0.7805314818
0.7807263337 0.7807263337 0.7807263337
0.7809208456 0.7809208456 0.7809208456
0.7811150186 0.7811150186 0.7811150186
0.7813088540 0.7813088540 0.7813088540
0.7815023530 0.7815023530 0.7815023530
0.7816955166 0.7816955166 0.7816955166
0.7818883460 0.7818883460 0.7818883460
0.7820808424 0.7820808424 0.7820808424
0.7822730070 0.7822730070 0.7822730070
0.7824648409 0.7824648409 0.7824648409
0.7826563452 0.7826563452 0.7826563452
0.7828475210 0.7828475210 0.7828475210
0.7830383695 0.7830383695 0.7830383695
0.7832288919 0.7832288919 0.7832288919
0.7834190891 0.7834190891 0.7834190891
0.7836089623 0.7836089623 0.7836089623
0.7837985127 0.7837985127 0.7837985127
0.7839877413 0.7839877413 0.7839877413
0.7841766492 0.7841766492 0.7841766492
0.7843652375 0.7843652375 0.7843652375
0.7845535072 0.7845535072 0.7845535072
0.7847414595 0.7847414595 0.7847414595
0.7849290954 0.7849290954 0.7849290954
0.7851164160 0.7851164160 0.7851164160
0.7853034224 0.7853034224 0.7853034224
0.7854901155 0.7854901155 0.7854901155
0.7856764964 0.7856764964 0.7856764964
0.7858625663 0.7858625663 0.7858625663
0.7860483260 0.7860483260 0.7860483260
0.7862337767 0.7862337767 0.7862337767
0.7864189194 0.7864189194 0.7864189194
0.7866037550 0.7866037550 0.7866037550
0.7867882847 0.7867882847 0.7867882847
0.7869725094 0.7869725094 0.7869725094
0.7871564301 0.7871564301 0.7871564301
0.7873400479 0.7873400479 0.7873400479
0.7875233637 0.7875233637 0.7875233637
0.7877063785 0.7877063785 0.7877063785
0.7878890933 0.7878890933 0.7878890933
