DJI/DJI_Phantom3_DLOG2sRGB_Improv.cube
# DaVinci Resolve Cube (3D LUT).
#
# Converts DJI Phantom3 DLOG data to sRGB with some color tuning.
# Gamma as defined by ITU-Rec.1886.
# 
LUT_3D_SIZE 5
LUT_3D_INPUT_RANGE 0.0000000000 1.0000000000
0 0 0
0.271824 0 0
0.575265 0 0
1 0.00881972 0.00881972
1 0.0441291 0.0441291
0 0.260609 0
0.256779 0.256779 0
0.556664 0.256687 0
0.955627 0.271077 0
1 0.303243 0.0264744
0 0.555718 0
0.248096 0.544259 0
0.534356 0.53434 0
0.873014 0.544823 0
1 0.579934 0
0.00881972 1 0.00881972
0.271809 0.957046 0
0.553643 0.889601 0
0.867063 0.867048 0
1 0.879088 0
0.0677653 1 0.0677501
0.306645 1 0.0308843
0.576181 1 0
0.872862 1 0
1 1 0
0 0 0.276921
0.26952 0 0.26952
0.57258 0 0.267414
1 0.00442512 0.282658
1 0.0441291 0.319463
0 0.258701 0.258701
0.2551 0.2551 0.2551
0.552956 0.25417 0.25417
0.940826 0.268132 0.268132
1 0.299901 0.299901
0 0.550729 0.251926
0.244953 0.539422 0.244953
0.529061 0.529061 0.236774
0.856733 0.537438 0.242924
1 0.570687 0.26627
0.00440986 1 0.280873
0.264393 0.921401 0.264393
0.540597 0.864027 0.244953
0.832746 0.832746 0.234699
1 0.840436 0.236774
0.057145 1 0.333272
0.293111 1 0.293111
0.55552 1 0.254841
0.830121 1 0.234699
1 1 0.231861
0 0 0.583429
0.268132 0 0.573678
0.571115 0 0.571115
1 0.00440986 0.597223
1 0.0419776 0.657389
0 0.258701 0.559853
0.254841 0.254841 0.554818
0.55111 0.25272 0.55111
0.932616 0.26627 0.57142
1 0.298207 0.622339
0 0.547997 0.547997
0.241505 0.5355 0.5355
0.52343 0.52343 0.52343
0.843244 0.5308 0.5308
1 0.562356 0.562356
0 0.987015 0.587152
0.258656 0.90161 0.559411
0.528984 0.83801 0.528984
0.808103 0.808103 0.509514
1 0.811261 0.511666
0.0441291 1 0.659342
0.279698 1 0.59324
0.535775 1 0.535775
0.800977 1 0.504723
1 1 0.502129
0 0 0.994858
0.27361 0 0.965652
0.578759 0 0.958633
1 0.00881972 1
1 0.0485389 1
0 0.264393 0.918074
0.25919 0.25919 0.905455
0.558251 0.256779 0.899336
0.952895 0.269993 0.952911
1 0.30135 1
0 0.553643 0.889601
0.244953 0.539208 0.860655
0.526604 0.526604 0.833356
0.846189 0.532082 0.846189
1 0.562203 0.907164
0 0.990143 0.990143
0.256779 0.899916 0.899916
0.522026 0.827115 0.827115
0.79527 0.79527 0.79527
1 0.795789 0.795789
0.0352941 1 1
0.272648 1 0.96405
0.525643 1 0.831586
0.78471 1 0.78471
1 1 0.780682
0.0132296 0.0132296 1
0.284413 0.00881972 1
0.599207 0.00614939 1
1 0.0220645 1
1 0.0573587 1
0 0.275486 1
0.271824 0.271824 1
0.574014 0.268132 1
1 0.280873 1
1 0.30988 1
0 0.568536 1
0.252964 0.552148 1
0.537377 0.537377 1
0.868284 0.542535 1
1 0.571023 1
0.00881972 1 1
0.261967 0.911498 1
0.525719 0.831724 1
0.795865 0.795865 1
1 0.79469 1
0.0352941 1 1
0.271824 1 1
0.524163 1 1
0.782559 1 1
1 1 1
