DJI/DJI_Phantom3_DLOG2sRGB_Improv.cube
# DaVinci Resolve Cube (3D LUT).
#
# Converts DJI Phantom3 DLOG data to sRGB with some color tuning.
# Gamma as defined by ITU-Rec.1886.
# 
LUT_3D_SIZE 9
LUT_3D_INPUT_RANGE 0.0000000000 1.0000000000
0 0 0
0.138979 0 0
0.271824 0 0
0.412055 0 0
0.575265 0 0
0.769421 0 0
1 0.00881972 0.00881972
1 0.0264744 0.0264744
1 0.0441291 0.0441291
0 0.132555 0
0.129274 0.129274 0
0.26627 0.127642 0
0.405188 0.125917 0
0.569299 0.125917 0
0.760525 0.130343 0
1 0.145052 0.00440986
1 0.162753 0.0220645
1 0.178988 0.039704
0 0.260609 0
0.122515 0.259922 0
0.256779 0.256779 0
0.3953 0.254932 0
0.556664 0.256687 0
0.741421 0.259159 0
0.955627 0.271077 0
1 0.287343 0.00881972
1 0.303243 0.0264744
0 0.39498 0
0.11548 0.393683 0
0.250919 0.389761 0
0.386557 0.386542 0
0.543206 0.385809 0
0.72134 0.38819 0
0.90251 0.39884 0
1 0.41648 0
1 0.434424 0.00881972
0 0.555718 0
0.114549 0.550698 0
0.248096 0.544259 0
0.381826 0.538048 0
0.534356 0.53434 0
0.70695 0.534691 0
0.873014 0.544823 0
1 0.562264 0
1 0.579934 0
0 0.745907 0
0.119036 0.737133 0
0.250919 0.723888 0
0.381826 0.712444 0
0.531777 0.702708 0
0.699199 0.699184 0
0.853513 0.708003 0
1 0.724681 0
1 0.740215 0
0.00881972 1 0.00881972
0.142107 1 0.002121
0.271809 0.957046 0
0.403647 0.911284 0
0.553643 0.889601 0
0.718486 0.871122 0
0.867063 0.867048 0
1 0.873838 0
1 0.879088 0
0.0485389 1 0.0485389
0.176364 1 0.0352941
0.298207 1 0.0220645
0.429007 1 0.00440986
0.573343 1 0
0.733883 1 0
0.878065 1 0
1 1 0
1 1 0
0.0677653 1 0.0677501
0.189822 1 0.0487221
0.306645 1 0.0308843
0.434424 1 0.00881972
0.576181 1 0
0.73312 1 0
0.872862 1 0
1 1 0
1 1 0
0 0 0.140993
0.136416 0 0.136416
0.271595 0 0.132555
0.410422 0 0.129274
0.574166 0 0.129274
0.767117 0 0.13373
1 0.00881972 0.147585
1 0.0264744 0.165545
1 0.0441291 0.184146
0 0.132555 0.132555
0.129274 0.129274 0.129274
0.264973 0.125917 0.125917
0.405112 0.125917 0.125917
0.568536 0.125917 0.125917
0.75938 0.129274 0.129274
1 0.142168 0.142168
1 0.161761 0.161761
1 0.178988 0.178988
0 0.260609 0.122515
0.121386 0.258701 0.121386
0.256779 0.256779 0.119036
0.39498 0.254841 0.11548
0.555657 0.254841 0.115892
0.739956 0.258701 0.119936
0.949996 0.269993 0.132555
1 0.286107 0.148211
1 0.30251 0.165545
0 0.394583 0.11548
0.11548 0.392416 0.11548
0.249012 0.388754 0.111864
0.385809 0.385809 0.108171
0.541222 0.384497 0.106645
0.719203 0.386816 0.108171
0.898116 0.397559 0.119036
1 0.414374 0.132555
1 0.432059 0.148211
0 0.55407 0.11548
0.111864 0.548943 0.111864
0.246952 0.542245 0.108171
0.380118 0.535729 0.100526
0.531533 0.531533 0.098146
0.702541 0.531655 0.0986801
0.866239 0.541512 0.10779
1 0.558709 0.119036
1 0.57528 0.131823
0 0.742702 0.122515
0.11548 0.733211 0.11548
0.248951 0.720256 0.108171
0.379553 0.707408 0.100526
0.528893 0.697673 0.0965744
0.693629 0.693629 0.0925154
0.844312 0.701976 0.0971237
1 0.718547 0.108171
1 0.731731 0.11548
0.00881972 1 0.148211
0.138979 0.990616 0.138979
0.268132 0.939315 0.129274
0.39884 0.902342 0.119036
0.547433 0.878294 0.111864
0.70988 0.856046 0.104402
0.850126 0.850126 0.100526
1 0.855741 0.104402
1 0.860044 0.104402
0.0441291 1 0.184146
0.172351 1 0.172335
0.293111 1 0.157061
0.421271 1 0.138979
0.564401 1 0.122515
0.721401 1 0.111482
0.857542 1 0.104402
1 1 0.103578
1 1 0.100526
0.0617685 1 0.201358
0.184146 1 0.184146
0.300465 1 0.164401
0.426108 1 0.142855
0.566445 1 0.125917
0.720073 1 0.108171
0.851164 1 0.100526
1 1 0.100526
1 1 0.0965744
0 0 0.276921
0.13579 0 0.273655
0.26952 0 0.26952
0.409247 0 0.266331
0.57258 0 0.267414
0.764858 0 0.271824
1 0.00442512 0.282658
1 0.0223087 0.301564
1 0.0441291 0.319463
0 0.129274 0.268132
0.129274 0.129274 0.26627
0.264393 0.125917 0.264393
0.403922 0.12398 0.262516
0.56701 0.125917 0.263233
0.757275 0.129274 0.267399
1 0.142107 0.279088
1 0.15993 0.296513
1 0.177462 0.314672
0 0.258701 0.258701
0.119036 0.258412 0.258412
0.2551 0.2551 0.2551
0.393683 0.253574 0.253574
0.552956 0.25417 0.25417
0.737667 0.256779 0.256779
0.940826 0.268132 0.268132
1 0.284413 0.284413
1 0.299901 0.299901
0 0.393347 0.252888
0.111864 0.391073 0.250919
0.248783 0.387137 0.248783
0.384054 0.384054 0.244953
0.538781 0.381826 0.24445
0.715938 0.384497 0.246403
0.891768 0.39498 0.254841
1 0.410895 0.268132
1 0.428656 0.282536
0 0.550729 0.251926
0.111864 0.546426 0.248951
0.244953 0.539422 0.244953
0.37705 0.532601 0.239368
0.529061 0.529061 0.236774
0.697627 0.528847 0.236774
0.856733 0.537438 0.242924
1 0.554208 0.254841
1 0.570687 0.26627
0 0.738491 0.257877
0.11548 0.728054 0.252781
0.245518 0.715312 0.245518
0.375982 0.701366 0.238849
0.524269 0.691493 0.233936
0.687083 0.687083 0.230488
0.833631 0.69456 0.235111
1 0.710521 0.242924
1 0.721675 0.248951
0.00440986 1 0.280873
0.13579 0.972244 0.273655
0.264393 0.921401 0.264393
0.394629 0.89073 0.254841
0.540597 0.864027 0.244953
0.699351 0.840192 0.236774
0.832746 0.832746 0.234699
0.992355 0.836927 0.236774
1 0.840436 0.236774
0.039704 1 0.316274
0.168292 1 0.303243
0.287922 1 0.287922
0.413931 1 0.270512
0.55523 1 0.254841
0.708888 1 0.242924
0.836973 0.992401 0.236774
0.988266 0.988266 0.235859
1 0.984009 0.234699
0.057145 1 0.333272
0.176364 1 0.313787
0.293111 1 0.293111
0.4168 1 0.273655
0.55552 1 0.254841
0.706401 1 0.240894
0.830121 1 0.234699
0.96997 1 0.232609
1 1 0.231861
0 0 0.418845
0.132555 0 0.4159
0.268132 0 0.410605
0.407706 0 0.407706
0.571374 0 0.408286
0.763241 0 0.413931
1 0.00440986 0.428489
1 0.0220645 0.450675
1 0.041474 0.474449
0 0.129274 0.410147
0.127749 0.127764 0.407706
0.263401 0.125917 0.404776
0.402914 0.122515 0.40293
0.565408 0.123369 0.403922
0.755688 0.129274 0.408453
0.994446 0.142107 0.423667
1 0.15993 0.444038
1 0.176364 0.467323
0 0.258701 0.39884
0.119036 0.256779 0.397559
0.254841 0.254841 0.39498
0.39266 0.252888 0.39266
0.551308 0.252888 0.392813
0.735348 0.256779 0.396857
0.934783 0.26627 0.409186
1 0.282658 0.428824
1 0.298207 0.448325
0 0.391409 0.391409
0.111864 0.389761 0.389761
0.246952 0.385809 0.385809
0.381826 0.381826 0.381826
0.536614 0.380484 0.380484
0.713008 0.382284 0.382284
0.885908 0.392828 0.392828
1 0.408209 0.408209
1 0.42565 0.42565
0 0.548821 0.390616
0.108171 0.544228 0.386786
0.242924 0.536873 0.380484
0.375082 0.530343 0.375082
0.525826 0.525826 0.370977
0.69308 0.525338 0.370871
0.84889 0.533471 0.378286
1 0.549325 0.391073
1 0.566415 0.403922
0 0.734295 0.39585
0.111864 0.723812 0.389761
0.242924 0.710613 0.381353
0.373053 0.696117 0.373053
0.518929 0.686427 0.366842
0.681315 0.681315 0.363073
0.82472 0.687739 0.367895
1 0.701457 0.376059
1 0.712657 0.381964
0 0.996414 0.423697
0.132555 0.956451 0.413947
0.260609 0.909056 0.401907
0.389807 0.879789 0.389807
0.533913 0.849699 0.378912
0.688807 0.825864 0.368231
0.819272 0.819272 0.36405
0.958297 0.82182 0.366339
1 0.823346 0.366842
0.0352941 1 0.46595
0.162753 1 0.448325
0.280873 1 0.427131
0.405554 1 0.405554
0.545235 1 0.387137
0.695705 0.989853 0.372671
0.820829 0.95581 0.365179
0.949218 0.949218 0.36405
1 0.943938 0.362646
0.0485389 1 0.483467
0.171023 1 0.459373
0.286183 1 0.432715
0.407706 1 0.407706
0.544671 1 0.387137
0.692287 1 0.370108
0.814755 1 0.362112
0.932174 1 0.360281
1 1 0.359823
0 0 0.583429
0.132555 0 0.579019
0.268132 0 0.573678
0.407706 0 0.570687
0.571115 0 0.571115
0.763394 0 0.577585
1 0.00440986 0.597223
1 0.0220645 0.626001
1 0.0419776 0.657389
0 0.129274 0.57232
0.127977 0.127993 0.570565
0.263676 0.125917 0.567239
0.403128 0.122515 0.564126
0.565667 0.123842 0.565667
0.755795 0.129274 0.571572
0.994415 0.142107 0.590219
1 0.159548 0.618631
1 0.176364 0.647684
0 0.258701 0.559853
0.119036 0.256779 0.558343
0.254841 0.254841 0.554818
0.392477 0.252644 0.551064
0.55111 0.25272 0.55111
0.734783 0.256474 0.556558
0.932616 0.26627 0.57142
1 0.280919 0.596429
1 0.298207 0.622339
0 0.391135 0.550118
0.111864 0.389761 0.547524
0.246952 0.385641 0.542473
0.381262 0.381262 0.537484
0.535622 0.379995 0.535637
0.71107 0.381796 0.537865
0.882292 0.391073 0.54963
1 0.406943 0.569543
1 0.423697 0.590509
0 0.547997 0.547997
0.108171 0.543175 0.543175
0.241505 0.5355 0.5355
0.373724 0.528634 0.528634
0.52343 0.52343 0.52343
0.689479 0.521904 0.52192
0.843244 0.5308 0.5308
1 0.546395 0.54641
1 0.562356 0.562356
0 0.731731 0.554513
0.110094 0.720897 0.545846
0.240894 0.707118 0.534905
0.370321 0.692485 0.524941
0.515633 0.682261 0.515633
0.677058 0.677058 0.5122
0.818631 0.682811 0.516014
0.985595 0.694286 0.52639
1 0.703517 0.532326
0 0.987015 0.587152
0.129274 0.942626 0.574136
0.258656 0.90161 0.559411
0.385809 0.870481 0.543496
0.528984 0.83801 0.528984
0.6804 0.81593 0.513893
0.808103 0.808103 0.509514
0.927977 0.809674 0.510796
1 0.811261 0.511666
0.0308843 1 0.639033
0.157061 1 0.616129
0.277287 1 0.587137
0.399161 1 0.560403
0.537194 1 0.537194
0.684688 0.957107 0.517754
0.807721 0.921859 0.509209
0.916182 0.916182 0.507362
1 0.91252 0.505989
0.0441291 1 0.659342
0.165545 1 0.62739
0.279698 1 0.59324
0.400778 1 0.561547
0.535775 1 0.535775
0.680964 1 0.514443
0.800977 1 0.504723
0.906523 1 0.502464
1 1 0.502129
0 0 0.772671
0.13434 0 0.767361
0.268894 0 0.760967
0.409323 0 0.756603
0.572778 0 0.757565
0.765927 0 0.765927
1 0.00865187 0.791836
1 0.0248569 0.828443
1 0.0441291 0.880186
0 0.129274 0.759258
0.129274 0.129274 0.756802
0.264393 0.125917 0.751263
0.403937 0.125917 0.746899
0.56762 0.125917 0.748562
0.758221 0.129274 0.758221
1 0.142107 0.782559
1 0.15993 0.818143
1 0.176364 0.863066
0 0.25948 0.74165
0.119036 0.258701 0.739742
0.256275 0.256275 0.734646
0.393683 0.25333 0.729824
0.552468 0.253651 0.730053
0.736522 0.256779 0.736522
0.934874 0.266316 0.756512
1 0.282292 0.789181
1 0.298207 0.821653
0 0.39324 0.728771
0.111864 0.390631 0.72462
0.246952 0.38584 0.718166
0.381826 0.381826 0.711818
0.536278 0.380484 0.708705
0.711604 0.381826 0.711604
0.882002 0.391073 0.725582
1 0.4065 0.751629
1 0.423224 0.779782
0 0.548745 0.724483
0.108171 0.543648 0.718288
0.24181 0.535653 0.707774
0.373724 0.528588 0.697215
0.522652 0.522652 0.690105
0.688899 0.521126 0.688899
0.841093 0.530495 0.700069
1 0.544976 0.720241
1 0.560632 0.740169
0 0.73138 0.73138
0.108171 0.720516 0.720516
0.240894 0.705989 0.705989
0.369604 0.690669 0.690669
0.513985 0.680552 0.680537
0.673854 0.673854 0.673854
0.813977 0.678767 0.678767
0.9682 0.688975 0.688975
1 0.696651 0.696651
0 0.981659 0.774258
0.129274 0.936355 0.757244
0.256779 0.897307 0.735927
0.383368 0.862394 0.71368
0.524254 0.828992 0.691447
0.673365 0.807767 0.673365
0.799146 0.799146 0.665995
0.909163 0.800107 0.667155
1 0.80058 0.667491
0.026566 1 0.838468
0.154147 1 0.805386
0.272236 1 0.767269
0.394629 1 0.731609
0.5308 1 0.701045
0.676219 0.930938 0.676219
0.796597 0.904845 0.66392
0.901549 0.901549 0.661631
1 0.898711 0.659754
0.039704 1 0.867445
0.15993 1 0.817517
0.275471 1 0.772808
0.394965 1 0.731975
0.529305 1 0.698299
0.671489 1 0.671489
0.790112 1 0.658076
0.892271 1 0.65568
1 1 0.654902
0 0 0.994858
0.138979 0 0.98497
0.27361 0 0.965652
0.413931 0 0.955978
0.578759 0 0.958633
0.774639 0 0.982452
1 0.00881972 1
1 0.0284581 1
1 0.0485389 1
0 0.132906 0.962219
0.132555 0.132555 0.957229
0.268132 0.129274 0.942824
0.408728 0.129274 0.933623
0.572808 0.129274 0.937072
0.765698 0.132555 0.959686
1 0.14519 1
1 0.162753 1
1 0.181552 1
0 0.264393 0.918074
0.125032 0.262516 0.913252
0.25919 0.25919 0.905455
0.397559 0.256779 0.899458
0.558251 0.256779 0.899336
0.742702 0.260609 0.907393
0.952895 0.269993 0.952911
1 0.285084 1
1 0.30135 1
0 0.397559 0.897704
0.11548 0.394888 0.891157
0.250919 0.389761 0.879194
0.385809 0.385809 0.868803
0.540459 0.384115 0.863676
0.716731 0.385138 0.867567
0.88954 0.393942 0.88954
1 0.409628 0.935729
1 0.425757 1
0 0.553643 0.889601
0.111864 0.547692 0.878782
0.244953 0.539208 0.860655
0.376349 0.531136 0.844038
0.526604 0.526604 0.833356
0.692256 0.524773 0.829969
0.846189 0.532082 0.846189
1 0.547066 0.877409
1 0.562203 0.907164
0 0.736217 0.897642
0.111864 0.724102 0.879866
0.242924 0.709316 0.85536
0.370977 0.694133 0.832578
0.516136 0.682979 0.818891
0.675914 0.675914 0.810742
0.814176 0.67895 0.814176
0.964477 0.687739 0.824704
1 0.694377 0.833173
0 0.990143 0.990143
0.129274 0.942977 0.942962
0.256779 0.899916 0.899916
0.383307 0.862272 0.862272
0.522026 0.827115 0.827115
0.671061 0.804593 0.804593
0.79527 0.79527 0.79527
0.903746 0.795758 0.795758
1 0.795789 0.795789
0.0264744 1 1
0.151431 1 1
0.271824 1 0.957168
0.392309 1 0.885084
0.52842 0.992035 0.836698
0.671824 0.918486 0.805997
0.791424 0.898543 0.791424
0.894789 0.894789 0.788693
1 0.890867 0.786068
0.0352941 1 1
0.157061 1 1
0.272648 1 0.96405
0.391455 1 0.883635
0.525643 1 0.831586
0.666987 1 0.799969
0.78471 1 0.78471
0.884459 1 0.781445
1 1 0.780682
0.00881972 0.00881972 1
0.14519 0.00440986 1
0.279088 0 1
0.421271 0 1
0.588083 0 1
0.787579 0.00440986 1
1 0.0176547 1
1 0.0352941 1
1 0.0529488 1
0 0.141375 1
0.138979 0.138979 1
0.273869 0.13579 1
0.416388 0.134524 1
0.582208 0.13579 1
0.778286 0.138979 1
1 0.151202 1
1 0.168353 1
1 0.186679 1
0 0.269902 1
0.129274 0.268132 1
0.265644 0.26566 1
0.404318 0.26273 1
0.566552 0.262516 1
0.753124 0.266224 1
0.980133 0.275486 1
1 0.290883 1
1 0.306416 1
0 0.403922 1
0.122515 0.401389 1
0.255467 0.395651 1
0.391073 0.391073 1
0.547219 0.389685 1
0.724117 0.389883 1
0.902586 0.39884 1
1 0.414923 1
1 0.430289 1
0 0.560784 1
0.11548 0.555062 1
0.248951 0.545617 1
0.380972 0.537285 1
0.531502 0.531502 1
0.699855 0.530358 0.99971
0.856443 0.537285 1
1 0.551781 1
1 0.566949 1
0 0.744183 1
0.11548 0.73167 1
0.246952 0.716503 1
0.375143 0.700801 1
0.520928 0.688685 0.966781
0.681071 0.681071 0.944442
0.818219 0.68246 0.949371
0.971222 0.689479 0.971222
1 0.695201 0.988708
0.00440986 1 1
0.132555 0.959411 1
0.259525 0.905852 1
0.385199 0.867643 1
0.52433 0.829145 0.977157
0.671595 0.805524 0.917647
0.795422 0.795422 0.903304
0.903288 0.795407 0.903288
1 0.795117 0.902922
0.0308843 1 1
0.154147 1 1
0.271824 1 1
0.39237 1 1
0.528038 0.991043 0.991043
0.671305 0.916579 0.916579
0.790417 0.897047 0.897047
0.892454 0.892454 0.892454
1 0.888853 0.888853
0.0352941 1 1
0.157061 1 1
0.271824 1 1
0.391073 1 1
0.524758 1 0.978973
0.665629 1 0.907515
0.783444 1 0.886824
0.883009 1 0.883009
1 1 0.882399
0.0132296 0.0132296 1
0.151202 0.00881972 1
0.284413 0.00881972 1
0.428885 0.00440986 1
0.599207 0.00614939 1
0.800504 0.00881972 1
1 0.0220645 1
1 0.039704 1
1 0.0573587 1
0.00881972 0.147433 1
0.14519 0.14519 1
0.280613 0.142458 1
0.423697 0.142107 1
0.591714 0.142107 1
0.79118 0.14519 1
1 0.157122 1
1 0.175021 1
1 0.191684 1
0 0.275486 1
0.13579 0.273671 1
0.271824 0.271824 1
0.411292 0.268132 1
0.574014 0.268132 1
0.764233 0.271656 1
1 0.280873 1
1 0.295216 1
1 0.30988 1
0 0.410208 1
0.126604 0.407706 1
0.260609 0.402075 1
0.397559 0.397559 1
0.555062 0.39498 1
0.733593 0.395193 1
0.915465 0.404562 1
1 0.420294 1
1 0.435019 1
0 0.568536 1
0.122515 0.561669 1
0.252964 0.552148 1
0.385885 0.543587 1
0.537377 0.537377 1
0.70721 0.535042 1
0.868284 0.542535 1
1 0.557443 1
1 0.571023 1
0 0.752911 1
0.119188 0.739803 1
0.250874 0.723262 1
0.379782 0.707546 1
0.526436 0.694316 1
0.685588 0.685588 1
0.822187 0.685802 1
0.978058 0.691905 1
1 0.696681 1
0.00881972 1 1
0.13579 0.977127 1
0.261967 0.911498 1
0.386755 0.871931 1
0.525719 0.831724 1
0.672709 0.807111 1
0.795865 0.795865 1
0.902998 0.795178 1
1 0.79469 1
0.0308843 1 1
0.154147 1 1
0.271824 1 1
0.392599 1 1
0.527916 0.990753 1
0.671031 0.915587 1
0.789731 0.896147 1
0.890867 0.890867 1
1 0.887541 1
0.0352941 1 1
0.157061 1 1
0.271824 1 1
0.390799 1 1
0.524163 1 1
0.664744 1 1
0.782559 1 1
0.882521 1 1
1 1 1
