DJI/DJI_X7_DLOG2Rec709.cube
# DaVinci Resolve Cube (3D LUT).
#
#DJI Color Space to Rec709.
#Not-Clipped.
#
LUT_3D_SIZE	33
0.0032484508 0.0032453058 0.0032557239
0.0219788502 0.0025208992 0.0031580667
0.0431329230 0.0017964915 0.0030604085
0.0679967210 0.0010720828 0.0029627493
0.0952604196 0.0003476949 0.0028651103
0.1208039069 0.0000000000 0.0027629179
0.1500838989 0.0000000000 0.0026309376
0.1844129176 0.0000000000 0.0024563106
0.2270686041 0.0000000000 0.0022253292
0.2775612099 0.0000000000 0.0019199657
0.3331370509 0.0000000000 0.0015166240
0.3907719512 0.0000000000 0.0009847067
0.4487283324 0.0000000000 0.0002853533
0.5065282930 0.0000000000 0.0000000000
0.5639106658 0.0000000000 0.0000000000
0.6206696510 0.0000000000 0.0000000000
0.6766461579 0.0000000000 0.0000000000
0.7314107991 0.0000000000 0.0000000000
0.7846934033 0.0000000000 0.0000000000
0.8348768255 0.0000000000 0.0008213062
0.8765831074 0.0000000000 0.0228859166
0.9099338243 0.0000000000 0.0867431415
0.9362000714 0.0000000000 0.1898036516
0.9562926744 0.0000000000 0.3099052052
0.9710116743 0.0000000000 0.4190461040
0.9813213459 0.0997017835 0.5090913668
0.9882012513 0.2303936939 0.5859789083
0.9924874591 0.3422627282 0.6539211734
0.9950483135 0.4310074210 0.7157112178
0.9968464224 0.5081442845 0.7738613172
0.9988614896 0.5845170653 0.8291306763
1.0000000000 0.6510769940 0.8737326896
1.0000000000 0.7068899779 0.9077411032
0.0000000000 0.0188728627 0.0015780426
0.0166038546 0.0181484391 0.0014803682
0.0369722827 0.0174240224 0.0013827009
0.0602042537 0.0166996161 0.0012850484
0.0875184153 0.0159752234 0.0011874101
0.1141349716 0.0152169029 0.0010852136
0.1441766443 0.0142373471 0.0009532267
0.1791371150 0.0129408713 0.0007785888
0.2219642959 0.0112250078 0.0005475846
0.2731896560 0.0089542549 0.0002421831
0.3295852999 0.0059495244 0.0000000000
0.3881390771 0.0019744289 0.0000000000
0.4467213291 0.0000000000 0.0000000000
0.5050399760 0.0000000000 0.0000000000
0.5627957390 0.0000000000 0.0000000000
0.6198362573 0.0000000000 0.0000000000
0.6760277664 0.0000000000 0.0000000000
0.7309569775 0.0000000000 0.0000000000
0.7843707831 0.0000000000 0.0000000000
0.8346690678 0.0000000000 0.0000000000
0.8764389110 0.0000000000 0.0210673656
0.9098419742 0.0000000000 0.0840849679
0.9361454800 0.0000000000 0.1879708806
0.9562615258 0.0000000000 0.3085427119
0.9709949887 0.0000000000 0.4182100034
0.9813133294 0.1186660480 0.5085655690
0.9881967102 0.2436358361 0.5856229869
0.9924852877 0.3510874577 0.6536716238
0.9950471858 0.4368009266 0.7155347289
0.9968452970 0.5121222577 0.7737330496
0.9988603667 0.5872279502 0.8290414132
1.0000000000 0.6530112258 0.8736785524
1.0000000000 0.7083197337 0.9077088980
0.0000000000 0.0360165704 0.0000000000
0.0112288660 0.0351862604 0.0000000000
0.0308116436 0.0343559503 0.0000000000
0.0524117864 0.0335256507 0.0000000000
0.0795664147 0.0326953662 0.0000000000
0.1072549483 0.0318261925 0.0000000000
0.1381570826 0.0307034407 0.0000000000
0.1737360696 0.0292174355 0.0000000000
0.2168719040 0.0272507195 0.0000000000
0.2687544263 0.0246479677 0.0000000000
0.3259972046 0.0215767419 0.0000000000
0.3854183714 0.0176013962 0.0000000000
0.4447052635 0.0123442289 0.0000000000
0.5035328498 0.0053976598 0.0000000000
0.5616646443 0.0000000000 0.0000000000
0.6189975655 0.0000000000 0.0000000000
0.6754087712 0.0000000000 0.0000000000
0.7305028525 0.0000000000 0.0000000000
0.7840480188 0.0000000000 0.0000000000
0.8344536273 0.0000000000 0.0000000000
0.8762887508 0.0000000000 0.0192447614
0.9097501138 0.0000000000 0.0813792489
0.9360908851 0.0000000000 0.1861239073
0.9562297048 0.0000000000 0.3071723896
0.9709779220 0.0114887817 0.4173710703
0.9813046674 0.1363097864 0.5080373993
0.9881923465 0.2561265022 0.5852673059
0.9924831164 0.3595353721 0.6534215589
0.9950460582 0.4424620519 0.7153581936
0.9968441798 0.5160298103 0.7736047775
0.9988592438 0.5899114472 0.8289521399
1.0000000000 0.6549289625 0.8736244116
1.0000000000 0.7097356810 0.9076766916
0.0000000000 0.0544970086 0.0000000000
0.0058538864 0.0534467665 0.0000000000
0.0246510175 0.0523965243 0.0000000000
0.0461191602 0.0514374215 0.0000000000
0.0717739474 0.0506071248 0.0000000000
0.1000822967 0.0497379395 0.0000000000
0.1319447204 0.0486151707 0.0000000000
0.1683534982 0.0471291391 0.0000000000
0.2117861932 0.0451623753 0.0000000000
0.2642528356 0.0425595357 0.0000000000
0.3223716968 0.0391152965 0.0000000000
0.3826681544 0.0345586085 0.0000000000
0.4426800194 0.0285325077 0.0000000000
0.5019939923 0.0210233200 0.0000000000
0.5605286230 0.0118587684 0.0000000000
0.6181525030 0.0000000000 0.0000000000
0.6747891707 0.0000000000 0.0000000000
0.7300474945 0.0000000000 0.0000000000
0.7837251103 0.0000000000 0.0000000000
0.8342381260 0.0000000000 0.0000000000
0.8761355645 0.0000000000 0.0174203274
0.9096582433 0.0000000000 0.0784024436
0.9360362867 0.0000000000 0.1842624124
0.9561978825 0.0000000000 0.3057964880
0.9709605405 0.0265379610 0.4165295000
0.9812955055 0.1526011095 0.5075072634
0.9881879828 0.2683269596 0.5849114020
0.9924809389 0.3676645998 0.6531713783
0.9950449654 0.4479451652 0.7151816935
0.9968441798 0.5198707833 0.7734789884
0.9988581209 0.5925584701 0.8288628562
1.0000000000 0.6568322481 0.8735704784
1.0000000000 0.7111410274 0.9076444839
0.0000000000 0.0771532525 0.0000000000
0.0004789192 0.0761030104 0.0000000000
0.0192093018 0.0750527683 0.0000000000
0.0399585408 0.0740025261 0.0000000000
0.0639814873 0.0729522840 0.0000000000
0.0925789685 0.0718528494 0.0000000000
0.1255210701 0.0704326616 0.0000000000
0.1628761391 0.0685529788 0.0000000000
0.2065966727 0.0660652025 0.0000000000
0.2597795120 0.0627728196 0.0000000000
0.3187076560 0.0584160800 0.0000000000
0.3798986094 0.0526520740 0.0000000000
0.4406454781 0.0464431638 0.0000000000
0.5004503036 0.0384792342 0.0000000000
0.5593902051 0.0279731425 0.0000000000
0.6173062216 0.0154362493 0.0000000000
0.6741639531 0.0000000000 0.0000000000
0.7295896445 0.0000000000 0.0000000000
0.7834020573 0.0000000000 0.0000000000
0.8340225639 0.0000000000 0.0000000000
0.8759823488 0.0000000000 0.0155963039
0.9095651761 0.0000000000 0.0756714027
0.9359820906 0.0000000000 0.1823872601
0.9561660592 0.0000000000 0.3044149416
0.9709431587 0.0434349100 0.4156862778
0.9812863435 0.1679329310 0.5069765703
0.9881836192 0.2802745679 0.5845552746
0.9924786770 0.3755567906 0.6529208879
0.9950438828 0.4532921396 0.7150051709
0.9968441798 0.5236601374 0.7733531772
0.9988569980 0.5951802059 0.8287735622
1.0000000000 0.6586974968 0.8735165512
1.0000000000 0.7125365811 0.9076122749
0.0000000000 0.1007115245 0.0000000000
0.0000000000 0.0997243004 0.0000000000
0.0135824740 0.0987310455 0.0000000000
0.0335092525 0.0977316547 0.0000000000
0.0558239062 0.0967260199 0.0000000000
0.0844681728 0.0956664509 0.0000000000
0.1185676844 0.0942872328 0.0000000000
0.1569879364 0.0924430748 0.0000000000
0.2010459958 0.0899683935 0.0000000000
0.2551023511 0.0866469416 0.0000000000
0.3148382929 0.0823787140 0.0000000000
0.3769781549 0.0763691877 0.0000000000
0.4384434539 0.0687455989 0.0000000000
0.4988290558 0.0586709116 0.0000000000
0.5581958582 0.0467200509 0.0000000000
0.6164189727 0.0329083930 0.0000000000
0.6735086957 0.0160878973 0.0000000000
0.7291100083 0.0000000000 0.0000000000
0.7830603762 0.0000000000 0.0000000000
0.8337968354 0.0000000000 0.0000000000
0.8758219220 0.0000000000 0.0136872461
0.9094676960 0.0000000000 0.0728128171
0.9359263973 0.0000000000 0.1804110754
0.9561329053 0.0000000000 0.3029631046
0.9709249620 0.0635987139 0.4148017625
0.9812767521 0.1832653608 0.5064204104
0.9881790510 0.2919755340 0.5841822194
0.9924763092 0.3834748560 0.6526585516
0.9950427495 0.4587805370 0.7148191662
0.9968441798 0.5275378894 0.7732214467
0.9988568629 0.5978662317 0.8286822110
1.0000000000 0.6606397851 0.8734600932
1.0000000000 0.7139838093 0.9075785553
0.0000000000 0.1275061142 0.0000000000
0.0000000000 0.1266325559 0.0000000000
0.0063138638 0.1257548444 0.0000000000
0.0251782053 0.1248729233 0.0000000000
0.0466463253 0.1239867354 0.0000000000
0.0737131587 0.1230543859 0.0000000000
0.1094401768 0.1218428645 0.0000000000
0.1491273959 0.1202267617 0.0000000000
0.1939019542 0.1181017044 0.0000000000
0.2489463458 0.1152931718 0.0000000000
0.3097817339 0.1115059467 0.0000000000
0.3731222172 0.1063634240 0.0000000000
0.4355804971 0.0993100832 0.0000000000
0.4967190024 0.0894892521 0.0000000000
0.5566350093 0.0760110029 0.0000000000
0.6152680822 0.0585338911 0.0000000000
0.6726612392 0.0391119376 0.0000000000
0.7284899199 0.0171444001 0.0000000000
0.7826172114 0.0000000000 0.0000000000
0.8334833085 0.0000000000 0.0000000000
0.8756150009 0.0000000000 0.0112220895
0.9093417560 0.0000000000 0.0691209432
0.9358544483 0.0000000000 0.1778330573
0.9560931184 0.0026647584 0.3010889928
0.9709024261 0.0926821138 0.4136595472
0.9812645646 0.2024590523 0.5057016382
0.9881729990 0.3063642101 0.5836995551
0.9924732505 0.3933073164 0.6523195064
0.9950412855 0.4656366302 0.7145788050
0.9968441798 0.5324429671 0.7730512436
0.9988568629 0.6013028703 0.8285645477
1.0000000000 0.6631380792 0.8733871558
1.0000000000 0.7158413833 0.9075348467
0.0000000000 0.1587992268 0.0000000000
0.0000000000 0.1580356983 0.0000000000
0.0000000000 0.1572693876 0.0000000000
0.0154235697 0.1565002660 0.0000000000
0.0356194302 0.1557283041 0.0000000000
0.0597654459 0.1549170930 0.0000000000
0.0965499143 0.1538644732 0.0000000000
0.1384520341 0.1524629402 0.0000000000
0.1847603594 0.1505931707 0.0000000000
0.2405689535 0.1480919748 0.0000000000
0.3029689575 0.1447964736 0.0000000000
0.3679085635 0.1403747474 0.0000000000
0.4317620359 0.1343683792 0.0000000000
0.4938678552 0.1261274404 0.0000000000
0.5545472714 0.1147994506 0.0000000000
0.6137311383 0.0990136925 0.0000000000
0.6715342696 0.0762707652 0.0000000000
0.7276608087 0.0481176643 0.0000000000
0.7820302218 0.0207049115 0.0000000000
0.8330680678 0.0000000000 0.0000000000
0.8753416781 0.0000000000 0.0079608301
0.9091761120 0.0000000000 0.0642382860
0.9357592075 0.0000000000 0.1743756172
0.9560404540 0.0300106279 0.2985801792
0.9708745477 0.1269220105 0.4121492432
0.9812488208 0.2276031065 0.5047497949
0.9881648628 0.3244515362 0.5830597403
0.9924692786 0.4056201249 0.6518706535
0.9950408292 0.4744142883 0.7142640224
0.9968423760 0.5387398107 0.7728218534
0.9988568629 0.6057763532 0.8284087810
1.0000000000 0.6663851159 0.8732906059
1.0000000000 0.7182731376 0.9074769505
0.0000000000 0.1954182808 0.0000000000
0.0000000000 0.1947463489 0.0000000000
0.0000000000 0.1940725331 0.0000000000
0.0026898064 0.1933968186 0.0000000000
0.0214201415 0.1927191901 0.0000000000
0.0434984613 0.1920077409 0.0000000000
0.0780259174 0.1910855450 0.0000000000
0.1234121097 0.1898593930 0.0000000000
0.1720944328 0.1882266153 0.0000000000
0.2289279089 0.1860480648 0.0000000000
0.2936790068 0.1831333955 0.0000000000
0.3608633749 0.1792193379 0.0000000000
0.4265281103 0.1739364094 0.0000000000
0.4900681213 0.1669588229 0.0000000000
0.5517580212 0.1574577695 0.0000000000
0.6116901940 0.1443394352 0.0000000000
0.6700320653 0.1261632946 0.0000000000
0.7265540630 0.1005634459 0.0000000000
0.7812264562 0.0652677585 0.0000000000
0.8325025389 0.0326230585 0.0000000000
0.8749793126 0.0101583226 0.0036458986
0.9089591804 0.0028895324 0.0577834896
0.9356298341 0.0192827780 0.1698063027
0.9559683733 0.0752649616 0.2952116193
0.9708374614 0.1655345058 0.4101321014
0.9812280740 0.2582204711 0.5034714540
0.9881547510 0.3465864411 0.5822134946
0.9924641343 0.4209050072 0.6512763353
0.9950408292 0.4854180211 0.7138485731
0.9968397098 0.5468073962 0.7725174954
0.9988547920 0.6115270491 0.8281976682
1.0000000000 0.6705558807 0.8731627949
1.0000000000 0.7214482103 0.9074003131
0.0000000000 0.2419274523 0.0000000000
0.0000000000 0.2412827577 0.0000000000
0.0000000000 0.2406352606 0.0000000000
0.0000000000 0.2399862511 0.0000000000
0.0045660133 0.2393357194 0.0000000000
0.0241807808 0.2386530622 0.0000000000
0.0535913090 0.2377687132 0.0000000000
0.1019480201 0.2365938102 0.0000000000
0.1547440678 0.2350309402 0.0000000000
0.2129818391 0.2329484865 0.0000000000
0.2808825278 0.2301677532 0.0000000000
0.3511387559 0.2264436101 0.0000000000
0.4194374161 0.2214357930 0.0000000000
0.4848899534 0.2148671477 0.0000000000
0.5479623094 0.2060463868 0.0000000000
0.6089020068 0.1941367276 0.0000000000
0.6680047202 0.1789772548 0.0000000000
0.7250699394 0.1584754614 0.0000000000
0.7801464945 0.1311867817 0.0000000000
0.8317263189 0.0978761671 0.0000000000
0.8744940570 0.0662650809 0.0000000000
0.9086692762 0.0549725707 0.0497705210
0.9354585215 0.0779594911 0.1636947537
0.9558685523 0.1366261953 0.2906828696
0.9707829474 0.2109043788 0.4073779206
0.9812029333 0.2949262310 0.5017560100
0.9881440603 0.3726292275 0.5810847025
0.9924591550 0.4395379726 0.6504918181
0.9950381623 0.4991288363 0.7132919964
0.9968392168 0.5569571321 0.7721201173
0.9988519111 0.6187823184 0.8279160536
1.0000000000 0.6758864979 0.8729935933
1.0000000000 0.7255541263 0.9072988652
0.0000000000 0.2947001544 0.0000000000
0.0000000000 0.2941640046 0.0000000000
0.0000000000 0.2936269596 0.0000000000
0.0000000000 0.2930890153 0.0000000000
0.0000000000 0.2925501674 0.0000000000
0.0018664695 0.2919850966 0.0000000000
0.0276440677 0.2912536676 0.0000000000
0.0698546469 0.2902829676 0.0000000000
0.1297145674 0.2889935865 0.0000000000
0.1912932743 0.2872788721 0.0000000000
0.2625190802 0.2849948764 0.0000000000
0.3375377144 0.2819414868 0.0000000000
0.4096722972 0.2777222388 0.0000000000
0.4778463489 0.2720535681 0.0000000000
0.5428207157 0.2644027302 0.0000000000
0.6051479361 0.2543356119 0.0000000000
0.6652611585 0.2407286523 0.0000000000
0.7230750800 0.2219809747 0.0000000000
0.7786833952 0.1980655058 0.0000000000
0.8306938275 0.1721003040 0.0000000000
0.8738474273 0.1487626674 0.0000000000
0.9082823096 0.1393684683 0.0408283324
0.9352318680 0.1559937946 0.1553319568
0.9557413300 0.1998459215 0.2846076550
0.9707128593 0.2655697225 0.4037114906
0.9811673236 0.3368457245 0.4994694749
0.9881266120 0.4029122124 0.5795702949
0.9924527656 0.4617748137 0.6494459663
0.9950335780 0.5159007090 0.7125506710
0.9968366794 0.5695789313 0.7715868496
0.9988517684 0.6280432298 0.8275507734
1.0000000000 0.6827264041 0.8727689622
1.0000000000 0.7307655560 0.9071645702
0.0000000000 0.3518324716 0.0000000000
0.0000000000 0.3514095294 0.0000000000
0.0000000000 0.3509861013 0.0000000000
0.0000000000 0.3505621857 0.0000000000
0.0000000000 0.3501377809 0.0000000000
0.0000000000 0.3496929630 0.0000000000
0.0000000000 0.3491175562 0.0000000000
0.0322291996 0.3483545592 0.0000000000
0.0915634320 0.3473135592 0.0000000000
0.1620176480 0.3459284052 0.0000000000
0.2372522406 0.3440868771 0.0000000000
0.3179908272 0.3416349588 0.0000000000
0.3959871649 0.3383650720 0.0000000000
0.4681134031 0.3339949422 0.0000000000
0.5358258359 0.3279373809 0.0000000000
0.6000700454 0.3197612103 0.0000000000
0.6615550877 0.3087989422 0.0000000000
0.7203869641 0.2941326846 0.0000000000
0.7767328325 0.2748461232 0.0000000000
0.8293118856 0.2522964239 0.0000000000
0.8729914452 0.2319085284 0.0000000000
0.9077707399 0.2230831238 0.0290042122
0.9349324369 0.2363094319 0.1438130453
0.9555681782 0.2731277055 0.2761674996
0.9706184632 0.3256449475 0.3987824527
0.9811175694 0.3825380623 0.4964052582
0.9881018460 0.4371891747 0.5775550497
0.9924405733 0.4879712203 0.6480495570
0.9950275230 0.5362030052 0.7115618833
0.9968342539 0.5851724401 0.7708825234
0.9988469593 0.6396429768 0.8270570551
1.0000000000 0.6914231170 0.8724711509
1.0000000000 0.7374230584 0.9069846022
0.0000000000 0.4100951892 0.0000000000
0.0000000000 0.4097676021 0.0000000000
0.0000000000 0.4094397569 0.0000000000
0.0000000000 0.4091116532 0.0000000000
0.0000000000 0.4087832904 0.0000000000
0.0000000000 0.4084392623 0.0000000000
0.0000000000 0.4079944307 0.0000000000
0.0000000000 0.4074049192 0.0000000000
0.0383007279 0.4066233526 0.0000000000
0.1176416792 0.4055865989 0.0000000000
0.2001293952 0.4042103400 0.0000000000
0.2900429248 0.4023816254 0.0000000000
0.3763506437 0.3999485385 0.0000000000
0.4544623031 0.3966237146 0.0000000000
0.5261610945 0.3921702573 0.0000000000
0.5931608265 0.3861769122 0.0000000000
0.6565673298 0.3780102015 0.0000000000
0.7167746565 0.3670446703 0.0000000000
0.7741174099 0.3527662945 0.0000000000
0.8274760715 0.3359028312 0.0000000000
0.8718509146 0.3199636533 0.0000000000
0.9070919830 0.3126567422 0.0147413365
0.9345348146 0.3215482374 0.1277451532
0.9553467967 0.3485579459 0.2645421899
0.9704987523 0.3873911104 0.3920123953
0.9810576705 0.4310641691 0.4922771664
0.9880696262 0.4752057556 0.5748370671
0.9924293725 0.5180830973 0.6461948762
0.9950243634 0.5602234405 0.7102609808
0.9968324463 0.6041487143 0.7699524705
0.9988425930 0.6540545665 0.8264042509
1.0000000000 0.7023769208 0.8720756258
1.0000000000 0.7458963277 0.9067461284
0.0000000000 0.4683150945 0.0000000000
0.0000000000 0.4680718102 0.0000000000
0.0000000000 0.4678283982 0.0000000000
0.0000000000 0.4675848584 0.0000000000
0.0000000000 0.4673411906 0.0000000000
0.0000000000 0.4670859673 0.0000000000
0.0000000000 0.4667560661 0.0000000000
0.0000000000 0.4663104137 0.0000000000
0.0000000000 0.4657194266 0.0000000000
0.0463435614 0.4649360347 0.0000000000
0.1480322974 0.4638970913 0.0000000000
0.2479108523 0.4625183363 0.0000000000
0.3473221164 0.4606870354 0.0000000000
0.4349509303 0.4582492659 0.0000000000
0.5126377841 0.4549388850 0.0000000000
0.5836208431 0.4505360599 0.0000000000
0.6497349865 0.4445994287 0.0000000000
0.7118862609 0.4366743103 0.0000000000
0.7705944807 0.4263507032 0.0000000000
0.8250136973 0.4142054078 0.0000000000
0.8703319430 0.4028204019 0.0000000000
0.9061825820 0.3970826789 0.0000000000
0.9340031932 0.4023675022 0.1045574602
0.9550450585 0.4205023692 0.2489228954
0.9703349919 0.4483351514 0.3827046266
0.9809711504 0.4814188133 0.4866708807
0.9880317201 0.5165206950 0.5712084174
0.9924096720 0.5521181875 0.6437043345
0.9950137173 0.5879851833 0.7085037293
0.9968267848 0.6265796820 0.7687092981
0.9988418960 0.6716104483 0.8255494508
1.0000000000 0.7159817008 0.8715490778
1.0000000000 0.7565463358 0.9064315956
0.0000000000 0.5262010783 0.0000000000
0.0000000000 0.5260176042 0.0000000000
0.0000000000 0.5258340642 0.0000000000
0.0000000000 0.5256504582 0.0000000000
0.0000000000 0.5254667863 0.0000000000
0.0000000000 0.5252744369 0.0000000000
0.0000000000 0.5250258561 0.0000000000
0.0000000000 0.5246966495 0.0000000000
0.0000000000 0.5242605866 0.0000000000
0.0000000000 0.5236828418 0.0000000000
0.0583899634 0.5229081289 0.0000000000
0.1835067817 0.5218764548 0.0000000000
0.3018352480 0.5205077057 0.0000000000
0.4057978312 0.5186903324 0.0000000000
0.4932418658 0.5162586886 0.0000000000
0.5702718214 0.5129951044 0.0000000000
0.6403394878 0.5086434717 0.0000000000
0.7052192888 0.5028630028 0.0000000000
0.7658356216 0.4953390138 0.0000000000
0.8216936397 0.4864680309 0.0000000000
0.8682936745 0.4780103203 0.0000000000
0.9049690470 0.4733434194 0.0000000000
0.9332968759 0.4762801405 0.0696221805
0.9546458730 0.4884742199 0.2267469068
0.9701201563 0.5083786299 0.3697424363
0.9808611276 0.5332037660 0.4790251200
0.9879746406 0.5607124831 0.5662875744
0.9923846018 0.5894860295 0.6403556309
0.9950045916 0.6196300360 0.7061653015
0.9968193648 0.6527665150 0.7670428477
0.9988327499 0.6922817640 0.8243946298
1.0000000000 0.7324796215 0.8708516042
1.0000000000 0.7697977220 0.9060140099
0.0000000000 0.5835405098 0.0000000000
0.0000000000 0.5834045359 0.0000000000
0.0000000000 0.5832685289 0.0000000000
0.0000000000 0.5831324887 0.0000000000
0.0000000000 0.5829964153 0.0000000000
0.0000000000 0.5828539301 0.0000000000
0.0000000000 0.5826698163 0.0000000000
0.0000000000 0.5824260308 0.0000000000
0.0000000000 0.5821031935 0.0000000000
0.0000000000 0.5816720536 0.0000000000
0.0000000000 0.5810954957 0.0000000000
0.0762994791 0.5803314468 0.0000000000
0.2273798820 0.5793185375 0.0000000000
0.3596934385 0.5779750063 0.0000000000
0.4642678483 0.5761735505 0.0000000000
0.5511339416 0.5737630932 0.0000000000
0.6271820550 0.5705467942 0.0000000000
0.6960310359 0.5662876403 0.0000000000
0.7593521291 0.5607736286 0.0000000000
0.8172124079 0.5542055232 0.0000000000
0.8655498765 0.5477360422 0.0000000000
0.9033503033 0.5437704406 0.0000000000
0.9323537501 0.5451477981 0.0288819317
0.9541114064 0.5533080263 0.1952293485
0.9698334333 0.5674306540 0.3513766000
0.9807149850 0.5858543077 0.4684224376
0.9879046629 0.6071483891 0.5596020649
0.9923522082 0.6300360255 0.6358329413
0.9949909054 0.6547589608 0.7030385636
0.9968139452 0.6825899867 0.7648264972
0.9988240559 0.7166752662 0.8228573797
1.0000000000 0.7520444921 0.8699277281
1.0000000000 0.7857636649 0.9054602753
0.0000000000 0.6401690405 0.0000000000
0.0000000000 0.6400664329 0.0000000000
0.0000000000 0.6399638078 0.0000000000
0.0000000000 0.6398611653 0.0000000000
0.0000000000 0.6397585054 0.0000000000
0.0000000000 0.6396510161 0.0000000000
0.0000000000 0.6395121352 0.0000000000
0.0000000000 0.6393282641 0.0000000000
0.0000000000 0.6390848070 0.0000000000
0.0000000000 0.6387624175 0.0000000000
0.0000000000 0.6383354394 0.0000000000
0.0000000000 0.6377698282 0.0000000000
0.1000525622 0.6370185451 0.0000000000
0.2792520360 0.6360198664 0.0000000000
0.4183141909 0.6346954645 0.0000000000
0.5223759120 0.6329228652 0.0000000000
0.6082945289 0.6305516990 0.0000000000
0.6831768510 0.6274028963 0.0000000000
0.7504088977 0.6233101043 0.0000000000
0.8111009852 0.6183359861 0.0000000000
0.8618383831 0.6133063252 0.0000000000
0.9011634762 0.6098862953 0.0000000000
0.9310873789 0.6101890113 0.0000000000
0.9534017701 0.6154504379 0.1520483707
0.9694501284 0.6253995013 0.3242265702
0.9805187881 0.6389630970 0.4534688770
0.9878098691 0.6551694662 0.5503821432
0.9923120217 0.6731985735 0.6297091180
0.9949711254 0.6928724412 0.6987909133
0.9967995124 0.7157937036 0.7618393712
0.9988143417 0.7444111610 0.8208072562
1.0000000000 0.7751981170 0.8686885064
1.0000000000 0.8042002292 0.9047185801
0.0000000000 0.6957999308 0.0000000000
0.0000000000 0.6957246798 0.0000000000
0.0000000000 0.6956494202 0.0000000000
0.0000000000 0.6955741519 0.0000000000
0.0000000000 0.6954988748 0.0000000000
0.0000000000 0.6954200610 0.0000000000
0.0000000000 0.6953182365 0.0000000000
0.0000000000 0.6951834377 0.0000000000
0.0000000000 0.6950049756 0.0000000000
0.0000000000 0.6947686886 0.0000000000
0.0000000000 0.6944558082 0.0000000000
0.0000000000 0.6940414492 0.0000000000
0.0000000000 0.6934925984 0.0000000000
0.1281165221 0.6927552723 0.0000000000
0.3361217020 0.6917762404 0.0000000000
0.4768507978 0.6904749000 0.0000000000
0.5799322426 0.6887377256 0.0000000000
0.6646639248 0.6864229846 0.0000000000
0.7378969303 0.6833806953 0.0000000000
0.8026803915 0.6796133729 0.0000000000
0.8567816659 0.6756090965 0.0000000000
0.8982099428 0.6725934323 0.0000000000
0.9293846549 0.6721562094 0.0000000000
0.9524465338 0.6753681759 0.0801837783
0.9689390921 0.6822188974 0.2834081896
0.9802576199 0.6920289376 0.4319337703
0.9876829554 0.7041249124 0.5373732427
0.9922542913 0.7180221258 0.6212838595
0.9949483812 0.7335854602 0.6930582707
0.9967863972 0.7518692173 0.7578255198
0.9988015990 0.7756122100 0.8180632194
1.0000000000 0.8008749345 0.8670340330
1.0000000000 0.8260071387 0.9037346001
0.0000000000 0.7501343652 0.0000000000
0.0000000000 0.7500789380 0.0000000000
0.0000000000 0.7500235065 0.0000000000
0.0000000000 0.7499680705 0.0000000000
0.0000000000 0.7499126300 0.0000000000
0.0000000000 0.7498545870 0.0000000000
0.0000000000 0.7497796008 0.0000000000
0.0000000000 0.7496803370 0.0000000000
0.0000000000 0.7495486488 0.0000000000
0.0000000000 0.7493740414 0.0000000000
0.0000000000 0.7491428643 0.0000000000
0.0000000000 0.7488367610 0.0000000000
0.0000000000 0.7484313964 0.0000000000
0.0000000000 0.7478944931 0.0000000000
0.1617428781 0.7471813197 0.0000000000
0.3951608910 0.7462357095 0.0000000000
0.5350708531 0.7449683147 0.0000000000
0.6367745950 0.7432778717 0.0000000000
