DJI/DJI_X5_DLOG2sRGB_Improv.cube
# DaVinci Resolve Cube (3D LUT).
#
# Converts DJI X5 DLOG data to sRGB with some color tuning.
# Gamma as defined by ITU-Rec.1886.
# 
LUT_3D_SIZE 9
LUT_3D_INPUT_RANGE 0.0000000000 1.0000000000
0 0 0
0.0712902 0 0
0.186297 0 0
0.348241 0 0
0.56527 0 0
0.835309 0 0
1 0 0.000106813
1 0 0.0238193
1 0 0.0647746
0 0.0327611 0
0.027924 0.0232547 0
0.16759 0.00366217 0
0.34287 0 0
0.576913 0 0
0.879438 0 0
1 0 0.00421149
1 0 0.0420539
1 0 0.0634928
0 0.114382 0
0 0.119097 0
0.116289 0.110338 0
0.326574 0.0676127 0
0.58555 0 0
0.915419 0 0
1 0 0
1 0 0.0255894
1 0 0.0299382
0 0.241779 0
0 0.258427 0
0 0.259861 0
0.248295 0.239628 0
0.535378 0.193057 0
0.86569 0.0100404 0
1 0 0
1 0 0
1 0 0
0 0.426246 0
0 0.454841 0
0 0.465873 0
0.00106813 0.450462 0
0.429969 0.417639 0
0.787137 0.370459 0
1 0.244465 0
1 0.000213626 0
1 0 0
0 0.702602 0
0 0.747921 0
0 0.770397 0
0 0.755108 0
0.0428016 0.703273 0
0.668025 0.652628 0
1 0.610315 0
1 0.550195 0
1 0.52874 0
0 1 0
0 1 0
0 1 0
0 1 0
0 1 0
0.286625 0.969497 0
0.94374 0.924697 0
1 0.897276 0
1 0.886061 0
0 1 0
0 1 0
0 1 0
0 1 0
0 1 0
0 1 0
0.771191 1 0
1 1 0
1 1 0
0 1 0
0 1 0
0 1 0
0 1 0
0 1 0
0 1 0
0.558221 1 0
1 1 0
1 1 0
0 0 0.0399329
0.0665141 0 0.0378576
0.183886 0 0.022797
0.346639 0 0
0.564553 0 0
0.835538 0 0
1 0 0.000122072
1 0 0.0247044
1 0 0.0658274
0 0.0312657 0.0247959
0.0231479 0.0221866 0.0224765
0.166155 0.00329595 0.014023
0.343999 0 0
0.582162 0 0
0.889387 0 0.000244144
1 0 0.00561532
1 0 0.05066
1 0 0.0838483
0 0.115908 0.000137331
0 0.122164 0.00210575
0.118257 0.114305 0.000961318
0.331792 0.0729534 0
0.593896 0 7.62951e-05
0.928634 0 0
1 0 0.0166781
1 0 0.071931
1 0 0.0903944
0 0.247517 0
0 0.263951 0
0 0.265995 0
0.25388 0.245899 0
0.544488 0.19881 0
0.880247 0.0157626 0
1 0 0
1 0 0.00329595
1 0 0.00422675
0 0.435508 0
0 0.464836 0
0 0.476173 0
0 0.46041 0
0.439567 0.426581 0
0.800168 0.379614 0
1 0.249989 0
1 0 0
1 0 0
0 0.717403 0
0 0.764385 0
0 0.785916 0
0 0.769665 0
0.0281071 0.715557 0
0.679362 0.663645 0
1 0.620142 0
1 0.558526 0
1 0.543862 0
0 1 0
0 1 0
0 1 0
0 1 0
0 1 0
0.303655 0.982269 0
0.955367 0.935592 0
1 0.906294 0
1 0.89543 0
0 1 0
0 1 0
0 1 0
0 1 0
0 1 0
0 1 0
0.776257 1 0
1 1 0
1 1 0
0 1 0
0 1 0
0 1 0
0 1 0
0 1 0
0 1 0
0.575647 1 0
1 1 0
1 1 0
0 0 0.151034
0.0495003 0 0.148882
0.174197 0 0.135348
0.338613 0 0.110536
0.556786 0 0.0852064
0.828138 0 0.0690013
1 0 0.0732738
1 0 0.101976
1 0 0.152636
0 0.0255131 0.140597
0.0125124 0.0183871 0.13846
0.15845 0.00233463 0.128344
0.339559 0 0.111757
0.58143 0 0.102678
0.891478 0 0.111742
1 0 0.14374
1 0 0.195987
1 0 0.236316
0 0.114015 0.104326
0 0.121706 0.114031
0.113176 0.114626 0.115419
0.331395 0.0735027 0.107561
0.595773 0 0.103471
0.933791 0 0.123674
1 0 0.170184
1 0 0.239734
1 0 0.27158
0 0.248676 0.0426337
0 0.265873 0.059968
0 0.268162 0.0657664
0.25388 0.248112 0.05626
0.547799 0.200916 0.0456855
0.886488 0.0222171 0.0502022
1 0 0.0896162
1 0 0.152987
1 0 0.177554
0 0.439261 0
0 0.469093 0
0 0.480949 0
0.00102235 0.464958 0
0.441855 0.430259 0
0.805631 0.38265 0
1 0.250919 0
1 0 0
1 0 0
0 0.724376 0
0 0.772198 0
0 0.793835 0
0 0.776425 0
0.0125124 0.719844 0
0.682002 0.666392 0
1 0.621897 0
1 0.559091 0
1 0.54641 0
0 1 0
0 1 0
0 1 0
0 1 0
0 1 0
0.308858 0.984329 0
0.955764 0.93521 0
1 0.904433 0
1 0.891646 0
0 1 0
0 1 0
0 1 0
0 1 0
0 1 0
0 1 0
0.77023 1 0
1 1 0
1 1 0
0 1 0
0 1 0
0 1 0
0 1 0
0 1 0
0 1 0
0.540917 1 0
1 1 0
1 1 0
0 0 0.309529
0.00973526 0 0.306905
0.149691 0 0.291539
0.321767 0 0.265354
0.54107 0 0.242374
0.811399 0 0.237842
1 0 0.262684
1 0 0.318486
1 0 0.408942
0 0.0151064 0.300069
7.62951e-05 0.0112612 0.298619
0.136995 0.000656138 0.288426
0.327199 0 0.271641
0.57261 0 0.264759
0.884001 0 0.282094
1 0 0.334386
1 0 0.422492
1 0 0.479927
0 0.108141 0.269932
0 0.117296 0.282063
0.0899214 0.110384 0.284688
0.321935 0.0686656 0.277211
0.589517 0 0.274723
0.929107 0 0.302296
1 0 0.369848
1 0 0.480323
1 0 0.506752
0 0.245365 0.231357
0 0.263005 0.249104
0 0.265736 0.254917
0.243748 0.245396 0.246723
0.542947 0.198215 0.240681
0.883497 0.0196384 0.256672
1 0 0.324041
1 0 0.433585
1 0 0.455543
0 0.436683 0.176135
0 0.466621 0.197711
0 0.478904 0.206683
7.62951e-05 0.462394 0.194614
0.435187 0.42678 0.175601
0.800504 0.378347 0.174121
1 0.245884 0.190982
1 0 0.262684
1 0 0.287358
0 0.721523 0.0367132
0 0.768841 0.054902
0 0.789975 0.071107
0 0.772229 0.058793
0.0140383 0.714046 0.0235447
0.670726 0.656611 0.0061799
0.999268 0.610346 0.00392157
1 0.546441 0
1 0.529595 0.00221256
0 1 0
0 1 0
0 1 0
0 1 0
0 1 0
0.284382 0.972274 0
0.939025 0.918791 0
1 0.886381 0
1 0.868467 0
0 1 0
0 1 0
0 1 0
0 1 0
0 1 0
0 1 0
0.746822 1 0
1 1 0
1 1 0
0 1 0
0 1 0
0 1 0
0 1 0
0 1 0
0 1 0
0.437293 1 0
1 1 0
1 1 0
0 0 0.528695
0 0 0.525383
0.0813764 0 0.50573
0.291554 0 0.471443
0.518853 0 0.441367
0.791424 0 0.432517
1 0 0.459434
1 0 0.524544
1 0 0.631403
0 0.00483711 0.518898
0 0.00383001 0.518715
0.0694438 1.5259e-05 0.506828
0.302647 0 0.48719
0.557839 0 0.477119
0.871748 0 0.493141
1 0 0.550103
1 0 0.648051
1 0 0.717266
0 0.0999008 0.488991
0 0.11046 0.507393
0.0087892 0.10338 0.5122
0.297841 0.0591135 0.502663
0.57673 0 0.49868
0.9196 0 0.52694
1 0 0.600488
1 0 0.722805
1 0 0.756832
0 0.240803 0.452186
0 0.259022 0.47686
0 0.262272 0.486732
0.215122 0.240848 0.477317
0.531044 0.193057 0.470832
0.875944 0.0125124 0.488807
1 0 0.562783
1 0 0.685527
1 0 0.714534
0 0.433188 0.413062
0 0.463615 0.442649
0 0.475914 0.456245
0 0.459678 0.445167
0.420386 0.421927 0.423774
0.790845 0.372503 0.424063
1 0.239811 0.4495
1 0 0.538964
1 0 0.572335
0 0.716548 0.394797
0 0.763851 0.432197
0 0.784146 0.448356
0 0.766567 0.433204
0.0176089 0.707774 0.38262
0.654521 0.644984 0.339529
0.99707 0.596948 0.33492
1 0.531334 0.342794
1 0.508446 0.354208
0 1 0.388281
0 1 0.432547
0 1 0.446464
0 1 0.42623
0 1 0.368444
0.248386 0.947402 0.208316
0.90367 0.886152 0.16733
1 0.851102 0.151034
1 0.826581 0.141283
0 1 0.0554208
0 1 0.0552834
0 1 0.0554513
0 1 0.0548104
0 1 0.0294194
0 1 0
0.702998 1 0
1 1 0
1 1 0
0 1 0.0902419
0 1 0.165286
0 1 0.14287
0 1 0.0229648
0 1 0
0 1 0
0.275303 1 0
0.979019 1 0
1 1 0
0 0 0.799268
0 0 0.795392
0 0 0.771374
0.227054 0 0.72607
0.486839 0 0.687526
0.769329 0 0.672862
1 0 0.700816
1 0 0.770764
1 0 0.885191
0 0 0.78912
0 0 0.790951
0 0 0.779202
0.243397 0 0.753796
0.533165 0 0.740322
0.857527 0 0.754284
1 0 0.812573
1 0 0.917113
1 0 0.988251
0 0.0898604 0.761685
0 0.102281 0.787182
0 0.0948959 0.794583
0.23386 0.0419165 0.780606
0.553307 0 0.774014
0.907698 0 0.801465
1 0 0.877607
1 0 0.994049
1 0 1
0 0.238788 0.722347
0 0.258122 0.754925
0 0.261631 0.769451
0.120729 0.237736 0.757687
0.506203 0.187091 0.748425
0.865232 0.00862135 0.766888
1 0 0.844266
1 0 0.975357
1 0 0.991745
0 0.433005 0.685954
0 0.464729 0.724605
0 0.47715 0.742794
0 0.461265 0.732601
0.388266 0.418585 0.705531
0.777554 0.367697 0.704738
1 0.233204 0.733455
1 0 0.832685
1 0 0.873945
0 0.717006 0.690806
0 0.764706 0.737484
0 0.78497 0.758267
0 0.767163 0.742855
0.00140383 0.709163 0.69192
0.63389 0.636591 0.639231
0.99321 0.587503 0.636698
1 0.521141 0.651865
1 0.493355 0.669673
0 1 0.774945
0 1 0.828061
0 1 0.84863
0 1 0.824369
0 1 0.762249
0.216159 0.937835 0.599893
0.880323 0.869398 0.555993
1 0.832563 0.550225
1 0.802213 0.54876
0 1 0.94963
0 1 0.991272
0 1 0.999542
0 1 0.968063
0 1 0.876631
0 1 0.72285
0.65893 1 0.469688
0.999908 1 0.453742
1 0.997559 0.444083
0 1 1
0 1 1
0 1 1
0 1 0.994812
0 1 0.90866
0 1 0.751568
0.0742809 1 0.395483
0.931945 1 0.327886
1 1 0.309667
0 0 1
0 0 1
0 0 1
0.00944533 0 0.987671
0.43389 0 0.951446
0.745434 0 0.928542
1 0 0.957595
1 0 0.997314
1 0 1
0 0 1
0 0 1
0 0 1
0.0338445 0 1
0.485634 0 0.995529
0.840131 0 1
1 0 1
1 0 1
1 0 1
0 0.0706645 1
0 0.0865339 1
0 0.0783093 1
0.00596628 0.0114595 1
0.50518 0 1
0.892393 0 1
1 0 1
1 0 1
1 0 1
0 0.242435 0.992782
0 0.263142 1
0 0.266011 1
0 0.239628 1
0.452781 0.178622 1
0.850217 0.0069276 1
1 0 1
1 0 1
1 0 1
0 0.441474 0.973342
0 0.475212 0.998367
0 0.487587 1
0 0.470726 1
0.312413 0.41944 0.993667
0.756497 0.36379 0.993332
1 0.224628 1
1 0 1
1 0 1
0 0.728328 0.989929
0 0.777127 0.999283
0 0.79765 1
0 0.779858 1
0 0.723445 0.994965
0.603052 0.633356 0.936553
0.988022 0.58262 0.933211
1 0.514946 0.953552
1 0.483787 0.969345
0 1 1
0 1 1
0 1 1
0 1 1
0 1 1
0.15024 0.936156 0.922606
0.857145 0.860044 0.863264
1 0.821912 0.858915
1 0.787671 0.858686
0 1 1
0 1 1
0 1 1
0 1 1
0 1 1
0 1 1
0.624537 1 0.813016
0.996078 1 0.795819
1 0.993866 0.787289
0 1 1
0 1 1
0 1 1
0 1 1
0 1 1
0 1 1
0 1 0.828733
0.887388 1 0.732982
1 1 0.721263
0 0 1
0 0 1
0 0 1
0 0 1
0.351415 0 1
0.720516 0 1
1 0 1
1 0 1
1 0 1
0 0 1
0 0 1
0 0 1
0 0 1
0.403723 0 1
0.820905 0 1
1 0 1
1 0 1
1 0 1
0 0.0371405 1
0 0.0514229 1
0 0.0391699 1
0 0 1
0.41825 0 1
0.874327 0 1
1 0 1
1 0 1
1 0 1
0 0.248768 1
0 0.271397 1
0 0.275807 1
0 0.246235 1
0.351598 0.166522 1
0.830747 0.0021973 1
1 0 1
1 0 1
1 0 1
0 0.458228 1
0 0.492958 1
0 0.507301 1
0 0.487861 1
0.12401 0.42678 1
0.730007 0.361532 1
1 0.211048 1
1 0 1
1 0 1
0 0.749508 1
0 0.799695 1
0 0.821729 1
0 0.803113 1
0 0.744778 1
0.56109 0.635309 1
0.98677 0.581704 1
1 0.512032 1
1 0.480827 1
0 1 1
0 1 1
0 1 1
0 1 1
0 1 1
0.0542458 0.952102 1
0.834226 0.857328 1
1 0.817426 1
1 0.78172 1
0 1 1
0 1 1
0 1 1
0 1 1
0 1 1
0 1 1
0.585122 1 1
0.99147 1 1
1 0.991394 1
0 1 1
0 1 1
0 1 1
0 1 1
0 1 1
0 1 1
0 1 1
0.857862 1 0.98822
1 1 0.981811
0 0 1
0 0 1
0 0 1
0 0 1
0.101579 0 1
0.682551 0 1
0.999588 0 1
1 0 1
1 0 1
0 0 1
0 0 1
0 0 1
0 0 1
0.33724 0 1
0.808804 0 1
1 0 1
1 0 1
1 0 1
0 0.0247501 1
0 0.0482643 1
0 0.0415808 1
0 0.00247196 1
0.407172 0 1
0.878508 0 1
1 0 1
1 0 1
1 0 1
0 0.255024 1
0 0.278035 1
0 0.282383 1
0 0.252613 1
0.335348 0.168612 1
0.835279 1.5259e-05 1
1 0 1
1 0 1
1 0 1
0 0.47451 1
0 0.50692 1
0 0.519951 1
0 0.500221 1
0.0726329 0.436301 1
0.724071 0.364157 1
1 0.208057 1
1 0 1
1 0 1
0 0.773327 1
0 0.819638 1
0 0.840314 1
0 0.820691 1
0 0.75935 1
0.534798 0.639551 1
0.993255 0.583886 1
1 0.512886 1
1 0.484977 1
0 1 1
0 1 1
0 1 1
0 1 1
0 1 1
0.0323491 0.969818 1
0.813825 0.857191 1
1 0.815167 1
1 0.778622 1
0 1 1
0 1 1
0 1 1
0 1 1
0 1 1
0 1 1
0.540352 1 1
0.986206 1 1
1 0.989181 1
0 1 1
0 1 1
0 1 1
0 1 1
0 1 1
0 1 1
0 1 1
0.82884 1 1
1 1 1
