DJI/DJI_X5_DLOG2sRGB_Improv.cube
# DaVinci Resolve Cube (3D LUT).
#
# Converts DJI X5 DLOG data to sRGB with some color tuning.
# Gamma as defined by ITU-Rec.1886.
# 
LUT_3D_SIZE 5
LUT_3D_INPUT_RANGE 0.0000000000 1.0000000000
0 0 0
0.186297 0 0
0.56527 0 0
1 0 0.000106813
1 0 0.0647746
0 0.114382 0
0.116289 0.110338 0
0.58555 0 0
1 0 0
1 0 0.0299382
0 0.426246 0
0 0.465873 0
0.429969 0.417639 0
1 0.244465 0
1 0 0
0 1 0
0 1 0
0 1 0
0.94374 0.924697 0
1 0.886061 0
0 1 0
0 1 0
0 1 0
0.558221 1 0
1 1 0
0 0 0.151034
0.174197 0 0.135348
0.556786 0 0.0852064
1 0 0.0732738
1 0 0.152636
0 0.114015 0.104326
0.113176 0.114626 0.115419
0.595773 0 0.103471
1 0 0.170184
1 0 0.27158
0 0.439261 0
0 0.480949 0
0.441855 0.430259 0
1 0.250919 0
1 0 0
0 1 0
0 1 0
0 1 0
0.955764 0.93521 0
1 0.891646 0
0 1 0
0 1 0
0 1 0
0.540917 1 0
1 1 0
0 0 0.528695
0.0813764 0 0.50573
0.518853 0 0.441367
1 0 0.459434
1 0 0.631403
0 0.0999008 0.488991
0.0087892 0.10338 0.5122
0.57673 0 0.49868
1 0 0.600488
1 0 0.756832
0 0.433188 0.413062
0 0.475914 0.456245
0.420386 0.421927 0.423774
1 0.239811 0.4495
1 0 0.572335
0 1 0.388281
0 1 0.446464
0 1 0.368444
0.90367 0.886152 0.16733
1 0.826581 0.141283
0 1 0.0902419
0 1 0.14287
0 1 0
0.275303 1 0
1 1 0
0 0 1
0 0 1
0.43389 0 0.951446
1 0 0.957595
1 0 1
0 0.0706645 1
0 0.0783093 1
0.50518 0 1
1 0 1
1 0 1
0 0.441474 0.973342
0 0.487587 1
0.312413 0.41944 0.993667
1 0.224628 1
1 0 1
0 1 1
0 1 1
0 1 1
0.857145 0.860044 0.863264
1 0.787671 0.858686
0 1 1
0 1 1
0 1 1
0 1 0.828733
1 1 0.721263
0 0 1
0 0 1
0.101579 0 1
0.999588 0 1
1 0 1
0 0.0247501 1
0 0.0415808 1
0.407172 0 1
1 0 1
1 0 1
0 0.47451 1
0 0.519951 1
0.0726329 0.436301 1
1 0.208057 1
1 0 1
0 1 1
0 1 1
0 1 1
0.813825 0.857191 1
1 0.778622 1
0 1 1
0 1 1
0 1 1
0 1 1
1 1 1
