Film Looks/DCI-P3 Fujifilm 3513DI D65.cube
# Resolve Film Look LUT
#   Input: Cineon Log 
#        : floating point data (range 0.0 - 1.0)
#  Output: FUJIFILM 3513DI film stock 'look' with D65 White Point
#        : floating point data (range 0.0 - 1.0)
# Display: DCI-P3, Gamma 2.6
LUT_3D_SIZE 33
LUT_3D_INPUT_RANGE 0.0 1.0
0.042307 0.038619 0.051634
0.042149 0.038892 0.051974
0.041663 0.039119 0.052313
0.042748 0.039539 0.052645
0.044128 0.040135 0.052934
0.038819 0.040392 0.053110
0.040483 0.041203 0.053325
0.058164 0.043506 0.053800
0.070806 0.047091 0.054656
0.081589 0.051948 0.055777
0.105029 0.055688 0.056928
0.139049 0.059287 0.058119
0.172307 0.063593 0.059231
0.204659 0.067643 0.060223
0.238712 0.070627 0.061558
0.274807 0.071011 0.062615
0.310949 0.070156 0.063801
0.344849 0.067405 0.064951
0.375691 0.062551 0.066633
0.405775 0.053791 0.068463
0.434191 0.028436 0.070479
0.459871 0.000566 0.073266
0.482589 0.000000 0.076708
0.502958 0.000000 0.079928
0.520946 0.000000 0.082836
0.536155 0.000000 0.085048
0.548817 0.000000 0.086477
0.559521 0.000000 0.087494
0.568483 0.000000 0.088333
0.575780 0.000000 0.089258
0.581131 0.000000 0.090159
0.585526 0.000000 0.091001
0.590082 0.000000 0.091838
0.044829 0.042122 0.053592
0.044384 0.042150 0.053924
0.043558 0.042127 0.054252
0.044501 0.042340 0.054585
0.046138 0.042818 0.054905
0.041413 0.043016 0.055146
0.043667 0.043833 0.055437
0.060941 0.046114 0.055969
0.073827 0.050178 0.056894
0.084686 0.054522 0.058019
0.108661 0.058467 0.059132
0.143361 0.062697 0.060169
0.177368 0.067815 0.060863
0.210467 0.073263 0.061523
0.245270 0.076734 0.062343
0.282136 0.078075 0.063327
0.319118 0.077937 0.064393
0.353695 0.076116 0.065647
0.384981 0.071686 0.067435
0.415353 0.063803 0.069331
0.444040 0.053891 0.071825
0.469017 0.021810 0.073821
0.491184 0.000000 0.076581
0.511707 0.000010 0.079663
0.529716 0.000000 0.082368
0.544881 0.000000 0.084428
0.557333 0.000000 0.085841
0.567675 0.000000 0.086809
0.576357 0.000000 0.087610
0.583529 0.000000 0.088427
0.588841 0.000000 0.089143
0.593196 0.000000 0.089796
0.597709 0.000000 0.090458
0.047243 0.044299 0.055357
0.046485 0.044157 0.055686
0.045289 0.043956 0.056008
0.046069 0.044023 0.056347
0.047934 0.044414 0.056696
0.043683 0.044544 0.056993
0.046327 0.045329 0.057350
0.063176 0.047551 0.057930
0.076373 0.051791 0.058924
0.087496 0.056071 0.060086
0.111794 0.060029 0.061190
0.147246 0.065157 0.062103
0.181983 0.071045 0.062401
0.215755 0.077162 0.062601
0.251212 0.080446 0.063117
0.288851 0.081698 0.063821
0.326617 0.081846 0.064964
0.361869 0.080863 0.066274
0.393624 0.078177 0.068019
0.424287 0.071729 0.070363
0.453204 0.061666 0.072971
0.478510 0.050429 0.075293
0.500042 0.019208 0.077221
0.520098 0.000000 0.079603
0.538258 0.000000 0.082163
0.553396 0.000000 0.084135
0.565620 0.000040 0.085502
0.575648 0.000000 0.086454
0.584090 0.000000 0.087216
0.591137 0.000000 0.087918
0.596388 0.000000 0.088482
0.600736 0.000000 0.088971
0.605243 0.000000 0.089490
0.049744 0.050226 0.057403
0.048976 0.049879 0.057721
0.047758 0.049469 0.058030
0.048530 0.049330 0.058365
0.050581 0.049572 0.058734
0.046810 0.049684 0.059090
0.049420 0.050370 0.059503
0.065346 0.052561 0.060130
0.078639 0.056584 0.061154
0.090654 0.060894 0.062248
0.115734 0.065500 0.063347
0.151975 0.071349 0.064088
0.187447 0.077777 0.064188
0.221925 0.083296 0.063776
0.258061 0.087073 0.064376
0.296436 0.088845 0.064693
0.334955 0.089598 0.065894
0.370862 0.089022 0.067027
0.403049 0.087069 0.069068
0.434015 0.082488 0.071330
0.463169 0.075783 0.074234
0.488673 0.067451 0.076695
0.510344 0.056793 0.078459
0.529709 0.035077 0.079903
0.547029 0.022115 0.081462
0.561589 0.003263 0.082819
0.573603 0.000000 0.084099
0.583435 0.000000 0.085034
0.591662 0.000000 0.085735
0.598559 0.000000 0.086317
0.603722 0.000000 0.086703
0.607992 0.000000 0.086994
0.612407 0.000000 0.087308
0.050718 0.058584 0.059834
0.050215 0.057970 0.060107
0.049273 0.057275 0.060368
0.050330 0.056899 0.060672
0.052033 0.056984 0.061060
0.049214 0.057154 0.061494
0.051668 0.057875 0.061991
0.067246 0.060547 0.062758
0.082014 0.064926 0.063718
0.094949 0.069552 0.064653
0.121300 0.075743 0.065759
0.158158 0.081208 0.066172
0.194493 0.087425 0.066310
0.230020 0.093615 0.065849
0.266965 0.098297 0.066125
0.305972 0.101226 0.066668
0.345147 0.102594 0.067420
0.381578 0.102792 0.068646
0.414170 0.101797 0.070373
0.445427 0.098339 0.072869
0.474819 0.092864 0.075765
0.500547 0.087475 0.078088
0.522403 0.081757 0.079767
0.541906 0.076694 0.081131
0.558948 0.069167 0.082225
0.573194 0.061286 0.083144
0.584688 0.056520 0.083876
0.594057 0.054149 0.084453
0.601994 0.053447 0.084986
0.608837 0.054589 0.085552
0.614170 0.057828 0.086040
0.618699 0.062079 0.086455
0.623347 0.065967 0.086883
0.051871 0.065089 0.062517
0.051824 0.064271 0.062705
0.051536 0.063366 0.062874
0.052375 0.062771 0.063121
0.053875 0.062731 0.063526
0.051909 0.062876 0.064065
0.054221 0.063768 0.064724
0.070674 0.067042 0.065607
0.086239 0.071650 0.066372
0.101038 0.077860 0.067252
0.127172 0.083556 0.067879
0.165123 0.089670 0.068475
0.202828 0.096451 0.068532
0.239433 0.103436 0.068614
0.277147 0.108222 0.068844
0.316672 0.110974 0.069046
0.356347 0.112854 0.070004
0.393275 0.113485 0.070833
0.426257 0.113428 0.072497
0.457782 0.110804 0.074855
0.487432 0.107904 0.077485
0.513382 0.104475 0.079662
0.535472 0.100900 0.081259
0.555146 0.097222 0.082493
0.572368 0.093599 0.083466
0.586745 0.091477 0.084483
0.598308 0.090582 0.085181
0.607734 0.090449 0.085661
0.615717 0.091004 0.086105
0.622539 0.092457 0.086563
0.627808 0.095287 0.087006
0.632269 0.098641 0.087403
0.636863 0.101950 0.087724
0.051657 0.075674 0.065780
0.052150 0.074553 0.065863
0.052236 0.073300 0.065919
0.053696 0.072501 0.066089
0.055848 0.072487 0.066507
0.053176 0.072659 0.067168
0.055760 0.073776 0.067949
0.073827 0.076892 0.068677
0.091077 0.082076 0.069356
0.105706 0.088217 0.069966
0.133889 0.094719 0.070296
0.172712 0.101415 0.070942
0.211790 0.108753 0.071230
0.249491 0.115358 0.071252
0.288091 0.120830 0.071919
0.328182 0.124358 0.072108
0.368453 0.126924 0.072602
0.405882 0.128506 0.073310
0.439244 0.128881 0.074747
0.471089 0.127346 0.076807
0.501004 0.124755 0.079105
0.527194 0.122354 0.081109
0.549477 0.120325 0.082564
0.569340 0.118962 0.083873
0.586695 0.118017 0.084747
0.601215 0.117339 0.085550
0.612926 0.117547 0.086379
0.622486 0.118412 0.087042
0.630537 0.119817 0.087474
0.637367 0.121703 0.087770
0.642566 0.124243 0.087929
0.646911 0.127171 0.088110
0.651391 0.129976 0.088360
0.047795 0.092057 0.069439
0.048988 0.090702 0.069523
0.049603 0.089178 0.069575
0.051999 0.088198 0.069756
0.054136 0.088190 0.070182
0.052109 0.088652 0.070892
0.054749 0.090089 0.071690
0.074948 0.093323 0.072284
0.094752 0.098734 0.072734
0.111673 0.105315 0.073113
0.140366 0.112343 0.073444
0.180947 0.119319 0.073678
0.221122 0.126760 0.073960
0.259936 0.133851 0.074263
0.299605 0.140087 0.074583
0.340338 0.144032 0.074921
0.381256 0.147256 0.075040
0.419257 0.149179 0.075554
0.453154 0.150541 0.076596
0.485453 0.149860 0.078355
0.515775 0.148847 0.080344
0.542265 0.147487 0.082190
0.564737 0.147018 0.083528
0.584657 0.146373 0.084649
0.602045 0.146248 0.085770
0.616613 0.146712 0.086528
0.628396 0.147553 0.087107
0.638017 0.148888 0.087701
0.646109 0.150696 0.088278
0.652935 0.152876 0.088702
0.658085 0.155589 0.088888
0.662367 0.158552 0.088922
0.666797 0.161399 0.088955
0.038406 0.109797 0.073648
0.040279 0.108017 0.073746
0.041549 0.106023 0.073822
0.046223 0.104702 0.073965
0.052452 0.104732 0.074373
0.047056 0.105611 0.075192
0.053027 0.107645 0.076060
0.076055 0.111376 0.076657
0.098482 0.117172 0.076969
0.117784 0.124239 0.077152
0.147951 0.131460 0.077146
0.189091 0.138745 0.077195
0.230798 0.146766 0.077195
0.270858 0.154365 0.077153
0.311363 0.160835 0.077193
0.352951 0.165382 0.077285
0.394975 0.169700 0.077228
0.433832 0.172711 0.077503
0.468414 0.174745 0.078223
0.501391 0.175315 0.079568
0.532275 0.174969 0.081263
0.559169 0.174635 0.082841
0.581760 0.174674 0.084186
0.601568 0.174653 0.085396
0.618799 0.174821 0.086472
0.633261 0.175575 0.087414
0.644988 0.176886 0.088036
0.654565 0.178693 0.088297
0.662635 0.180802 0.088602
0.669460 0.183295 0.088934
0.674645 0.186425 0.089280
0.678978 0.189764 0.089504
0.683460 0.193012 0.089689
0.028340 0.127258 0.078229
0.030107 0.125005 0.078339
0.031211 0.122463 0.078414
0.036293 0.120809 0.078628
0.044724 0.120887 0.079080
0.039391 0.122155 0.079830
0.048086 0.124786 0.080645
0.077772 0.129097 0.081177
0.102476 0.135142 0.081246
0.123325 0.142565 0.081287
0.156202 0.150386 0.080964
0.198354 0.158254 0.080722
0.240796 0.166534 0.080339
0.281961 0.174747 0.079896
0.323480 0.181804 0.079498
0.366320 0.187318 0.079241
0.409192 0.191860 0.079187
0.449101 0.195724 0.079104
0.484535 0.198453 0.079682
0.518318 0.199745 0.080518
0.549934 0.200284 0.081904
0.577283 0.200560 0.083233
0.599955 0.201060 0.084608
0.619589 0.201301 0.085825
0.636539 0.201658 0.087282
0.650830 0.202787 0.088137
0.662469 0.204580 0.088664
0.671932 0.206630 0.089029
0.679935 0.209137 0.089122
0.686796 0.212128 0.089180
0.692068 0.215599 0.089335
0.696511 0.219398 0.089620
0.701094 0.223093 0.089975
0.000000 0.147261 0.082706
0.000000 0.144687 0.082759
0.000000 0.141832 0.082825
0.014424 0.139984 0.083105
0.029423 0.140057 0.083430
0.024532 0.141711 0.084283
0.036471 0.144691 0.084895
0.077011 0.149477 0.085301
0.105874 0.156231 0.085438
0.129737 0.164118 0.085016
0.163316 0.172524 0.084757
0.206865 0.180911 0.084123
0.250835 0.189759 0.083147
0.293240 0.198548 0.082176
0.335821 0.206138 0.081399
0.379595 0.212297 0.080847
0.423410 0.217461 0.080412
0.464270 0.222010 0.080337
0.500353 0.224975 0.080582
0.534997 0.227214 0.081144
0.567236 0.228088 0.082116
0.595061 0.228962 0.083102
0.617873 0.229789 0.084402
0.637375 0.230266 0.085658
0.654123 0.230852 0.087053
0.668265 0.232129 0.088216
0.679810 0.234230 0.088564
0.689190 0.236675 0.088680
0.697126 0.239409 0.088871
0.703953 0.242550 0.089159
0.709265 0.246335 0.089269
0.713775 0.250327 0.089388
0.718429 0.254243 0.089602
0.000000 0.170948 0.087876
0.000000 0.168281 0.087934
0.000104 0.165307 0.088001
0.000000 0.163183 0.087896
0.000000 0.163086 0.087820
0.000000 0.165011 0.088569
0.011218 0.168146 0.088853
0.074354 0.173182 0.088843
0.107464 0.180517 0.088749
0.134275 0.189347 0.088474
0.169835 0.198451 0.087607
0.215446 0.207541 0.086911
0.260818 0.216987 0.085535
0.304188 0.226126 0.084050
0.347801 0.234183 0.082594
0.392517 0.240987 0.081755
0.437100 0.246828 0.080988
0.478432 0.251563 0.080615
0.515285 0.255437 0.080351
0.550333 0.257687 0.080818
0.583152 0.259200 0.081260
0.611351 0.260476 0.082025
0.634325 0.261506 0.083080
0.653884 0.262314 0.084514
0.670608 0.263114 0.085601
0.684718 0.264638 0.086564
0.696226 0.266942 0.086970
0.705514 0.269519 0.086957
0.713359 0.272442 0.087029
0.720114 0.275689 0.087364
0.725328 0.279370 0.087736
0.729733 0.283263 0.087942
0.734289 0.287070 0.088025
0.000000 0.194599 0.092350
0.000000 0.191814 0.092330
0.000000 0.188707 0.092323
0.000000 0.186552 0.092161
0.000000 0.186555 0.091962
0.000000 0.188568 0.092415
0.005724 0.191800 0.092283
0.060488 0.196905 0.091697
0.108305 0.205033 0.091546
0.138235 0.214804 0.091150
0.176517 0.224949 0.090493
0.223294 0.234636 0.089211
0.270361 0.244597 0.087616
0.315243 0.254227 0.085331
0.359777 0.262773 0.083785
0.404772 0.269882 0.082378
0.449907 0.276246 0.081154
0.491691 0.281527 0.080137
0.528863 0.285654 0.079825
0.564376 0.288317 0.079696
0.597583 0.290177 0.080057
0.626073 0.291636 0.080600
0.649334 0.293086 0.081207
0.669031 0.293945 0.082188
0.685903 0.295057 0.083125
0.700080 0.296804 0.083711
0.711576 0.299328 0.084123
0.720807 0.302267 0.084193
0.728528 0.305393 0.084126
0.735071 0.308512 0.084212
0.739984 0.311840 0.084360
0.744045 0.315267 0.084541
0.748282 0.318684 0.084729
0.000000 0.218527 0.097420
0.000000 0.215664 0.097274
0.000000 0.212487 0.097170
0.000000 0.210326 0.096890
0.000000 0.210420 0.096500
0.000000 0.212527 0.096640
0.000000 0.215937 0.096146
0.044390 0.221161 0.094667
0.109029 0.229953 0.094240
0.141288 0.240672 0.093654
0.182681 0.251793 0.093123
0.231077 0.262255 0.091792
0.279886 0.272774 0.089546
0.326351 0.283011 0.086916
0.371369 0.291931 0.084232
0.417223 0.299626 0.082113
0.462605 0.306427 0.080560
0.504773 0.312172 0.079183
0.542102 0.316483 0.078285
0.578093 0.319660 0.077953
0.611475 0.321593 0.078096
0.640297 0.323356 0.078326
0.663835 0.325028 0.078570
0.683832 0.326258 0.078926
0.700866 0.327458 0.079390
0.715164 0.329424 0.079711
0.726637 0.332093 0.079998
0.735802 0.335249 0.080359
0.743452 0.338649 0.080505
0.749797 0.341796 0.080506
0.754393 0.344884 0.080381
0.758084 0.347959 0.080216
0.761955 0.350992 0.080074
0.000000 0.243484 0.101528
0.000000 0.240658 0.101348
0.000000 0.237509 0.101220
0.000000 0.235444 0.100875
0.000000 0.235731 0.100338
0.000000 0.238033 0.100256
0.000000 0.241773 0.099484
0.039632 0.247276 0.097815
0.106929 0.256629 0.096950
0.145026 0.268295 0.096393
0.188599 0.280321 0.095099
0.239099 0.291658 0.093323
0.289620 0.302972 0.090326
0.337299 0.313932 0.086893
0.383920 0.323653 0.083547
0.430006 0.331823 0.081263
0.475917 0.339109 0.078800
0.518175 0.345094 0.076733
0.556217 0.350049 0.074639
0.592226 0.353287 0.073424
0.625963 0.355612 0.073233
0.654976 0.357597 0.072959
0.678725 0.359444 0.072735
0.699026 0.360945 0.072646
0.716302 0.362394 0.072711
0.730743 0.364493 0.072789
0.742291 0.367346 0.073119
0.751407 0.370573 0.073599
0.758918 0.373883 0.073711
0.765212 0.377103 0.073423
0.769695 0.380209 0.072878
0.773215 0.383240 0.072224
0.776919 0.386232 0.071632
0.000000 0.270612 0.105914
0.000000 0.267857 0.105723
0.000000 0.264767 0.105567
0.000000 0.262799 0.105196
0.000000 0.263328 0.104732
0.000000 0.265915 0.104734
0.000000 0.270006 0.104052
0.032062 0.275671 0.101491
0.102225 0.285482 0.100024
0.146457 0.297993 0.098785
0.193481 0.310933 0.097296
0.246842 0.323234 0.094557
0.299495 0.335635 0.090928
0.349337 0.347705 0.086284
0.396849 0.358289 0.082289
0.443787 0.367093 0.078676
0.490095 0.374734 0.074798
0.533176 0.381253 0.070919
0.571400 0.386422 0.067380
0.607578 0.389931 0.065653
0.641342 0.392393 0.064599
0.670426 0.394484 0.064022
0.694471 0.396603 0.063163
0.715053 0.398357 0.063029
0.732643 0.400115 0.062922
0.747339 0.402441 0.062259
0.758970 0.405311 0.062354
0.768173 0.408564 0.062708
0.775803 0.411973 0.062467
0.782172 0.415272 0.061944
0.786772 0.418583 0.061114
0.790436 0.421864 0.059625
0.794284 0.425089 0.058099
0.000000 0.298367 0.109379
0.000000 0.295654 0.109156
0.000000 0.292578 0.108929
0.000000 0.290716 0.108533
0.000000 0.291466 0.108149
0.000000 0.294353 0.108409
0.000000 0.298871 0.108001
0.008282 0.304849 0.105369
0.089655 0.315073 0.103387
0.147533 0.328398 0.101853
0.197952 0.342226 0.099208
0.254534 0.355563 0.095751
0.309799 0.369195 0.090763
0.361335 0.382489 0.085114
0.410404 0.394099 0.079550
0.458177 0.403534 0.074053
0.505282 0.411635 0.068042
0.549028 0.418513 0.062667
0.587458 0.423913 0.058710
0.623668 0.427584 0.055768
0.657163 0.430006 0.053306
0.686286 0.432199 0.050531
0.710609 0.434578 0.048230
0.731551 0.436648 0.047960
0.749631 0.438840 0.047673
0.764617 0.441359 0.046602
0.776383 0.444188 0.045111
0.785628 0.447251 0.043408
0.793298 0.450520 0.041224
0.799895 0.453982 0.034634
0.804939 0.457786 0.025198
0.809143 0.461748 0.023010
0.813534 0.465654 0.021301
0.000000 0.323929 0.112244
0.000000 0.321321 0.111965
0.000000 0.318408 0.111811
0.000000 0.316815 0.111602
0.000000 0.317849 0.111232
0.000000 0.320952 0.111459
0.000051 0.325960 0.111374
0.000000 0.332535 0.108860
0.080351 0.343222 0.106070
0.149113 0.357372 0.103868
0.203338 0.372129 0.100641
0.261853 0.386441 0.096004
0.319648 0.401164 0.089725
0.373296 0.415569 0.082475
0.423659 0.428118 0.075116
0.472204 0.438189 0.066674
0.520122 0.446836 0.059246
0.564412 0.454110 0.051333
0.603092 0.459776 0.040289
0.639412 0.463682 0.025057
0.673054 0.466486 0.008770
0.702522 0.469186 0.008996
0.727130 0.471918 0.008213
0.748619 0.474468 0.008197
0.767090 0.476959 0.008023
0.782335 0.479656 0.007681
0.794342 0.482607 0.007166
0.803739 0.485688 0.006446
0.811711 0.489108 0.005643
0.818816 0.492998 0.002818
0.824405 0.497349 0.000000
0.829219 0.501920 0.000000
0.834116 0.506328 0.000000
0.000000 0.345871 0.115466
0.000000 0.343514 0.115321
0.000000 0.340796 0.115074
0.000000 0.339455 0.114701
0.000000 0.340929 0.114344
0.000000 0.344610 0.114716
0.000000 0.350175 0.114171
0.000000 0.357499 0.111111
0.079380 0.368847 0.107393
0.153028 0.383965 0.104734
0.209684 0.399683 0.100619
0.270313 0.414883 0.095005
0.329243 0.430399 0.087541
0.384206 0.445574 0.079270
0.435497 0.458830 0.067522
0.484698 0.469573 0.056884
0.533544 0.478862 0.043463
0.578526 0.486800 0.008742
0.618440 0.493805 0.001133
0.655314 0.498768 0.000550
0.689831 0.502461 0.000000
0.719602 0.505634 0.000000
0.744684 0.508822 0.000000
0.766450 0.511652 0.000000
0.785011 0.514244 0.000000
0.800567 0.517160 0.000000
0.812774 0.520276 0.000000
0.822362 0.523500 0.000000
0.830394 0.526951 0.000000
0.837756 0.530978 0.000000
0.843639 0.535444 0.000000
0.848572 0.539967 0.000000
0.853569 0.544324 0.000000
0.000000 0.366121 0.117687
0.000000 0.364091 0.117532
0.000000 0.361684 0.117443
0.000000 0.360735 0.117057
0.000000 0.362774 0.116434
0.000000 0.367099 0.116357
0.000000 0.373390 0.115504
0.000000 0.381582 0.112144
0.079911 0.393907 0.108040
0.158095 0.410170 0.104260
0.217877 0.426992 0.099035
0.279400 0.443013 0.091960
0.338820 0.459088 0.083531
0.393775 0.474711 0.071824
0.446046 0.488519 0.056857
0.496328 0.499982 0.032253
0.546303 0.510642 0.003042
0.593040 0.520542 0.000000
0.633617 0.528462 0.000003
0.671911 0.534410 0.000000
0.706990 0.538792 0.000000
0.737496 0.542644 0.000000
0.762773 0.546187 0.000000
0.784662 0.549166 0.000000
0.803269 0.551869 0.000000
0.818796 0.554856 0.000000
0.831358 0.558298 0.000000
0.841257 0.561817 0.000000
0.849547 0.565470 0.000000
0.856799 0.569320 0.000000
0.862545 0.573462 0.000000
0.867414 0.577666 0.000000
0.872437 0.581799 0.000000
0.000000 0.384577 0.120067
0.000000 0.382916 0.119800
0.000000 0.380866 0.119598
0.000000 0.380377 0.119103
0.000000 0.383025 0.118359
0.000000 0.388070 0.118202
0.000000 0.395189 0.117140
0.000000 0.404286 0.113022
0.081399 0.417586 0.107564
0.164291 0.435013 0.103021
0.226369 0.452930 0.096122
0.288152 0.469712 0.087990
0.347736 0.486253 0.078112
0.403471 0.502280 0.062750
0.455702 0.516509 0.036328
0.507525 0.529423 0.000000
0.559130 0.542005 0.000000
0.606692 0.552802 0.000032
0.648491 0.561649 0.000000
0.687609 0.568408 0.000000
0.723677 0.573624 0.000000
0.754889 0.578128 0.000000
0.780528 0.582067 0.000000
0.802398 0.585207 0.000000
0.821179 0.588096 0.000000
0.836744 0.591206 0.000000
0.849386 0.594806 0.000000
0.859501 0.598585 0.000000
0.867910 0.602361 0.000000
0.875111 0.606055 0.000000
0.880742 0.609855 0.000000
0.885457 0.613659 0.000000
0.890350 0.617430 0.000000
0.000000 0.400171 0.122274
0.000000 0.398958 0.122027
0.000000 0.397350 0.121863
0.000000 0.397360 0.121345
0.000000 0.400593 0.120234
0.000000 0.406264 0.119480
0.000000 0.414017 0.117554
0.000000 0.423864 0.112782
0.084968 0.438043 0.106917
0.172009 0.456465 0.101248
0.234730 0.475265 0.092854
0.296944 0.492747 0.084104
0.356380 0.509760 0.070714
0.412228 0.526185 0.050800
0.465600 0.541440 0.005712
0.518504 0.556037 0.000000
0.570920 0.569325 0.000001
0.619244 0.580983 0.000000
0.661859 0.590618 0.000000
0.701584 0.598108 0.000000
0.738702 0.604132 0.000000
0.770443 0.609234 0.000000
0.796598 0.613630 0.000000
0.818489 0.616976 0.000000
0.837261 0.619979 0.000000
0.853141 0.623331 0.000000
0.865857 0.627059 0.000000
0.876055 0.630930 0.000000
0.884550 0.634739 0.000000
0.891733 0.638303 0.000000
0.897089 0.641713 0.000000
0.901517 0.645066 0.000000
0.906159 0.648406 0.000000
0.000000 0.412243 0.123022
0.000000 0.411584 0.122811
0.000000 0.410533 0.122724
0.000000 0.411104 0.122101
0.000000 0.414883 0.120703
0.000000 0.421002 0.119643
0.000000 0.429297 0.117732
0.000000 0.439725 0.112803
0.089632 0.454615 0.106187
0.179045 0.473744 0.099009
0.242493 0.493253 0.089941
0.305004 0.511375 0.079326
0.364840 0.528981 0.065029
0.420759 0.545844 0.014792
0.475133 0.562869 0.000000
0.528476 0.578116 0.000022
0.581268 0.592120 0.000000
0.630141 0.604491 0.000000
0.673227 0.614822 0.000000
0.713757 0.623042 0.000000
0.751267 0.629713 0.000000
0.783665 0.635450 0.000000
0.810034 0.640289 0.000000
0.832477 0.644032 0.000000
0.851389 0.647249 0.000000
0.867323 0.650699 0.000000
0.880270 0.654569 0.000000
0.890475 0.658422 0.000000
0.898855 0.662046 0.000000
0.905975 0.665445 0.000000
0.911145 0.668501 0.000000
0.915323 0.671425 0.000000
0.919704 0.674357 0.000000
0.000000 0.421667 0.123143
0.000000 0.421667 0.122916
0.000000 0.421281 0.122811
0.000000 0.422498 0.122178
0.000000 0.426852 0.120861
0.000000 0.433479 0.119859
0.000000 0.442171 0.117753
0.000000 0.453034 0.112115
0.095010 0.468524 0.104951
0.185325 0.488275 0.096625
0.249433 0.508365 0.086439
0.312065 0.527112 0.073878
0.372204 0.545291 0.053078
0.429350 0.563602 0.004492
0.483941 0.581479 0.000002
0.537796 0.597404 0.000000
0.590827 0.612075 0.000000
0.639986 0.625120 0.000000
0.683267 0.636068 0.000000
0.724336 0.645044 0.000000
0.762158 0.652384 0.000000
0.794843 0.658665 0.000000
0.821853 0.664046 0.000000
0.844787 0.668288 0.000000
0.864208 0.671838 0.000000
0.880299 0.675458 0.000000
0.893110 0.679254 0.000000
0.903260 0.682997 0.000000
0.911526 0.686462 0.000000
0.918442 0.689530 0.000000
0.923378 0.692178 0.000000
0.927250 0.694617 0.000000
0.931324 0.697085 0.000000
0.000000 0.429464 0.123366
0.000000 0.430175 0.123147
0.000000 0.430506 0.123063
0.000000 0.432404 0.122408
0.000000 0.437348 0.120997
0.000000 0.444404 0.119752
0.000000 0.453483 0.117171
0.000000 0.464736 0.110814
0.101974 0.480784 0.103450
0.192662 0.500954 0.093935
0.256742 0.521504 0.082667
0.319455 0.540742 0.068360
0.379818 0.559476 0.034314
0.437572 0.579135 0.001958
0.492723 0.597703 0.000000
0.546488 0.614175 0.000000
0.599405 0.629405 0.000000
0.648733 0.643034 0.000000
0.692469 0.654590 0.000000
0.733618 0.664142 0.000000
0.771859 0.672135 0.000000
0.804961 0.679027 0.000000
0.832123 0.684782 0.000000
0.855622 0.689442 0.000000
0.875585 0.693372 0.000000
0.891942 0.697167 0.000000
0.904766 0.700985 0.000000
0.914601 0.704512 0.000000
0.922673 0.707713 0.000000
0.929398 0.710483 0.000000
0.934020 0.712719 0.000000
0.937587 0.714705 0.000000
0.941405 0.716752 0.000000
0.000000 0.436088 0.123789
0.000000 0.437483 0.123512
0.000000 0.438502 0.123387
0.000000 0.441052 0.122634
0.000000 0.446568 0.121019
0.000000 0.454191 0.119410
0.000071 0.463758 0.116161
0.000000 0.475371 0.109509
0.110113 0.491908 0.101752
0.202271 0.512324 0.091693
0.265429 0.533056 0.079537
0.327764 0.552574 0.062323
0.388060 0.571989 0.014731
0.445758 0.592444 0.000000
0.500853 0.611435 0.000000
0.554798 0.628335 0.000000
0.607806 0.643998 0.000000
0.657075 0.658039 0.000000
0.700827 0.670032 0.000000
0.742037 0.680061 0.000000
0.780599 0.688569 0.000000
0.813872 0.695894 0.000000
0.841452 0.702076 0.000000
0.865041 0.706982 0.000000
0.885387 0.711194 0.000000
0.901946 0.715113 0.000000
0.914748 0.718874 0.000000
0.924632 0.722316 0.000000
0.932476 0.725320 0.000000
0.938993 0.727830 0.000000
0.943448 0.729770 0.000000
0.946805 0.731413 0.000000
0.950432 0.733139 0.000000
0.000000 0.440960 0.123797
0.000000 0.442937 0.123431
0.000000 0.444524 0.123229
0.000000 0.447657 0.122383
0.000000 0.453798 0.120477
0.000000 0.462113 0.118283
0.000000 0.472284 0.114644
0.003837 0.484322 0.107856
0.124877 0.501220 0.099560
0.210829 0.521628 0.089188
0.273230 0.542337 0.076126
0.335105 0.561918 0.053048
0.395534 0.582079 0.011397
0.453397 0.603060 0.000000
0.508513 0.622373 0.000000
0.562118 0.639570 0.000000
0.615141 0.655550 0.000000
0.664280 0.669903 0.000000
0.708207 0.682237 0.000000
0.749494 0.692650 0.000000
