Film Looks/DCI-P3 Kodak 2383 D60.cube
# Resolve Film Look LUT
#   Input: Cineon Log 
#        : floating point data (range 0.0 - 1.0)
#  Output: Kodak 2383 film stock 'look' with D60 White Point
#        : floating point data (range 0.0 - 1.0)
# Display: DCI-P3, Gamma 2.6
LUT_3D_SIZE 5
LUT_3D_INPUT_RANGE 0.0 1.0
0.042662 0.043632 0.053300
0.090016 0.056915 0.058322
0.342164 0.090816 0.062535
0.567703 0.054782 0.074578
0.625585 0.000000 0.080314
0.037187 0.087783 0.070783
0.112161 0.107449 0.075951
0.428803 0.162304 0.077693
0.661076 0.168034 0.085064
0.711804 0.189104 0.089269
0.000000 0.285695 0.121317
0.106784 0.334718 0.117858
0.573702 0.456125 0.087499
0.829680 0.492831 0.064546
0.876980 0.521744 0.056836
0.000000 0.436267 0.149621
0.052499 0.514794 0.134079
0.663263 0.693448 0.000000
0.952550 0.772091 0.000000
0.994026 0.784294 0.000000
0.000000 0.490168 0.178558
0.244880 0.588263 0.163733
0.699320 0.740481 0.109895
0.966824 0.812967 0.000000
1.000000 0.818502 0.000000
0.039543 0.045192 0.102261
0.093186 0.058114 0.110926
0.360363 0.091207 0.122895
0.589200 0.025548 0.131374
0.647970 0.000000 0.143453
0.000000 0.100905 0.133239
0.110921 0.119890 0.141814
0.449554 0.175272 0.154681
0.685995 0.179717 0.160286
0.736757 0.204796 0.173565
0.000000 0.323173 0.206289
0.000000 0.372471 0.208050
0.595832 0.497945 0.210902
0.858759 0.533649 0.207434
0.905267 0.564150 0.219745
0.000000 0.477450 0.258116
0.000180 0.557542 0.259951
0.673144 0.733800 0.250754
0.966482 0.804529 0.238352
1.000000 0.812452 0.245557
0.000000 0.541646 0.375831
0.064506 0.633944 0.387362
0.692147 0.785709 0.402869
0.971048 0.855439 0.403422
1.000000 0.858082 0.406334
0.000000 0.000000 0.315988
0.084086 0.000000 0.335815
0.382842 0.000000 0.377900
0.619734 0.000000 0.399588
0.676970 0.000000 0.416238
0.000000 0.065248 0.375306
0.056688 0.126706 0.402956
0.464245 0.177561 0.453384
0.705206 0.179638 0.467165
0.755113 0.211997 0.485910
0.000000 0.384770 0.509521
0.000000 0.437065 0.536946
0.588548 0.552004 0.578726
0.865219 0.584387 0.589991
0.911185 0.615222 0.603634
0.000000 0.550014 0.579080
0.000000 0.630459 0.610712
0.644767 0.795932 0.649763
0.957731 0.864417 0.663036
0.999323 0.874762 0.670215
0.000000 0.599787 0.659224
0.000000 0.691869 0.690894
0.664031 0.833981 0.731722
0.958740 0.902302 0.748779
1.000000 0.908564 0.750175
0.000000 0.000000 0.486062
0.000000 0.000000 0.508609
0.408824 0.000000 0.573156
0.651397 0.000000 0.606333
0.707671 0.000000 0.622774
0.000000 0.000000 0.563657
0.000000 0.061526 0.592071
0.472096 0.154935 0.666957
0.720592 0.149554 0.692709
0.771742 0.199424 0.711952
0.000000 0.401819 0.715705
0.000000 0.457918 0.753804
0.571709 0.571129 0.816150
0.863496 0.602549 0.842075
0.911735 0.633335 0.853087
0.000000 0.579549 0.783083
0.000000 0.661977 0.825982
0.614234 0.822368 0.885985
0.947285 0.891608 0.917411
0.993564 0.901892 0.921257
0.000000 0.623547 0.816111
0.000000 0.715736 0.855033
0.640525 0.853845 0.908837
0.950067 0.923743 0.939405
1.000000 0.932969 0.942528
0.000000 0.000000 0.569684
0.000000 0.000000 0.596268
0.448870 0.000000 0.668968
0.697301 0.000000 0.703078
0.745442 0.000000 0.719361
0.000000 0.091167 0.633535
0.000000 0.201899 0.680398
0.502255 0.285736 0.756092
0.763149 0.296641 0.786161
0.816237 0.337631 0.803827
0.000000 0.423898 0.759043
0.000000 0.488275 0.801510
0.570134 0.603751 0.867184
0.870296 0.637741 0.898611
0.920787 0.664697 0.908263
0.000000 0.587971 0.822108
0.000000 0.669852 0.863116
0.603732 0.824299 0.925439
0.941383 0.893893 0.962120
0.991549 0.904196 0.966336
0.000000 0.630752 0.841663
0.000000 0.721454 0.881305
0.627629 0.854180 0.935766
0.943522 0.925541 0.970623
0.999949 0.936343 0.975411
