Film Looks/DCI-P3 Kodak 2383 D55.cube
# Resolve Film Look LUT
#   Input: Cineon Log 
#        : floating point data (range 0.0 - 1.0)
#  Output: Kodak 2383 film stock 'look' with D55 White Point
#        : floating point data (range 0.0 - 1.0)
# Display: DCI-P3, Gamma 2.6
LUT_3D_SIZE 33
LUT_3D_INPUT_RANGE 0.0 1.0
0.043824 0.043596 0.051436
0.045913 0.044324 0.052251
0.047333 0.044959 0.053061
0.051032 0.045895 0.053797
0.055225 0.047170 0.054395
0.056598 0.048497 0.054847
0.061809 0.050283 0.055240
0.076384 0.053048 0.055633
0.089765 0.056400 0.056054
0.101872 0.060172 0.056530
0.123529 0.064123 0.057153
0.155465 0.069384 0.057495
0.184941 0.075399 0.057843
0.215849 0.080955 0.057964
0.252663 0.084342 0.058470
0.295456 0.086821 0.058625
0.339136 0.088650 0.059268
0.379420 0.089011 0.059658
0.414795 0.088083 0.060908
0.448811 0.084365 0.062255
0.480566 0.079647 0.064266
0.507511 0.073048 0.065789
0.529033 0.065320 0.067189
0.547119 0.057294 0.068256
0.562494 0.048836 0.069094
0.575380 0.035488 0.069940
0.585826 0.016415 0.070633
0.594399 0.000554 0.071439
0.601694 0.000000 0.072291
0.607882 0.000000 0.073051
0.612518 0.000000 0.073664
0.616341 0.000000 0.074181
0.620296 0.000000 0.074730
0.044810 0.045487 0.052387
0.046802 0.046190 0.053158
0.048112 0.046796 0.053924
0.051609 0.047710 0.054631
0.055864 0.049027 0.055230
0.057330 0.050443 0.055717
0.062628 0.052165 0.056135
0.077760 0.054852 0.056531
0.091906 0.058450 0.056938
0.104258 0.062253 0.057398
0.126956 0.066903 0.058034
0.159990 0.072348 0.058305
0.190689 0.078394 0.058722
0.222669 0.083653 0.058768
0.260352 0.087636 0.059427
0.303723 0.089820 0.059533
0.348110 0.092122 0.059995
0.388915 0.092540 0.060752
0.424647 0.091645 0.061632
0.458913 0.088193 0.063456
0.490838 0.083417 0.065113
0.517826 0.078405 0.066931
0.539253 0.071787 0.068257
0.557079 0.063994 0.069109
0.572140 0.057200 0.069941
0.584744 0.050525 0.070796
0.594904 0.043204 0.071496
0.602986 0.037579 0.072124
0.609752 0.032897 0.072697
0.615566 0.030283 0.073260
0.619991 0.030511 0.073790
0.623683 0.032197 0.074305
0.627505 0.033533 0.074821
0.045755 0.046828 0.053220
0.047657 0.047518 0.053952
0.048860 0.048107 0.054676
0.052174 0.049014 0.055357
0.056484 0.050358 0.055958
0.057904 0.051712 0.056463
0.063337 0.053367 0.056910
0.079279 0.056263 0.057345
0.093897 0.059971 0.057721
0.106455 0.063790 0.058170
0.130320 0.069153 0.058770
0.164163 0.074632 0.059034
0.196002 0.080683 0.059522
0.228993 0.085668 0.059508
0.267466 0.090114 0.060073
0.311479 0.092466 0.060506
0.356483 0.094590 0.060721
0.397838 0.095340 0.061659
0.433922 0.094456 0.062383
0.468448 0.091106 0.064466
0.500561 0.086236 0.066085
0.527629 0.081347 0.067923
0.548956 0.076338 0.069121
0.566571 0.069612 0.070078
0.581336 0.062650 0.070977
0.593675 0.057135 0.071750
0.603553 0.053373 0.072391
0.611357 0.049896 0.072950
0.617866 0.047622 0.073536
0.623483 0.046732 0.074089
0.627774 0.047981 0.074583
0.631359 0.050470 0.075061
0.635072 0.052747 0.075557
0.047000 0.050084 0.054421
0.048691 0.050653 0.055102
0.049699 0.051132 0.055777
0.052659 0.051890 0.056416
0.056804 0.053079 0.056993
0.058129 0.054345 0.057504
0.063870 0.056183 0.058005
0.080789 0.059372 0.058499
0.096150 0.063155 0.058813
0.109091 0.067464 0.059321
0.134002 0.073278 0.059863
0.168535 0.078584 0.060151
0.201575 0.084352 0.060494
0.235684 0.089770 0.060648
0.275041 0.094553 0.060944
0.319772 0.097756 0.061569
0.365468 0.100089 0.061895
0.407411 0.101103 0.062537
0.443840 0.100613 0.063631
0.478597 0.097415 0.065292
0.510857 0.092628 0.067282
0.537980 0.087811 0.068881
0.559229 0.083698 0.070261
0.576593 0.078840 0.071214
0.591099 0.074187 0.071885
0.603175 0.069954 0.072655
0.612824 0.067119 0.073288
0.620365 0.066038 0.073839
0.626642 0.065964 0.074397
0.632108 0.066692 0.074933
0.636298 0.068642 0.075445
0.639795 0.070970 0.075911
0.643410 0.072682 0.076390
0.047372 0.054403 0.056130
0.049041 0.054914 0.056772
0.050043 0.055338 0.057408
0.052899 0.056040 0.058016
0.057024 0.057221 0.058580
0.058437 0.058620 0.059106
0.064669 0.060838 0.059680
0.082560 0.064324 0.060221
0.098739 0.068226 0.060505
0.112496 0.073479 0.061101
0.138030 0.078945 0.061485
0.173505 0.084157 0.061844
0.208002 0.090335 0.061997
0.243313 0.096666 0.062356
0.283643 0.102215 0.062542
0.329088 0.105007 0.062871
0.375674 0.107417 0.063378
0.418309 0.108732 0.064180
0.455153 0.108677 0.064866
0.490103 0.106639 0.066755
0.522444 0.103486 0.068402
0.549551 0.099775 0.070181
0.570648 0.095533 0.071333
0.587770 0.091662 0.072203
0.601958 0.088366 0.072990
0.613817 0.085709 0.073803
0.623281 0.084435 0.074450
0.630660 0.084343 0.074958
0.636817 0.085265 0.075451
0.642190 0.086757 0.075986
0.646307 0.089029 0.076505
0.649757 0.091675 0.076974
0.653329 0.094106 0.077407
0.048270 0.057246 0.058074
0.050077 0.057733 0.058687
0.051009 0.058114 0.059295
0.053694 0.058792 0.059882
0.057984 0.060046 0.060436
0.059697 0.061692 0.060986
0.066719 0.064283 0.061603
0.085214 0.067776 0.062104
0.101770 0.072243 0.062495
0.116235 0.077783 0.063013
0.142018 0.082740 0.063306
0.178922 0.088632 0.063763
0.214708 0.095340 0.063879
0.251247 0.102655 0.064055
0.292267 0.107388 0.064514
0.338787 0.110942 0.064890
0.386382 0.113583 0.064969
0.429832 0.115336 0.066061
0.467075 0.115774 0.066619
0.502136 0.113922 0.068358
0.534490 0.111217 0.069909
0.561551 0.108234 0.071343
0.582505 0.105862 0.072524
0.599324 0.103287 0.073463
0.613215 0.100245 0.074265
0.624856 0.098207 0.075013
0.634223 0.098160 0.075622
0.641556 0.099317 0.076186
0.647654 0.101065 0.076719
0.652988 0.103184 0.077237
0.657096 0.105433 0.077703
0.660541 0.107655 0.078162
0.664108 0.109959 0.078665
0.048442 0.062703 0.060440
0.050549 0.063193 0.061030
0.051610 0.063591 0.061624
0.054415 0.064329 0.062199
0.059533 0.066037 0.062815
0.061523 0.067963 0.063389
0.068783 0.070672 0.063989
0.088036 0.074262 0.064465
0.104671 0.079157 0.065006
0.119778 0.084288 0.065226
0.146833 0.089992 0.065762
0.184978 0.096291 0.066030
0.222032 0.103795 0.066336
0.259519 0.110462 0.066182
0.301708 0.116038 0.066441
0.349250 0.120280 0.067103
0.397961 0.123753 0.067249
0.442252 0.126048 0.067841
0.479936 0.127091 0.068692
0.515130 0.125850 0.069943
0.547473 0.123579 0.071458
0.574458 0.121191 0.072649
0.595253 0.119058 0.073882
0.611793 0.116794 0.074701
0.625391 0.115489 0.075532
0.636846 0.114809 0.076339
0.646142 0.115277 0.076966
0.653433 0.116579 0.077468
0.659540 0.118377 0.077932
0.664879 0.120699 0.078429
0.669005 0.123539 0.078914
0.672469 0.126637 0.079419
0.676051 0.129647 0.079911
0.044855 0.074615 0.063755
0.047634 0.075198 0.064335
0.049369 0.075710 0.064925
0.053597 0.076694 0.065510
0.059178 0.078477 0.066103
0.061195 0.080548 0.066680
0.069622 0.083216 0.067111
0.090490 0.087116 0.067672
0.107564 0.092103 0.068226
0.124360 0.097877 0.068490
0.152435 0.104116 0.068863
0.192007 0.110910 0.069132
0.230346 0.118335 0.069177
0.269211 0.125771 0.068987
0.312484 0.131851 0.069239
0.361136 0.137010 0.069426
0.410979 0.141104 0.069583
0.456175 0.144281 0.070210
0.494339 0.145958 0.070710
0.529704 0.145781 0.071967
0.562077 0.144629 0.073094
0.589039 0.143226 0.074228
0.609728 0.142071 0.075277
0.626038 0.140805 0.076232
0.639384 0.139871 0.076988
0.650668 0.139898 0.077641
0.659881 0.141058 0.078140
0.667123 0.143040 0.078611
0.673199 0.145223 0.079048
0.678530 0.147581 0.079512
0.682684 0.150392 0.080002
0.686201 0.153481 0.080530
0.689829 0.156526 0.081046
0.040208 0.086429 0.067631
0.043441 0.087136 0.068287
0.045541 0.087692 0.068907
0.051041 0.088737 0.069512
0.057257 0.090562 0.070072
0.059811 0.092736 0.070636
0.069827 0.095653 0.071160
0.093150 0.100032 0.071728
0.112173 0.105502 0.072254
0.129391 0.111744 0.072731
0.159078 0.118458 0.072861
0.199699 0.125631 0.073155
0.239692 0.133654 0.073025
0.280019 0.141564 0.072569
0.324460 0.148330 0.072607
0.374207 0.154071 0.072578
0.425175 0.158730 0.072633
0.471382 0.162925 0.073091
0.510127 0.165519 0.073421
0.545714 0.165967 0.074518
0.578189 0.165692 0.075490
0.605185 0.164951 0.076582
0.625844 0.164738 0.077284
0.641998 0.163732 0.078037
0.655148 0.163238 0.078756
0.666304 0.164009 0.079267
0.675402 0.165712 0.079697
0.682541 0.168053 0.080028
0.688558 0.170780 0.080376
0.693899 0.173925 0.080938
0.698120 0.177351 0.081426
0.701734 0.180882 0.081875
0.705455 0.184299 0.082329
0.033907 0.097691 0.071876
0.037855 0.098427 0.072504
0.040519 0.099016 0.073114
0.048793 0.100224 0.073807
0.057407 0.102287 0.074450
0.060792 0.104684 0.075163
0.071063 0.107859 0.075868
0.094969 0.112427 0.076454
0.116920 0.118469 0.076923
0.134947 0.125243 0.077362
0.166019 0.132585 0.077556
0.208388 0.140288 0.077544
0.249779 0.148763 0.077349
0.291344 0.157098 0.076958
0.337129 0.164509 0.076566
0.388089 0.171097 0.076341
0.440398 0.177119 0.076223
0.487585 0.182049 0.076246
0.526857 0.184848 0.076658
0.562794 0.186409 0.077265
0.595389 0.186513 0.078104
0.622458 0.186438 0.078831
0.643143 0.186800 0.079550
0.659212 0.186619 0.079995
0.672225 0.186479 0.080541
0.683244 0.187260 0.081128
0.692243 0.189291 0.081600
0.699250 0.191920 0.081878
0.705180 0.194953 0.082141
0.710545 0.198444 0.082486
0.714891 0.202669 0.082986
0.718643 0.206800 0.083670
0.722480 0.210629 0.084210
0.003812 0.115138 0.076827
0.021840 0.115990 0.077450
0.023728 0.116664 0.077986
0.034685 0.117936 0.078524
0.052640 0.120275 0.079136
0.057484 0.123080 0.079871
0.069744 0.126761 0.080615
0.096708 0.131906 0.081196
0.119717 0.138488 0.081607
0.141006 0.146027 0.081834
0.173070 0.154031 0.081970
0.217452 0.162521 0.081774
0.260629 0.171598 0.081185
0.304079 0.180846 0.080553
0.351005 0.188958 0.079903
0.403000 0.195938 0.079505
0.456565 0.202653 0.079066
0.504893 0.208738 0.078764
0.544859 0.212644 0.078778
0.581088 0.214718 0.079192
0.613852 0.215485 0.079832
0.641059 0.216174 0.080435
0.661757 0.216595 0.081074
0.677792 0.217049 0.081489
0.690702 0.217384 0.081808
0.701628 0.218407 0.082146
0.710495 0.220354 0.082598
0.717390 0.223074 0.083020
0.723253 0.226402 0.083253
0.728622 0.230226 0.083571
0.733041 0.234697 0.083949
0.736895 0.239096 0.084401
0.740843 0.243302 0.085042
0.000000 0.139712 0.083110
0.000000 0.140637 0.083396
0.000000 0.141467 0.083771
0.008846 0.142797 0.083998
0.027605 0.145239 0.084158
0.045445 0.148524 0.084738
0.063790 0.152870 0.085628
0.096916 0.158750 0.086109
0.123840 0.166268 0.086419
0.145972 0.174721 0.086439
0.181234 0.183821 0.086451
0.227341 0.193237 0.086001
0.272503 0.203162 0.085094
0.317725 0.213217 0.083902
0.366059 0.222152 0.082879
0.419275 0.229946 0.081846
0.474238 0.237749 0.081015
0.523498 0.244226 0.080420
0.564182 0.248923 0.080075
0.600743 0.251490 0.080380
0.633777 0.253069 0.080555
0.661119 0.254256 0.081029
0.681890 0.255102 0.081188
0.697883 0.255663 0.081822
0.710731 0.256423 0.082031
0.721590 0.257796 0.082149
0.730392 0.259969 0.082373
0.737172 0.262756 0.082762
0.742952 0.266161 0.082892
0.748308 0.270104 0.083110
0.752731 0.274498 0.083408
0.756627 0.279149 0.083725
0.760625 0.283746 0.084214
0.000000 0.164466 0.089766
0.000000 0.165722 0.090111
0.000063 0.166856 0.090544
0.000000 0.168440 0.090615
0.000000 0.171020 0.090351
0.011531 0.174603 0.090568
0.050708 0.179321 0.091228
0.095945 0.185952 0.091466
0.126453 0.194493 0.091709
0.152153 0.204106 0.091646
0.189363 0.214295 0.091202
0.237671 0.224726 0.090528
0.285280 0.235677 0.088881
0.332652 0.246749 0.087231
0.382568 0.256560 0.085336
0.437156 0.265361 0.084058
0.493219 0.273720 0.082998
0.543484 0.280755 0.081881
0.584872 0.286040 0.081370
0.621805 0.289093 0.081049
0.655138 0.291245 0.080918
0.682655 0.292777 0.081029
0.703588 0.294181 0.080968
0.719545 0.294865 0.081294
0.732332 0.295722 0.081532
0.743128 0.297278 0.081715
0.751860 0.299643 0.081790
0.758571 0.302600 0.082087
0.764284 0.306127 0.082153
0.769589 0.310259 0.082256
0.774025 0.315182 0.082394
0.777954 0.320415 0.082544
0.781931 0.325302 0.082868
0.000000 0.189514 0.095980
0.000000 0.191064 0.096391
0.000000 0.192453 0.096878
0.000004 0.194416 0.097045
0.000000 0.197574 0.096909
0.000000 0.201728 0.097252
0.019296 0.206672 0.097100
0.091689 0.213922 0.097182
0.128322 0.223475 0.097183
0.157537 0.234249 0.096761
0.196797 0.245574 0.096215
0.248434 0.257133 0.094944
0.298472 0.269254 0.092998
0.348085 0.281379 0.090337
0.399589 0.292234 0.088061
0.455511 0.301913 0.086299
0.512735 0.310941 0.084353
0.564127 0.318765 0.082990
0.606217 0.324593 0.081897
0.643741 0.328441 0.080943
0.677260 0.330786 0.080400
0.705003 0.332663 0.079992
0.725987 0.334117 0.079777
0.742042 0.335112 0.079977
0.754775 0.336038 0.079945
0.765522 0.337647 0.080083
0.774191 0.340092 0.080121
0.780842 0.343218 0.080324
0.786534 0.347057 0.080265
0.791846 0.351572 0.080203
0.796218 0.356704 0.080191
0.800041 0.362020 0.080204
0.803966 0.367160 0.080338
0.000000 0.217613 0.103418
0.000000 0.219462 0.103737
0.000000 0.221125 0.104138
0.000000 0.223445 0.104200
0.000000 0.227121 0.103912
0.000000 0.231779 0.103870
0.011747 0.237327 0.103307
0.082172 0.244972 0.102544
0.129420 0.255629 0.102493
0.161216 0.267560 0.101965
0.205238 0.280143 0.100941
0.258461 0.292884 0.099337
0.311607 0.306371 0.096527
0.362959 0.319688 0.093214
0.416550 0.331837 0.090020
0.473634 0.342473 0.086982
0.532148 0.352486 0.084526
0.584611 0.361166 0.082391
0.627475 0.367710 0.080403
0.665319 0.371931 0.079063
0.699351 0.374951 0.077661
0.727393 0.377297 0.076734
0.748554 0.378998 0.076135
0.764625 0.380018 0.075905
0.777375 0.380990 0.075981
0.788143 0.382762 0.075951
0.796842 0.385407 0.075783
0.803440 0.388585 0.075589
0.809002 0.392268 0.075395
0.814183 0.396586 0.075175
0.818478 0.401673 0.074916
0.822255 0.407073 0.074661
0.826149 0.412357 0.074171
0.000000 0.248196 0.108815
0.000000 0.250412 0.109196
0.000000 0.252377 0.109631
0.000000 0.255132 0.109737
0.000000 0.259524 0.109524
0.000015 0.265155 0.109665
0.000000 0.271494 0.108836
0.050666 0.279753 0.107281
0.129048 0.291461 0.106884
0.165467 0.304672 0.106169
0.212296 0.318573 0.104964
0.268802 0.332704 0.102842
0.324197 0.347649 0.099376
0.378034 0.362543 0.095128
0.433108 0.376011 0.090536
0.491633 0.387876 0.086718
0.551498 0.399038 0.082896
0.605056 0.408684 0.079369
0.648787 0.416106 0.076207
0.687378 0.421255 0.072626
0.721758 0.424805 0.069753
0.750092 0.427514 0.067593
0.771531 0.429558 0.065806
0.787624 0.430498 0.065670
0.800297 0.431218 0.065781
0.810971 0.432756 0.065523
0.819628 0.435335 0.064780
0.826220 0.438521 0.064370
0.831748 0.442196 0.063997
0.836842 0.446379 0.063835
0.840970 0.451154 0.063363
0.844556 0.456185 0.062449
0.848221 0.461027 0.061340
0.000000 0.279811 0.114593
0.000000 0.282374 0.115092
0.000000 0.284611 0.115550
0.000000 0.287772 0.115613
0.000000 0.292873 0.115396
0.000000 0.299326 0.115397
0.000000 0.306741 0.114522
0.046254 0.315828 0.112475
0.125227 0.328394 0.111222
0.167829 0.342928 0.110199
0.218790 0.358156 0.108376
0.278801 0.373780 0.105876
0.337200 0.390336 0.101833
0.393175 0.406811 0.096447
0.450149 0.421766 0.090599
0.510111 0.434913 0.085090
0.571292 0.447258 0.079751
0.626014 0.457961 0.073637
0.670691 0.466277 0.066946
0.709938 0.472145 0.061854
0.744843 0.476308 0.058076
0.773557 0.479459 0.052647
0.795163 0.481617 0.048488
0.811310 0.482441 0.046562
0.823904 0.482930 0.046322
0.834618 0.484389 0.045392
0.843250 0.486920 0.043828
0.849759 0.490037 0.042434
0.855202 0.493609 0.039991
0.860146 0.497547 0.031760
0.864086 0.502032 0.025819
0.867501 0.506811 0.024920
0.870987 0.511402 0.023936
0.000000 0.308789 0.119708
0.000000 0.311573 0.120067
0.000000 0.314201 0.120784
0.000000 0.317868 0.121055
0.000000 0.323598 0.120823
0.000000 0.330806 0.120796
0.000000 0.339144 0.119906
0.038580 0.348985 0.117205
0.120374 0.362418 0.115391
0.170645 0.378157 0.113686
0.225019 0.394647 0.111334
0.287804 0.411625 0.108134
0.349044 0.429666 0.103613
0.407501 0.447677 0.096838
0.465988 0.463988 0.089727
0.527401 0.478376 0.082723
0.589858 0.491876 0.074497
0.645824 0.503656 0.063779
0.691329 0.512823 0.055706
0.731139 0.519348 0.040433
0.766614 0.524161 0.019170
0.796055 0.528131 0.008709
0.818185 0.530813 0.007940
0.834479 0.531740 0.007235
0.847122 0.532181 0.007182
0.857828 0.533584 0.006849
0.866620 0.536234 0.006268
0.873200 0.539417 0.005722
0.878621 0.542947 0.004783
0.883515 0.546760 0.001167
0.887340 0.551012 0.000000
0.890538 0.555444 0.000000
0.893891 0.559788 0.000000
0.000000 0.333616 0.124459
0.000000 0.336928 0.125013
0.000000 0.339923 0.125691
0.000000 0.344024 0.125930
0.000000 0.350305 0.125614
0.000000 0.358123 0.125253
0.000000 0.367115 0.123856
0.027680 0.377629 0.120736
0.114830 0.391835 0.118060
0.173162 0.408601 0.116311
0.230715 0.426180 0.113469
0.296448 0.444339 0.109348
0.359383 0.463653 0.104083
0.419795 0.482999 0.096128
0.479679 0.500521 0.087445
0.542376 0.516052 0.078372
0.605979 0.530652 0.065714
0.662794 0.543389 0.050055
0.708911 0.553303 0.011883
0.750222 0.561476 0.000690
0.786754 0.567592 0.000270
0.816751 0.572248 0.000000
0.839190 0.575360 0.000000
0.855857 0.576679 0.000000
0.868660 0.577300 0.000000
0.879376 0.578723 0.000000
0.888160 0.581309 0.000000
0.894754 0.584368 0.000000
0.900099 0.587674 0.000000
0.904763 0.591112 0.000000
0.908282 0.594851 0.000000
0.911165 0.598732 0.000000
0.914287 0.602603 0.000000
0.000000 0.357390 0.129355
0.000000 0.361155 0.129734
0.000000 0.364460 0.130031
0.000000 0.369035 0.130049
0.000000 0.375837 0.129516
0.000000 0.384190 0.129121
0.000000 0.393787 0.127546
0.005755 0.404873 0.123573
0.104421 0.419813 0.120498
0.175156 0.437526 0.117884
0.236097 0.456149 0.114127
0.303949 0.475447 0.109679
0.368992 0.496012 0.103134
0.430983 0.516627 0.093498
0.492290 0.535388 0.082813
0.555762 0.552026 0.070606
0.620199 0.567713 0.048583
0.678048 0.581818 0.005725
0.726050 0.593952 0.000000
0.767912 0.603045 0.000027
0.805276 0.609985 0.000000
0.835851 0.615337 0.000000
0.858707 0.619007 0.000000
0.875674 0.620781 0.000000
0.888676 0.621760 0.000000
0.899625 0.623367 0.000000
0.908378 0.625792 0.000000
0.914728 0.628445 0.000000
0.919835 0.631255 0.000000
0.924324 0.634180 0.000000
0.927583 0.637277 0.000000
0.930142 0.640445 0.000000
0.932893 0.643583 0.000000
0.000000 0.378887 0.132427
0.000000 0.383146 0.132732
0.000000 0.387038 0.133162
0.000000 0.392080 0.133072
0.000000 0.399391 0.132412
0.000000 0.408224 0.131785
0.000070 0.418417 0.130187
0.000000 0.430162 0.125971
0.096263 0.445701 0.121811
0.177051 0.464220 0.118766
0.240963 0.483811 0.114612
0.310475 0.504140 0.108944
0.377439 0.525855 0.101054
0.440842 0.547651 0.089932
0.503294 0.567546 0.077464
0.567535 0.585211 0.056537
0.633063 0.602279 0.014098
0.692577 0.618561 0.000000
0.741249 0.631719 0.000005
0.784050 0.641711 0.000000
0.821920 0.649375 0.000000
0.852940 0.655333 0.000000
0.876220 0.659573 0.000000
0.893574 0.661865 0.000000
0.906894 0.663235 0.000000
0.917845 0.664940 0.000000
0.926609 0.667246 0.000000
0.932902 0.669591 0.000000
0.937847 0.671953 0.000000
0.942113 0.674337 0.000000
0.945050 0.676742 0.000000
0.947252 0.679151 0.000000
0.949581 0.681517 0.000000
0.000000 0.396711 0.135252
0.000000 0.401329 0.135338
0.000000 0.405686 0.135804
0.000000 0.411175 0.135752
0.000000 0.418931 0.134875
0.000000 0.428176 0.134019
0.000000 0.438841 0.132206
0.000000 0.451128 0.127877
0.095857 0.467131 0.123396
0.179480 0.486293 0.119466
0.245540 0.506629 0.114457
0.316624 0.527767 0.108438
0.384941 0.550403 0.099254
0.449546 0.573125 0.086671
0.512764 0.593923 0.070662
0.577823 0.612550 0.039483
0.644434 0.631262 0.000000
0.704935 0.648804 0.000000
0.754096 0.662706 0.000000
0.797418 0.673385 0.000000
0.835665 0.681642 0.000000
0.867262 0.688189 0.000000
0.890872 0.692909 0.000000
0.908439 0.695628 0.000000
0.922238 0.697437 0.000000
0.933438 0.699345 0.000000
0.942117 0.701521 0.000000
0.948222 0.703560 0.000000
0.952978 0.705524 0.000000
0.957073 0.707484 0.000000
0.959764 0.709361 0.000000
0.961681 0.711170 0.000000
0.963766 0.712976 0.000000
0.000000 0.409680 0.137482
0.000000 0.414819 0.137747
0.000000 0.419590 0.138103
0.000000 0.425502 0.137798
0.000000 0.433635 0.136729
0.000000 0.443123 0.135583
0.000000 0.454027 0.133577
0.000000 0.466632 0.129207
0.096960 0.483015 0.124321
0.182550 0.502607 0.119999
0.249685 0.523437 0.114962
0.321916 0.545145 0.108193
0.391020 0.568374 0.098252
0.456151 0.591731 0.084302
0.520131 0.613201 0.064274
0.585683 0.632639 0.027415
0.653282 0.652686 0.000000
0.713952 0.670836 0.000005
0.763854 0.685409 0.000000
0.807358 0.696604 0.000000
0.846106 0.705373 0.000000
0.877923 0.712352 0.000000
0.902015 0.717554 0.000000
0.919926 0.720700 0.000000
0.933743 0.722764 0.000000
0.945161 0.724846 0.000000
0.954013 0.727044 0.000000
0.960116 0.728920 0.000000
0.964782 0.730629 0.000000
0.968704 0.732286 0.000000
0.971241 0.733813 0.000000
0.973017 0.735266 0.000000
0.974932 0.736716 0.000000
0.000000 0.419333 0.139275
0.000000 0.424940 0.139284
0.000000 0.430150 0.139480
0.000000 0.436457 0.139123
0.000000 0.444834 0.137878
0.000000 0.454423 0.136474
0.000000 0.465510 0.134661
0.000000 0.478316 0.130050
0.098844 0.494939 0.124866
0.185544 0.514834 0.120665
0.253549 0.535978 0.115102
0.326097 0.558051 0.108133
0.395637 0.581709 0.097106
0.460861 0.605490 0.082416
0.525113 0.627416 0.058587
0.591345 0.647548 0.011992
0.659537 0.668603 0.000000
0.720690 0.687343 0.000000
0.770805 0.702416 0.000000
0.814563 0.714075 0.000000
0.853602 0.723324 0.000000
0.885636 0.730666 0.000000
0.910033 0.736291 0.000000
0.928208 0.739821 0.000000
0.942471 0.742296 0.000000
0.954103 0.744607 0.000000
0.962851 0.746750 0.000000
0.968894 0.748461 0.000000
0.973545 0.749973 0.000000
0.977496 0.751459 0.000000
0.979971 0.752752 0.000000
0.981654 0.753940 0.000000
0.983521 0.755150 0.000000
0.000000 0.427071 0.140538
0.000000 0.433174 0.140515
0.000000 0.438865 0.140632
0.000000 0.445541 0.140135
0.000000 0.454122 0.138775
0.000000 0.463933 0.137748
0.000000 0.475032 0.135456
0.000000 0.487938 0.130604
0.102638 0.504772 0.125589
0.190003 0.524810 0.121159
0.258314 0.546151 0.115512
0.330533 0.568435 0.108133
0.399678 0.592311 0.096512
0.465423 0.616391 0.081206
0.529548 0.638634 0.054708
0.596118 0.659373 0.000000
0.664522 0.681016 0.000089
0.725938 0.700203 0.000000
0.776088 0.715679 0.000000
0.820170 0.727754 0.000000
0.859219 0.737324 0.000000
0.891506 0.745076 0.000000
0.915938 0.750988 0.000000
0.934684 0.754999 0.000000
0.949073 0.757753 0.000000
0.960726 0.760183 0.000000
0.969667 0.762353 0.000000
0.975854 0.763997 0.000000
0.980454 0.765366 0.000000
0.984324 0.766679 0.000000
0.986759 0.767792 0.000000
0.988393 0.768783 0.000000
0.990210 0.769796 0.000000
0.000000 0.433918 0.142045
0.000000 0.440566 0.141850
0.000000 0.446748 0.141748
0.000000 0.453879 0.141306
0.000000 0.462829 0.140194
0.000000 0.472731 0.138863
0.000131 0.483872 0.136177
0.000000 0.496771 0.131166
0.109090 0.513841 0.126544
0.197988 0.533967 0.122017
0.264820 0.555327 0.116418
0.336025 0.577688 0.108588
0.404867 0.601643 0.096960
0.470371 0.625807 0.081088
0.534464 0.648222 0.053568
0.600806 0.669312 0.000000
0.669107 0.691193 0.000000
0.730490 0.710671 0.000000
0.780464 0.726377 0.000000
0.824773 0.738758 0.000000
0.863884 0.748617 0.000000
0.896166 0.756587 0.000000
0.920961 0.762833 0.000000
0.939796 0.767133 0.000000
0.954537 0.770166 0.000000
0.966422 0.772782 0.000000
0.975429 0.774984 0.000000
0.981482 0.776505 0.000000
0.986025 0.777732 0.000000
0.989905 0.778935 0.000000
0.992314 0.779908 0.000000
0.993902 0.780738 0.000000
0.995748 0.781619 0.000000
0.000000 0.439426 0.143445
0.000000 0.446614 0.142893
0.000000 0.453474 0.142925
0.000000 0.461186 0.142539
0.000000 0.470445 0.141303
0.000000 0.480488 0.139564
0.000000 0.491665 0.136742
0.017873 0.504651 0.131801
0.130279 0.521874 0.127531
0.207124 0.541948 0.123093
0.272163 0.563229 0.117119
0.342236 0.585505 0.109247
0.410607 0.609402 0.097453
0.475552 0.633520 0.081427
0.539242 0.655916 0.053586
0.605187 0.677079 0.000000
0.673067 0.699032 0.000000
0.734250 0.718615 0.000000
0.784187 0.734456 0.000000
0.828439 0.747015 0.000000
