Film Looks/DCI-P3 Fujifilm 3513DI D65.cube
# Resolve Film Look LUT
#   Input: Cineon Log 
#        : floating point data (range 0.0 - 1.0)
#  Output: FUJIFILM 3513DI film stock 'look' with D65 White Point
#        : floating point data (range 0.0 - 1.0)
# Display: DCI-P3, Gamma 2.6
LUT_3D_SIZE 5
LUT_3D_INPUT_RANGE 0.0 1.0
0.042307 0.038619 0.051634
0.070806 0.047091 0.054656
0.310949 0.070156 0.063801
0.520946 0.000000 0.082836
0.590082 0.000000 0.091838
0.038406 0.109797 0.073648
0.098482 0.117172 0.076969
0.394975 0.169700 0.077228
0.618799 0.174821 0.086472
0.683460 0.193012 0.089689
0.000000 0.298367 0.109379
0.089655 0.315073 0.103387
0.505282 0.411635 0.068042
0.749631 0.438840 0.047673
0.813534 0.465654 0.021301
0.000000 0.429464 0.123366
0.101974 0.480784 0.103450
0.599405 0.629405 0.000000
0.875585 0.693372 0.000000
0.941405 0.716752 0.000000
0.000000 0.479548 0.149786
0.278998 0.576643 0.120537
0.672855 0.706394 0.000000
0.936849 0.777302 0.000000
0.994608 0.792592 0.000000
0.040225 0.033119 0.127085
0.077994 0.044817 0.123723
0.353852 0.062450 0.130642
0.576996 0.000000 0.149499
0.638406 0.000000 0.182888
0.000000 0.131168 0.166800
0.103306 0.137521 0.156964
0.448751 0.189243 0.158950
0.680188 0.188115 0.160674
0.735333 0.209299 0.197692
0.000000 0.372710 0.247754
0.000000 0.392150 0.233117
0.576503 0.494821 0.221073
0.828777 0.517239 0.214509
0.879106 0.544386 0.259759
0.000000 0.519666 0.349243
0.000000 0.576362 0.338899
0.655136 0.723673 0.319465
0.937006 0.778778 0.302722
0.983494 0.797362 0.348652
0.000000 0.576273 0.503811
0.080422 0.667707 0.512943
0.676959 0.786595 0.513876
0.942649 0.845118 0.514877
0.987734 0.861111 0.556495
0.000000 0.000000 0.380995
0.015393 0.000000 0.379379
0.383207 0.000000 0.412681
0.605649 0.000000 0.431661
0.663002 0.000000 0.471381
0.000000 0.087420 0.457896
0.000000 0.138393 0.459489
0.461382 0.190456 0.486804
0.694177 0.184430 0.493459
0.743673 0.208553 0.541595
0.000000 0.451397 0.603938
0.000000 0.471757 0.606580
0.568920 0.561822 0.618192
0.835232 0.582212 0.624380
0.881590 0.609433 0.668825
0.000000 0.594612 0.698710
0.000000 0.654140 0.713822
0.623941 0.792967 0.730895
0.927106 0.852921 0.743120
0.971866 0.868408 0.777535
0.000000 0.624811 0.771405
0.000000 0.716483 0.798777
0.646593 0.830994 0.824503
0.932754 0.897629 0.848158
0.980708 0.911859 0.873691
0.000000 0.000000 0.516972
0.000000 0.000000 0.533335
0.393068 0.000000 0.584802
0.628651 0.000000 0.616362
0.687833 0.000000 0.642863
0.000000 0.000000 0.619189
0.000000 0.030119 0.633422
0.459098 0.157026 0.688088
0.703988 0.138841 0.711013
0.754631 0.187623 0.738661
0.000000 0.469081 0.773430
0.000000 0.493959 0.795061
0.548975 0.587637 0.833229
0.838783 0.615088 0.863411
0.887736 0.640365 0.885237
0.000000 0.612044 0.833095
0.000000 0.673504 0.866383
0.595294 0.816603 0.912092
0.924309 0.888612 0.954143
0.972578 0.900970 0.967343
0.000000 0.633878 0.854434
0.000000 0.726398 0.890527
0.624934 0.843070 0.933754
0.929234 0.917869 0.977550
0.980534 0.930224 0.988257
0.000000 0.000000 0.544053
0.000000 0.000000 0.565791
0.391386 0.000000 0.622615
0.637534 0.000000 0.661866
0.696376 0.000000 0.680138
0.000000 0.000000 0.651187
0.000000 0.025843 0.671624
0.456963 0.175192 0.735821
0.711377 0.162456 0.764134
0.763548 0.210271 0.783588
0.000000 0.480687 0.800581
0.000000 0.500616 0.824069
0.537037 0.596280 0.869961
0.839499 0.628523 0.908873
0.891384 0.653471 0.922923
0.000000 0.613125 0.848288
0.000000 0.674849 0.883866
0.581393 0.818184 0.934582
0.921349 0.893939 0.983569
0.972617 0.905915 0.992535
0.000000 0.634660 0.861233
0.000000 0.725142 0.898897
0.612611 0.842621 0.944035
0.925861 0.919434 0.990680
0.980444 0.932184 0.999996
