Film Looks/DCI-P3 Kodak 2383 D55.cube
# Resolve Film Look LUT
#   Input: Cineon Log 
#        : floating point data (range 0.0 - 1.0)
#  Output: Kodak 2383 film stock 'look' with D55 White Point
#        : floating point data (range 0.0 - 1.0)
# Display: DCI-P3, Gamma 2.6
LUT_3D_SIZE 9
LUT_3D_INPUT_RANGE 0.0 1.0
0.043824 0.043596 0.051436
0.055225 0.047170 0.054395
0.089765 0.056400 0.056054
0.184941 0.075399 0.057843
0.339136 0.088650 0.059268
0.480566 0.079647 0.064266
0.562494 0.048836 0.069094
0.601694 0.000000 0.072291
0.620296 0.000000 0.074730
0.047372 0.054403 0.056130
0.057024 0.057221 0.058580
0.098739 0.068226 0.060505
0.208002 0.090335 0.061997
0.375674 0.107417 0.063378
0.522444 0.103486 0.068402
0.601958 0.088366 0.072990
0.636817 0.085265 0.075451
0.653329 0.094106 0.077407
0.040208 0.086429 0.067631
0.057257 0.090562 0.070072
0.112173 0.105502 0.072254
0.239692 0.133654 0.073025
0.425175 0.158730 0.072633
0.578189 0.165692 0.075490
0.655148 0.163238 0.078756
0.688558 0.170780 0.080376
0.705455 0.184299 0.082329
0.000000 0.164466 0.089766
0.000000 0.171020 0.090351
0.126453 0.194493 0.091709
0.285280 0.235677 0.088881
0.493219 0.273720 0.082998
0.655138 0.291245 0.080918
0.732332 0.295722 0.081532
0.764284 0.306127 0.082153
0.781931 0.325302 0.082868
0.000000 0.279811 0.114593
0.000000 0.292873 0.115396
0.125227 0.328394 0.111222
0.337200 0.390336 0.101833
0.571292 0.447258 0.079751
0.744843 0.476308 0.058076
0.823904 0.482930 0.046322
0.855202 0.493609 0.039991
0.870987 0.511402 0.023936
0.000000 0.378887 0.132427
0.000000 0.399391 0.132412
0.096263 0.445701 0.121811
0.377439 0.525855 0.101054
0.633063 0.602279 0.014098
0.821920 0.649375 0.000000
0.906894 0.663235 0.000000
0.937847 0.671953 0.000000
0.949581 0.681517 0.000000
0.000000 0.427071 0.140538
0.000000 0.454122 0.138775
0.102638 0.504772 0.125589
0.399678 0.592311 0.096512
0.664522 0.681016 0.000089
0.859219 0.737324 0.000000
0.949073 0.757753 0.000000
0.980454 0.765366 0.000000
0.990210 0.769796 0.000000
0.000000 0.448652 0.147185
0.000000 0.484529 0.143631
0.171978 0.536537 0.131013
0.424201 0.621823 0.102103
0.679815 0.709035 0.000000
0.871639 0.767004 0.000000
0.963484 0.790452 0.000000
0.996093 0.798446 0.000000
1.000000 0.799165 0.000000
0.000000 0.479751 0.167241
0.000000 0.525944 0.160275
0.262605 0.577055 0.154083
0.473546 0.651922 0.135356
0.700175 0.726225 0.096478
0.874142 0.774892 0.000000
0.964560 0.798550 0.000000
0.998447 0.806770 0.000000
1.000000 0.805133 0.000000
0.043510 0.045238 0.060959
0.055656 0.048206 0.064369
0.092048 0.057521 0.066846
0.192989 0.077565 0.069795
0.350537 0.089200 0.072204
0.492763 0.077932 0.077524
0.573797 0.037497 0.081672
0.613080 0.000000 0.085379
0.631349 0.000000 0.088428
0.046581 0.056249 0.067042
0.058576 0.059314 0.069518
0.101451 0.071038 0.072835
0.215708 0.093457 0.075525
0.387603 0.109994 0.078270
0.535262 0.104912 0.082694
0.614138 0.088845 0.086305
0.648591 0.086810 0.089482
0.664875 0.096322 0.092475
0.034792 0.091079 0.080695
0.056933 0.095299 0.083222
0.115131 0.110769 0.086562
0.248842 0.139853 0.088607
0.438323 0.165200 0.090087
0.592124 0.171823 0.092718
0.668522 0.169618 0.095448
0.701496 0.177227 0.098111
0.718827 0.192639 0.102253
0.000000 0.174756 0.106432
0.000000 0.181551 0.107256
0.127463 0.205871 0.108956
0.295732 0.248810 0.108662
0.508390 0.287152 0.105486
0.671485 0.304747 0.104509
0.748176 0.308836 0.105338
0.779685 0.320059 0.107046
0.797549 0.340287 0.110628
0.000000 0.295224 0.134312
0.000000 0.309360 0.135835
0.118812 0.345744 0.132087
0.347704 0.410241 0.126507
0.587911 0.468511 0.112363
0.762762 0.497381 0.101964
0.841524 0.503985 0.098345
0.872469 0.515274 0.099105
0.888177 0.533444 0.101662
0.000000 0.395872 0.154895
0.000000 0.417507 0.155630
0.084533 0.464681 0.146974
0.386093 0.546907 0.133796
0.648788 0.624824 0.103333
0.835584 0.667295 0.061584
0.919366 0.680064 0.028397
0.949146 0.687513 0.027452
0.960745 0.697487 0.043604
0.000000 0.442633 0.167226
0.000000 0.470450 0.166779
0.084462 0.521875 0.156827
0.406025 0.610688 0.140510
0.675468 0.697544 0.101934
0.868011 0.748472 0.022976
0.957700 0.768743 0.000000
0.988078 0.775463 0.000000
0.996179 0.778836 0.000000
0.000000 0.465473 0.187146
0.000000 0.501174 0.185829
0.126070 0.552498 0.177653
0.424692 0.638549 0.164685
0.686844 0.724156 0.137438
0.877426 0.776275 0.102766
0.968162 0.797199 0.080731
0.999793 0.804461 0.079049
1.000000 0.802750 0.074562
0.000000 0.502808 0.245474
0.000000 0.548966 0.246341
0.230463 0.598329 0.246376
0.466106 0.673442 0.244509
0.702264 0.747627 0.237015
0.880256 0.795524 0.228947
0.970170 0.816466 0.225164
1.000000 0.822521 0.224899
1.000000 0.819677 0.229633
0.042013 0.044916 0.097297
0.054486 0.048658 0.100564
0.093112 0.057735 0.105482
0.195995 0.077612 0.111716
0.357213 0.088836 0.116441
0.501948 0.075121 0.120847
0.583849 0.012578 0.124047
0.624149 0.000000 0.129724
0.642460 0.000000 0.135739
0.041001 0.058854 0.106297
0.054585 0.061393 0.108939
0.101283 0.073349 0.114751
0.218976 0.095682 0.121421
0.394868 0.111859 0.126624
0.545310 0.105623 0.130544
0.625108 0.088084 0.133381
0.659606 0.086501 0.137845
0.675642 0.097620 0.144287
0.000266 0.098578 0.125811
0.038461 0.102715 0.128219
0.111957 0.117776 0.134621
0.251818 0.146643 0.141668
0.445799 0.171529 0.146525
0.602294 0.177607 0.149091
0.679896 0.175452 0.151254
0.713140 0.183018 0.155329
0.730256 0.199908 0.163565
0.000000 0.189522 0.159374
0.000000 0.196291 0.160945
0.113729 0.219091 0.164638
0.296720 0.261771 0.170892
0.515781 0.300123 0.173619
0.682339 0.317334 0.174306
0.759886 0.320818 0.175156
0.791626 0.332355 0.178996
0.809404 0.353880 0.187466
0.000000 0.316029 0.194413
0.000000 0.330149 0.197170
0.056324 0.364982 0.196595
0.344045 0.429863 0.200722
0.593790 0.488340 0.199194
0.772983 0.516796 0.195922
0.853072 0.523040 0.194904
0.884016 0.534125 0.198402
0.899310 0.552934 0.206346
0.000000 0.419761 0.221398
0.000000 0.441404 0.224421
0.000000 0.487724 0.222287
0.376919 0.569204 0.222028
0.651342 0.647337 0.215382
0.843566 0.689998 0.207894
0.929173 0.702549 0.205231
0.958990 0.709607 0.207483
0.970317 0.719973 0.215997
0.000000 0.467183 0.243268
0.000000 0.494796 0.245988
0.000000 0.545498 0.244219
0.391851 0.632478 0.242917
0.674562 0.719695 0.235770
0.872751 0.770623 0.226880
0.963024 0.788913 0.222889
0.993742 0.795496 0.224906
1.000000 0.798857 0.232144
0.000000 0.492488 0.280700
0.000000 0.527854 0.284927
0.000000 0.577096 0.284196
0.405346 0.661356 0.286050
0.681966 0.747114 0.284095
0.878483 0.799293 0.278338
0.971158 0.819789 0.274208
1.000000 0.825190 0.273781
1.000000 0.823598 0.277010
0.000000 0.530597 0.355992
0.000000 0.575810 0.363516
0.132762 0.621680 0.366585
0.445489 0.696572 0.376143
0.694681 0.770688 0.381111
0.877134 0.818342 0.381770
0.968617 0.838939 0.381092
1.000000 0.845050 0.381807
1.000000 0.842789 0.384902
0.034241 0.014937 0.184161
0.050595 0.023664 0.188865
0.092289 0.038413 0.200555
0.200367 0.061833 0.214878
0.365387 0.074693 0.225500
0.511521 0.036575 0.231897
0.596921 0.000000 0.238145
0.636765 0.000000 0.244895
0.654546 0.000000 0.253114
0.001554 0.054042 0.199652
0.040154 0.056144 0.204363
0.098960 0.066285 0.217031
0.222848 0.089406 0.232448
0.403460 0.105977 0.244132
0.555595 0.096688 0.250237
0.635611 0.075426 0.253232
0.669470 0.071972 0.258839
0.685594 0.086926 0.268007
0.000000 0.106453 0.234122
0.000000 0.110090 0.237515
0.099789 0.126594 0.248845
0.253434 0.153752 0.265787
0.453523 0.177797 0.277956
0.612383 0.182796 0.282910
0.690312 0.180449 0.285321
0.723162 0.189678 0.290534
0.739861 0.207346 0.301400
0.000000 0.213108 0.281855
0.000000 0.219037 0.285618
0.025787 0.240427 0.292951
0.291363 0.281716 0.310298
0.520730 0.318780 0.322336
0.690675 0.335159 0.326717
0.768672 0.337561 0.327647
0.800371 0.349551 0.332825
0.817565 0.372130 0.343605
0.000000 0.349254 0.328472
0.000000 0.362789 0.334394
0.000227 0.397986 0.342476
0.326048 0.458336 0.355632
0.593101 0.515831 0.367011
0.777308 0.543487 0.369816
0.858882 0.549106 0.369823
0.889742 0.559586 0.373977
0.904511 0.579451 0.383711
0.000000 0.457042 0.362427
0.000000 0.478351 0.369576
0.000000 0.524963 0.378452
0.347307 0.601472 0.388706
0.645254 0.679453 0.399238
0.843334 0.721024 0.401292
0.930896 0.732972 0.401040
0.961218 0.739965 0.403898
0.971949 0.750301 0.412634
0.000000 0.504545 0.389046
0.000000 0.532813 0.398472
0.000000 0.582957 0.407081
0.355977 0.665107 0.416513
0.664333 0.752146 0.427651
0.869053 0.802091 0.429670
0.961691 0.819864 0.429055
0.992794 0.826299 0.431700
1.000000 0.829961 0.438255
0.000000 0.529144 0.430485
0.000000 0.564442 0.442368
0.000000 0.613555 0.451428
0.366510 0.692395 0.461733
0.669138 0.777864 0.475483
0.872222 0.829428 0.479096
0.967084 0.849545 0.478451
0.999817 0.856204 0.480050
1.000000 0.854406 0.482027
0.000000 0.561102 0.492151
0.000000 0.607341 0.508115
0.000000 0.651252 0.514393
0.415678 0.722958 0.530000
0.681867 0.796460 0.544770
0.869844 0.843662 0.551878
0.963477 0.863862 0.552874
0.998439 0.871234 0.554651
1.000000 0.869494 0.555990
0.000000 0.000000 0.298124
0.000000 0.000000 0.302623
0.090077 0.000000 0.318670
0.211600 0.000000 0.340472
0.379626 0.000000 0.358422
0.529592 0.000000 0.372111
0.614538 0.000000 0.379738
0.653648 0.000000 0.387074
0.670690 0.000000 0.395141
0.000000 0.000000 0.318229
0.000000 0.000000 0.322984
0.096669 0.000000 0.339957
0.228758 0.027609 0.363355
0.412838 0.062207 0.382772
0.566350 0.015971 0.393780
0.648777 0.000260 0.400575
0.682520 0.000000 0.406876
0.696504 0.000000 0.415205
0.000000 0.081334 0.356438
0.000000 0.093939 0.365012
0.071193 0.126250 0.382187
0.255264 0.152150 0.409394
0.461092 0.175193 0.430039
0.621386 0.179138 0.439364
0.699316 0.176299 0.442997
0.732087 0.186795 0.449261
0.748805 0.207728 0.460746
0.000000 0.228732 0.424019
0.000000 0.233551 0.430213
0.000328 0.259899 0.445940
0.282429 0.299692 0.468726
0.523784 0.335232 0.490336
0.696545 0.350665 0.499520
0.775404 0.352682 0.501778
0.806890 0.364747 0.507082
0.823938 0.388775 0.518366
0.000000 0.378255 0.482511
0.000000 0.392795 0.492821
0.000000 0.429059 0.508369
0.299946 0.485245 0.526050
0.588715 0.541747 0.548736
0.777502 0.568328 0.557617
0.860651 0.573234 0.559250
0.891741 0.583667 0.563436
0.906253 0.603429 0.572156
0.000000 0.490976 0.522144
0.000000 0.512577 0.533932
0.000000 0.559732 0.550285
0.306878 0.631372 0.565475
0.633833 0.708711 0.589181
0.838072 0.749408 0.598679
0.927762 0.760862 0.600672
0.958810 0.767696 0.603274
0.969463 0.777574 0.609500
0.000000 0.538888 0.547419
0.000000 0.566867 0.560893
0.000000 0.617676 0.577500
0.307398 0.694571 0.591508
0.649972 0.780952 0.615887
0.861440 0.830379 0.626165
0.956149 0.847970 0.628261
0.988123 0.854022 0.630598
0.997262 0.858179 0.635155
0.000000 0.558920 0.579086
0.000000 0.595193 0.595985
0.000000 0.644675 0.611471
0.323188 0.719295 0.625679
0.654934 0.804124 0.650735
0.863904 0.854958 0.661733
0.960896 0.874999 0.664317
0.995102 0.881825 0.665994
1.000000 0.881863 0.667755
0.000000 0.587004 0.622832
0.000000 0.633350 0.642175
0.000000 0.677413 0.652604
0.384202 0.745421 0.670696
0.670126 0.818342 0.693661
0.862614 0.864909 0.706050
0.958153 0.885213 0.709682
0.994202 0.892297 0.710694
1.000000 0.891904 0.711475
0.000000 0.000000 0.396988
0.000000 0.000000 0.403095
0.071236 0.000000 0.417983
0.218843 0.000000 0.446834
0.396335 0.000000 0.472126
0.547372 0.000000 0.490083
0.631921 0.000000 0.499219
0.670731 0.000000 0.506872
0.688048 0.000000 0.514968
0.000000 0.000000 0.423755
0.000000 0.000000 0.430306
0.077386 0.000000 0.446443
0.237393 0.000000 0.477567
0.427617 0.000000 0.503548
0.584436 0.000000 0.520432
0.666817 0.000000 0.528487
0.700211 0.000000 0.534956
0.714393 0.000000 0.543757
0.000000 0.000000 0.462117
0.000000 0.008607 0.469295
0.034689 0.113083 0.492134
0.255528 0.138879 0.526683
0.465701 0.160899 0.554624
0.628226 0.163530 0.568600
0.707172 0.159194 0.573761
0.740347 0.173074 0.580559
0.757198 0.199156 0.591818
0.000000 0.223384 0.537086
0.000000 0.231956 0.547430
0.000000 0.263617 0.567452
0.271667 0.307818 0.594775
0.523506 0.342534 0.624733
0.699484 0.357052 0.638844
0.779988 0.358807 0.642681
0.812091 0.371057 0.648124
0.829080 0.396580 0.658699
0.000000 0.390398 0.605642
0.000000 0.407684 0.619090
0.000000 0.444515 0.638468
0.272881 0.500283 0.659616
0.581088 0.555893 0.691527
0.775050 0.581932 0.706007
0.860740 0.586816 0.709696
0.892521 0.596698 0.713498
0.907341 0.617129 0.721171
0.000000 0.512321 0.651687
0.000000 0.533991 0.664062
0.000000 0.580931 0.685259
0.243604 0.649244 0.702375
0.620615 0.726135 0.736478
0.831547 0.766649 0.752470
0.923925 0.777920 0.756438
0.956397 0.784777 0.759156
0.967406 0.794569 0.763391
0.000000 0.560545 0.672165
0.000000 0.588622 0.688166
0.000000 0.639836 0.709266
0.226579 0.713304 0.725149
0.634725 0.799471 0.759727
0.853547 0.848976 0.776937
0.951118 0.866608 0.781895
0.984747 0.872675 0.783919
0.994284 0.876702 0.786547
0.000000 0.578695 0.692653
0.000000 0.614534 0.712414
0.000000 0.664134 0.730708
0.260020 0.736130 0.747277
0.640385 0.820910 0.781341
0.856315 0.872047 0.798950
0.956064 0.892538 0.804642
0.991694 0.899434 0.806514
1.000000 0.900942 0.807691
0.000000 0.603382 0.720159
0.000000 0.650256 0.742978
0.000000 0.694271 0.755449
0.354039 0.759605 0.774814
0.658608 0.832466 0.804490
0.856000 0.879093 0.821539
0.954083 0.899786 0.827854
0.991478 0.907144 0.829443
1.000000 0.907869 0.829771
0.000000 0.000000 0.459397
0.000000 0.000000 0.466001
0.037125 0.000000 0.480597
0.221519 0.000000 0.513769
0.406821 0.000000 0.543928
0.561286 0.000000 0.565695
0.646526 0.000000 0.576350
0.685556 0.000000 0.585186
0.701885 0.000000 0.591740
0.000000 0.000000 0.492317
0.000000 0.000000 0.500038
0.043435 0.000000 0.515859
0.241450 0.000000 0.551219
0.438905 0.000000 0.582621
0.598828 0.000000 0.602658
0.681628 0.000000 0.611904
0.715135 0.000000 0.618851
0.728988 0.000000 0.626993
0.000000 0.000000 0.532148
0.000000 0.000026 0.540327
0.002606 0.096070 0.561241
0.255626 0.133054 0.599622
0.469905 0.155746 0.632677
0.634901 0.156682 0.650414
0.715192 0.149868 0.657031
0.748683 0.167110 0.664086
0.765951 0.197676 0.675264
0.000000 0.217920 0.604187
0.000000 0.224513 0.614066
0.000000 0.264043 0.638562
0.263469 0.312962 0.669518
0.522484 0.346955 0.705013
0.701201 0.361256 0.723065
0.783681 0.362709 0.728716
0.816409 0.374275 0.734174
0.833659 0.401503 0.744038
0.000000 0.396879 0.678598
0.000000 0.411062 0.690592
0.000000 0.450675 0.713644
0.245866 0.506042 0.735855
0.574126 0.561012 0.774070
0.772244 0.587318 0.793232
0.860055 0.591677 0.798575
0.892842 0.600907 0.802317
0.907837 0.621822 0.808995
0.000000 0.521650 0.724954
0.000000 0.540483 0.736936
0.000000 0.588829 0.760376
0.159226 0.656343 0.779912
0.609878 0.732530 0.820330
0.825638 0.773202 0.841088
0.920718 0.784476 0.847254
0.954593 0.791140 0.850065
0.965734 0.800686 0.852637
0.000000 0.570507 0.741523
0.000000 0.599603 0.759709
0.000000 0.648977 0.781603
0.154453 0.721767 0.800152
0.623159 0.807239 0.840159
0.846892 0.857110 0.862262
0.947388 0.875025 0.869847
0.982538 0.881276 0.872198
0.992632 0.885008 0.873464
0.000000 0.589034 0.755716
0.000000 0.625005 0.776081
0.000000 0.672663 0.794005
0.173848 0.743117 0.812162
0.628475 0.827803 0.851411
0.849771 0.879661 0.873677
0.952762 0.900662 0.881953
0.989725 0.907825 0.884305
0.999738 0.909742 0.885071
0.000000 0.611626 0.772452
0.000000 0.657367 0.794242
0.000000 0.701702 0.808542
0.333896 0.765035 0.827969
0.649226 0.838147 0.861828
0.850184 0.885252 0.882222
0.950871 0.906475 0.890676
0.989880 0.914169 0.893494
1.000000 0.915588 0.893673
0.000000 0.000000 0.495412
0.000000 0.000000 0.502691
0.021770 0.000000 0.517543
0.229331 0.000000 0.552710
0.422247 0.000000 0.585334
0.578791 0.000000 0.607859
0.663851 0.000000 0.619394
0.700896 0.000000 0.627255
0.716889 0.000000 0.634709
0.000000 0.000000 0.532664
0.000000 0.000000 0.541711
0.032883 0.000011 0.557444
0.247299 0.000028 0.594519
0.449807 0.000000 0.628184
0.611936 0.000000 0.648853
0.695194 0.000024 0.658691
0.728605 0.000014 0.665558
0.741773 0.000000 0.673056
0.000000 0.000000 0.567456
0.000000 0.000000 0.576489
0.000000 0.120939 0.601088
0.258080 0.163905 0.640134
0.479290 0.186622 0.675673
0.646890 0.190416 0.695337
0.728526 0.186622 0.702839
0.762399 0.200349 0.709815
0.779733 0.229964 0.720224
0.000000 0.227431 0.636223
0.000000 0.236407 0.646761
0.000000 0.279978 0.673320
0.259965 0.330182 0.704169
0.524956 0.365067 0.742067
0.706037 0.379521 0.762074
0.790363 0.380891 0.768743
0.823903 0.392163 0.774456
0.841059 0.418562 0.783447
0.000000 0.404464 0.707778
0.000000 0.414818 0.717962
0.000000 0.457313 0.742945
0.232450 0.513217 0.766015
0.571101 0.568108 0.806832
0.771108 0.594330 0.828104
0.860640 0.598538 0.834714
0.894594 0.607807 0.838953
0.909710 0.627318 0.844682
0.000000 0.523613 0.751425
0.000000 0.547057 0.765995
0.000000 0.591953 0.788506
0.151213 0.659004 0.808835
0.603648 0.734268 0.851062
0.821351 0.774907 0.874268
0.918203 0.786074 0.881894
0.953543 0.792713 0.885279
0.965783 0.802942 0.887830
0.000000 0.575888 0.771015
0.000000 0.603302 0.786245
0.000000 0.652356 0.807390
0.142006 0.724161 0.827430
0.615999 0.808607 0.869265
0.842015 0.858711 0.893762
0.944637 0.876897 0.902852
0.981108 0.883236 0.905766
0.992064 0.887399 0.906942
0.000000 0.592198 0.777944
0.000000 0.627662 0.797146
0.000000 0.676105 0.817415
0.160305 0.745343 0.835371
0.622107 0.829420 0.876309
0.845074 0.881447 0.900681
0.949986 0.902940 0.910414
0.988444 0.910196 0.913376
0.999027 0.912387 0.913941
0.000000 0.617707 0.791988
0.000000 0.659478 0.811346
0.000000 0.703833 0.826811
0.323452 0.766217 0.846566
0.642098 0.838892 0.881774
0.845319 0.886676 0.903936
0.948019 0.908382 0.913719
0.988784 0.916311 0.917127
1.000000 0.918272 0.917441
0.000000 0.000000 0.538161
0.000000 0.000000 0.547371
0.053998 0.000000 0.564049
0.249114 0.000000 0.600809
0.446569 0.000000 0.634498
0.607099 0.000000 0.656455
0.691763 0.000000 0.667050
0.726327 0.000000 0.674512
0.739277 0.000000 0.682104
0.000000 0.000000 0.568765
0.000000 0.000024 0.579156
0.000000 0.122854 0.602422
0.259670 0.157559 0.641181
0.474127 0.180198 0.676907
0.639380 0.183489 0.697190
0.721929 0.177239 0.705300
0.757083 0.189925 0.713130
0.775055 0.224127 0.723745
0.000000 0.127999 0.603319
0.000000 0.155664 0.618595
0.000000 0.206663 0.644497
0.264198 0.253911 0.680203
0.501225 0.282362 0.717214
0.674343 0.293003 0.737914
0.758147 0.292459 0.745670
0.792769 0.303788 0.752422
0.810756 0.332588 0.762408
0.000000 0.280805 0.664835
0.000000 0.298902 0.680806
0.000000 0.333281 0.702224
0.260444 0.382656 0.730699
0.536829 0.422458 0.769580
0.721810 0.440195 0.790726
0.808563 0.442226 0.797937
0.843365 0.452870 0.803471
0.860290 0.478475 0.811527
0.000000 0.418188 0.719627
0.000000 0.439648 0.736188
0.000000 0.480970 0.758967
0.231251 0.537144 0.781601
0.573615 0.593112 0.822485
0.775426 0.621249 0.844794
0.867469 0.626259 0.852211
0.902456 0.634229 0.856241
0.917386 0.652619 0.861337
0.000000 0.530523 0.761406
0.000000 0.555892 0.777014
0.000000 0.601148 0.799619
0.153630 0.666153 0.818982
0.601899 0.740030 0.860989
0.818847 0.780737 0.884743
0.917597 0.792695 0.893328
0.953993 0.798541 0.896603
0.967036 0.808554 0.899293
0.000000 0.578302 0.778530
0.000000 0.609128 0.796781
0.000000 0.656798 0.816053
0.145843 0.726588 0.835659
0.613484 0.809193 0.877604
0.837679 0.858713 0.902538
0.941856 0.877315 0.912282
0.979969 0.883603 0.915661
0.990955 0.887340 0.916253
0.000000 0.595031 0.784980
0.000000 0.632681 0.805139
0.000000 0.680506 0.825578
0.162743 0.747167 0.842368
0.618666 0.829411 0.883247
0.840419 0.881108 0.908070
0.947170 0.903050 0.918705
0.987272 0.910674 0.922138
0.997778 0.912058 0.921815
0.000000 0.621029 0.798082
0.000000 0.663734 0.817937
0.000000 0.706728 0.832784
0.324208 0.767266 0.852395
0.637419 0.838490 0.887379
0.840421 0.886197 0.910052
0.944672 0.908332 0.920328
0.986810 0.916236 0.923816
0.999985 0.918905 0.924841
