Film Looks/DCI-P3 Fujifilm 3513DI D55.cube
# Resolve Film Look LUT
#   Input: Cineon Log 
#        : floating point data (range 0.0 - 1.0)
#  Output: FUJIFILM 3513DI film stock 'look' with D55 White Point
#        : floating point data (range 0.0 - 1.0)
# Display: DCI-P3, Gamma 2.6
LUT_3D_SIZE 33
LUT_3D_INPUT_RANGE 0.0 1.0
0.044749 0.038194 0.048012
0.044565 0.038495 0.048358
0.044055 0.038750 0.048702
0.045098 0.039199 0.049039
0.046434 0.039820 0.049332
0.041158 0.040069 0.049515
0.042698 0.040902 0.049735
0.059682 0.043226 0.050208
0.072000 0.047154 0.051087
0.082440 0.051536 0.052121
0.105841 0.055257 0.053116
0.139853 0.058569 0.054091
0.173054 0.062657 0.055005
0.205429 0.066045 0.055830
0.239552 0.069011 0.056812
0.275695 0.068726 0.057621
0.311909 0.067705 0.058419
0.345871 0.064779 0.059149
0.376769 0.059066 0.060428
0.406903 0.049752 0.061826
0.435548 0.020625 0.063586
0.461710 0.000000 0.066309
0.484479 0.000000 0.069364
0.504804 0.000000 0.072365
0.522774 0.000000 0.075060
0.537949 0.000000 0.077005
0.550584 0.000000 0.078114
0.561283 0.000000 0.078882
0.570279 0.000000 0.079617
0.577610 0.000000 0.080383
0.582992 0.000000 0.081163
0.587404 0.000000 0.081923
0.591966 0.000000 0.082672
0.047049 0.041844 0.050007
0.046585 0.041901 0.050341
0.045747 0.041901 0.050668
0.046660 0.042141 0.051001
0.048259 0.042644 0.051319
0.043560 0.042839 0.051561
0.045550 0.043629 0.051829
0.062061 0.045931 0.052299
0.074869 0.049834 0.053124
0.085730 0.054055 0.054123
0.109433 0.057932 0.055116
0.144185 0.061849 0.055945
0.178142 0.066697 0.056475
0.211271 0.071398 0.056991
0.246150 0.075015 0.057502
0.283079 0.075822 0.058176
0.320123 0.075303 0.058855
0.354755 0.072947 0.059648
0.386095 0.067934 0.061054
0.416525 0.059618 0.062504
0.445229 0.047050 0.064463
0.470604 0.013580 0.066399
0.493180 0.000000 0.069136
0.513676 0.000004 0.071967
0.531677 0.000000 0.074462
0.546799 0.000000 0.076320
0.559219 0.000000 0.077435
0.569597 0.000000 0.078241
0.578313 0.000000 0.078868
0.585512 0.000000 0.079540
0.590838 0.000000 0.080163
0.595213 0.000000 0.080744
0.599745 0.000000 0.081326
0.049353 0.044113 0.051744
0.048591 0.043973 0.052050
0.047406 0.043762 0.052339
0.048203 0.043825 0.052642
0.050098 0.044211 0.052955
0.045842 0.044313 0.053224
0.048233 0.045068 0.053547
0.064377 0.047396 0.054069
0.077375 0.051509 0.054963
0.088647 0.055574 0.055980
0.112584 0.059464 0.056981
0.148102 0.064191 0.057695
0.182773 0.069784 0.057877
0.216628 0.075579 0.057917
0.252151 0.078956 0.058160
0.289844 0.080057 0.058607
0.327667 0.079902 0.059290
0.362979 0.078593 0.060158
0.394781 0.074755 0.061486
0.425494 0.066959 0.063354
0.454465 0.056172 0.065488
0.479755 0.035861 0.067288
0.501715 0.007195 0.069255
0.522231 0.000000 0.071810
0.540348 0.000000 0.074189
0.555440 0.000067 0.075982
0.567651 0.000000 0.077110
0.577699 0.000000 0.077834
0.586166 0.000000 0.078432
0.593228 0.000000 0.079012
0.598502 0.000000 0.079494
0.602875 0.000000 0.079914
0.607402 0.000000 0.080344
0.051573 0.049956 0.053608
0.051001 0.049621 0.053895
0.049960 0.049218 0.054175
0.050608 0.049059 0.054476
0.052168 0.049280 0.054813
0.049054 0.049418 0.055135
0.051410 0.050087 0.055509
0.066444 0.052233 0.056070
0.079974 0.056095 0.056943
0.092153 0.060326 0.057897
0.116443 0.064554 0.058922
0.152907 0.070335 0.059485
0.188331 0.076445 0.059472
0.222875 0.081897 0.059003
0.259065 0.085454 0.059235
0.297463 0.086716 0.059314
0.336056 0.087250 0.060060
0.372024 0.086436 0.060716
0.404266 0.084030 0.062374
0.435286 0.078855 0.064091
0.464487 0.071135 0.066477
0.490032 0.060856 0.068490
0.511696 0.044640 0.069869
0.531369 0.026254 0.071411
0.548774 0.005483 0.072875
0.563807 0.000000 0.074518
0.575902 0.000000 0.075696
0.585740 0.000000 0.076490
0.593973 0.000000 0.077085
0.600884 0.000000 0.077560
0.606078 0.000000 0.077857
0.610389 0.000000 0.078082
0.614843 0.000000 0.078338
0.052245 0.058176 0.055818
0.051947 0.057581 0.056063
0.051374 0.056915 0.056298
0.051988 0.056513 0.056574
0.053331 0.056576 0.056927
0.051305 0.056785 0.057318
0.053320 0.057469 0.057768
0.068606 0.059958 0.058419
0.083610 0.064224 0.059249
0.096558 0.068788 0.060070
0.122177 0.074502 0.061080
0.159206 0.080051 0.061368
0.195522 0.086075 0.061350
0.231021 0.091664 0.060732
0.268043 0.096385 0.060794
0.307080 0.098664 0.060992
0.346336 0.100139 0.061340
0.382821 0.100121 0.062072
0.415455 0.098386 0.063400
0.446761 0.094439 0.065209
0.476206 0.088635 0.067622
0.501978 0.082759 0.069577
0.523868 0.077355 0.071127
0.543394 0.069367 0.072200
0.560475 0.059248 0.073056
0.574799 0.052345 0.073906
0.586328 0.048366 0.074569
0.595710 0.045959 0.075022
0.603667 0.044544 0.075424
0.610530 0.045768 0.075846
0.615878 0.048786 0.076241
0.620422 0.052856 0.076649
0.625087 0.056568 0.077044
0.053263 0.064540 0.058247
0.053200 0.063733 0.058416
0.052889 0.062839 0.058570
0.053725 0.062256 0.058794
0.055220 0.062222 0.059160
0.053277 0.062350 0.059648
0.055471 0.063179 0.060238
0.071875 0.066180 0.060976
0.087893 0.070815 0.061658
0.102506 0.076778 0.062417
0.128586 0.082442 0.062945
0.166188 0.088187 0.063400
0.203914 0.094778 0.063275
0.240599 0.101595 0.063159
0.278346 0.106251 0.063150
0.317907 0.108810 0.063128
0.357618 0.110263 0.063561
0.394615 0.110910 0.063818
0.427635 0.110293 0.065170
0.459223 0.107886 0.066741
0.488905 0.104288 0.069069
0.514881 0.099677 0.070984
0.537006 0.095570 0.072296
0.556714 0.091915 0.073434
0.573965 0.088033 0.074288
0.588373 0.085731 0.074918
0.599960 0.084720 0.075507
0.609410 0.084266 0.075984
0.617414 0.084690 0.076377
0.624249 0.085965 0.076749
0.629538 0.088367 0.077059
0.634018 0.091547 0.077311
0.638630 0.094712 0.077556
0.054379 0.074619 0.061105
0.054579 0.073525 0.061185
0.054477 0.072301 0.061241
0.055678 0.071545 0.061412
0.057577 0.071559 0.061807
0.055448 0.071666 0.062376
0.058006 0.072785 0.063085
0.075410 0.075871 0.063747
0.092571 0.080948 0.064357
0.107294 0.087005 0.064889
0.135447 0.093258 0.064947
0.174022 0.099822 0.065500
0.213069 0.106915 0.065657
0.250859 0.113507 0.065311
0.289393 0.118550 0.065878
0.329539 0.121821 0.065553
0.369829 0.124029 0.065780
0.407306 0.125332 0.065872
0.440714 0.125446 0.067014
0.472610 0.123699 0.068313
0.502562 0.120837 0.070578
0.528795 0.118362 0.072216
0.551112 0.116227 0.073626
0.571008 0.114790 0.074394
0.588399 0.113509 0.075300
0.602945 0.112759 0.076000
0.614684 0.112771 0.076563
0.624266 0.113611 0.077006
0.632341 0.114795 0.077351
0.639193 0.116544 0.077592
0.644408 0.118916 0.077750
0.648767 0.121568 0.077868
0.653266 0.124062 0.078002
0.052760 0.090859 0.064487
0.053265 0.089519 0.064560
0.053544 0.088023 0.064607
0.055282 0.087024 0.064733
0.057652 0.086984 0.065072
0.055196 0.087464 0.065765
0.058339 0.088830 0.066418
0.078065 0.091918 0.066853
0.097248 0.097311 0.067295
0.113631 0.103754 0.067609
0.142321 0.110608 0.067758
0.182489 0.117423 0.067858
0.222662 0.124645 0.067961
0.261483 0.131547 0.067860
0.301088 0.137486 0.068083
0.341908 0.141407 0.067733
0.382837 0.144346 0.067607
0.420902 0.146284 0.067669
0.454812 0.147226 0.068139
0.487148 0.146578 0.069669
0.517495 0.145267 0.071367
0.544024 0.143906 0.073054
0.566525 0.143155 0.074200
0.586475 0.142496 0.075188
0.603895 0.142201 0.075967
0.618489 0.142418 0.076654
0.630300 0.143181 0.077173
0.639942 0.144320 0.077544
0.648058 0.145947 0.077838
0.654905 0.148057 0.078022
0.660077 0.150729 0.078105
0.664377 0.153587 0.078114
0.668825 0.156314 0.078149
0.050559 0.108139 0.067767
0.052012 0.106394 0.067883
0.052216 0.104461 0.068059
0.053986 0.103170 0.068284
0.056994 0.103205 0.068732
0.054594 0.104048 0.069365
0.058971 0.106053 0.070193
0.079973 0.109759 0.070836
0.101749 0.115403 0.070915
0.120549 0.122356 0.071156
0.150383 0.129481 0.071028
0.191258 0.136576 0.070772
0.232638 0.144361 0.070672
0.272750 0.151890 0.070412
0.313123 0.157985 0.069938
0.354756 0.162409 0.069811
0.396745 0.166436 0.069390
0.435627 0.169162 0.069012
0.470254 0.171138 0.069338
0.503249 0.171415 0.070438
0.534169 0.170991 0.071876
0.561085 0.170427 0.073297
0.583705 0.170266 0.074613
0.603544 0.170077 0.075537
0.620804 0.170277 0.076478
0.635298 0.170942 0.077172
0.647061 0.172277 0.077578
0.656669 0.174157 0.077813
0.664761 0.176142 0.077992
0.671605 0.178468 0.078154
0.676808 0.181343 0.078243
0.681165 0.184591 0.078321
0.685677 0.187854 0.078340
0.043742 0.125369 0.072176
0.045197 0.123157 0.072278
0.045730 0.120678 0.072361
0.050622 0.119033 0.072556
0.055320 0.119108 0.073013
0.052789 0.120381 0.073791
0.058303 0.122992 0.074639
0.083253 0.127282 0.075225
0.105933 0.133246 0.075347
0.127391 0.140477 0.075067
0.158956 0.148174 0.074960
0.200797 0.155863 0.074471
0.243056 0.163925 0.073639
0.283986 0.171778 0.073004
0.325688 0.178912 0.072272
0.368393 0.184123 0.071656
0.411241 0.188427 0.070816
0.451144 0.192004 0.070743
0.486592 0.194559 0.070358
0.520374 0.195567 0.071545
0.552020 0.195967 0.072198
0.579395 0.196030 0.073394
0.602108 0.196579 0.074347
0.621735 0.196299 0.075817
0.638730 0.196768 0.076852
0.653048 0.197899 0.077517
0.664712 0.199497 0.077790
0.674211 0.201610 0.077932
0.682263 0.204388 0.077949
0.689149 0.207243 0.078045
0.694441 0.210580 0.078160
0.698899 0.214124 0.078274
0.703500 0.217553 0.078412
0.029716 0.144908 0.076326
0.031843 0.142475 0.076556
0.033427 0.139746 0.076747
0.040853 0.137949 0.076995
0.049949 0.138103 0.077438
0.046499 0.139647 0.078065
0.054986 0.142639 0.078705
0.084124 0.147346 0.079083
0.110847 0.153925 0.079126
0.133662 0.161733 0.078848
0.167007 0.169941 0.078346
0.209794 0.178141 0.077726
0.253585 0.186847 0.076720
0.295836 0.195408 0.075356
0.338218 0.202684 0.073952
0.381978 0.208698 0.073003
0.425854 0.213824 0.072102
0.466627 0.218049 0.071301
0.502723 0.220869 0.071090
0.537355 0.222881 0.071299
0.569601 0.223592 0.071712
0.597432 0.224259 0.072601
0.620262 0.224994 0.073408
0.639798 0.225466 0.074937
0.656526 0.225602 0.076351
0.670708 0.226966 0.077061
0.682281 0.229032 0.077234
0.691704 0.231496 0.077135
0.699677 0.234277 0.077094
0.706555 0.237564 0.077122
0.711895 0.241208 0.077246
0.716436 0.245090 0.077404
0.721111 0.248824 0.077560
0.000000 0.167649 0.080412
0.000000 0.165030 0.080488
0.004309 0.162143 0.080582
0.015284 0.160197 0.080686
0.035341 0.160350 0.080804
0.026089 0.162162 0.081440
0.047385 0.165497 0.081904
0.084569 0.170671 0.082176
0.114478 0.177854 0.082066
0.139941 0.186510 0.081659
0.174545 0.195499 0.080949
0.219318 0.204363 0.080049
0.264119 0.213620 0.078704
0.307419 0.222604 0.076995
0.350667 0.230334 0.075236
0.395376 0.237016 0.073659
0.439914 0.242711 0.072189
0.481229 0.247304 0.070866
0.517984 0.250878 0.070543
0.553061 0.253070 0.069777
0.585833 0.254340 0.070333
0.614038 0.255481 0.070551
0.637009 0.256331 0.071393
0.656592 0.257131 0.072330
0.673331 0.257843 0.073827
0.687428 0.259060 0.074672
0.698966 0.261346 0.074698
0.708324 0.264122 0.074511
0.716222 0.267158 0.074324
0.722998 0.270259 0.074323
0.728242 0.273874 0.074337
0.732684 0.277685 0.074411
0.737270 0.281398 0.074587
0.000000 0.190867 0.084247
0.000000 0.188185 0.084327
0.000000 0.185152 0.084421
0.000000 0.183025 0.084304
0.007862 0.183011 0.083995
0.001706 0.184966 0.084387
0.023733 0.188392 0.084436
0.084416 0.194044 0.084614
0.117824 0.201986 0.084341
0.145312 0.211580 0.084112
0.182695 0.221549 0.083132
0.228004 0.231054 0.082008
0.274527 0.240802 0.080248
0.319039 0.250260 0.078232
0.363399 0.258612 0.075969
0.408072 0.265436 0.073761
0.453179 0.271692 0.071796
0.494920 0.276830 0.070156
0.532053 0.280797 0.068406
0.567463 0.283253 0.068246
0.600631 0.284948 0.067772
0.629118 0.286303 0.067666
0.652351 0.287558 0.068365
0.672064 0.288375 0.068809
0.688944 0.289423 0.069304
0.703123 0.291026 0.070161
0.714644 0.293481 0.070289
0.723937 0.296512 0.069954
0.731707 0.299663 0.069868
0.738281 0.302699 0.069899
0.743208 0.305892 0.069879
0.747300 0.309239 0.069699
0.751564 0.312567 0.069459
0.000000 0.214353 0.088838
0.000000 0.211557 0.088701
0.000000 0.208444 0.088600
0.000020 0.206323 0.088316
0.000000 0.206402 0.087912
0.000000 0.208462 0.088030
0.013484 0.211954 0.087680
0.081483 0.217758 0.087092
0.121135 0.226533 0.086643
0.151478 0.237054 0.085818
0.190013 0.247967 0.085319
0.237194 0.258269 0.083800
0.284815 0.268532 0.081675
0.330946 0.278617 0.078948
0.375511 0.287297 0.076276
0.421106 0.294763 0.073313
0.466478 0.301470 0.070325
0.508458 0.307004 0.067737
0.545796 0.311244 0.066010
0.581579 0.314125 0.064934
0.614991 0.316025 0.064130
0.643743 0.317637 0.063926
0.667240 0.319155 0.063301
0.687209 0.320226 0.063903
0.704270 0.321434 0.063559
0.718566 0.323282 0.063356
0.730108 0.326015 0.063694
0.739373 0.329298 0.063563
0.746977 0.332460 0.063423
0.753322 0.335440 0.063278
0.757946 0.338448 0.063170
0.761662 0.341440 0.062955
0.765574 0.344435 0.062553
0.000000 0.238911 0.091969
0.000000 0.236148 0.091965
0.000000 0.233067 0.092023
0.000000 0.231022 0.091781
0.000000 0.231286 0.091242
0.000000 0.233547 0.091053
0.009144 0.237224 0.090180
0.073287 0.243217 0.088904
0.123532 0.252773 0.088675
0.156519 0.264254 0.088208
0.197063 0.276051 0.086745
0.246321 0.287216 0.084996
0.295450 0.298269 0.081993
0.342921 0.309095 0.078854
0.388896 0.318564 0.075085
0.434743 0.326542 0.070917
0.480332 0.333616 0.067153
0.522690 0.339596 0.063615
0.560351 0.344223 0.061554
0.596318 0.347375 0.059132
0.629905 0.349522 0.058431
0.658849 0.351354 0.057408
0.682626 0.353192 0.056426
0.702817 0.354454 0.055891
0.720169 0.355981 0.055370
0.734620 0.358056 0.054878
0.746221 0.360923 0.054640
0.755409 0.364156 0.054530
0.762970 0.367420 0.054348
0.769237 0.370452 0.053888
0.773681 0.373367 0.053200
0.777189 0.376243 0.052406
0.780924 0.379172 0.051714
0.000000 0.265334 0.095693
0.000000 0.262626 0.095533
0.000000 0.259555 0.095357
0.000000 0.257638 0.094957
0.000000 0.258150 0.094440
0.000004 0.260696 0.094418
0.000000 0.264722 0.093637
0.050243 0.270996 0.092150
0.125646 0.281189 0.091116
0.161134 0.293496 0.089829
0.204505 0.306206 0.088239
0.255590 0.318319 0.085691
0.306938 0.330471 0.082067
0.355941 0.342343 0.077806
0.402924 0.352697 0.071961
0.449316 0.361272 0.066629
0.495519 0.368820 0.061786
0.538264 0.375131 0.057815
0.576121 0.380030 0.053366
0.612340 0.383534 0.050526
0.645848 0.385774 0.047970
0.674923 0.387822 0.045141
0.698895 0.389852 0.042213
0.719503 0.391604 0.039031
0.737095 0.393334 0.035547
0.751727 0.395514 0.032094
0.763364 0.398295 0.030202
0.772616 0.401490 0.029409
0.780254 0.404794 0.028810
0.786692 0.408064 0.027772
0.791385 0.411385 0.026178
0.795182 0.414752 0.024051
0.799160 0.418066 0.021903
0.000000 0.292603 0.098881
0.000000 0.289938 0.098766
0.000000 0.286945 0.098711
0.000000 0.285144 0.098337
0.000000 0.285870 0.097882
0.000001 0.288660 0.097986
0.000000 0.293054 0.097266
0.048397 0.299675 0.095293
0.125859 0.310341 0.093886
0.165528 0.323442 0.092193
0.211686 0.337030 0.089481
0.264645 0.350145 0.086192
0.318219 0.363507 0.081551
0.369171 0.376594 0.075188
0.417480 0.387952 0.067312
0.464878 0.397228 0.060857
0.511641 0.405177 0.054086
0.554778 0.411772 0.046830
0.593005 0.416996 0.037439
0.629057 0.420597 0.017512
0.662677 0.423212 0.015892
0.691810 0.425495 0.013769
0.716161 0.427911 0.012320
0.737164 0.430024 0.008846
0.755139 0.432084 0.004506
0.770212 0.434639 0.000000
0.782071 0.437496 0.000000
0.791396 0.440576 0.000000
0.799343 0.444081 0.000000
0.806227 0.447793 0.000000
0.811470 0.451748 0.000000
0.815806 0.455748 0.000000
0.820272 0.459624 0.000000
0.000000 0.317837 0.102208
0.000000 0.315271 0.101987
0.000000 0.312300 0.101614
0.000000 0.310686 0.101279
0.000000 0.311701 0.100849
0.000000 0.314826 0.101149
0.000000 0.319670 0.100712
0.046361 0.326760 0.098512
0.126210 0.338023 0.096319
0.170713 0.351986 0.093758
0.218954 0.366476 0.090267
0.274344 0.380563 0.085799
0.329773 0.395017 0.080160
0.382089 0.409155 0.071318
0.431734 0.421447 0.061552
0.479912 0.431383 0.052843
0.527312 0.439779 0.039669
0.571284 0.447030 0.013340
0.610234 0.453203 0.005856
0.646656 0.457513 0.000000
0.680337 0.460541 0.000000
0.709723 0.463235 0.000000
0.734424 0.466051 0.000000
0.755942 0.468626 0.000000
0.774212 0.470945 0.000000
0.789645 0.473769 0.000000
0.801777 0.476794 0.000007
0.811278 0.479912 0.000000
0.819356 0.483362 0.000000
0.826486 0.487191 0.000000
0.832107 0.491444 0.000000
0.836924 0.495880 0.000000
0.841882 0.500202 0.000000
0.000000 0.339318 0.104541
0.000000 0.337009 0.104387
0.000000 0.334347 0.104288
0.000000 0.333028 0.103981
0.000000 0.334456 0.103482
0.000000 0.338052 0.103639
0.000000 0.343440 0.103004
0.045620 0.351129 0.100293
0.129550 0.363219 0.097561
0.177833 0.378148 0.094003
0.227428 0.393618 0.089780
0.283999 0.408557 0.084392
0.340856 0.423809 0.076999
0.394193 0.438711 0.065569
0.444346 0.451679 0.053506
0.493391 0.462257 0.029682
0.541728 0.471726 0.000000
0.587121 0.480511 0.000133
0.626816 0.487525 0.000000
0.663569 0.492442 0.000003
0.697821 0.496047 0.000000
0.727551 0.499215 0.000000
0.752409 0.502285 0.000000
0.774235 0.505151 0.000000
0.792912 0.507819 0.000000
0.808388 0.510670 0.000000
0.820666 0.513797 0.000000
0.830243 0.516948 0.000000
0.838335 0.520350 0.000000
0.845729 0.524298 0.000000
0.851566 0.528611 0.000000
0.856579 0.533077 0.000000
0.861731 0.537461 0.000000
0.000000 0.359185 0.106528
0.000000 0.357179 0.106358
0.000000 0.354806 0.106248
0.000000 0.353872 0.105865
0.000000 0.355859 0.105244
0.000000 0.360119 0.105176
0.000000 0.366260 0.104303
0.046295 0.374743 0.101137
0.134171 0.387860 0.097500
0.185456 0.403954 0.093330
0.237734 0.420521 0.087571
0.294426 0.436258 0.081353
0.351212 0.452045 0.071393
0.405434 0.467437 0.057477
0.456213 0.480961 0.031881
0.506277 0.492820 0.000000
0.556315 0.504136 0.000106
0.602401 0.513738 0.000001
0.642917 0.521550 0.000000
0.680535 0.527267 0.000000
0.715491 0.531595 0.000000
0.745738 0.535339 0.000000
0.771115 0.538913 0.000000
0.792903 0.541877 0.000000
0.811577 0.544651 0.000000
0.827162 0.547632 0.000000
0.839614 0.550945 0.000000
0.849464 0.554366 0.000000
0.857683 0.557895 0.000000
0.864996 0.561682 0.000000
0.870868 0.565806 0.000000
0.875851 0.570003 0.000000
0.880846 0.574012 0.000000
0.000000 0.377337 0.108195
0.000000 0.375704 0.108000
0.000000 0.373693 0.107876
0.000000 0.373207 0.107429
0.000000 0.375791 0.106647
0.000000 0.380713 0.106265
0.000000 0.387623 0.104939
0.047214 0.396979 0.101166
0.140331 0.411149 0.096705
0.194561 0.428431 0.091226
0.247905 0.446062 0.084803
0.305137 0.462565 0.076731
0.361898 0.478816 0.063997
0.415801 0.494520 0.043553
0.467539 0.509062 0.000000
0.519005 0.522685 0.000207
0.569760 0.534783 0.000000
0.616836 0.545329 0.000000
0.658105 0.553952 0.000000
0.696951 0.560564 0.000000
0.732679 0.565651 0.000000
0.763743 0.570085 0.000000
0.789381 0.574066 0.000000
0.811179 0.577171 0.000000
0.829821 0.580002 0.000000
0.845362 0.583082 0.000000
0.858035 0.586645 0.000000
0.868179 0.590347 0.000000
0.876621 0.594046 0.000000
0.883892 0.597703 0.000000
0.889563 0.601466 0.000000
0.894282 0.605177 0.000000
0.899169 0.608837 0.000000
0.000000 0.392578 0.109736
0.000000 0.391382 0.109513
0.000000 0.389801 0.109382
0.000000 0.389803 0.108839
0.000000 0.392969 0.107800
0.000000 0.398513 0.107073
0.000000 0.406091 0.105247
0.050416 0.416212 0.100910
0.147079 0.431291 0.095587
0.203651 0.449552 0.088901
0.257512 0.468047 0.081595
0.314856 0.485245 0.070965
0.371794 0.501955 0.054814
0.425973 0.518301 0.013866
0.478686 0.534409 0.000000
0.530790 0.548624 0.000000
0.582190 0.561549 0.000000
0.629964 0.572903 0.000000
0.672071 0.582313 0.000000
0.711436 0.589616 0.000000
0.748156 0.595484 0.000000
0.779831 0.600525 0.000000
0.805764 0.604860 0.000000
0.827688 0.608241 0.000000
0.846422 0.611213 0.000000
0.862108 0.614456 0.000000
0.874769 0.618113 0.000000
0.884995 0.621918 0.000000
0.893636 0.625713 0.000000
0.900897 0.629263 0.000000
0.906326 0.632650 0.000000
0.910768 0.635928 0.000000
0.915409 0.639166 0.000000
0.000000 0.404413 0.110407
0.000000 0.403761 0.110201
0.000000 0.402724 0.110112
0.000000 0.403281 0.109514
0.000000 0.406995 0.108240
0.000000 0.413031 0.107175
0.000000 0.421088 0.105059
0.053646 0.431825 0.100222
0.153909 0.447608 0.094125
0.211356 0.466572 0.086942
0.266525 0.485774 0.078101
0.324053 0.503590 0.065054
0.380547 0.520777 0.041089
0.435637 0.538529 0.002757
0.489084 0.555413 0.000010
0.541105 0.570239 0.000000
0.593187 0.583878 0.000000
0.641238 0.595903 0.000000
0.684078 0.606005 0.000000
0.724136 0.614063 0.000000
0.761263 0.620562 0.000000
0.793304 0.626159 0.000000
0.819621 0.630914 0.000000
0.841951 0.634634 0.000000
0.860942 0.637911 0.000000
0.876833 0.641297 0.000000
0.889612 0.645037 0.000000
0.899752 0.648796 0.000000
0.908081 0.652341 0.000000
0.915300 0.655692 0.000000
0.920607 0.658752 0.000000
0.924848 0.661643 0.000000
0.929245 0.664546 0.000000
0.000000 0.413739 0.110404
0.000000 0.413735 0.110189
0.000000 0.413355 0.110105
0.000000 0.414536 0.109458
0.000000 0.418775 0.108028
0.000000 0.425245 0.106797
0.000000 0.433699 0.104387
0.057246 0.444935 0.098978
0.161017 0.461338 0.092311
0.218763 0.480870 0.084390
0.273882 0.500648 0.074044
0.332152 0.519072 0.057816
0.389260 0.537167 0.014880
0.444807 0.556117 0.000000
0.498742 0.573674 0.000000
0.551155 0.589157 0.000000
0.603209 0.603426 0.000000
0.651641 0.616128 0.000000
0.694565 0.626825 0.000000
0.734859 0.635500 0.000000
0.772676 0.642787 0.000000
0.804991 0.648922 0.000000
0.831896 0.654209 0.000000
0.854488 0.658284 0.000000
0.873929 0.661836 0.000000
0.890111 0.665467 0.000000
0.902962 0.669240 0.000000
0.913003 0.672883 0.000000
0.921248 0.676275 0.000000
0.928107 0.679262 0.000000
0.932910 0.681787 0.000000
0.936797 0.684169 0.000000
0.940963 0.686623 0.000000
0.000000 0.421366 0.110211
0.000000 0.422056 0.109962
0.000000 0.422376 0.109855
0.000000 0.424217 0.109142
0.000000 0.429033 0.107647
0.000000 0.435939 0.106308
0.000000 0.444770 0.103571
0.062228 0.456533 0.097582
0.169425 0.473435 0.090281
0.226623 0.493374 0.081934
0.281953 0.513583 0.068657
0.339797 0.532448 0.045571
0.397902 0.551662 0.007969
0.453962 0.571458 0.000000
0.507643 0.589552 0.000000
0.560089 0.605578 0.000000
0.612338 0.620416 0.000000
0.660828 0.633659 0.000000
0.703999 0.644947 0.000000
0.744830 0.654280 0.000000
0.782690 0.662103 0.000000
0.815520 0.668868 0.000000
0.842587 0.674541 0.000000
0.865888 0.679077 0.000000
0.885533 0.682893 0.000000
0.901897 0.686632 0.000000
0.914792 0.690418 0.000000
0.924794 0.693943 0.000000
0.932803 0.697103 0.000000
0.939458 0.699791 0.000000
0.944096 0.701982 0.000000
0.947649 0.703913 0.000000
0.951468 0.705915 0.000000
0.000000 0.427827 0.110249
0.000000 0.429193 0.109959
0.000000 0.430189 0.109817
0.000000 0.432675 0.109056
0.000000 0.438077 0.107523
0.000002 0.445532 0.105886
0.000000 0.454829 0.102480
0.068471 0.467138 0.096032
0.179192 0.484457 0.088817
0.235571 0.504558 0.079685
0.290887 0.524958 0.064287
0.348508 0.544164 0.030536
0.406332 0.564170 0.000000
0.462508 0.584523 0.000000
0.516306 0.603010 0.000000
0.568848 0.619458 0.000000
0.621029 0.634707 0.000000
0.669584 0.648378 0.000000
0.712710 0.660054 0.000000
0.753683 0.669888 0.000000
0.791623 0.678185 0.000000
0.824645 0.685355 0.000000
0.852025 0.691410 0.000000
0.875692 0.696267 0.000000
0.895704 0.700342 0.000000
0.912120 0.704169 0.000000
0.925032 0.707918 0.000000
0.934912 0.711320 0.000000
0.942846 0.714314 0.000000
0.949391 0.716766 0.000000
0.953832 0.718661 0.000000
0.957130 0.720246 0.000000
0.960724 0.721928 0.000000
0.000000 0.432593 0.110200
0.000000 0.434540 0.109882
0.000000 0.436101 0.109705
0.000000 0.439163 0.108905
0.000000 0.445156 0.106900
0.000000 0.453286 0.104785
0.000000 0.463178 0.100837
0.075257 0.476076 0.094255
0.188779 0.493675 0.086702
0.243499 0.513731 0.076888
0.298713 0.534078 0.058550
0.356264 0.553635 0.023014
0.414277 0.574277 0.000000
0.470394 0.594900 0.000002
0.524058 0.613709 0.000000
0.576504 0.630445 0.000000
0.628429 0.645986 0.000000
0.677065 0.659976 0.000000
0.720264 0.671988 0.000000
0.761209 0.682159 0.000000
