Film Looks/DCI-P3 Fujifilm 3513DI D55.cube
# Resolve Film Look LUT
#   Input: Cineon Log 
#        : floating point data (range 0.0 - 1.0)
#  Output: FUJIFILM 3513DI film stock 'look' with D55 White Point
#        : floating point data (range 0.0 - 1.0)
# Display: DCI-P3, Gamma 2.6
LUT_3D_SIZE 5
LUT_3D_INPUT_RANGE 0.0 1.0
0.044749 0.038194 0.048012
0.072000 0.047154 0.051087
0.311909 0.067705 0.058419
0.522774 0.000000 0.075060
0.591966 0.000000 0.082672
0.050559 0.108139 0.067767
0.101749 0.115403 0.070915
0.396745 0.166436 0.069390
0.620804 0.170277 0.076478
0.685677 0.187854 0.078340
0.000000 0.292603 0.098881
0.125859 0.310341 0.093886
0.511641 0.405177 0.054086
0.755139 0.432084 0.004506
0.820272 0.459624 0.000000
0.000000 0.421366 0.110211
0.169425 0.473435 0.090281
0.612338 0.620416 0.000000
0.885533 0.682893 0.000000
0.951468 0.705915 0.000000
0.000000 0.470435 0.134601
0.307590 0.567891 0.106382
0.687589 0.696636 0.000000
0.949126 0.765943 0.000000
1.000000 0.778542 0.000000
0.042881 0.034683 0.117757
0.079748 0.044363 0.114581
0.354926 0.060222 0.120629
0.578861 0.000000 0.138343
0.640344 0.000000 0.169635
0.000000 0.129296 0.153659
0.107945 0.135700 0.145322
0.450794 0.185931 0.146554
0.682407 0.183282 0.147013
0.737819 0.204144 0.181254
0.000000 0.365997 0.228014
0.069779 0.385210 0.213828
0.584569 0.487122 0.202705
0.834976 0.508724 0.195167
0.885643 0.535462 0.237699
0.000000 0.509894 0.320718
0.000000 0.565024 0.309597
0.670765 0.712584 0.293308
0.949049 0.766549 0.276241
0.995567 0.784832 0.319262
0.000000 0.566028 0.463897
0.194729 0.657496 0.473473
0.695809 0.774767 0.474308
0.957059 0.832090 0.474657
1.000000 0.846742 0.512103
0.000000 0.000000 0.350061
0.067575 0.000000 0.351491
0.385662 0.000000 0.383045
0.607530 0.000000 0.400988
0.664879 0.000000 0.438078
0.000000 0.117337 0.425234
0.034493 0.144625 0.424124
0.465007 0.189295 0.450502
0.697253 0.181940 0.456456
0.747060 0.205868 0.501010
0.000000 0.444739 0.557037
0.000000 0.464491 0.558292
0.581328 0.553888 0.571782
0.843876 0.573550 0.577271
0.890679 0.600407 0.618393
0.000000 0.584399 0.643598
0.000000 0.642628 0.656397
0.646872 0.781515 0.675809
0.943040 0.840227 0.686801
0.987675 0.855492 0.718650
0.000000 0.614593 0.710694
0.000000 0.703702 0.734148
0.671650 0.819192 0.762525
0.950953 0.884508 0.784159
0.998621 0.898570 0.807782
0.000000 0.000000 0.475764
0.000154 0.000000 0.489741
0.399333 0.000000 0.542751
0.632512 0.000000 0.572933
0.691229 0.000000 0.597160
0.000000 0.000000 0.567458
0.000000 0.097414 0.584796
0.464799 0.162506 0.636896
0.708249 0.145027 0.657988
0.759140 0.189845 0.683561
0.000000 0.466430 0.715015
0.000000 0.490129 0.733936
0.565812 0.580169 0.770987
0.849754 0.606828 0.798777
0.898805 0.631667 0.818943
0.000000 0.603680 0.767943
0.000000 0.662725 0.797904
0.623521 0.805355 0.843750
0.943195 0.875963 0.882436
0.990867 0.888106 0.894631
0.000000 0.624627 0.787117
0.000000 0.714009 0.819035
0.653222 0.831396 0.863762
0.949282 0.904807 0.904086
0.999938 0.916989 0.913972
0.000000 0.000000 0.500771
0.000000 0.000000 0.519772
0.398889 0.000000 0.578105
0.641992 0.000000 0.615159
0.700652 0.000000 0.632367
0.000000 0.018335 0.596916
0.000093 0.099428 0.620220
0.463662 0.179816 0.681086
0.716158 0.167696 0.707175
0.768507 0.211805 0.725148
0.000000 0.476070 0.739322
0.000000 0.496337 0.759340
0.555230 0.588906 0.805014
0.851351 0.620341 0.840886
0.903191 0.644834 0.853851
0.000000 0.607471 0.782778
0.000000 0.663602 0.813167
0.611120 0.807010 0.864590
0.940752 0.881295 0.909705
0.991233 0.893033 0.917970
0.000000 0.625529 0.793490
0.000000 0.712910 0.826676
0.641984 0.830977 0.873291
0.946206 0.906382 0.916259
0.999985 0.918901 0.924837
