Film Looks/DCI-P3 Kodak 2383 D60.cube
# Resolve Film Look LUT
#   Input: Cineon Log 
#        : floating point data (range 0.0 - 1.0)
#  Output: Kodak 2383 film stock 'look' with D60 White Point
#        : floating point data (range 0.0 - 1.0)
# Display: DCI-P3, Gamma 2.6
LUT_3D_SIZE 33
LUT_3D_INPUT_RANGE 0.0 1.0
0.042662 0.043632 0.053300
0.044810 0.044392 0.054186
0.046245 0.045054 0.055067
0.050334 0.046046 0.055865
0.054764 0.047371 0.056514
0.056168 0.048746 0.057003
0.061493 0.050561 0.057426
0.076216 0.053399 0.057877
0.090016 0.056915 0.058322
0.102347 0.060770 0.058837
0.124368 0.065111 0.059567
0.156592 0.070474 0.059973
0.186390 0.076677 0.060412
0.217608 0.082320 0.060580
0.254831 0.086119 0.061362
0.298028 0.088557 0.061596
0.342164 0.090816 0.062535
0.382834 0.091605 0.063273
0.418549 0.090584 0.064717
0.452903 0.087313 0.066588
0.484967 0.082348 0.068824
0.512171 0.077105 0.070764
0.533918 0.070112 0.072368
0.552170 0.061845 0.073581
0.567703 0.054782 0.074578
0.580709 0.045696 0.075607
0.591266 0.035434 0.076478
0.599750 0.028235 0.077209
0.606880 0.007684 0.077858
0.613066 0.000000 0.078564
0.617744 0.000000 0.079204
0.621590 0.000000 0.079754
0.625585 0.000000 0.080314
0.043677 0.045603 0.054333
0.045724 0.046334 0.055171
0.047045 0.046964 0.056002
0.050924 0.047933 0.056767
0.055415 0.049300 0.057418
0.056903 0.050753 0.057943
0.062326 0.052488 0.058395
0.077708 0.055332 0.058864
0.092176 0.059031 0.059279
0.104737 0.062893 0.059778
0.127794 0.067977 0.060531
0.161165 0.073531 0.060855
0.192211 0.079861 0.061406
0.224497 0.085114 0.061471
0.262554 0.089377 0.062346
0.306390 0.091988 0.062717
0.351207 0.094291 0.063329
0.392417 0.095281 0.064478
0.428501 0.094340 0.065583
0.463103 0.091283 0.067883
0.495338 0.086390 0.069823
0.522586 0.081493 0.072028
0.544213 0.076592 0.073472
0.562226 0.069411 0.074684
0.577421 0.062587 0.075722
0.590153 0.056836 0.076685
0.600408 0.052662 0.077470
0.608588 0.047701 0.078128
0.615438 0.044763 0.078737
0.621303 0.042781 0.079323
0.625767 0.042840 0.079862
0.629500 0.044443 0.080394
0.633363 0.045797 0.080920
0.044654 0.047003 0.055238
0.046607 0.047720 0.056031
0.047817 0.048331 0.056817
0.051508 0.049293 0.057554
0.056019 0.050653 0.058201
0.057443 0.052025 0.058744
0.063067 0.053750 0.059237
0.079274 0.056810 0.059749
0.094197 0.060589 0.060124
0.107007 0.064635 0.060631
0.131205 0.070345 0.061336
0.165371 0.075949 0.061677
0.197506 0.081947 0.062237
0.230867 0.087273 0.062334
0.269736 0.091853 0.063040
0.314226 0.094847 0.063779
0.359661 0.097187 0.064245
0.401426 0.098253 0.065415
0.437860 0.097645 0.066646
0.472711 0.094246 0.068862
0.505135 0.089653 0.071030
0.532473 0.084616 0.073100
0.554013 0.080460 0.074635
0.571791 0.075016 0.075832
0.586711 0.068594 0.076808
0.599163 0.062646 0.077659
0.609146 0.059137 0.078381
0.617023 0.057341 0.079026
0.623584 0.056507 0.079587
0.629260 0.056278 0.080144
0.633598 0.057264 0.080659
0.637221 0.058851 0.081146
0.640966 0.060247 0.081634
0.045861 0.050328 0.056531
0.047594 0.050917 0.057269
0.048600 0.051413 0.058000
0.051942 0.052217 0.058692
0.056294 0.053422 0.059315
0.057639 0.054726 0.059868
0.063577 0.056648 0.060418
0.080801 0.060019 0.060993
0.096256 0.063826 0.061327
0.109727 0.068628 0.061894
0.134858 0.074512 0.062515
0.169702 0.079836 0.062884
0.203122 0.085726 0.063302
0.237637 0.091708 0.063639
0.277399 0.096631 0.064063
0.322579 0.100222 0.064879
0.368709 0.102534 0.065564
0.411058 0.103688 0.066556
0.447846 0.103281 0.067965
0.482958 0.100846 0.069987
0.515537 0.096532 0.072356
0.542916 0.091877 0.074333
0.564363 0.087408 0.075897
0.581907 0.083057 0.077019
0.596548 0.078997 0.077864
0.608751 0.075175 0.078654
0.618493 0.073179 0.079351
0.626101 0.072244 0.079951
0.632446 0.072058 0.080502
0.637968 0.072546 0.081068
0.642188 0.073972 0.081577
0.645713 0.075927 0.082032
0.649360 0.077730 0.082487
0.046216 0.054774 0.058379
0.047923 0.055301 0.059074
0.048912 0.055737 0.059763
0.052150 0.056479 0.060420
0.056499 0.057694 0.061029
0.057945 0.059139 0.061599
0.064610 0.061583 0.062253
0.082554 0.065093 0.062841
0.098964 0.069274 0.063211
0.113183 0.074831 0.063804
0.138721 0.080084 0.064235
0.174704 0.085617 0.064752
0.209621 0.091968 0.064961
0.245351 0.098891 0.065433
0.285988 0.104120 0.065889
0.331950 0.107345 0.066478
0.378979 0.109705 0.067099
0.422049 0.111379 0.068375
0.459260 0.111477 0.069320
0.494533 0.109606 0.071676
0.527194 0.106705 0.073729
0.554581 0.103460 0.075772
0.575886 0.100256 0.077193
0.593172 0.096341 0.078207
0.607506 0.092905 0.079025
0.619479 0.090132 0.079780
0.629031 0.089102 0.080525
0.636492 0.089422 0.081118
0.642702 0.090423 0.081650
0.648114 0.091915 0.082175
0.652274 0.094189 0.082661
0.655757 0.096845 0.083119
0.659365 0.099335 0.083574
0.047138 0.057709 0.060482
0.048974 0.058210 0.061145
0.050095 0.058614 0.061801
0.053102 0.059327 0.062434
0.057647 0.060713 0.063055
0.059536 0.062488 0.063664
0.066555 0.065146 0.064332
0.085011 0.068686 0.064888
0.102015 0.073426 0.065352
0.116498 0.078938 0.065900
0.142909 0.084194 0.066286
0.180149 0.090193 0.066811
0.216439 0.097458 0.067109
0.253249 0.104546 0.067290
0.294682 0.109413 0.068011
0.341718 0.113397 0.068638
0.389797 0.116381 0.069081
0.433659 0.118203 0.070343
0.471276 0.119178 0.071433
0.506680 0.117184 0.073341
0.539354 0.114749 0.075459
0.566672 0.111860 0.077188
0.587845 0.109429 0.078426
0.604821 0.106742 0.079436
0.618863 0.104750 0.080330
0.630608 0.103518 0.081066
0.640078 0.103529 0.081737
0.647460 0.104344 0.082312
0.653619 0.105615 0.082846
0.659005 0.107229 0.083399
0.663151 0.109504 0.084006
0.666630 0.112040 0.084585
0.670220 0.114527 0.085079
0.046847 0.063396 0.063059
0.049037 0.063915 0.063700
0.050368 0.064327 0.064338
0.053813 0.065209 0.064981
0.059127 0.066988 0.065647
0.061101 0.068959 0.066263
0.068527 0.071696 0.066892
0.088022 0.075493 0.067444
0.104794 0.080395 0.068027
0.119943 0.085644 0.068356
0.147800 0.091687 0.068927
0.186251 0.098102 0.069279
0.223684 0.105707 0.069702
0.261618 0.112821 0.069769
0.304222 0.118450 0.070132
0.352236 0.122921 0.071024
0.401449 0.126772 0.071606
0.446180 0.129399 0.072549
0.484242 0.130731 0.073763
0.519782 0.129660 0.075422
0.552442 0.127451 0.077157
0.579693 0.125203 0.078586
0.600685 0.122902 0.079756
0.617397 0.120924 0.080785
0.631119 0.119423 0.081643
0.642690 0.118692 0.082356
0.652069 0.119184 0.083014
0.659435 0.120755 0.083667
0.665597 0.122912 0.084243
0.670986 0.125422 0.084799
0.675137 0.128391 0.085363
0.678631 0.131625 0.085895
0.682247 0.134552 0.086400
0.041826 0.075761 0.066677
0.044725 0.076386 0.067310
0.046637 0.076913 0.067943
0.051884 0.077925 0.068569
0.057911 0.079736 0.069196
0.059795 0.081868 0.069828
0.068278 0.084576 0.070332
0.090246 0.088570 0.070912
0.107732 0.093745 0.071542
0.124578 0.099624 0.071904
0.153085 0.106053 0.072338
0.193232 0.113045 0.072730
0.231996 0.120632 0.072904
0.271289 0.128331 0.072875
0.315018 0.134660 0.073296
0.364172 0.139943 0.073734
0.414519 0.144295 0.074309
0.460160 0.147563 0.075279
0.498692 0.149289 0.076240
0.534421 0.149185 0.077596
0.567127 0.148239 0.078947
0.594353 0.146895 0.080186
0.615253 0.146071 0.081232
0.631728 0.144830 0.082172
0.645203 0.143980 0.083070
0.656598 0.144096 0.083831
0.665892 0.145237 0.084480
0.673200 0.147095 0.084932
0.679326 0.149312 0.085403
0.684710 0.151850 0.085967
0.688898 0.154882 0.086582
0.692440 0.158215 0.087226
0.696102 0.161525 0.087834
0.037187 0.087783 0.070783
0.040447 0.088505 0.071483
0.042513 0.089081 0.072157
0.049175 0.090179 0.072827
0.055473 0.092094 0.073488
0.057770 0.094353 0.074144
0.068323 0.097423 0.074806
0.092555 0.101866 0.075440
0.112161 0.107449 0.075951
0.129461 0.113755 0.076408
0.159693 0.120741 0.076776
0.200914 0.128093 0.077060
0.241264 0.136199 0.076982
0.282111 0.144437 0.076877
0.327065 0.151533 0.077017
0.377282 0.157302 0.077237
0.428803 0.162304 0.077693
0.475458 0.166591 0.078180
0.514588 0.169391 0.078967
0.550543 0.170064 0.080064
0.583345 0.169865 0.081253
0.610607 0.169284 0.082412
0.631475 0.169043 0.083180
0.647786 0.168328 0.084199
0.661076 0.168034 0.085064
0.672328 0.168701 0.085696
0.681512 0.170310 0.086164
0.688722 0.172824 0.086670
0.694775 0.175594 0.087237
0.700152 0.178425 0.087765
0.704409 0.181862 0.088225
0.708051 0.185547 0.088742
0.711804 0.189104 0.089269
0.027668 0.099476 0.075537
0.031925 0.100233 0.076217
0.034422 0.100836 0.076866
0.043527 0.101994 0.077489
0.055196 0.104038 0.078122
0.058851 0.106457 0.078821
0.069416 0.109667 0.079507
0.094180 0.114380 0.080147
0.116318 0.120558 0.080655
0.135373 0.127625 0.081119
0.166391 0.134940 0.081295
0.209608 0.142960 0.081387
0.251543 0.151783 0.081276
0.293406 0.160122 0.080981
0.339689 0.167717 0.080652
0.391238 0.174653 0.080725
0.444064 0.180830 0.080927
0.491719 0.185880 0.081129
0.531416 0.188966 0.081985
0.567716 0.190610 0.082597
0.600648 0.190949 0.083886
0.627986 0.190956 0.084946
0.648859 0.191284 0.085816
0.665102 0.191193 0.086259
0.678231 0.191159 0.087173
0.689376 0.192203 0.088031
0.698444 0.194208 0.088456
0.705510 0.196803 0.088707
0.711497 0.199946 0.089036
0.716915 0.203701 0.089667
0.721263 0.207639 0.090365
0.725025 0.211667 0.091037
0.728896 0.215669 0.091514
0.000000 0.117520 0.081047
0.000000 0.118153 0.081341
0.007312 0.118723 0.081767
0.026851 0.119931 0.082246
0.047236 0.122426 0.083007
0.053026 0.125299 0.083792
0.066754 0.129068 0.084586
0.095575 0.134298 0.085186
0.119027 0.141022 0.085666
0.140443 0.148727 0.085976
0.173591 0.157016 0.086162
0.218324 0.165586 0.086014
0.262067 0.174870 0.085447
0.306094 0.184419 0.084875
0.353548 0.192711 0.084294
0.406154 0.200012 0.084261
0.460344 0.207191 0.083966
0.509062 0.213116 0.084095
0.549414 0.217008 0.084136
0.586047 0.219372 0.084941
0.619152 0.220242 0.085974
0.646630 0.220989 0.086723
0.667567 0.221693 0.087890
0.683738 0.222017 0.088256
0.696789 0.222442 0.088547
0.707818 0.223638 0.089292
0.716789 0.225803 0.090004
0.723744 0.228659 0.090343
0.729639 0.231984 0.090592
0.735044 0.235800 0.090943
0.739480 0.240152 0.091595
0.743366 0.244664 0.092288
0.747343 0.249010 0.092975
0.000000 0.142694 0.087727
0.000034 0.143639 0.088066
0.000000 0.144483 0.088490
0.000000 0.145638 0.088459
0.017186 0.148104 0.088709
0.025439 0.151369 0.089299
0.058058 0.155657 0.089860
0.094122 0.161764 0.090634
0.122143 0.169377 0.090874
0.144810 0.178043 0.091030
0.180829 0.187329 0.091046
0.227690 0.196903 0.090643
0.273802 0.207167 0.089828
0.319589 0.217454 0.088656
0.368470 0.226576 0.087870
0.422397 0.234746 0.087008
0.477892 0.242696 0.086506
0.527630 0.249241 0.086108
0.568754 0.254101 0.085776
0.605742 0.256960 0.086601
0.639104 0.258583 0.086978
0.666746 0.259902 0.087634
0.687743 0.260961 0.088286
0.703910 0.261623 0.088973
0.716857 0.262225 0.089249
0.727832 0.263708 0.089602
0.736703 0.265983 0.090095
0.743546 0.268859 0.090408
0.749362 0.272181 0.090572
0.754729 0.275979 0.090850
0.759190 0.280586 0.091365
0.763133 0.285554 0.091989
0.767139 0.290203 0.092598
0.000000 0.168046 0.094913
0.000000 0.169315 0.095292
0.000000 0.170451 0.095751
0.000108 0.172075 0.095868
0.000000 0.174682 0.095575
0.000000 0.178234 0.095841
0.027218 0.182763 0.095960
0.091307 0.189506 0.096482
0.123794 0.198196 0.096687
0.149949 0.208012 0.096727
0.188473 0.218450 0.096500
0.237768 0.229072 0.095754
0.286436 0.240368 0.094240
0.334235 0.251593 0.092613
0.384849 0.261699 0.090718
0.440118 0.270768 0.089721
0.496746 0.279257 0.088935
0.547585 0.286507 0.087822
0.589430 0.291991 0.087648
0.626858 0.295404 0.087627
0.660494 0.297522 0.087754
0.688281 0.299085 0.088039
0.709418 0.300513 0.088501
0.725559 0.301302 0.088762
0.738462 0.302114 0.089114
0.749353 0.303668 0.089620
0.758187 0.306134 0.090106
0.764942 0.309111 0.090329
0.770687 0.312708 0.090346
0.776049 0.317007 0.090442
0.780517 0.322075 0.090798
0.784440 0.327341 0.091302
0.788425 0.332276 0.091798
0.000000 0.193874 0.102442
0.000000 0.195442 0.102818
0.000000 0.196857 0.103283
0.000000 0.198847 0.103418
0.000000 0.202053 0.103225
0.000000 0.206184 0.103413
0.013233 0.211010 0.102991
0.083467 0.217986 0.102574
0.124342 0.227764 0.102724
0.154491 0.238770 0.102608
0.195333 0.250357 0.102102
0.247985 0.262125 0.100903
0.299105 0.274566 0.098907
0.349299 0.286895 0.096161
0.401546 0.298026 0.093937
0.458221 0.307942 0.092315
0.516137 0.317201 0.090578
0.568153 0.325278 0.089441
0.610740 0.331298 0.088511
0.648552 0.335083 0.088189
0.682482 0.337553 0.087649
0.710546 0.339520 0.087384
0.731811 0.341138 0.087759
0.748013 0.342143 0.088008
0.760880 0.343066 0.087935
0.771767 0.344833 0.088172
0.780552 0.347466 0.088716
0.787294 0.350765 0.088802
0.793004 0.354617 0.088757
0.798250 0.358954 0.088782
0.802633 0.364156 0.088958
0.806516 0.369712 0.089239
0.810505 0.375101 0.089420
0.000000 0.222225 0.109074
0.000000 0.224129 0.109445
0.000000 0.225699 0.109707
0.000000 0.227937 0.109659
0.000000 0.231820 0.109653
0.000006 0.236787 0.110037
0.000000 0.242335 0.109382
0.050097 0.249713 0.108096
0.123911 0.260517 0.108041
0.157030 0.272693 0.107369
0.202200 0.285565 0.106704
0.257321 0.298568 0.105172
0.311310 0.312321 0.102888
0.363633 0.325948 0.099587
0.418166 0.338396 0.096264
0.476026 0.349255 0.093427
0.535345 0.359562 0.091393
0.588359 0.368376 0.089274
0.631740 0.375099 0.087515
0.670194 0.379626 0.086534
0.704570 0.382719 0.085248
0.732923 0.385131 0.084742
0.754377 0.387047 0.084415
0.770631 0.388088 0.084458
0.783438 0.388958 0.084747
0.794306 0.390721 0.085072
0.803063 0.393388 0.085019
0.809714 0.396621 0.084815
0.815329 0.400410 0.084637
0.820555 0.404858 0.084493
0.824889 0.410127 0.084562
0.828649 0.415602 0.084611
0.832497 0.420849 0.084447
0.000000 0.253470 0.115126
0.000000 0.255748 0.115595
0.000000 0.257803 0.116160
0.000000 0.260675 0.116382
0.000000 0.265187 0.116187
0.000000 0.270857 0.116217
0.000000 0.277392 0.115438
0.043659 0.285471 0.113612
0.118435 0.297045 0.112718
0.158815 0.310565 0.112157
0.207994 0.324710 0.110780
0.266646 0.339165 0.108762
0.323328 0.354427 0.105750
0.378244 0.369664 0.102040
0.434063 0.383385 0.097540
0.493638 0.395558 0.093730
0.554315 0.406967 0.090101
0.608609 0.416886 0.086742
0.652845 0.424478 0.083981
0.691927 0.429760 0.081803
0.726671 0.433367 0.080168
0.755356 0.436174 0.078592
0.777068 0.438307 0.077800
0.793369 0.439311 0.077489
0.806154 0.440011 0.077560
0.817006 0.441684 0.077718
0.825816 0.444420 0.077530
0.832439 0.447663 0.077340
0.837929 0.451299 0.077031
0.842996 0.455467 0.076688
0.847159 0.460360 0.076328
0.850792 0.465559 0.075850
0.854505 0.470580 0.075432
0.000000 0.285695 0.121317
0.000000 0.288328 0.121940
0.000000 0.290683 0.122654
0.000000 0.294015 0.122909
0.000000 0.299156 0.122578
0.000000 0.305732 0.122753
0.000000 0.313407 0.122157
0.028620 0.322275 0.119549
0.106784 0.334718 0.117858
0.158784 0.349560 0.116603
0.213197 0.365103 0.114934
0.275577 0.381047 0.112266
0.335464 0.397941 0.108277
0.392597 0.414777 0.103881
0.450550 0.430050 0.098189
0.511589 0.443490 0.092664
0.573702 0.456125 0.087499
0.629198 0.467089 0.082647
0.674343 0.475559 0.077767
0.714212 0.481642 0.073598
0.749558 0.485931 0.069667
0.778660 0.489201 0.066878
0.800571 0.491449 0.065170
0.816856 0.492257 0.064713
0.829680 0.492831 0.064546
0.840528 0.494347 0.064730
0.849257 0.496949 0.064935
0.855814 0.500121 0.064751
0.861269 0.503752 0.063823
0.866220 0.507771 0.062752
0.870150 0.512319 0.061305
0.873529 0.517122 0.059024
0.876980 0.521744 0.056836
0.000000 0.315514 0.127797
0.000000 0.318497 0.128394
0.000000 0.321170 0.129082
0.000000 0.324933 0.129361
0.000000 0.330733 0.129020
0.000000 0.338061 0.128993
0.000000 0.346605 0.128201
0.000000 0.356225 0.124897
0.088812 0.369455 0.122314
0.158089 0.385465 0.120855
0.217851 0.402319 0.118443
0.283584 0.419630 0.114985
0.346538 0.438046 0.110361
0.406147 0.456430 0.104754
0.465770 0.473082 0.097931
0.528299 0.487785 0.090473
0.591869 0.501614 0.083428
0.648576 0.513648 0.075214
0.694642 0.523007 0.066777
0.735173 0.529815 0.060238
0.771022 0.534674 0.054185
0.800580 0.538377 0.043866
0.822592 0.540749 0.037679
0.839106 0.541646 0.035246
0.851965 0.542122 0.034209
0.862782 0.543513 0.028915
0.871498 0.546064 0.018495
0.878069 0.549243 0.012609
0.883530 0.552847 0.012213
0.888388 0.556689 0.011969
0.892207 0.561001 0.011517
0.895435 0.565537 0.010682
0.898756 0.569934 0.009886
0.000000 0.341017 0.132693
0.000000 0.344406 0.133214
0.000000 0.347471 0.133853
0.000000 0.351513 0.133852
0.000000 0.357946 0.133724
0.000000 0.365922 0.133625
0.000003 0.375200 0.132632
0.000000 0.385750 0.129466
0.080154 0.399550 0.126222
0.158012 0.416501 0.123790
0.221749 0.434466 0.120911
0.290587 0.452974 0.116834
0.355959 0.472700 0.111268
0.417869 0.492425 0.104607
0.479158 0.510364 0.096027
0.542753 0.526183 0.087024
0.607416 0.541108 0.076859
0.665147 0.554148 0.063828
0.712113 0.564384 0.050876
0.753112 0.571847 0.027989
0.789825 0.577698 0.000000
0.820350 0.582528 0.001286
0.843168 0.585747 0.001031
0.859938 0.587025 0.000929
0.872970 0.587698 0.000881
0.883860 0.589173 0.000642
0.892691 0.591769 0.000171
0.899204 0.594794 0.000000
0.904477 0.598087 0.000000
0.909183 0.601598 0.000000
0.912834 0.605496 0.000000
0.915855 0.609556 0.000000
0.919010 0.613540 0.000000
0.000000 0.364921 0.136865
0.000000 0.368790 0.137448
0.000000 0.372297 0.138033
0.000000 0.376985 0.138075
0.000000 0.383948 0.137541
0.000000 0.392501 0.137163
0.000000 0.402384 0.135876
0.000000 0.413747 0.132563
0.070754 0.428150 0.128727
0.156440 0.446000 0.125911
0.224904 0.465017 0.122164
0.297097 0.484686 0.117233
0.364810 0.505691 0.110466
0.428218 0.526708 0.102747
0.491013 0.545890 0.092023
0.555631 0.562862 0.080976
0.621246 0.578907 0.065212
0.679892 0.593029 0.039572
0.727935 0.604638 0.000000
0.770435 0.613978 0.000000
0.808306 0.621100 0.000125
0.839190 0.626508 0.000000
0.862408 0.630277 0.000000
0.879462 0.632013 0.000000
0.892603 0.632963 0.000000
0.903819 0.634670 0.000000
0.912680 0.637169 0.000000
0.919137 0.639897 0.000000
0.924277 0.642764 0.000000
0.928766 0.645736 0.000000
0.932078 0.648925 0.000000
0.934668 0.652163 0.000000
0.937410 0.655354 0.000000
0.000000 0.386997 0.140418
0.000000 0.391362 0.140828
0.000000 0.395339 0.141345
0.000000 0.400519 0.141394
0.000000 0.407923 0.140674
0.000000 0.416997 0.140304
0.000000 0.427510 0.138951
0.000000 0.439624 0.135068
0.060287 0.454550 0.130386
0.155277 0.473235 0.127134
0.227968 0.493204 0.122617
0.302726 0.513944 0.116817
0.372300 0.536115 0.109412
0.437325 0.558333 0.099465
0.501337 0.578661 0.086559
0.566888 0.596717 0.072133
0.633459 0.613866 0.040577
0.693461 0.629829 0.001932
0.742820 0.643261 0.000000
0.786247 0.653501 0.000000
0.824575 0.661295 0.000000
0.856072 0.667380 0.000000
0.879756 0.671751 0.000000
0.897348 0.674105 0.000000
0.910771 0.675457 0.000000
0.922051 0.677271 0.000000
0.930880 0.679619 0.000000
0.937131 0.681963 0.000000
0.942038 0.684329 0.000000
0.946249 0.686711 0.000000
0.949199 0.689148 0.000000
0.951448 0.691612 0.000000
0.953888 0.694073 0.000000
0.000000 0.405090 0.143553
0.000000 0.409945 0.143988
0.000000 0.414376 0.144531
0.000000 0.420027 0.144590
0.000000 0.428003 0.143813
0.000000 0.437446 0.142837
0.000000 0.448311 0.140945
0.000000 0.460998 0.137098
0.050690 0.476410 0.131764
0.154780 0.495731 0.128183
0.231302 0.516465 0.123124
0.308018 0.538045 0.116566
0.378945 0.561121 0.108124
0.445506 0.584311 0.096141
0.510394 0.605561 0.081576
0.576712 0.624483 0.059626
0.644135 0.642975 0.016530
0.705272 0.660633 0.000000
0.755407 0.674921 0.000003
0.799347 0.685863 0.000000
0.838208 0.694290 0.000000
0.870154 0.700958 0.000000
0.894231 0.705824 0.000000
0.912158 0.708665 0.000000
0.925966 0.710445 0.000000
0.937300 0.712372 0.000000
0.946148 0.714611 0.000000
0.952387 0.716710 0.000000
0.957178 0.718707 0.000000
0.961212 0.720660 0.000000
0.963881 0.722543 0.000000
0.965800 0.724379 0.000000
0.967917 0.726232 0.000000
0.000000 0.418474 0.146403
0.000000 0.423768 0.146756
0.000000 0.428653 0.147144
0.000000 0.434718 0.146829
0.000000 0.442923 0.145531
0.000000 0.452644 0.144653
0.000000 0.463841 0.142951
0.000000 0.476865 0.138783
0.044880 0.492602 0.132824
0.156307 0.512370 0.129007
0.235073 0.533607 0.123626
0.312509 0.555741 0.116286
0.384614 0.579462 0.107416
0.451812 0.603291 0.093799
0.517260 0.625188 0.078055
0.584109 0.644832 0.044266
0.652291 0.664516 0.000000
0.714225 0.683188 0.000000
0.764842 0.698090 0.000000
0.809038 0.709549 0.000000
0.848456 0.718561 0.000000
0.880649 0.725640 0.000000
0.905141 0.730976 0.000000
0.923367 0.734210 0.000000
0.937393 0.736310 0.000000
0.949024 0.738468 0.000000
0.957896 0.740694 0.000000
0.964023 0.742593 0.000000
0.968704 0.744331 0.000000
0.972711 0.746016 0.000000
0.975292 0.747577 0.000000
0.977056 0.749044 0.000000
0.979001 0.750526 0.000000
0.000000 0.428370 0.148329
0.000000 0.434121 0.148360
0.000000 0.439399 0.148471
0.000000 0.445762 0.148105
0.000000 0.454371 0.147200
0.000000 0.464298 0.146266
0.000000 0.475591 0.144226
0.000000 0.488805 0.139524
0.044396 0.504777 0.133531
0.158600 0.524812 0.129536
0.238103 0.546397 0.123976
0.316216 0.568911 0.116299
0.388773 0.593032 0.106774
0.456304 0.617321 0.092244
0.522158 0.639710 0.074315
0.589488 0.660001 0.038153
0.658384 0.680773 0.000000
0.720857 0.700049 0.000000
0.771697 0.715485 0.000000
0.816282 0.727442 0.000000
0.855773 0.736853 0.000000
0.888419 0.744427 0.000000
0.912924 0.750111 0.000000
0.931631 0.753805 0.000000
0.945978 0.756277 0.000000
0.957597 0.758564 0.000000
0.966532 0.760757 0.000000
0.972781 0.762547 0.000000
0.977496 0.764118 0.000000
0.981423 0.765610 0.000000
0.983908 0.766923 0.000000
0.985594 0.768129 0.000000
0.987464 0.769358 0.000000
0.000000 0.436267 0.149621
0.000000 0.442479 0.149621
0.000000 0.448205 0.149831
0.000000 0.455089 0.149699
0.000000 0.463978 0.148679
0.000000 0.473973 0.147487
0.000000 0.485341 0.145058
0.000000 0.498625 0.140057
0.052499 0.514794 0.134079
0.163006 0.535004 0.130090
0.242567 0.556753 0.124487
0.320097 0.579498 0.116683
0.392837 0.603869 0.106617
0.460339 0.628415 0.091195
0.526112 0.651114 0.070837
0.593846 0.671909 0.031328
0.663263 0.693448 0.000000
0.725868 0.713175 0.000000
0.776682 0.728991 0.000000
0.821674 0.741390 0.000000
0.861317 0.751194 0.000000
0.894002 0.759077 0.000000
0.918940 0.765168 0.000000
0.937781 0.769238 0.000000
0.952550 0.772091 0.000000
0.964436 0.774603 0.000000
0.973448 0.776808 0.000000
0.979558 0.778433 0.000000
0.984177 0.779812 0.000000
0.988070 0.781139 0.000000
0.990485 0.782245 0.000000
0.992129 0.783240 0.000000
0.994026 0.784294 0.000000
0.000000 0.443140 0.151142
0.000000 0.449948 0.151273
0.000000 0.456356 0.151590
0.000000 0.463709 0.151318
0.000000 0.472844 0.150104
0.000000 0.482982 0.148696
0.000000 0.494344 0.145803
0.000000 0.507652 0.140992
0.067327 0.524046 0.135120
0.171574 0.544326 0.131041
0.248787 0.566127 0.125567
0.325631 0.588921 0.117425
0.397625 0.613367 0.107164
0.465050 0.638029 0.091212
0.530688 0.660874 0.069897
0.598264 0.681911 0.028435
0.667775 0.703844 0.000000
0.730162 0.723817 0.000000
0.781159 0.739939 0.000000
0.826032 0.752590 0.000000
0.865714 0.762665 0.000000
0.898693 0.770874 0.000000
0.923765 0.777250 0.000000
0.942742 0.781587 0.000000
0.957809 0.784729 0.000000
0.969914 0.787405 0.000000
0.978960 0.789618 0.000000
0.985105 0.791175 0.000000
0.989804 0.792466 0.000000
0.993760 0.793700 0.000000
0.996292 0.794725 0.000000
0.997959 0.795592 0.000000
0.999021 0.796162 0.000000
0.000000 0.448761 0.152944
0.000000 0.456237 0.152903
0.000000 0.463297 0.153046
0.000000 0.471155 0.152578
0.000000 0.480639 0.151312
0.000000 0.490869 0.149353
0.000000 0.502297 0.146693
0.000000 0.515609 0.141948
0.083189 0.532215 0.136176
0.182188 0.552458 0.131995
0.256123 0.574174 0.126617
0.332172 0.596911 0.118278
0.402950 0.621267 0.107764
0.470024 0.645875 0.091838
0.535541 0.668738 0.070446
0.602559 0.689810 0.028455
0.671663 0.711826 0.000000
0.733908 0.731920 0.000000
0.784853 0.748188 0.000000
0.829610 0.760996 0.000000
