Film Looks/DCI-P3 Fujifilm 3513DI D60.cube
# Resolve Film Look LUT
#   Input: Cineon Log 
#        : floating point data (range 0.0 - 1.0)
#  Output: FUJIFILM 3513DI film stock 'look' with D60 White Point
#        : floating point data (range 0.0 - 1.0)
# Display: DCI-P3, Gamma 2.6
LUT_3D_SIZE 33
LUT_3D_INPUT_RANGE 0.0 1.0
0.043397 0.038448 0.049971
0.043200 0.038766 0.050347
0.042666 0.039037 0.050721
0.043739 0.039507 0.051088
0.045133 0.040135 0.051391
0.039698 0.040388 0.051566
0.041370 0.041228 0.051778
0.059198 0.043572 0.052239
0.071879 0.047321 0.053078
0.082647 0.052011 0.054171
0.106410 0.055845 0.055278
0.140841 0.059358 0.056398
0.174434 0.063661 0.057438
0.207154 0.067489 0.058412
0.241630 0.070597 0.059571
0.278139 0.070619 0.060576
0.314720 0.069724 0.061560
0.349019 0.066823 0.062513
0.380220 0.061511 0.064143
0.410654 0.052283 0.065709
0.439465 0.023648 0.067667
0.465655 0.000000 0.070514
0.488663 0.000000 0.073898
0.509187 0.000000 0.077043
0.527368 0.000000 0.079839
0.542757 0.000000 0.081925
0.555585 0.000000 0.083299
0.566370 0.000000 0.084209
0.575418 0.000000 0.085003
0.582832 0.000000 0.085862
0.588268 0.000000 0.086711
0.592707 0.000000 0.087527
0.597307 0.000000 0.088336
0.045836 0.042167 0.052048
0.045389 0.042190 0.052371
0.044552 0.042159 0.052690
0.045523 0.042372 0.053013
0.047199 0.042858 0.053325
0.042373 0.043050 0.053562
0.044540 0.043871 0.053848
0.061786 0.046208 0.054365
0.074913 0.050396 0.055273
0.085982 0.054621 0.056338
0.109999 0.058550 0.057441
0.145203 0.062782 0.058404
0.179572 0.067896 0.059035
0.213053 0.073148 0.059673
0.248284 0.076722 0.060333
0.285591 0.077975 0.061189
0.322989 0.077604 0.062111
0.357954 0.075505 0.063194
0.389607 0.070704 0.064782
0.420333 0.062451 0.066557
0.449348 0.051219 0.068862
0.474789 0.017990 0.070859
0.497395 0.000000 0.073690
0.518110 0.000008 0.076842
0.536304 0.000000 0.079331
0.551627 0.000000 0.081292
0.564215 0.000000 0.082618
0.574662 0.000000 0.083526
0.583475 0.000000 0.084254
0.590742 0.000000 0.085008
0.596104 0.000000 0.085691
0.600516 0.000000 0.086321
0.605094 0.000000 0.086961
0.048331 0.044366 0.053769
0.047559 0.044218 0.054091
0.046343 0.044009 0.054407
0.047143 0.044076 0.054738
0.049076 0.044476 0.055080
0.044714 0.044597 0.055371
0.047284 0.045385 0.055721
0.064119 0.047708 0.056287
0.077313 0.051929 0.057263
0.088916 0.056185 0.058349
0.113181 0.060116 0.059452
0.149149 0.065250 0.060296
0.184250 0.071125 0.060546
0.218447 0.077227 0.060651
0.254308 0.080442 0.061100
0.292379 0.081542 0.061650
0.330578 0.081602 0.062635
0.366252 0.080584 0.063722
0.398374 0.077301 0.065327
0.429392 0.070478 0.067528
0.458642 0.059635 0.069938
0.484213 0.046410 0.072066
0.506195 0.015988 0.074098
0.526656 0.000000 0.076709
0.545001 0.000000 0.079124
0.560293 0.000119 0.080991
0.572636 0.000000 0.082271
0.582803 0.000000 0.083138
0.591349 0.000000 0.083831
0.598467 0.000000 0.084487
0.603794 0.000000 0.085028
0.608204 0.000000 0.085495
0.612769 0.000000 0.085996
0.050828 0.050352 0.055773
0.050074 0.049999 0.056084
0.048825 0.049578 0.056387
0.049664 0.049439 0.056714
0.051430 0.049663 0.057076
0.047888 0.049790 0.057424
0.050420 0.050480 0.057828
0.066277 0.052726 0.058444
0.079853 0.056721 0.059417
0.092197 0.061055 0.060454
0.117166 0.065604 0.061567
0.153980 0.071507 0.062214
0.189819 0.077908 0.062284
0.224702 0.083319 0.061819
0.261259 0.087142 0.062232
0.300062 0.088694 0.062512
0.339052 0.089434 0.063497
0.375377 0.088841 0.064392
0.407926 0.086365 0.066376
0.439258 0.081809 0.068331
0.468751 0.074375 0.071130
0.494547 0.065338 0.073413
0.516437 0.053117 0.075119
0.536164 0.033091 0.076719
0.553675 0.014267 0.078177
0.568583 0.000000 0.079605
0.580838 0.000000 0.080884
0.590781 0.000000 0.081741
0.599094 0.000000 0.082387
0.606084 0.000000 0.082932
0.611327 0.000000 0.083306
0.615648 0.000000 0.083577
0.620113 0.000000 0.083869
0.051617 0.058792 0.058155
0.051259 0.058179 0.058420
0.050426 0.057480 0.058674
0.051240 0.057081 0.058972
0.052728 0.057150 0.059352
0.050371 0.057353 0.059775
0.052690 0.058062 0.060259
0.068293 0.060721 0.060996
0.083443 0.065105 0.061909
0.096582 0.069789 0.062812
0.122940 0.075937 0.063906
0.160255 0.081393 0.064255
0.196996 0.087586 0.064291
0.232914 0.093728 0.063808
0.270302 0.098400 0.063898
0.309768 0.101271 0.064353
0.349379 0.102503 0.064937
0.386225 0.102581 0.065988
0.419198 0.101426 0.067508
0.450814 0.097690 0.069781
0.480547 0.091932 0.072406
0.506571 0.086211 0.074770
0.528683 0.080383 0.076531
0.548400 0.074990 0.077747
0.565657 0.065539 0.078741
0.580080 0.057197 0.079590
0.591718 0.053199 0.080285
0.601194 0.050694 0.080798
0.609237 0.049960 0.081274
0.616165 0.051099 0.081768
0.621548 0.054298 0.082180
0.626135 0.058471 0.082580
0.630845 0.062299 0.082982
0.052615 0.065343 0.060779
0.052563 0.064515 0.060962
0.052265 0.063598 0.061126
0.053133 0.062997 0.061367
0.054665 0.062958 0.061761
0.052655 0.063098 0.062288
0.054979 0.063994 0.062932
0.071760 0.067214 0.063767
0.087741 0.071865 0.064499
0.102666 0.078098 0.065357
0.129183 0.083804 0.065889
0.167314 0.089897 0.066496
0.205469 0.096659 0.066429
0.242523 0.103690 0.066367
0.280637 0.108350 0.066593
0.320598 0.110971 0.066631
0.360742 0.112816 0.067449
0.398113 0.113500 0.067897
0.431462 0.113057 0.069563
0.463365 0.110599 0.071423
0.493342 0.107280 0.074204
0.519578 0.103586 0.076425
0.541913 0.099760 0.077928
0.561831 0.095863 0.079002
0.579242 0.091922 0.079967
0.593796 0.089934 0.080780
0.605491 0.088881 0.081367
0.615044 0.088430 0.081852
0.623104 0.088814 0.082279
0.630011 0.090266 0.082715
0.635352 0.093105 0.083114
0.639878 0.096598 0.083404
0.644523 0.099875 0.083692
0.053071 0.075918 0.063937
0.053413 0.074783 0.064015
0.053471 0.073515 0.064067
0.054993 0.072709 0.064232
0.057104 0.072704 0.064646
0.054489 0.072862 0.065285
0.057045 0.074002 0.066050
0.075112 0.077135 0.066757
0.092582 0.082330 0.067425
0.107322 0.088474 0.067995
0.136011 0.095017 0.068224
0.175113 0.101713 0.068802
0.214598 0.109007 0.069073
0.252784 0.115709 0.068849
0.291728 0.120948 0.069533
0.332326 0.124587 0.069475
0.373037 0.127007 0.069895
0.410883 0.128506 0.070326
0.444622 0.128656 0.071535
0.476837 0.127113 0.073418
0.507082 0.124226 0.075903
0.533586 0.121825 0.077813
0.556125 0.119595 0.079221
0.576213 0.118374 0.080257
0.593781 0.117073 0.081044
0.608464 0.116269 0.081842
0.620318 0.116546 0.082540
0.629989 0.117480 0.083019
0.638142 0.118773 0.083373
0.645060 0.120542 0.083654
0.650312 0.122988 0.083843
0.654710 0.125871 0.084043
0.659251 0.128647 0.084298
0.050280 0.092423 0.067536
0.051150 0.091056 0.067619
0.051595 0.089529 0.067679
0.053490 0.088519 0.067835
0.055811 0.088480 0.068209
0.053378 0.088971 0.068941
0.056489 0.090389 0.069676
0.076967 0.093608 0.070217
0.096918 0.099056 0.070586
0.113671 0.105659 0.070995
0.142647 0.112694 0.071230
0.183567 0.119687 0.071418
0.224129 0.127069 0.071650
0.263423 0.134251 0.071727
0.303478 0.140358 0.072105
0.344699 0.144368 0.072020
0.386056 0.147449 0.072070
0.424495 0.149335 0.072313
0.458776 0.150637 0.073181
0.491423 0.149856 0.074977
0.522091 0.148759 0.077077
0.548887 0.147336 0.078805
0.571616 0.146690 0.079979
0.591760 0.145965 0.081026
0.609360 0.145931 0.081895
0.624095 0.146182 0.082548
0.636017 0.146920 0.083153
0.645754 0.148237 0.083711
0.653944 0.150097 0.084166
0.660859 0.152364 0.084430
0.666071 0.155131 0.084477
0.670408 0.158067 0.084478
0.674896 0.160866 0.084521
0.043453 0.110167 0.071406
0.045309 0.108375 0.071498
0.046424 0.106375 0.071592
0.051152 0.105029 0.071692
0.054950 0.105065 0.072156
0.052246 0.105951 0.072925
0.056530 0.108005 0.073816
0.078292 0.111793 0.074507
0.100854 0.117592 0.074741
0.120149 0.124695 0.074967
0.150578 0.131939 0.074890
0.192161 0.139249 0.074823
0.234067 0.147250 0.074786
0.274588 0.154849 0.074597
0.315539 0.161332 0.074391
0.357573 0.165842 0.074369
0.400003 0.170013 0.074190
0.439321 0.173069 0.074192
0.474283 0.175032 0.074825
0.507625 0.175494 0.076288
0.538859 0.175119 0.077890
0.566054 0.174665 0.079312
0.588893 0.174638 0.080471
0.608946 0.174546 0.081530
0.626365 0.174659 0.082516
0.641002 0.175425 0.083261
0.652869 0.176694 0.083740
0.662566 0.178380 0.084070
0.670715 0.180436 0.084373
0.677635 0.182999 0.084720
0.682891 0.186155 0.084986
0.687292 0.189594 0.085024
0.691830 0.192898 0.085034
0.035099 0.127773 0.076106
0.036538 0.125515 0.076224
0.037044 0.122981 0.076320
0.042641 0.121302 0.076536
0.051299 0.121379 0.076998
0.046081 0.122654 0.077732
0.054030 0.125303 0.078529
0.080727 0.129624 0.079042
0.104814 0.135680 0.079115
0.126662 0.143137 0.079074
0.159145 0.150980 0.078778
0.201395 0.158813 0.078498
0.244439 0.167163 0.078010
0.285955 0.175370 0.077515
0.327847 0.182359 0.077034
0.371146 0.187835 0.076610
0.414562 0.192492 0.076174
0.454838 0.196090 0.076114
0.490673 0.198908 0.076426
0.524807 0.200016 0.077373
0.556787 0.200544 0.078438
0.584450 0.200759 0.079595
0.607396 0.201257 0.080616
0.627229 0.201300 0.081947
0.644403 0.201795 0.083038
0.658846 0.202846 0.083819
0.670614 0.204586 0.084284
0.680199 0.206682 0.084426
0.688310 0.209152 0.084507
0.695246 0.212029 0.084650
0.700574 0.215491 0.084863
0.705082 0.219310 0.085195
0.709737 0.223049 0.085453
0.005195 0.147645 0.080255
0.014591 0.145188 0.080509
0.019566 0.142388 0.080666
0.027727 0.140482 0.080799
0.040460 0.140577 0.081126
0.034613 0.142164 0.081819
0.047172 0.145225 0.082513
0.080568 0.150101 0.083054
0.109322 0.156837 0.083092
0.132633 0.164746 0.082704
0.166679 0.173187 0.082365
0.210511 0.181612 0.081732
0.254628 0.190412 0.080753
0.297585 0.199265 0.079577
0.340545 0.206853 0.078784
0.384759 0.212980 0.078105
0.429022 0.218074 0.077583
0.470330 0.222643 0.077189
0.506823 0.225615 0.077291
0.541828 0.227742 0.077619
0.574439 0.228641 0.078348
0.602549 0.229386 0.079200
0.625612 0.230207 0.080277
0.645342 0.230608 0.081329
0.662261 0.231071 0.082825
0.676580 0.232438 0.083634
0.688257 0.234485 0.083893
0.697746 0.236889 0.084017
0.705781 0.239699 0.083956
0.712712 0.242912 0.084016
0.718099 0.246666 0.084144
0.722666 0.250622 0.084282
0.727372 0.254540 0.084629
0.000000 0.171286 0.085038
0.000000 0.168623 0.085165
0.000000 0.165637 0.085253
0.000000 0.163496 0.085134
0.014659 0.163514 0.085149
0.005338 0.165351 0.085721
0.028427 0.168651 0.086131
0.079882 0.173873 0.086354
0.111642 0.181239 0.086321
0.138301 0.190083 0.085918
0.173744 0.199223 0.085081
0.219576 0.208335 0.084292
0.265081 0.217786 0.082963
0.308884 0.226952 0.081372
0.352885 0.235005 0.079863
0.398030 0.241804 0.078859
0.443033 0.247587 0.077932
0.484845 0.252369 0.077334
0.522004 0.256046 0.076993
0.557516 0.258465 0.077039
0.590639 0.259823 0.077496
0.619149 0.261051 0.078052
0.642388 0.262099 0.078883
0.662164 0.262908 0.080006
0.679065 0.263630 0.081054
0.693337 0.265121 0.081896
0.704973 0.267391 0.082114
0.714367 0.269928 0.082060
0.722318 0.272884 0.082196
0.729164 0.276176 0.082304
0.734463 0.279942 0.082382
0.738937 0.283863 0.082476
0.743549 0.287645 0.082558
0.000000 0.195018 0.089376
0.000000 0.192222 0.089343
0.000000 0.189107 0.089332
0.000089 0.186942 0.089158
0.000000 0.186933 0.088936
0.000000 0.188957 0.089389
0.011321 0.192299 0.089351
0.075832 0.197713 0.089093
0.113726 0.205838 0.088814
0.142826 0.215660 0.088621
0.181294 0.225824 0.087763
0.227787 0.235539 0.086494
0.275118 0.245510 0.084791
0.320275 0.255143 0.082572
0.365294 0.263733 0.080732
0.410707 0.270848 0.079262
0.456195 0.277163 0.077910
0.498369 0.282366 0.076790
0.536032 0.286600 0.075734
0.571802 0.289097 0.075607
0.605401 0.290986 0.075601
0.634198 0.292444 0.076007
0.657703 0.293810 0.076671
0.677625 0.294711 0.077538
0.694681 0.295798 0.078404
0.709012 0.297504 0.078903
0.720636 0.300002 0.079113
0.729970 0.302898 0.079153
0.737781 0.305979 0.079132
0.744402 0.309097 0.079243
0.749385 0.312457 0.079331
0.753530 0.315991 0.079329
0.757840 0.319466 0.079325
0.000000 0.219011 0.094308
0.000000 0.216138 0.094156
0.000000 0.212947 0.094043
0.000000 0.210774 0.093744
0.000000 0.210865 0.093344
0.000000 0.212983 0.093499
0.005156 0.216399 0.092828
0.062009 0.221886 0.091523
0.115593 0.230874 0.091509
0.147445 0.241618 0.090620
0.188106 0.252782 0.090150
0.236341 0.263265 0.088606
0.285215 0.273821 0.086471
0.331888 0.284060 0.083743
0.377263 0.292998 0.081255
0.423405 0.300654 0.079006
0.469266 0.307460 0.077129
0.511888 0.313229 0.074931
0.549568 0.317501 0.073244
0.585910 0.320634 0.072670
0.619688 0.322611 0.072285
0.648773 0.324320 0.072365
0.672539 0.325960 0.072323
0.692752 0.327142 0.072801
0.709977 0.328371 0.073045
0.724409 0.330256 0.073383
0.736029 0.332942 0.073480
0.745353 0.336218 0.073573
0.753054 0.339541 0.073881
0.759476 0.342653 0.073969
0.764130 0.345713 0.073809
0.767870 0.348781 0.073568
0.771800 0.351857 0.073073
0.000000 0.244007 0.097883
0.000000 0.241169 0.097694
0.000000 0.238050 0.097637
0.000000 0.236030 0.097456
0.000000 0.236299 0.096906
0.000003 0.238529 0.096579
0.000000 0.242263 0.095803
0.045180 0.248038 0.094346
0.116331 0.257649 0.093763
0.152170 0.269360 0.093408
0.194512 0.281422 0.091946
0.244895 0.292787 0.090257
0.295487 0.304144 0.087181
0.343370 0.315115 0.083757
0.390191 0.324825 0.080327
0.436805 0.333046 0.077729
0.483024 0.340289 0.074503
0.525809 0.346343 0.070914
0.564039 0.351171 0.069091
0.600488 0.354484 0.067003
0.634478 0.356725 0.066556
0.663802 0.358701 0.065983
0.687839 0.360582 0.065454
0.708287 0.361977 0.065091
0.725769 0.363432 0.064804
0.740349 0.365493 0.064923
0.752011 0.368320 0.065030
0.761295 0.371654 0.064878
0.768951 0.375050 0.064606
0.775300 0.378246 0.064404
0.779804 0.381299 0.063963
0.783367 0.384315 0.063408
0.787133 0.387321 0.062615
0.000000 0.271086 0.102188
0.000000 0.268328 0.102016
0.000000 0.265227 0.101878
0.000000 0.263303 0.101538
0.000000 0.263834 0.101030
0.000000 0.266392 0.100949
0.000000 0.270499 0.100190
0.042384 0.276533 0.097968
0.115097 0.286635 0.096750
0.155465 0.299171 0.095282
0.200409 0.312156 0.093777
0.253394 0.324493 0.091025
0.306097 0.336934 0.087344
0.356054 0.349030 0.082763
0.403962 0.359661 0.078674
0.451144 0.368461 0.074227
0.497863 0.376122 0.068867
0.541211 0.382607 0.064827
0.579726 0.387751 0.061487
0.616265 0.391267 0.059172
0.650332 0.393702 0.057843
0.679702 0.395778 0.056535
0.703909 0.397804 0.055560
0.724751 0.399596 0.054914
0.742565 0.401399 0.053857
0.757317 0.403588 0.053492
0.769123 0.406514 0.053004
0.778474 0.409833 0.052386
0.786176 0.413230 0.051623
0.792617 0.416516 0.050417
0.797298 0.419840 0.048774
0.801034 0.423150 0.047147
0.804949 0.426407 0.043449
0.000000 0.299046 0.105765
0.000000 0.296339 0.105627
0.000000 0.293245 0.105459
0.000000 0.291444 0.105177
0.000000 0.292210 0.104811
0.000000 0.295012 0.104864
0.000000 0.299500 0.104288
0.035711 0.305801 0.101930
0.111209 0.316353 0.100039
0.157820 0.329699 0.098169
0.206471 0.343584 0.095526
0.261726 0.356951 0.092172
0.317025 0.370624 0.087097
0.368865 0.383968 0.081305
0.418154 0.395617 0.075136
0.466188 0.405051 0.067881
0.513656 0.413184 0.061782
0.557598 0.420035 0.056623
0.596350 0.425428 0.050847
0.632726 0.428992 0.045002
0.666619 0.431434 0.040528
0.695940 0.433581 0.031655
0.720557 0.436000 0.022344
0.741698 0.438068 0.020846
0.760014 0.440318 0.020174
0.775192 0.442878 0.019793
0.787187 0.445824 0.018841
0.796606 0.448984 0.017873
0.804483 0.452383 0.016869
0.811242 0.455940 0.015606
0.816398 0.459823 0.013768
0.820696 0.463834 0.012177
0.825200 0.467805 0.006355
0.000000 0.324671 0.108492
0.000000 0.322077 0.108253
0.000000 0.319191 0.108226
0.000000 0.317520 0.107909
0.000000 0.318552 0.107538
0.000000 0.321747 0.107802
0.000000 0.326669 0.107526
0.027700 0.333442 0.105146
0.107658 0.344564 0.102792
0.160650 0.358793 0.100209
0.212948 0.373607 0.096780
0.270476 0.387962 0.091750
0.327544 0.402720 0.085670
0.381116 0.417158 0.078927
0.431990 0.429759 0.069035
0.480806 0.439854 0.060371
0.529048 0.448523 0.051924
0.573526 0.455731 0.039630
0.612565 0.461498 0.010338
0.649509 0.465871 0.007471
0.683511 0.468821 0.005982
0.713243 0.471503 0.002719
0.738276 0.474375 0.000000
0.759961 0.476939 0.000000
0.778582 0.479425 0.000000
0.794042 0.482173 0.000000
0.806160 0.485132 0.000000
0.815860 0.488383 0.000000
0.823979 0.491885 0.000000
0.831179 0.495815 0.000000
0.836870 0.500197 0.000000
0.841740 0.504765 0.000000
0.846756 0.509223 0.000000
0.000000 0.346653 0.111341
0.000000 0.344291 0.111181
0.000000 0.341573 0.111111
0.000000 0.340225 0.110826
0.000000 0.341693 0.110297
0.000000 0.345379 0.110484
0.000000 0.350943 0.109972
0.019306 0.358327 0.106960
0.105323 0.370235 0.104106
0.165950 0.385492 0.101027
0.220503 0.401269 0.096223
0.279617 0.416517 0.090824
0.338161 0.432084 0.083503
0.392900 0.447297 0.073617
0.444338 0.460594 0.061183
0.493817 0.471351 0.049535
0.543038 0.480705 0.017999
0.588548 0.489198 0.000198
0.628929 0.496379 0.000000
0.666268 0.501424 0.000000
0.700984 0.505115 0.000000
0.731111 0.508355 0.000000
0.756373 0.511559 0.000000
0.778243 0.514329 0.000000
0.797114 0.517002 0.000000
0.812798 0.519919 0.000000
0.825067 0.522997 0.000000
0.834780 0.526244 0.000000
0.843132 0.529867 0.000000
0.850533 0.533870 0.000000
0.856362 0.538253 0.000000
0.861304 0.542735 0.000000
0.866458 0.547149 0.000000
0.000000 0.366949 0.113444
0.000000 0.364913 0.113288
0.000000 0.362503 0.113195
0.000000 0.361558 0.112812
0.000000 0.363585 0.112173
0.000000 0.367918 0.112092
0.000000 0.374227 0.111221
0.007369 0.382417 0.107784
0.104273 0.395350 0.104286
0.173259 0.411814 0.100245
0.228925 0.428683 0.094469
0.289079 0.444759 0.087600
0.348097 0.460884 0.079302
0.403473 0.476569 0.065075
0.455531 0.490405 0.049210
0.506176 0.502104 0.018315
0.556815 0.513308 0.000000
0.603712 0.523193 0.000055
0.644796 0.531162 0.000000
0.682990 0.537011 0.000000
0.718576 0.541504 0.000000
0.749214 0.545315 0.000000
0.774888 0.548921 0.000000
0.796892 0.551897 0.000000
0.815615 0.554595 0.000000
0.831555 0.557740 0.000000
0.844141 0.561125 0.000000
0.853998 0.564558 0.000000
0.862456 0.568278 0.000000
0.869878 0.572193 0.000000
0.875659 0.576297 0.000000
0.880551 0.580484 0.000000
0.885553 0.584560 0.000000
0.000000 0.385458 0.115608
0.000000 0.383791 0.115338
0.000000 0.381735 0.115131
0.000000 0.381241 0.114636
0.000000 0.383892 0.113897
0.000000 0.388946 0.113676
0.000083 0.396066 0.112527
0.000000 0.405103 0.108212
0.101407 0.419106 0.103870
0.181083 0.436751 0.098491
0.238975 0.454727 0.091568
0.299121 0.471572 0.083587
0.358050 0.488165 0.071771
0.413421 0.504223 0.055293
0.466022 0.518698 0.018212
0.518265 0.532209 0.000000
0.570091 0.544709 0.000144
0.617940 0.555500 0.000000
0.659797 0.564300 0.000000
0.699374 0.571123 0.000000
0.735684 0.576354 0.000000
0.767080 0.580832 0.000000
0.792873 0.584763 0.000000
0.815158 0.588019 0.000000
0.833926 0.590845 0.000000
0.849711 0.594006 0.000000
0.862572 0.597689 0.000000
0.872729 0.601452 0.000000
0.881238 0.605203 0.000000
0.888643 0.608955 0.000000
0.894315 0.612756 0.000000
0.899066 0.616553 0.000000
0.903994 0.620314 0.000000
0.000000 0.401079 0.117515
0.000000 0.399863 0.117299
0.000000 0.398251 0.117184
0.000000 0.398258 0.116629
0.000000 0.401496 0.115535
0.000000 0.407168 0.114721
0.000000 0.414942 0.112758
0.000000 0.424742 0.107917
0.106306 0.439640 0.102974
0.188762 0.458281 0.096482
0.247956 0.477154 0.088142
0.308619 0.494696 0.078651
0.367460 0.511771 0.064854
0.422859 0.528165 0.032077
0.476557 0.544164 0.000000
0.529724 0.558791 0.000116
0.582218 0.572050 0.000000
0.630746 0.583682 0.000000
0.673672 0.593324 0.000000
0.713748 0.600837 0.000000
0.751015 0.606854 0.000000
0.783047 0.611966 0.000000
0.809291 0.616351 0.000000
0.831442 0.619733 0.000000
0.850551 0.622828 0.000000
0.866383 0.626097 0.000000
0.879309 0.629898 0.000000
0.889633 0.633807 0.000000
0.898154 0.637573 0.000000
0.905421 0.641141 0.000000
0.910909 0.644582 0.000000
0.915489 0.647984 0.000000
0.920252 0.651374 0.000000
0.000000 0.413177 0.118158
0.000000 0.412516 0.117954
0.000000 0.411461 0.117877
0.000000 0.412030 0.117249
0.000000 0.415812 0.115869
0.000000 0.421984 0.114730
0.000000 0.430252 0.112765
0.007969 0.440659 0.107635
0.117918 0.456280 0.101743
0.196462 0.475636 0.094340
0.256246 0.495212 0.084901
0.316967 0.513399 0.073675
0.375965 0.531017 0.055133
0.431976 0.548454 0.006792
0.486663 0.565674 0.000000
0.539926 0.580886 0.000000
0.593123 0.594887 0.000000
0.642076 0.607227 0.000000
0.685352 0.617534 0.000000
0.726092 0.625768 0.000000
0.763960 0.632469 0.000000
0.796449 0.638187 0.000000
0.823231 0.643062 0.000000
0.845734 0.646809 0.000000
0.864806 0.650031 0.000000
0.881083 0.653587 0.000000
0.894040 0.657414 0.000000
0.904282 0.661235 0.000000
0.912845 0.664968 0.000000
0.920011 0.668323 0.000000
0.925230 0.671379 0.000000
0.929432 0.674299 0.000000
0.933794 0.677186 0.000000
0.000000 0.422630 0.118078
0.000000 0.422629 0.117849
0.000000 0.422242 0.117742
0.000000 0.423459 0.117113
0.000000 0.427818 0.115811
0.000000 0.434457 0.114836
0.000000 0.443147 0.112651
0.021599 0.454057 0.106956
0.128923 0.470262 0.100207
0.203932 0.490219 0.091456
0.263907 0.510389 0.081009
0.324706 0.529198 0.067258
0.384161 0.547401 0.038538
0.441115 0.566373 0.002653
0.495990 0.584328 0.000000
0.549725 0.600216 0.000000
0.602836 0.614861 0.000000
0.652160 0.627874 0.000000
0.695849 0.638854 0.000000
0.736985 0.647781 0.000000
0.775071 0.655127 0.000000
0.808145 0.661473 0.000000
0.835296 0.666882 0.000000
0.858368 0.671060 0.000000
0.877927 0.674652 0.000000
0.894170 0.678272 0.000000
0.907273 0.682158 0.000000
0.917492 0.685889 0.000000
0.925800 0.689344 0.000000
0.932718 0.692380 0.000000
0.937724 0.695068 0.000000
0.941641 0.697508 0.000000
0.945777 0.699982 0.000000
0.000000 0.430449 0.118313
0.000000 0.431161 0.118093
0.000000 0.431492 0.118004
0.000000 0.433389 0.117350
0.000000 0.438332 0.115949
0.000000 0.445400 0.114671
0.000000 0.454478 0.111878
0.031231 0.465889 0.105867
0.138911 0.482607 0.098431
0.211113 0.502953 0.088726
0.271713 0.523577 0.077490
0.332637 0.542864 0.060503
0.392282 0.561963 0.014431
0.449937 0.582005 0.000000
0.504613 0.600547 0.000000
0.558508 0.616996 0.000000
0.611785 0.632211 0.000000
0.661366 0.645831 0.000000
0.704965 0.657321 0.000000
0.746736 0.666943 0.000000
0.785152 0.674950 0.000000
0.818400 0.681821 0.000000
0.845933 0.687639 0.000000
0.869565 0.692295 0.000000
0.889548 0.696182 0.000000
0.906109 0.700032 0.000000
0.918998 0.703810 0.000000
0.929114 0.707421 0.000000
0.937260 0.710650 0.000000
0.944038 0.713397 0.000000
0.948711 0.715633 0.000000
0.952319 0.717629 0.000000
0.956098 0.719621 0.000000
0.000000 0.437087 0.118724
0.000000 0.438485 0.118448
0.000000 0.439504 0.118316
0.000000 0.442052 0.117572
0.000000 0.447573 0.115897
0.000000 0.455208 0.114102
0.000000 0.464764 0.110815
0.043647 0.476717 0.104711
0.151805 0.493832 0.096787
0.220249 0.514368 0.086575
0.280202 0.535177 0.073891
0.340741 0.554717 0.050664
0.400494 0.574674 0.010561
0.458465 0.595363 0.000000
0.513449 0.614325 0.000000
0.567232 0.631191 0.000000
0.620318 0.646825 0.000000
0.669796 0.660851 0.000000
0.713854 0.672851 0.000000
0.755384 0.682880 0.000000
0.793909 0.691351 0.000000
0.827533 0.698708 0.000000
0.855243 0.704873 0.000000
0.879257 0.709850 0.000000
0.899627 0.714024 0.000000
0.916252 0.717930 0.000000
0.929283 0.721759 0.000000
0.939210 0.725204 0.000000
0.947241 0.728240 0.000000
0.953856 0.730758 0.000000
0.958385 0.732717 0.000000
0.961789 0.734381 0.000000
0.965438 0.736097 0.000000
0.000000 0.441966 0.118732
0.000000 0.443947 0.118368
0.000000 0.445537 0.118175
0.000000 0.448671 0.117290
0.000000 0.454819 0.115166
0.000000 0.463143 0.112946
0.000000 0.473300 0.109333
0.052837 0.485846 0.102886
0.163416 0.503241 0.094640
0.229025 0.523706 0.083770
0.288294 0.544489 0.069038
0.348372 0.564172 0.035503
0.408189 0.584826 0.000329
0.466121 0.605983 0.000000
0.520978 0.625252 0.000000
0.574820 0.642437 0.000000
0.627732 0.658367 0.000000
0.677222 0.672707 0.000000
0.721193 0.685007 0.000000
0.762793 0.695446 0.000000
