Film Looks/DCI-P3 Fujifilm 3513DI D55.cube
# Resolve Film Look LUT
#   Input: Cineon Log 
#        : floating point data (range 0.0 - 1.0)
#  Output: FUJIFILM 3513DI film stock 'look' with D55 White Point
#        : floating point data (range 0.0 - 1.0)
# Display: DCI-P3, Gamma 2.6
LUT_3D_SIZE 9
LUT_3D_INPUT_RANGE 0.0 1.0
0.044749 0.038194 0.048012
0.046434 0.039820 0.049332
0.072000 0.047154 0.051087
0.173054 0.062657 0.055005
0.311909 0.067705 0.058419
0.435548 0.020625 0.063586
0.522774 0.000000 0.075060
0.570279 0.000000 0.079617
0.591966 0.000000 0.082672
0.052245 0.058176 0.055818
0.053331 0.056576 0.056927
0.083610 0.064224 0.059249
0.195522 0.086075 0.061350
0.346336 0.100139 0.061340
0.476206 0.088635 0.067622
0.560475 0.059248 0.073056
0.603667 0.044544 0.075424
0.625087 0.056568 0.077044
0.050559 0.108139 0.067767
0.056994 0.103205 0.068732
0.101749 0.115403 0.070915
0.232638 0.144361 0.070672
0.396745 0.166436 0.069390
0.534169 0.170991 0.071876
0.620804 0.170277 0.076478
0.664761 0.176142 0.077992
0.685677 0.187854 0.078340
0.000000 0.190867 0.084247
0.007862 0.183011 0.083995
0.117824 0.201986 0.084341
0.274527 0.240802 0.080248
0.453179 0.271692 0.071796
0.600631 0.284948 0.067772
0.688944 0.289423 0.069304
0.731707 0.299663 0.069868
0.751564 0.312567 0.069459
0.000000 0.292603 0.098881
0.000000 0.285870 0.097882
0.125859 0.310341 0.093886
0.318219 0.363507 0.081551
0.511641 0.405177 0.054086
0.662677 0.423212 0.015892
0.755139 0.432084 0.004506
0.799343 0.444081 0.000000
0.820272 0.459624 0.000000
0.000000 0.377337 0.108195
0.000000 0.375791 0.106647
0.140331 0.411149 0.096705
0.361898 0.478816 0.063997
0.569760 0.534783 0.000000
0.732679 0.565651 0.000000
0.829821 0.580002 0.000000
0.876621 0.594046 0.000000
0.899169 0.608837 0.000000
0.000000 0.421366 0.110211
0.000000 0.429033 0.107647
0.169425 0.473435 0.090281
0.397902 0.551662 0.007969
0.612338 0.620416 0.000000
0.782690 0.662103 0.000000
0.885533 0.682893 0.000000
0.932803 0.697103 0.000000
0.951468 0.705915 0.000000
0.000000 0.440375 0.111666
0.000000 0.458304 0.106107
0.211825 0.511212 0.084510
0.431709 0.591058 0.000000
0.643318 0.663524 0.000000
0.812336 0.709914 0.000000
0.917202 0.734414 0.000000
0.964741 0.747754 0.000000
0.982353 0.753736 0.000000
0.000000 0.470435 0.134601
0.093282 0.508015 0.121567
0.307590 0.567891 0.106382
0.498284 0.634381 0.018644
0.687589 0.696636 0.000000
0.847259 0.740464 0.000000
0.949126 0.765943 0.000000
0.992283 0.776509 0.000000
1.000000 0.778542 0.000000
0.044531 0.038020 0.056473
0.044001 0.040471 0.057443
0.077066 0.046501 0.057587
0.188582 0.064560 0.062059
0.333961 0.065633 0.064494
0.464153 0.000000 0.071038
0.551919 0.000000 0.083609
0.598211 0.000000 0.090133
0.620637 0.000000 0.097322
0.051145 0.059643 0.060432
0.054754 0.058319 0.060283
0.088897 0.067618 0.064081
0.212023 0.090086 0.067134
0.371356 0.101894 0.067957
0.505993 0.084518 0.073238
0.590290 0.044593 0.078718
0.632605 0.000000 0.082515
0.652953 0.036114 0.087765
0.040035 0.114239 0.078763
0.056134 0.108811 0.075434
0.108713 0.123222 0.079331
0.252499 0.153190 0.079391
0.426802 0.175878 0.077812
0.569242 0.178503 0.079683
0.654840 0.176105 0.082851
0.695040 0.180433 0.086432
0.717457 0.194120 0.092767
0.000000 0.207463 0.099468
0.000000 0.197428 0.093868
0.127079 0.219815 0.095767
0.300884 0.261453 0.089978
0.489838 0.293123 0.081802
0.640720 0.304630 0.079402
0.727230 0.307741 0.080550
0.767933 0.318194 0.085019
0.786831 0.331241 0.092053
0.000000 0.322676 0.120711
0.000000 0.316170 0.116029
0.135795 0.345612 0.111209
0.351742 0.404151 0.095741
0.557330 0.446628 0.072101
0.713869 0.464253 0.047981
0.804618 0.471912 0.039154
0.844658 0.482100 0.052353
0.863706 0.497064 0.069525
0.000000 0.415007 0.142778
0.000000 0.415365 0.136278
0.144756 0.455282 0.127075
0.399143 0.530304 0.101141
0.621854 0.587411 0.038768
0.790993 0.619155 0.000208
0.887307 0.632736 0.000000
0.928399 0.643470 0.000000
0.943606 0.652932 0.000000
0.000000 0.460875 0.172191
0.000000 0.469473 0.162548
0.160688 0.518386 0.153896
0.431707 0.600726 0.129917
0.659314 0.666378 0.078054
0.834064 0.706351 0.000000
0.936055 0.727134 0.000000
0.975629 0.736788 0.000000
0.987576 0.742412 0.063124
0.000000 0.486375 0.213724
0.000000 0.504740 0.206901
0.186267 0.558901 0.201652
0.454159 0.638839 0.183887
0.680278 0.705002 0.160251
0.853670 0.745579 0.127512
0.953485 0.766329 0.115811
0.993174 0.776914 0.128350
1.000000 0.780845 0.159303
0.000000 0.530352 0.316549
0.000000 0.570500 0.318055
0.270428 0.626282 0.318359
0.502047 0.692191 0.314068
0.703289 0.745588 0.302945
0.865358 0.781901 0.290284
0.961767 0.804030 0.293539
0.999090 0.813596 0.304651
1.000000 0.816218 0.329407
0.042881 0.034683 0.117757
0.040216 0.027161 0.109338
0.079748 0.044363 0.114581
0.200257 0.062659 0.120429
0.354926 0.060222 0.120629
0.490640 0.000000 0.125552
0.578861 0.000000 0.138343
0.621306 0.000000 0.151581
0.640344 0.000000 0.169635
0.042496 0.062461 0.123245
0.052408 0.061129 0.112839
0.091901 0.071088 0.120143
0.225873 0.094096 0.125332
0.393680 0.103889 0.124390
0.532303 0.081381 0.124193
0.615855 0.001857 0.130042
0.656480 0.000000 0.143535
0.673679 0.012360 0.160015
0.000000 0.129296 0.153659
0.010856 0.120360 0.136919
0.107945 0.135700 0.145322
0.267749 0.165905 0.149165
0.450794 0.185931 0.146554
0.597827 0.186836 0.145095
0.682407 0.183282 0.147013
0.720066 0.189387 0.161304
0.737819 0.204144 0.181254
0.000000 0.235759 0.188534
0.000000 0.224419 0.173031
0.109857 0.245516 0.178343
0.315085 0.286980 0.178368
0.515231 0.315877 0.172262
0.671028 0.325752 0.168335
0.756181 0.327994 0.169687
0.792573 0.339092 0.187572
0.807329 0.353321 0.205828
0.000000 0.365997 0.228014
0.000000 0.357999 0.216517
0.069779 0.385210 0.213828
0.362068 0.444899 0.211245
0.584569 0.487122 0.202705
0.745945 0.502860 0.194948
0.834976 0.508724 0.195167
0.870980 0.519726 0.212148
0.885643 0.535462 0.237699
0.000000 0.464234 0.271783
0.000000 0.463565 0.260409
0.000482 0.502459 0.257044
0.401860 0.578849 0.252492
0.643836 0.635693 0.239228
0.816882 0.663165 0.227828
0.911176 0.674629 0.226020
0.947335 0.685391 0.243307
0.959961 0.697755 0.271239
0.000000 0.509894 0.320718
0.000000 0.518157 0.309556
0.000000 0.565024 0.309597
0.424411 0.647200 0.303131
0.670765 0.712584 0.293308
0.850068 0.749161 0.280119
0.949049 0.766549 0.276241
0.985655 0.777534 0.295301
0.995567 0.784832 0.319262
0.000000 0.531773 0.372003
0.000000 0.551100 0.370250
0.000263 0.601812 0.369028
0.439812 0.681115 0.367174
0.681803 0.745570 0.361302
0.860053 0.784973 0.351993
0.958374 0.804405 0.348274
0.995472 0.814766 0.363099
1.000000 0.818052 0.384055
0.000000 0.566028 0.463897
0.000000 0.606034 0.471977
0.194729 0.657496 0.473473
0.482951 0.721994 0.476895
0.695809 0.774767 0.474308
0.861321 0.811036 0.470105
0.957059 0.832090 0.474657
0.993526 0.841786 0.487008
1.000000 0.846742 0.512103
0.018735 0.000000 0.231248
0.038460 0.000000 0.218123
0.082282 0.000000 0.229229
0.209062 0.004724 0.240647
0.367288 0.000000 0.244401
0.506976 0.000000 0.249127
0.593697 0.000000 0.262038
0.633860 0.000000 0.280772
0.651389 0.000000 0.301237
0.000717 0.043085 0.242358
0.033229 0.047439 0.226123
0.091418 0.056491 0.239800
0.233864 0.083139 0.252241
0.405645 0.091710 0.252530
0.545548 0.056934 0.252139
0.630463 0.000000 0.260770
0.668016 0.000000 0.281552
0.683544 0.000000 0.302652
0.000000 0.138735 0.292280
0.000000 0.131635 0.271380
0.086935 0.147109 0.281270
0.272915 0.175847 0.293356
0.462126 0.194072 0.292480
0.611555 0.193837 0.290097
0.693434 0.188792 0.293187
0.728058 0.196335 0.311595
0.743922 0.210944 0.339476
0.000000 0.266893 0.343869
0.000000 0.257033 0.325914
0.000000 0.274582 0.331454
0.312865 0.314154 0.339589
0.524610 0.340715 0.337598
0.682138 0.348015 0.333810
0.766464 0.350185 0.336025
0.800092 0.361571 0.358526
0.812886 0.376190 0.381852
0.000000 0.410961 0.395748
0.000000 0.403973 0.384661
0.000408 0.430749 0.387895
0.348321 0.486440 0.391887
0.588889 0.525864 0.389476
0.754510 0.539753 0.384344
0.843692 0.545298 0.386362
0.877177 0.555974 0.407492
0.889162 0.570693 0.433173
0.000000 0.512482 0.447632
0.000000 0.512537 0.437448
0.000000 0.552783 0.442888
0.377041 0.623891 0.445455
0.641849 0.680172 0.442805
0.820879 0.706784 0.437506
0.915145 0.717950 0.439588
0.949166 0.727975 0.457970
0.958980 0.738410 0.485681
0.000000 0.553244 0.495068
0.000000 0.562794 0.488696
0.000000 0.610307 0.496550
0.392588 0.686964 0.496543
0.660846 0.751452 0.498007
0.847308 0.788577 0.494074
0.946866 0.806175 0.494928
0.981743 0.816105 0.511787
0.989884 0.822001 0.534036
0.000000 0.570659 0.539094
0.000000 0.590036 0.541295
0.000046 0.641008 0.548208
0.408259 0.714930 0.550121
0.668528 0.778021 0.554314
0.852680 0.817848 0.553082
0.952695 0.838283 0.555211
0.988388 0.847583 0.567813
0.997095 0.853162 0.588677
0.000000 0.594737 0.602175
0.000000 0.635167 0.615469
0.010820 0.683412 0.618496
0.457818 0.747060 0.629065
0.683362 0.800023 0.634552
0.854202 0.837992 0.637105
0.951608 0.859914 0.644997
0.988554 0.869601 0.656556
0.998191 0.875670 0.677873
0.000000 0.000000 0.350061
0.000000 0.000000 0.337771
0.067575 0.000000 0.351491
0.221805 0.000000 0.371860
0.385662 0.000000 0.383045
0.523325 0.000000 0.390344
0.607530 0.000000 0.400988
0.647941 0.000000 0.420695
0.664879 0.000000 0.438078
0.000000 0.000000 0.372759
0.000000 0.000000 0.355329
0.082905 0.000000 0.372324
0.240942 0.000000 0.391220
0.413563 0.000000 0.397278
0.558011 0.000077 0.402641
0.643084 0.000000 0.412646
0.681160 0.000000 0.435909
0.695830 0.000000 0.454974
0.000000 0.117337 0.425234
0.000000 0.111071 0.408839
0.034493 0.144625 0.424124
0.271740 0.172255 0.445901
0.465007 0.189295 0.450502
0.615246 0.187308 0.450658
0.697253 0.181940 0.456456
0.731467 0.190076 0.475917
0.747060 0.205868 0.501010
0.000000 0.285869 0.496208
0.000000 0.273984 0.481609
0.000053 0.293884 0.491230
0.299693 0.331520 0.504426
0.523201 0.356743 0.510096
0.683588 0.362673 0.509395
0.768850 0.364944 0.513912
0.801502 0.375873 0.534191
0.814659 0.391998 0.556190
0.000000 0.444739 0.557037
0.000000 0.436470 0.547955
0.000000 0.464491 0.558292
0.321875 0.516431 0.565782
0.581328 0.553888 0.571782
0.752877 0.567829 0.572677
0.843876 0.573550 0.577271
0.878383 0.585990 0.598537
0.890679 0.600407 0.618393
0.000000 0.548115 0.606648
0.000000 0.549341 0.601921
0.000000 0.589303 0.614183
0.338433 0.656588 0.620590
0.628695 0.712319 0.628726
0.816349 0.741584 0.632870
0.912913 0.753311 0.637429
0.947762 0.763462 0.654805
0.958121 0.773362 0.676194
0.000000 0.584399 0.643598
0.000000 0.595421 0.643765
0.000000 0.642628 0.656397
0.352791 0.716153 0.662801
0.646872 0.781515 0.675809
0.840443 0.820895 0.681225
0.943040 0.840227 0.686801
0.978786 0.849682 0.700883
0.987675 0.855492 0.718650
0.000000 0.597244 0.673208
0.000000 0.616020 0.678046
0.000000 0.668722 0.693766
0.372220 0.739384 0.700474
0.653318 0.802878 0.713915
0.845722 0.846043 0.722468
0.950208 0.869595 0.732674
0.986719 0.878153 0.740573
0.996017 0.883060 0.756022
0.000000 0.614593 0.710694
0.000000 0.654409 0.726233
0.000000 0.703702 0.734148
0.431223 0.763921 0.747539
0.671650 0.819192 0.762525
0.849940 0.861099 0.774360
0.950953 0.884508 0.784159
0.989015 0.894520 0.796122
0.998621 0.898570 0.807782
0.000000 0.000000 0.433609
0.000000 0.000000 0.426385
0.000000 0.000000 0.440871
0.223000 0.000000 0.468637
0.396259 0.000000 0.486663
0.537573 0.000000 0.499491
0.622778 0.000000 0.510929
0.663642 0.000000 0.526979
0.681415 0.000000 0.542895
0.000000 0.000000 0.467545
0.000000 0.000000 0.456806
0.036868 0.000000 0.473119
0.245906 0.000000 0.500234
0.427396 0.000000 0.515789
0.573046 0.000000 0.525514
0.659264 0.000000 0.536685
0.697554 0.000000 0.555286
0.712367 0.000000 0.571769
0.000000 0.058041 0.519079
0.000000 0.048940 0.509247
0.000000 0.124697 0.529933
0.268721 0.158449 0.559434
0.465909 0.174490 0.572383
0.619114 0.171759 0.578201
0.703476 0.164099 0.585693
0.738407 0.174313 0.602301
0.754248 0.195140 0.620688
0.000000 0.286413 0.598139
0.000000 0.276348 0.591485
0.000000 0.299256 0.607044
0.286589 0.340315 0.624302
0.519317 0.363880 0.637576
0.684032 0.370440 0.644139
0.772775 0.374381 0.650715
0.806477 0.385477 0.667542
0.819493 0.402084 0.683854
0.000000 0.463201 0.667899
0.000000 0.453795 0.661780
0.000000 0.483240 0.678152
0.294615 0.532623 0.688369
0.572056 0.570997 0.703914
0.752604 0.588748 0.714280
0.847663 0.595222 0.722014
0.883189 0.607386 0.738944
0.895548 0.620904 0.752394
0.000000 0.565132 0.710010
0.000000 0.568217 0.711656
0.000000 0.609601 0.729037
0.298238 0.674445 0.738850
0.615736 0.732488 0.758896
0.813288 0.766170 0.773506
0.914853 0.779784 0.782416
0.951046 0.789756 0.796120
0.961374 0.797613 0.807722
0.000000 0.600114 0.735324
0.000000 0.611579 0.740284
0.000000 0.658109 0.756928
0.313589 0.730833 0.768757
0.632536 0.798721 0.792309
0.835871 0.843286 0.809584
0.943900 0.865120 0.820712
0.980614 0.873711 0.830063
0.989666 0.878095 0.840544
0.000000 0.608476 0.749625
0.000000 0.629437 0.760177
0.000000 0.680741 0.777819
0.339893 0.750332 0.789558
0.640453 0.816885 0.814339
0.841007 0.864443 0.832579
0.949711 0.889479 0.845949
0.987738 0.898332 0.853521
0.997296 0.902092 0.861920
0.000000 0.623631 0.769177
0.000000 0.662634 0.786801
0.000000 0.712679 0.798085
0.409614 0.771134 0.813570
0.661522 0.829273 0.837122
0.846170 0.874743 0.857680
0.950358 0.899120 0.870442
0.989621 0.908836 0.879139
0.999430 0.911818 0.884728
0.000000 0.000000 0.475764
0.000000 0.000000 0.472570
0.000154 0.000000 0.489741
0.220154 0.000000 0.519151
0.399333 0.000000 0.542751
0.544383 0.000000 0.560050
0.632512 0.000000 0.572933
0.674593 0.000000 0.587204
0.691229 0.000000 0.597160
0.000000 0.000000 0.517370
0.000000 0.000000 0.511694
0.000000 0.000000 0.529883
0.244071 0.000000 0.559381
0.431723 0.000000 0.581086
0.582022 0.000000 0.595904
0.670182 0.000000 0.608008
0.708866 0.000000 0.622731
0.722952 0.000000 0.634212
0.000000 0.000000 0.567458
0.000000 0.000000 0.564853
0.000000 0.097414 0.584796
0.263309 0.146292 0.617758
0.464799 0.162506 0.636896
0.621894 0.157277 0.649563
0.708249 0.145027 0.657988
0.743511 0.159533 0.670056
0.759140 0.189845 0.683561
0.000000 0.284787 0.645649
0.000000 0.274759 0.644897
0.000000 0.299574 0.663377
0.274298 0.342430 0.683168
0.515600 0.367674 0.704198
0.684210 0.375283 0.717348
0.775008 0.378918 0.725728
0.808977 0.389258 0.736789
0.822864 0.408270 0.748712
0.000000 0.466430 0.715015
0.000000 0.460452 0.715887
0.000000 0.490129 0.733936
0.270503 0.539113 0.746833
0.565812 0.580169 0.770987
0.751385 0.599424 0.787818
0.849754 0.606828 0.798777
0.885767 0.617300 0.809504
0.898805 0.631667 0.818943
0.000000 0.572858 0.755131
0.000000 0.575401 0.759380
0.000000 0.616011 0.778796
0.259309 0.679960 0.791709
0.606405 0.741197 0.820757
0.810839 0.778099 0.842996
0.915488 0.792704 0.855259
0.952853 0.801796 0.863925
0.963262 0.809087 0.870574
0.000000 0.603680 0.767943
0.000000 0.617467 0.779039
0.000000 0.662725 0.797904
0.279483 0.734699 0.812414
0.623521 0.805355 0.843750
0.832069 0.853039 0.868461
0.943195 0.875963 0.882436
0.981497 0.884388 0.889253
0.990867 0.888106 0.894631
0.000000 0.611494 0.775559
0.000000 0.631483 0.788572
0.000000 0.683884 0.808693
0.323972 0.753429 0.823773
0.631902 0.821876 0.854587
0.837373 0.871912 0.879643
0.949209 0.897916 0.894838
0.988205 0.906736 0.901319
0.997597 0.909654 0.905464
0.000000 0.624627 0.787117
0.000000 0.663388 0.807041
0.000000 0.714009 0.819035
0.394605 0.772007 0.836175
0.653222 0.831396 0.863762
0.841706 0.878787 0.888791
0.949282 0.904807 0.904086
0.989341 0.914092 0.910713
0.999938 0.916989 0.913972
0.000000 0.000000 0.492397
0.000000 0.000000 0.491964
0.000000 0.000000 0.510470
0.217549 0.000000 0.541665
0.399104 0.000000 0.566793
0.547704 0.000000 0.587840
0.637730 0.000000 0.602111
0.679282 0.000000 0.612638
0.696184 0.000000 0.620634
0.000000 0.000000 0.538211
0.000000 0.000000 0.537276
0.000000 0.000000 0.555479
0.241504 0.000000 0.585888
0.433630 0.000000 0.611228
0.585718 0.000000 0.628006
0.676164 0.000000 0.641178
0.715165 0.000000 0.652965
0.728521 0.000000 0.661352
0.000000 0.000000 0.587654
0.000000 0.000000 0.587462
0.000000 0.090860 0.608505
0.260123 0.148215 0.643261
0.463709 0.164002 0.665969
0.622903 0.155896 0.681217
0.710777 0.142049 0.690305
0.746676 0.160369 0.700001
0.763278 0.195134 0.711583
0.000000 0.289706 0.665624
0.000000 0.274514 0.663430
0.000000 0.301123 0.683678
0.265596 0.345643 0.706284
0.512122 0.372241 0.731236
0.682861 0.379667 0.747411
0.776520 0.384362 0.758016
0.810635 0.393341 0.765573
0.824813 0.414053 0.774764
0.000000 0.472304 0.732718
0.000000 0.461926 0.733262
0.000000 0.493339 0.752947
0.253092 0.541756 0.767505
0.560215 0.584339 0.796265
0.749442 0.605010 0.816914
0.850538 0.613195 0.829466
0.887470 0.623310 0.836827
0.901410 0.639359 0.844768
0.000000 0.576352 0.770134
0.000000 0.578354 0.776049
0.000000 0.618647 0.795211
0.234098 0.681977 0.809687
0.599297 0.744145 0.842351
0.808244 0.783497 0.868845
0.915355 0.798203 0.881970
0.953753 0.807580 0.888768
0.964296 0.814356 0.893072
0.000000 0.606798 0.779792
0.000000 0.619381 0.790721
0.000000 0.663954 0.809909
0.254449 0.734899 0.825739
0.615309 0.806652 0.859906
0.829068 0.856524 0.888422
0.942333 0.879941 0.903445
0.981533 0.888304 0.909487
0.991066 0.891543 0.912536
0.000000 0.613773 0.783849
0.000000 0.633234 0.798157
0.000000 0.684581 0.817833
0.310320 0.753128 0.833185
0.626548 0.822725 0.866349
0.834422 0.874173 0.894499
0.947573 0.900348 0.910072
0.988208 0.909451 0.916295
0.997787 0.912152 0.918483
0.000000 0.625413 0.792158
0.000000 0.663403 0.812403
0.000000 0.713904 0.825290
0.387782 0.772000 0.842637
0.647110 0.832008 0.871945
0.837860 0.879918 0.898144
0.947881 0.906166 0.913527
0.989114 0.915700 0.919798
1.000000 0.918517 0.922275
0.000000 0.000000 0.500771
0.000000 0.000000 0.502126
0.000000 0.000000 0.519772
0.215260 0.000000 0.550712
0.398889 0.000000 0.578105
0.549024 0.000000 0.599382
0.641992 0.000000 0.615159
0.683303 0.000000 0.623730
0.700652 0.000000 0.632367
0.000000 0.000000 0.550862
0.000000 0.000000 0.550807
0.000000 0.000000 0.568873
0.240246 0.000000 0.600230
0.432950 0.000000 0.625980
0.588409 0.000000 0.644666
0.681703 0.000000 0.659031
0.719139 0.000000 0.668231
0.734390 0.000000 0.677691
0.000000 0.018335 0.596916
0.000000 0.000000 0.597581
0.000093 0.099428 0.620220
0.256843 0.163524 0.655575
0.463662 0.179816 0.681086
0.625093 0.175468 0.697011
0.716158 0.167696 0.707175
0.751691 0.180160 0.715011
0.768507 0.211805 0.725148
0.000000 0.300778 0.675163
0.000000 0.280136 0.671730
0.000000 0.308474 0.693149
0.259265 0.354226 0.715703
0.509222 0.380500 0.742337
0.683401 0.389902 0.760563
0.777643 0.393000 0.770838
0.813674 0.403545 0.778511
0.827641 0.422761 0.785840
0.000000 0.476070 0.739322
0.000000 0.465278 0.740275
0.000000 0.496337 0.759340
0.236910 0.545798 0.774606
0.555230 0.588906 0.805014
0.747701 0.611256 0.827855
0.851351 0.620341 0.840886
0.889220 0.629890 0.847668
0.903191 0.644834 0.853851
0.000000 0.577789 0.774757
0.000000 0.579649 0.780777
0.000000 0.619121 0.800432
0.210560 0.683054 0.815049
0.592967 0.745675 0.849098
0.804100 0.785720 0.876816
0.914780 0.802037 0.891004
0.954375 0.810766 0.897432
0.965655 0.818380 0.900737
0.000000 0.607471 0.782778
0.000000 0.618045 0.792253
0.000000 0.663602 0.813167
0.237522 0.734388 0.829226
0.611120 0.807010 0.864590
0.825443 0.857251 0.894133
0.940752 0.881295 0.909705
0.981252 0.889823 0.916035
0.991233 0.893033 0.917970
0.000000 0.613494 0.785403
0.000000 0.633338 0.800577
0.000000 0.684315 0.820992
0.297136 0.752110 0.835404
0.619255 0.821840 0.868950
0.830068 0.873852 0.897990
0.946165 0.901019 0.914412
0.987841 0.910419 0.920765
0.998079 0.913150 0.922873
0.000000 0.625529 0.793490
0.000000 0.663490 0.813764
0.000000 0.712910 0.826676
0.379597 0.770922 0.843731
0.641984 0.830977 0.873291
0.834509 0.879649 0.900377
0.946206 0.906382 0.916259
0.989107 0.916568 0.922915
0.999985 0.918901 0.924837
