Film Looks/DCI-P3 Fujifilm 3513DI D60.cube
# Resolve Film Look LUT
#   Input: Cineon Log 
#        : floating point data (range 0.0 - 1.0)
#  Output: FUJIFILM 3513DI film stock 'look' with D60 White Point
#        : floating point data (range 0.0 - 1.0)
# Display: DCI-P3, Gamma 2.6
LUT_3D_SIZE 9
LUT_3D_INPUT_RANGE 0.0 1.0
0.043397 0.038448 0.049971
0.045133 0.040135 0.051391
0.071879 0.047321 0.053078
0.174434 0.063661 0.057438
0.314720 0.069724 0.061560
0.439465 0.023648 0.067667
0.527368 0.000000 0.079839
0.575418 0.000000 0.085003
0.597307 0.000000 0.088336
0.051617 0.058792 0.058155
0.052728 0.057150 0.059352
0.083443 0.065105 0.061909
0.196996 0.087586 0.064291
0.349379 0.102503 0.064937
0.480547 0.091932 0.072406
0.565657 0.065539 0.078741
0.609237 0.049960 0.081274
0.630845 0.062299 0.082982
0.043453 0.110167 0.071406
0.054950 0.105065 0.072156
0.100854 0.117592 0.074741
0.234067 0.147250 0.074786
0.400003 0.170013 0.074190
0.538859 0.175119 0.077890
0.626365 0.174659 0.082516
0.670715 0.180436 0.084373
0.691830 0.192898 0.085034
0.000000 0.195018 0.089376
0.000000 0.186933 0.088936
0.113726 0.205838 0.088814
0.275118 0.245510 0.084791
0.456195 0.277163 0.077910
0.605401 0.290986 0.075601
0.694681 0.295798 0.078404
0.737781 0.305979 0.079132
0.757840 0.319466 0.079325
0.000000 0.299046 0.105765
0.000000 0.292210 0.104811
0.111209 0.316353 0.100039
0.317025 0.370624 0.087097
0.513656 0.413184 0.061782
0.666619 0.431434 0.040528
0.760014 0.440318 0.020174
0.804483 0.452383 0.016869
0.825200 0.467805 0.006355
0.000000 0.385458 0.115608
0.000000 0.383892 0.113897
0.101407 0.419106 0.103870
0.358050 0.488165 0.071771
0.570091 0.544709 0.000144
0.735684 0.576354 0.000000
0.833926 0.590845 0.000000
0.881238 0.605203 0.000000
0.903994 0.620314 0.000000
0.000000 0.430449 0.118313
0.000000 0.438332 0.115949
0.138911 0.482607 0.098431
0.392282 0.561963 0.014431
0.611785 0.632211 0.000000
0.785152 0.674950 0.000000
0.889548 0.696182 0.000000
0.937260 0.710650 0.000000
0.956098 0.719621 0.000000
0.000000 0.449903 0.120240
0.000000 0.468248 0.114320
0.193315 0.521125 0.092263
0.425771 0.601948 0.000000
0.642604 0.676305 0.000000
0.814628 0.723831 0.000000
0.920926 0.748890 0.000000
0.969128 0.762446 0.000000
0.986963 0.768601 0.000000
0.000000 0.480635 0.144108
0.000000 0.518362 0.130940
0.295779 0.578940 0.114574
0.493856 0.646807 0.057135
0.686913 0.709708 0.000000
0.849354 0.754654 0.000000
0.952575 0.780645 0.000000
0.996320 0.791334 0.000000
1.000000 0.791565 0.000000
0.044184 0.037868 0.058874
0.043515 0.040449 0.059917
0.077107 0.046946 0.060095
0.190128 0.065693 0.065058
0.336979 0.067805 0.068150
0.468102 0.000000 0.075408
0.556912 0.000000 0.088979
0.603658 0.000000 0.096137
0.626186 0.000000 0.103401
0.050056 0.060269 0.063124
0.054133 0.058939 0.062967
0.088697 0.068548 0.067101
0.213723 0.092065 0.070685
0.374631 0.104114 0.072097
0.510629 0.087969 0.078437
0.595726 0.050236 0.084410
0.638247 0.023252 0.088510
0.658975 0.047310 0.094349
0.035426 0.116177 0.082606
0.053038 0.110786 0.079203
0.107823 0.125429 0.083259
0.254033 0.156079 0.083516
0.430289 0.179410 0.082460
0.574232 0.182521 0.085364
0.660708 0.180458 0.089298
0.701286 0.185070 0.093495
0.723887 0.199443 0.100735
0.000000 0.212103 0.105680
0.000000 0.201779 0.099918
0.123402 0.224046 0.101309
0.301660 0.266619 0.095730
0.493225 0.299134 0.087685
0.645778 0.310974 0.086218
0.733226 0.314302 0.088289
0.774343 0.325186 0.093715
0.793316 0.338276 0.101437
0.000000 0.329686 0.128666
0.000000 0.323125 0.123914
0.118379 0.352274 0.117934
0.350195 0.412055 0.103135
0.559380 0.455446 0.080059
0.718288 0.473586 0.060307
0.810127 0.481464 0.056965
0.850630 0.491916 0.066862
0.869761 0.507195 0.082107
0.000000 0.424009 0.152389
0.000000 0.424387 0.145633
0.104915 0.464201 0.134803
0.394898 0.540662 0.109105
0.622527 0.598965 0.056253
0.793633 0.630431 0.000000
0.891245 0.644281 0.000146
0.932631 0.655051 0.000000
0.948436 0.665388 0.040822
0.000000 0.470904 0.183451
0.000000 0.479621 0.173501
0.114760 0.528554 0.163287
0.425611 0.612435 0.139569
0.658792 0.679382 0.089479
0.835876 0.719225 0.001416
0.939199 0.740301 0.000000
0.979273 0.750174 0.004225
0.992180 0.757094 0.082502
0.000000 0.496911 0.226898
0.000000 0.515730 0.219823
0.136208 0.569749 0.213543
0.447738 0.651293 0.195770
0.679483 0.718851 0.172767
0.855811 0.760280 0.143867
0.956983 0.781382 0.129143
0.997256 0.792228 0.146292
1.000000 0.793977 0.170423
0.000000 0.542367 0.336066
0.000000 0.582939 0.337481
0.248952 0.638375 0.336257
0.495360 0.705640 0.332116
0.701682 0.760148 0.320806
0.867004 0.797307 0.308175
0.964961 0.819937 0.311788
1.000000 0.828310 0.321979
1.000000 0.830656 0.347648
0.041483 0.033745 0.123967
0.038430 0.026234 0.115068
0.079396 0.044963 0.120634
0.201844 0.063540 0.126828
0.358128 0.061826 0.127227
0.495022 0.000000 0.132391
0.584080 0.000000 0.145874
0.627083 0.000000 0.159908
0.646087 0.000000 0.178393
0.040329 0.062766 0.129695
0.048611 0.062252 0.118804
0.091672 0.072062 0.126474
0.227655 0.095770 0.132000
0.397166 0.106108 0.131250
0.537189 0.084704 0.131428
0.621435 0.020476 0.137769
0.662065 0.000000 0.151572
0.679868 0.033081 0.169453
0.000000 0.131788 0.162535
0.000000 0.123017 0.144808
0.106328 0.138164 0.153089
0.269318 0.169076 0.157235
0.454502 0.189733 0.154726
0.603079 0.191340 0.153652
0.688521 0.187913 0.155875
0.726511 0.194616 0.171174
0.744383 0.209260 0.192022
0.000000 0.241196 0.200199
0.000000 0.229352 0.183212
0.093481 0.250142 0.188021
0.315487 0.292546 0.188208
0.518680 0.322304 0.182153
0.676182 0.332361 0.178532
0.762328 0.334815 0.180104
0.799101 0.346502 0.199161
0.813869 0.360746 0.218247
0.000000 0.373421 0.240494
0.000000 0.366113 0.229967
0.000000 0.392999 0.226273
0.359236 0.453541 0.223297
0.586371 0.496696 0.214717
0.750302 0.512925 0.207105
0.840525 0.519000 0.207644
0.876868 0.530260 0.225557
0.891465 0.546210 0.252209
0.000000 0.474306 0.288145
0.000000 0.473495 0.275704
0.000000 0.513519 0.273135
0.395437 0.590102 0.267078
0.643755 0.648154 0.253576
0.819909 0.676304 0.242441
0.915591 0.688032 0.240869
0.952298 0.699086 0.258877
0.964793 0.711623 0.288022
0.000000 0.520872 0.339802
0.000000 0.529369 0.328002
0.000000 0.577536 0.328921
0.415725 0.659765 0.320453
0.669311 0.726512 0.310597
0.852082 0.763926 0.297401
0.952622 0.781712 0.293469
0.989714 0.792944 0.313466
0.999208 0.800148 0.338323
0.000000 0.543680 0.394282
0.000000 0.562984 0.391891
0.000000 0.615005 0.391496
0.429915 0.694286 0.387801
0.679682 0.760114 0.382039
0.861436 0.800391 0.372566
0.961462 0.820292 0.368880
0.998801 0.830754 0.384452
1.000000 0.832453 0.404839
0.000000 0.577977 0.490418
0.000000 0.618932 0.499562
0.134120 0.670302 0.499842
0.473350 0.735909 0.503311
0.692857 0.789801 0.500810
0.861889 0.826875 0.496609
0.959364 0.848420 0.501534
0.996286 0.858282 0.514528
1.000000 0.861974 0.539627
0.000263 0.000000 0.244704
0.022039 0.000000 0.229756
0.079829 0.000040 0.241697
0.210679 0.001727 0.253808
0.370502 0.000000 0.257417
0.511689 0.000000 0.262314
0.599077 0.000000 0.275565
0.639989 0.000000 0.295659
0.657757 0.000000 0.317231
0.000040 0.028521 0.255552
0.008716 0.046415 0.238286
0.089734 0.055546 0.252730
0.235277 0.083627 0.265873
0.409073 0.093746 0.266272
0.550454 0.060589 0.265988
0.635807 0.000000 0.274627
0.673778 0.000000 0.296559
0.689384 0.000000 0.318874
0.000000 0.139803 0.308827
0.000000 0.131649 0.286007
0.074360 0.149376 0.296449
0.274003 0.178823 0.309242
0.465722 0.198067 0.308431
0.616791 0.198316 0.306072
0.699521 0.193578 0.309415
0.734431 0.201048 0.328855
0.750367 0.215646 0.358216
0.000000 0.274141 0.364558
0.000000 0.260836 0.343865
0.000000 0.280389 0.350915
0.312042 0.320002 0.358075
0.527606 0.347434 0.356132
0.687135 0.354993 0.352275
0.772461 0.357329 0.354701
0.806414 0.369175 0.378453
0.819144 0.383857 0.403022
0.000000 0.420396 0.419039
0.000000 0.411739 0.405892
0.000000 0.440045 0.410695
0.342769 0.495707 0.413369
0.589737 0.536066 0.411007
0.758203 0.550355 0.405793
0.848660 0.556101 0.408031
0.882543 0.567023 0.430288
0.894513 0.582021 0.457326
0.000000 0.522783 0.472766
0.000000 0.523925 0.463002
0.000000 0.564884 0.469146
0.365581 0.635857 0.470008
0.640088 0.693331 0.467406
0.822878 0.720601 0.462049
0.918783 0.732086 0.464365
0.953110 0.742256 0.483714
0.962974 0.752950 0.512930
0.000000 0.565177 0.523371
0.000000 0.574266 0.516213
0.000000 0.623431 0.525728
0.378347 0.700119 0.523886
0.657323 0.765988 0.525665
0.848086 0.803961 0.521731
0.949393 0.821972 0.522751
0.984644 0.832079 0.540517
0.992847 0.838086 0.563940
0.000000 0.581543 0.568617
0.000000 0.602280 0.572498
0.000000 0.655046 0.580877
0.392944 0.728592 0.580345
0.664392 0.793003 0.584921
0.852693 0.833713 0.583812
0.954526 0.854628 0.586177
0.990851 0.864129 0.599475
0.999524 0.869795 0.621423
0.000000 0.606798 0.637216
0.000000 0.648606 0.650780
0.000000 0.698253 0.655129
0.444112 0.761278 0.663522
0.678658 0.815357 0.669427
0.853547 0.854177 0.672266
0.952799 0.876599 0.680682
0.990239 0.886440 0.692852
0.999923 0.892617 0.715295
0.000000 0.000000 0.370715
0.000000 0.000000 0.357766
0.047121 0.000000 0.370191
0.221319 0.000000 0.391588
0.388287 0.000000 0.402785
0.527731 0.000000 0.410364
0.613528 0.000000 0.422592
0.653995 0.000000 0.442344
0.670699 0.000000 0.460333
0.000000 0.000000 0.394919
0.000000 0.000000 0.376648
0.071099 0.000000 0.392439
0.241575 0.000000 0.412557
0.416975 0.000000 0.418889
0.562969 0.000077 0.424312
0.648791 0.000000 0.434519
0.687451 0.000000 0.459220
0.701943 0.000000 0.479249
0.000000 0.107110 0.447527
0.000000 0.104734 0.431436
0.000386 0.143611 0.447711
0.271472 0.174166 0.470050
0.468026 0.192180 0.474961
0.620176 0.190577 0.475192
0.703053 0.185330 0.481354
0.737608 0.193773 0.501876
0.753247 0.209723 0.528325
0.000000 0.287899 0.522792
0.000000 0.277694 0.508274
0.000000 0.297899 0.518899
0.296779 0.337252 0.531800
0.525349 0.363253 0.537849
0.688071 0.369550 0.537191
0.774421 0.371991 0.542000
0.807395 0.383196 0.563385
0.820444 0.399487 0.586579
0.000000 0.454333 0.589548
0.000000 0.443134 0.577341
0.000000 0.473296 0.589981
0.311588 0.526004 0.596588
0.580766 0.564364 0.603011
0.755718 0.578691 0.604041
0.848248 0.584662 0.608934
0.883005 0.597325 0.631369
0.895194 0.612014 0.652309
0.000000 0.558361 0.640414
0.000000 0.560490 0.636585
0.000000 0.601558 0.649442
0.322365 0.668959 0.654461
0.624927 0.725909 0.663174
0.817039 0.755886 0.667668
0.915405 0.767859 0.672518
0.950736 0.778265 0.690863
0.960992 0.788289 0.713384
0.000000 0.597088 0.681036
0.000000 0.606730 0.680053
0.000000 0.655607 0.693964
0.333105 0.729660 0.698991
0.641337 0.796429 0.712851
0.839710 0.836656 0.718671
0.944303 0.856458 0.724632
0.980576 0.866092 0.739491
0.989535 0.872033 0.758219
0.000000 0.608812 0.711570
0.000000 0.628314 0.717530
0.000000 0.682812 0.734280
0.350222 0.753285 0.738709
0.646982 0.818166 0.753018
0.844283 0.862261 0.762149
0.950844 0.886304 0.772943
0.987992 0.895098 0.781326
0.997423 0.900084 0.797579
0.000000 0.626244 0.749957
0.000000 0.668475 0.768665
0.000000 0.718686 0.777051
0.412741 0.778270 0.788336
0.665187 0.834703 0.804225
0.848087 0.877555 0.816804
0.951187 0.901470 0.827180
0.989774 0.911679 0.839823
0.999481 0.915779 0.852091
0.000000 0.000000 0.458809
0.000000 0.000000 0.451209
0.000000 0.000000 0.467477
0.219794 0.000000 0.493060
0.397973 0.000000 0.512009
0.541577 0.000000 0.525196
0.627694 0.000000 0.537376
0.669159 0.000000 0.553887
0.687024 0.000000 0.570100
0.000000 0.000000 0.494943
0.000000 0.000000 0.483659
0.000000 0.000000 0.500696
0.244058 0.000000 0.527144
0.429769 0.000000 0.543180
0.577425 0.000000 0.553166
0.665032 0.000000 0.565377
0.703774 0.000000 0.584646
0.718505 0.000000 0.602042
0.000000 0.000000 0.547116
0.000000 0.000000 0.537796
0.000000 0.110469 0.559288
0.266788 0.158799 0.589731
0.468318 0.175591 0.603410
0.623647 0.173177 0.609591
0.708996 0.165873 0.617528
0.744266 0.175903 0.635038
0.760155 0.197407 0.654429
0.000000 0.289408 0.632260
0.000000 0.275467 0.622512
0.000000 0.300722 0.640243
0.280476 0.345763 0.658150
0.520457 0.370125 0.672199
0.687913 0.376782 0.679154
0.777834 0.381075 0.686133
0.811912 0.392414 0.703879
0.824834 0.409376 0.721093
0.000000 0.468634 0.703703
0.000000 0.461613 0.699378
0.000000 0.491681 0.716162
0.275808 0.542207 0.725661
0.569991 0.581476 0.742231
0.754498 0.599673 0.753209
0.851229 0.606406 0.761415
0.887143 0.618868 0.779272
0.899505 0.632573 0.793456
0.000000 0.576368 0.749570
0.000000 0.579091 0.750802
0.000000 0.621710 0.770887
0.260421 0.686870 0.778956
0.609996 0.746245 0.800303
0.812797 0.780721 0.815787
0.916391 0.794607 0.825217
0.953118 0.804850 0.839693
0.963495 0.812834 0.851919
0.000000 0.610996 0.775363
0.000000 0.623636 0.782197
0.000000 0.671468 0.800152
0.271558 0.744337 0.810497
0.624868 0.813773 0.835574
0.833947 0.859285 0.853868
0.944155 0.881615 0.865656
0.981450 0.890382 0.875525
0.990602 0.894878 0.886590
0.000000 0.621200 0.791293
0.000000 0.642916 0.804289
0.000000 0.694185 0.821865
0.309389 0.764251 0.832466
0.632137 0.832287 0.858806
0.838558 0.880838 0.878114
0.949493 0.906424 0.892262
0.988094 0.915437 0.900255
0.997864 0.919314 0.909123
0.000000 0.634895 0.811852
0.000000 0.676048 0.832310
0.000000 0.727403 0.844094
0.387192 0.785526 0.857906
0.653606 0.844865 0.882812
0.843468 0.891315 0.904571
0.949762 0.916222 0.918076
0.989719 0.926175 0.927274
0.999711 0.929250 0.933177
0.000000 0.000000 0.503284
0.000000 0.000000 0.499946
0.000000 0.000000 0.518702
0.215644 0.000000 0.546623
0.400268 0.000000 0.570955
0.548205 0.000000 0.589252
0.637340 0.000000 0.603072
0.679021 0.000000 0.615925
0.696796 0.000000 0.628015
0.000000 0.000000 0.547530
0.000000 0.000000 0.541563
0.000000 0.000000 0.561719
0.240684 0.000000 0.589433
0.433893 0.000000 0.612543
0.586220 0.000000 0.627411
0.675886 0.000000 0.640799
0.715162 0.000000 0.655934
0.728928 0.000000 0.667631
0.000000 0.000000 0.601685
0.000000 0.000000 0.598877
0.000000 0.059916 0.616940
0.260460 0.143954 0.651194
0.466768 0.161601 0.671399
0.626119 0.156611 0.684803
0.713550 0.143742 0.693722
0.749166 0.159381 0.706443
0.764863 0.191134 0.720688
0.000000 0.286838 0.683151
0.000000 0.271366 0.678446
0.000000 0.298405 0.699409
0.266264 0.347563 0.720200
0.516062 0.373487 0.742410
0.687645 0.381512 0.756315
0.779851 0.385474 0.765185
0.814128 0.395893 0.776848
0.828010 0.415444 0.789435
0.000000 0.475711 0.756075
0.000000 0.466115 0.754583
0.000000 0.498154 0.775393
0.242611 0.548664 0.787272
0.562794 0.590738 0.812918
0.752696 0.610480 0.830713
0.852893 0.618101 0.842299
0.889218 0.628713 0.853617
0.902443 0.643471 0.863580
0.000000 0.583135 0.796776
0.000000 0.586360 0.802257
0.000000 0.628567 0.824177
0.167735 0.692463 0.834771
0.599641 0.755003 0.865477
0.809597 0.792697 0.888991
0.916549 0.807748 0.901979
0.954401 0.816971 0.911122
0.964910 0.824377 0.918128
0.000000 0.614144 0.811241
0.000000 0.628526 0.823415
0.000000 0.676225 0.843012
0.203742 0.748212 0.856495
0.614825 0.820423 0.889759
0.829451 0.869145 0.915895
0.942896 0.892581 0.930684
0.981922 0.901236 0.937897
0.991322 0.904964 0.943555
0.000000 0.623549 0.819638
0.000000 0.644566 0.834448
0.000000 0.698025 0.855680
0.280795 0.767295 0.868474
0.622812 0.837282 0.901205
0.834357 0.888373 0.927700
0.948510 0.914907 0.943756
0.988425 0.924020 0.950628
0.997917 0.926941 0.954987
0.000000 0.635461 0.831667
0.000000 0.677545 0.853456
0.000000 0.729012 0.866970
0.369821 0.786348 0.881720
0.644944 0.846980 0.910876
0.838698 0.895392 0.937341
0.948471 0.921978 0.953517
0.989289 0.931449 0.960518
1.000000 0.934316 0.963906
0.000000 0.000000 0.520819
0.000000 0.000000 0.520408
0.000000 0.000000 0.540557
0.212532 0.000000 0.570569
0.400071 0.000000 0.597151
0.549859 0.000000 0.617601
0.643290 0.000000 0.633854
0.684306 0.000000 0.644023
0.700710 0.000000 0.652104
0.000000 0.000000 0.569542
0.000000 0.000000 0.568585
0.000000 0.000000 0.588597
0.237269 0.000000 0.617180
0.434938 0.000000 0.643580
0.590080 0.000000 0.661788
0.681228 0.000000 0.674592
0.719996 0.000000 0.686998
0.734381 0.000000 0.696476
0.000000 0.000000 0.623052
0.000000 0.000000 0.622705
0.000000 0.046848 0.642243
0.256227 0.145813 0.678080
0.465367 0.162638 0.702041
0.626948 0.154229 0.718170
0.716008 0.138982 0.727768
0.752231 0.159182 0.738023
0.768898 0.196135 0.750213
0.000000 0.285398 0.699760
0.000000 0.273851 0.700559
0.000000 0.302726 0.722720
0.258815 0.350782 0.744563
0.512140 0.378052 0.770905
0.686103 0.385936 0.788005
0.781077 0.390816 0.799207
0.815581 0.399893 0.807186
0.829816 0.421134 0.816891
0.000000 0.477130 0.772769
0.000000 0.466851 0.772677
0.000000 0.500221 0.794705
0.217797 0.551282 0.809049
0.556613 0.594845 0.839550
0.750510 0.616112 0.861374
0.853381 0.624425 0.874627
0.890874 0.634812 0.882410
0.904659 0.651159 0.890796
0.000000 0.586839 0.812371
0.000000 0.588480 0.819047
0.000000 0.629530 0.839810
0.157575 0.694813 0.854324
0.591888 0.757984 0.888234
0.806633 0.798149 0.916228
0.916041 0.813195 0.930108
0.955134 0.822754 0.937285
0.965818 0.829758 0.941837
0.000000 0.619412 0.825125
0.000000 0.628495 0.833788
0.000000 0.677329 0.856078
0.165319 0.748670 0.871051
0.605946 0.821682 0.906778
0.826094 0.872681 0.936931
0.941842 0.896623 0.952823
0.981809 0.905116 0.959195
0.991504 0.908468 0.962426
0.000000 0.626123 0.829215
0.000000 0.645652 0.843389
0.000000 0.697730 0.863711
0.260926 0.766995 0.878404
0.617272 0.838098 0.913582
0.831129 0.890626 0.943338
0.946696 0.917406 0.959817
0.988096 0.926724 0.966399
0.997922 0.929439 0.968695
0.000000 0.636161 0.836908
0.000000 0.677217 0.859782
0.000000 0.728992 0.873723
0.362010 0.786326 0.888522
0.638312 0.847611 0.919502
0.834585 0.896533 0.947194
0.946947 0.923347 0.963460
0.988757 0.933063 0.970092
1.000000 0.935928 0.972698
0.000000 0.000000 0.529673
0.000000 0.000000 0.531146
0.000000 0.000000 0.550362
0.209326 0.000000 0.579788
0.399234 0.000000 0.608479
0.552482 0.000000 0.630818
0.645642 0.000000 0.646164
0.688680 0.000000 0.656788
0.706498 0.000000 0.666073
0.000000 0.000000 0.582992
0.000000 0.000000 0.582947
0.000000 0.000000 0.602747
0.235600 0.000000 0.632558
0.434700 0.000000 0.659792
0.592737 0.000000 0.679353
0.686920 0.000000 0.693957
0.725232 0.000000 0.703984
0.739833 0.000000 0.713618
0.000000 0.000000 0.632586
0.000000 0.000000 0.633564
0.000000 0.060967 0.654241
0.252662 0.161916 0.691066
0.465022 0.179692 0.717989
0.629013 0.175009 0.734811
0.721277 0.166922 0.745558
0.757227 0.180320 0.753815
0.774051 0.213657 0.764534
0.000000 0.298527 0.710587
0.000000 0.277601 0.708060
0.000000 0.307643 0.731041
0.249670 0.359420 0.754440
0.509069 0.386453 0.782605
0.686475 0.396257 0.801862
0.782064 0.399455 0.812727
0.818530 0.410391 0.820827
0.832579 0.429870 0.828557
0.000000 0.483484 0.780809
0.000000 0.472568 0.781224
0.000000 0.504880 0.802856
0.178871 0.555394 0.816579
0.551324 0.599419 0.848764
0.748510 0.622356 0.872895
0.854089 0.631705 0.886671
0.892554 0.641537 0.893838
0.906405 0.656726 0.900364
0.000000 0.586845 0.816455
0.000000 0.590199 0.824991
0.000000 0.630612 0.844995
0.147066 0.696064 0.860319
0.585041 0.759516 0.895345
0.802346 0.800430 0.924634
0.915344 0.817075 0.939622
0.955666 0.826051 0.946424
0.966985 0.833817 0.949916
0.000000 0.619898 0.828173
0.000000 0.628559 0.837025
0.000000 0.677005 0.860272
0.157155 0.748311 0.875081
0.601469 0.822043 0.911711
0.822354 0.873395 0.942940
0.940200 0.898003 0.959419
0.981563 0.906659 0.966090
0.991683 0.909976 0.968146
0.000000 0.625824 0.830849
0.000000 0.646308 0.846975
0.000000 0.697327 0.866467
0.240480 0.765959 0.880742
0.609437 0.837181 0.916319
0.826539 0.890303 0.947020
0.945235 0.918084 0.964389
0.987615 0.927690 0.971106
0.998133 0.930472 0.973328
0.000000 0.636260 0.838305
0.000000 0.677296 0.861218
0.000000 0.727962 0.875175
0.353069 0.785208 0.889668
0.632782 0.846541 0.920917
0.831084 0.896257 0.949549
0.945209 0.923567 0.966338
0.988694 0.933935 0.973373
0.999949 0.936341 0.975408
