Film Looks/DCI-P3 Kodak 2383 D60.cube
# Resolve Film Look LUT
#   Input: Cineon Log 
#        : floating point data (range 0.0 - 1.0)
#  Output: Kodak 2383 film stock 'look' with D60 White Point
#        : floating point data (range 0.0 - 1.0)
# Display: DCI-P3, Gamma 2.6
LUT_3D_SIZE 9
LUT_3D_INPUT_RANGE 0.0 1.0
0.042662 0.043632 0.053300
0.054764 0.047371 0.056514
0.090016 0.056915 0.058322
0.186390 0.076677 0.060412
0.342164 0.090816 0.062535
0.484967 0.082348 0.068824
0.567703 0.054782 0.074578
0.606880 0.007684 0.077858
0.625585 0.000000 0.080314
0.046216 0.054774 0.058379
0.056499 0.057694 0.061029
0.098964 0.069274 0.063211
0.209621 0.091968 0.064961
0.378979 0.109705 0.067099
0.527194 0.106705 0.073729
0.607506 0.092905 0.079025
0.642702 0.090423 0.081650
0.659365 0.099335 0.083574
0.037187 0.087783 0.070783
0.055473 0.092094 0.073488
0.112161 0.107449 0.075951
0.241264 0.136199 0.076982
0.428803 0.162304 0.077693
0.583345 0.169865 0.081253
0.661076 0.168034 0.085064
0.694775 0.175594 0.087237
0.711804 0.189104 0.089269
0.000000 0.168046 0.094913
0.000000 0.174682 0.095575
0.123794 0.198196 0.096687
0.286436 0.240368 0.094240
0.496746 0.279257 0.088935
0.660494 0.297522 0.087754
0.738462 0.302114 0.089114
0.770687 0.312708 0.090346
0.788425 0.332276 0.091798
0.000000 0.285695 0.121317
0.000000 0.299156 0.122578
0.106784 0.334718 0.117858
0.335464 0.397941 0.108277
0.573702 0.456125 0.087499
0.749558 0.485931 0.069667
0.829680 0.492831 0.064546
0.861269 0.503752 0.063823
0.876980 0.521744 0.056836
0.000000 0.386997 0.140418
0.000000 0.407923 0.140674
0.060287 0.454550 0.130386
0.372300 0.536115 0.109412
0.633459 0.613866 0.040577
0.824575 0.661295 0.000000
0.910771 0.675457 0.000000
0.942038 0.684329 0.000000
0.953888 0.694073 0.000000
0.000000 0.436267 0.149621
0.000000 0.463978 0.148679
0.052499 0.514794 0.134079
0.392837 0.603869 0.106617
0.663263 0.693448 0.000000
0.861317 0.751194 0.000000
0.952550 0.772091 0.000000
0.984177 0.779812 0.000000
0.994026 0.784294 0.000000
0.000000 0.458548 0.157655
0.000000 0.494992 0.154041
0.119998 0.546928 0.139361
0.417139 0.633957 0.112046
0.678240 0.721932 0.000000
0.873381 0.781370 0.000000
0.966368 0.805309 0.000000
0.999369 0.813410 0.000000
1.000000 0.812779 0.000000
0.000000 0.490168 0.178558
0.000000 0.537423 0.171930
0.244880 0.588263 0.163733
0.467431 0.664636 0.145897
0.699320 0.740481 0.109895
0.875767 0.789560 0.046789
0.966824 0.812967 0.000000
1.000000 0.820933 0.000000
1.000000 0.818502 0.000000
0.042681 0.045302 0.063603
0.055090 0.048546 0.067281
0.091977 0.058075 0.069991
0.194502 0.079009 0.073272
0.353646 0.091527 0.076461
0.497300 0.081182 0.082504
0.579113 0.047583 0.087378
0.618319 0.000000 0.091066
0.636752 0.000000 0.094352
0.043624 0.056964 0.070222
0.058362 0.060109 0.072840
0.101689 0.072333 0.076475
0.217452 0.095351 0.079324
0.391041 0.112540 0.082726
0.540151 0.108153 0.088140
0.619796 0.093624 0.092574
0.654572 0.092024 0.096044
0.670991 0.101697 0.099445
0.030577 0.092560 0.084627
0.055128 0.096891 0.087347
0.114531 0.112694 0.090964
0.250582 0.142656 0.093376
0.442022 0.168770 0.095522
0.597388 0.176217 0.099347
0.674543 0.174530 0.102662
0.707814 0.181802 0.105631
0.725286 0.197845 0.109710
0.000000 0.178423 0.112408
0.000000 0.185456 0.113473
0.124337 0.209775 0.114758
0.296714 0.253687 0.114798
0.512064 0.293076 0.112199
0.676866 0.311088 0.111995
0.754403 0.315452 0.113320
0.786190 0.326982 0.115426
0.804155 0.347718 0.119719
0.000000 0.301572 0.142206
0.000000 0.315922 0.143827
0.091110 0.352423 0.139647
0.345653 0.418225 0.134078
0.590244 0.477803 0.121239
0.767492 0.507408 0.111393
0.847285 0.514272 0.108914
0.878492 0.525758 0.110050
0.894163 0.544245 0.112784
0.000000 0.404424 0.164297
0.000000 0.426479 0.165124
0.007792 0.473937 0.156467
0.380221 0.557561 0.143057
0.649187 0.637115 0.113648
0.838880 0.680510 0.080468
0.923756 0.693482 0.063141
0.954055 0.701120 0.061489
0.965598 0.711287 0.068094
0.000000 0.452225 0.177904
0.000000 0.480559 0.177829
0.000000 0.532515 0.167044
0.398197 0.622576 0.151188
0.674806 0.711252 0.114037
0.870353 0.763131 0.059835
0.960392 0.782514 0.000000
0.991070 0.789317 0.000000
0.999273 0.793022 0.032323
0.000000 0.475512 0.198739
0.000000 0.511946 0.197769
0.081997 0.563455 0.188541
0.416876 0.650993 0.176157
0.685724 0.738368 0.150121
0.879497 0.791619 0.119559
0.971423 0.812854 0.098870
1.000000 0.818355 0.090667
1.000000 0.816547 0.087006
0.000000 0.514074 0.260992
0.000000 0.561045 0.262133
0.203812 0.609904 0.260630
0.458362 0.686552 0.259294
0.700891 0.762286 0.252369
0.881874 0.811175 0.244238
0.973186 0.832586 0.240951
1.000000 0.836936 0.238294
1.000000 0.834244 0.243818
0.039543 0.045192 0.102261
0.053466 0.048733 0.105680
0.093186 0.058114 0.110926
0.197441 0.078842 0.117617
0.360363 0.091207 0.122895
0.506535 0.078514 0.127854
0.589200 0.025548 0.131374
0.629509 0.000000 0.137088
0.647970 0.000000 0.143453
0.036608 0.059699 0.111802
0.054213 0.061768 0.114591
0.101204 0.074670 0.120789
0.220664 0.097518 0.127877
0.398349 0.114322 0.133587
0.550267 0.108769 0.138154
0.630851 0.093159 0.141459
0.665684 0.092096 0.146279
0.681856 0.102411 0.153031
0.000000 0.100905 0.133239
0.032901 0.104205 0.134917
0.110921 0.119890 0.141814
0.253365 0.149410 0.149348
0.449554 0.175272 0.154681
0.607611 0.181605 0.157776
0.685995 0.179717 0.160286
0.719537 0.187791 0.164778
0.736757 0.204796 0.173565
0.000000 0.193842 0.168601
0.000000 0.200136 0.169741
0.107348 0.223200 0.173572
0.297343 0.266831 0.180246
0.519288 0.306100 0.183463
0.687778 0.323987 0.184624
0.766136 0.327600 0.185768
0.798146 0.339383 0.189979
0.815963 0.361310 0.199103
0.000000 0.323173 0.206289
0.000000 0.337445 0.209012
0.000000 0.372471 0.208050
0.341155 0.438190 0.212003
0.595832 0.497945 0.210902
0.777463 0.527083 0.208147
0.858759 0.533649 0.207434
0.889891 0.544878 0.211129
0.905267 0.564150 0.219745
0.000000 0.428985 0.234844
0.000000 0.450968 0.237790
0.000000 0.498463 0.236330
0.369586 0.580244 0.234881
0.651185 0.660035 0.229020
0.846674 0.703688 0.222156
0.933409 0.716477 0.219621
0.963737 0.723760 0.222319
0.975009 0.734290 0.230972
0.000000 0.477450 0.258116
0.000000 0.505747 0.261243
0.000180 0.557542 0.259951
0.381760 0.644751 0.257296
0.673144 0.733800 0.250754
0.874775 0.785809 0.242212
0.966482 0.804529 0.238352
0.997654 0.811264 0.240773
1.000000 0.812452 0.245557
0.000000 0.502582 0.296253
0.000000 0.539233 0.301987
0.000000 0.589838 0.302155
0.394479 0.674187 0.302635
0.679796 0.761722 0.301228
0.879969 0.815018 0.295790
0.974103 0.835956 0.291748
1.000000 0.839687 0.289258
1.000000 0.838175 0.293216
0.000000 0.541646 0.375831
0.000000 0.588728 0.385707
0.064506 0.633944 0.387362
0.435049 0.710054 0.397251
0.692147 0.785709 0.402869
0.878070 0.834378 0.403928
0.971048 0.855439 0.403422
1.000000 0.860163 0.402681
1.000000 0.858082 0.406334
0.030466 0.009758 0.194108
0.046224 0.012072 0.198989
0.091329 0.035912 0.211289
0.201529 0.062094 0.226460
0.368515 0.076183 0.237725
0.516112 0.043831 0.244651
0.602008 0.000000 0.250811
0.642369 0.000000 0.257924
0.660348 0.000000 0.266727
0.000000 0.049472 0.210610
0.032164 0.055856 0.215346
0.097509 0.066235 0.228691
0.224148 0.090316 0.245022
0.406862 0.107752 0.257386
0.560573 0.099770 0.263974
0.641385 0.079645 0.267262
0.675554 0.077794 0.273234
0.691834 0.091685 0.282866
0.000000 0.106780 0.247041
0.000013 0.111028 0.251174
0.097059 0.128087 0.262240
0.254397 0.156073 0.280164
0.457068 0.181000 0.293113
0.617647 0.186958 0.298512
0.696384 0.184732 0.301146
0.729546 0.194305 0.306665
0.746334 0.212005 0.318113
0.000000 0.214407 0.295814
0.000000 0.224399 0.302992
0.000000 0.245042 0.309425
0.290999 0.286976 0.327192
0.523796 0.324965 0.340031
0.695931 0.341955 0.344794
0.774810 0.344613 0.345890
0.806748 0.356776 0.351389
0.823935 0.379713 0.362779
0.000000 0.355695 0.345991
0.000000 0.370344 0.353743
0.000000 0.406252 0.362233
0.320748 0.467105 0.375156
0.594345 0.525832 0.387334
0.781345 0.554197 0.390551
0.864198 0.560092 0.390651
0.895280 0.570748 0.395108
0.910132 0.591077 0.405373
0.000000 0.466554 0.383204
0.000000 0.488689 0.391057
0.000000 0.536270 0.400860
0.335684 0.613058 0.410240
0.643771 0.692671 0.421650
0.845577 0.735165 0.424066
0.934575 0.747426 0.423987
0.965360 0.754588 0.426995
0.975988 0.765068 0.436170
0.000000 0.516040 0.412364
0.000000 0.544252 0.421146
0.000000 0.595870 0.431487
0.340285 0.677912 0.439625
0.661289 0.766752 0.451668
0.870089 0.817786 0.454107
0.964312 0.835956 0.453602
0.995910 0.842555 0.456486
0.999996 0.844516 0.461580
0.000000 0.539931 0.454970
0.000000 0.576038 0.467498
0.000000 0.626702 0.477928
0.349717 0.705724 0.487285
0.665237 0.792939 0.502026
0.872690 0.845631 0.506098
0.969128 0.866183 0.505569
1.000000 0.871798 0.506032
1.000000 0.869938 0.508215
0.000000 0.572897 0.520100
0.000000 0.620234 0.537605
0.000207 0.665380 0.544916
0.400644 0.736813 0.559172
0.677693 0.811852 0.574961
0.869658 0.860046 0.582613
0.965069 0.880712 0.583770
1.000000 0.888008 0.585446
1.000000 0.885535 0.586298
0.000000 0.000000 0.315988
0.000000 0.000000 0.321057
0.084086 0.000000 0.335815
0.211949 0.000000 0.358883
0.382842 0.000000 0.377900
0.534486 0.000000 0.392203
0.619734 0.000000 0.399588
0.659205 0.000000 0.407240
0.676970 0.000000 0.416238
0.000000 0.000000 0.337322
0.000000 0.000000 0.342624
0.091203 0.000000 0.358581
0.229449 0.018129 0.383153
0.415929 0.060630 0.403524
0.571273 0.014228 0.415202
0.654563 0.000000 0.422273
0.688402 0.000000 0.428769
0.702568 0.000000 0.437761
0.000000 0.065248 0.375306
0.000000 0.085333 0.384244
0.056688 0.126706 0.402956
0.255180 0.153643 0.431560
0.464245 0.177561 0.453384
0.626408 0.182106 0.463289
0.705206 0.179638 0.467165
0.738291 0.190784 0.473793
0.755113 0.211997 0.485910
0.000000 0.230069 0.447219
0.000000 0.235853 0.454496
0.000069 0.263885 0.471589
0.279894 0.304747 0.494149
0.526229 0.341337 0.517013
0.701340 0.357301 0.526777
0.781144 0.359535 0.529216
0.812963 0.371935 0.534830
0.830006 0.396386 0.546743
0.000000 0.384770 0.509521
0.000000 0.398761 0.519212
0.000000 0.437065 0.536946
0.290476 0.494228 0.554692
0.588548 0.552004 0.578726
0.780763 0.579235 0.588193
0.865219 0.584387 0.589991
0.896679 0.595019 0.594404
0.911185 0.615222 0.603634
0.000000 0.501620 0.552519
0.000000 0.523551 0.564456
0.000000 0.571323 0.582011
0.282903 0.643264 0.596282
0.630569 0.722282 0.621530
0.839120 0.763874 0.631682
0.930542 0.775637 0.633847
0.962052 0.782666 0.636645
0.972655 0.792679 0.643198
0.000000 0.550014 0.579080
0.000000 0.578813 0.593271
0.000000 0.630459 0.610712
0.274107 0.707697 0.623783
0.644767 0.795932 0.649763
0.861209 0.846452 0.660761
0.957731 0.864417 0.663036
0.990251 0.870633 0.665536
0.999323 0.874762 0.670215
0.000000 0.571604 0.613321
0.000000 0.607234 0.630213
0.000000 0.657954 0.646330
0.291067 0.732846 0.659773
0.648976 0.819504 0.686473
0.863070 0.871469 0.698223
0.961903 0.891943 0.701030
0.996735 0.898951 0.702840
1.000000 0.898194 0.703939
0.000000 0.599787 0.659224
0.000000 0.646800 0.679387
0.000000 0.691869 0.690894
0.362924 0.759544 0.707376
0.664031 0.833981 0.731722
0.861307 0.881524 0.744866
0.958740 0.902302 0.748779
0.995446 0.909537 0.749879
1.000000 0.908564 0.750175
0.000000 0.000000 0.420230
0.000000 0.000000 0.426867
0.039990 0.000000 0.440458
0.217123 0.000000 0.470883
0.398822 0.000000 0.497649
0.551411 0.000000 0.515602
0.637190 0.000000 0.524897
0.676452 0.000000 0.533575
0.693836 0.000000 0.541807
0.000000 0.000000 0.448661
0.000000 0.000000 0.455787
0.047366 0.000000 0.470686
0.236254 0.000000 0.503472
0.430560 0.000000 0.530846
0.589248 0.000000 0.548241
0.672573 0.000000 0.556765
0.706458 0.000000 0.563942
0.720474 0.000000 0.572990
0.000000 0.000198 0.489779
0.000000 0.000000 0.497592
0.001928 0.104207 0.519204
0.254094 0.138790 0.555195
0.468247 0.161668 0.584693
0.632928 0.165034 0.599474
0.712799 0.160872 0.604943
0.746275 0.175016 0.612137
0.763245 0.202007 0.624011
0.000000 0.217688 0.563813
0.000000 0.227873 0.575647
0.000000 0.265843 0.599485
0.266641 0.312622 0.627012
0.525061 0.348192 0.658647
0.703750 0.363320 0.673584
0.785321 0.365209 0.677657
0.817707 0.377661 0.683415
0.834729 0.403743 0.694582
0.000000 0.396438 0.638954
0.000000 0.412439 0.652259
0.000000 0.453755 0.675625
0.252695 0.509191 0.695331
0.579709 0.566138 0.729168
0.777557 0.592869 0.744512
0.864655 0.597858 0.748434
0.896806 0.607984 0.752465
0.911589 0.628775 0.760561
0.000000 0.521904 0.687488
0.000000 0.543410 0.701015
0.000000 0.591974 0.723806
0.167720 0.661312 0.740684
0.615395 0.739814 0.776687
0.831619 0.781252 0.793629
0.925725 0.792737 0.797850
0.958763 0.799808 0.800758
0.969860 0.809837 0.805248
0.000000 0.572176 0.711609
0.000000 0.600011 0.726215
0.000000 0.652342 0.749393
0.155746 0.727035 0.765381
0.627500 0.814605 0.801254
0.852049 0.865155 0.819489
0.951714 0.883199 0.824773
0.985872 0.889408 0.826943
0.995592 0.893542 0.829729
0.000000 0.589505 0.732568
0.000000 0.627051 0.752771
0.000000 0.677454 0.772744
0.169164 0.749917 0.788162
0.632428 0.836441 0.824036
0.854203 0.888659 0.842706
0.956158 0.909613 0.848754
0.992366 0.916654 0.850754
1.000000 0.917815 0.851622
0.000000 0.614711 0.761648
0.000000 0.662898 0.785135
0.000000 0.708379 0.799163
0.329884 0.773770 0.817021
0.650775 0.848181 0.848434
0.853623 0.895831 0.866512
0.953759 0.916967 0.873214
0.991961 0.924535 0.874922
1.000000 0.925004 0.875009
0.000000 0.000000 0.486062
0.000000 0.000000 0.493214
0.000000 0.000000 0.508609
0.217742 0.000000 0.540975
0.408824 0.000000 0.573156
0.564723 0.000000 0.594390
0.651397 0.000000 0.606333
0.690587 0.000000 0.615429
0.707671 0.000000 0.622774
0.000000 0.000000 0.521033
0.000000 0.000000 0.529410
0.000000 0.000000 0.545696
0.238307 0.000000 0.580893
0.441250 0.000000 0.614054
0.603316 0.000000 0.634881
0.687192 0.000000 0.644580
0.721168 0.000000 0.651978
0.735197 0.000000 0.660704
0.000000 0.000000 0.563657
0.000000 0.000000 0.572519
0.000000 0.061526 0.592071
0.252707 0.129979 0.632076
0.472096 0.154935 0.666957
0.639298 0.156107 0.685699
0.720592 0.149554 0.692709
0.754401 0.167806 0.700148
0.771742 0.199424 0.711952
0.000000 0.201553 0.632610
0.000000 0.222217 0.648156
0.000000 0.260892 0.673063
0.255886 0.317431 0.705800
0.523221 0.352306 0.743262
0.705029 0.367172 0.762343
0.788713 0.368722 0.768326
0.821758 0.380626 0.774092
0.838964 0.408560 0.784507
0.000000 0.401819 0.715705
0.000000 0.413929 0.726533
0.000000 0.457918 0.753804
0.215834 0.514877 0.775663
0.571709 0.571129 0.816150
0.774135 0.598024 0.836406
0.863496 0.602549 0.842075
0.896713 0.612087 0.846041
0.911735 0.633335 0.853087
0.000000 0.529741 0.764428
0.000000 0.552449 0.779268
0.000000 0.600789 0.804469
0.132988 0.668944 0.823461
0.603465 0.746159 0.865021
0.824942 0.787738 0.886985
0.922009 0.799276 0.893522
0.956473 0.806151 0.896511
0.967731 0.815867 0.899230
0.000000 0.579549 0.783083
0.000000 0.609727 0.802630
0.000000 0.661977 0.825982
0.114517 0.735800 0.844860
0.614234 0.822368 0.885985
0.844627 0.873359 0.909385
0.947285 0.891608 0.917411
0.983261 0.898064 0.919915
0.993564 0.901892 0.921257
0.000000 0.600507 0.799300
0.000000 0.635362 0.818838
0.000000 0.685756 0.839649
0.136049 0.757587 0.857611
0.619207 0.843320 0.897854
0.846931 0.896317 0.921421
0.952190 0.917771 0.930201
0.989897 0.925138 0.932710
0.999989 0.927086 0.933486
0.000000 0.623547 0.816111
0.000000 0.670850 0.839142
0.000000 0.715736 0.855033
0.296114 0.779170 0.872921
0.640525 0.853845 0.908837
0.847203 0.902030 0.930440
0.950067 0.923743 0.939405
0.990008 0.931599 0.942389
1.000000 0.932969 0.942528
0.000000 0.000000 0.524118
0.000000 0.000000 0.532011
0.000000 0.000000 0.548513
0.224957 0.000000 0.581999
0.423770 0.000000 0.616837
0.583241 0.000000 0.640624
0.669671 0.000000 0.652537
0.707007 0.000000 0.661108
0.722457 0.000000 0.667732
0.000000 0.000000 0.563804
0.000000 0.000000 0.573580
0.000000 0.000000 0.590674
0.243730 0.000024 0.626783
0.452139 0.000000 0.662323
0.616736 0.000038 0.684172
0.700803 0.000021 0.693934
0.734651 0.000034 0.701499
0.747791 0.000000 0.709463
0.000000 0.000000 0.601101
0.000000 0.000000 0.611118
0.000126 0.097052 0.633821
0.254024 0.163101 0.674791
0.481057 0.186638 0.712296
0.651105 0.191178 0.733060
0.733785 0.187393 0.741003
0.768009 0.201813 0.748360
0.785407 0.232376 0.759342
0.000000 0.212754 0.667062
0.000000 0.233963 0.683058
0.000000 0.277817 0.709669
0.251446 0.334903 0.742335
0.525334 0.370674 0.782320
0.709612 0.385713 0.803456
0.795093 0.387284 0.810520
0.828994 0.398744 0.816558
0.846186 0.425613 0.826039
0.000000 0.407439 0.745354
0.000000 0.421234 0.758150
0.000000 0.463163 0.783940
0.177943 0.522069 0.807468
0.568194 0.578204 0.850675
0.772703 0.605053 0.873153
0.863902 0.609468 0.880158
0.898390 0.619012 0.884640
0.913386 0.638986 0.890703
0.000000 0.531977 0.792120
0.000000 0.556500 0.809705
0.000000 0.603719 0.833838
0.117448 0.671687 0.854047
0.596598 0.747835 0.897403
0.820283 0.789378 0.921938
0.919284 0.800859 0.930023
0.955223 0.807653 0.933604
0.967479 0.818047 0.936300
0.000000 0.585622 0.811880
0.000000 0.614350 0.830064
0.000000 0.664678 0.853741
0.091107 0.738148 0.873661
0.606761 0.823663 0.916635
0.839437 0.874903 0.942556
0.944309 0.893495 0.952190
0.981518 0.899985 0.955276
0.992564 0.904258 0.956533
0.000000 0.601703 0.819374
0.000000 0.637783 0.840824
0.000000 0.690543 0.864608
0.118971 0.759823 0.882080
0.611965 0.844896 0.924082
0.841927 0.898097 0.949874
0.949162 0.920054 0.960179
0.988393 0.927487 0.963322
0.999261 0.929674 0.963907
0.000000 0.626629 0.834963
0.000000 0.673018 0.858429
0.000000 0.718459 0.874839
0.277372 0.780301 0.892496
0.632419 0.854621 0.929869
0.841980 0.903409 0.953305
0.947046 0.925589 0.963658
0.988469 0.933690 0.967277
1.000000 0.935640 0.967584
0.000000 0.000000 0.569684
0.000000 0.000000 0.579730
0.000000 0.000000 0.596268
0.245746 0.000000 0.633621
0.448870 0.000000 0.668968
0.611846 0.000000 0.692240
0.697301 0.000000 0.703078
0.732464 0.000000 0.711217
0.745442 0.000000 0.719361
0.000000 0.000000 0.602457
0.000000 0.000000 0.613804
0.000000 0.101345 0.635456
0.255695 0.156363 0.675893
0.475799 0.180249 0.713596
0.643529 0.183832 0.735006
0.727109 0.177607 0.743596
0.762691 0.190946 0.751846
0.780695 0.226322 0.763051
0.000000 0.091167 0.633535
0.000000 0.133535 0.649919
0.000000 0.201899 0.680398
0.257720 0.256504 0.717052
0.502255 0.285736 0.756092
0.678218 0.296976 0.777958
0.763149 0.296641 0.786161
0.798123 0.308068 0.793302
0.816237 0.337631 0.803827
0.000000 0.276979 0.700955
0.000000 0.291364 0.714744
0.000000 0.335400 0.742219
0.250169 0.388551 0.770264
0.536413 0.429380 0.811339
0.724854 0.447726 0.833675
0.812938 0.449917 0.841314
0.848080 0.460649 0.847158
0.865090 0.486778 0.855658
0.000000 0.423898 0.759043
0.000000 0.448169 0.778966
0.000000 0.488275 0.801510
0.173303 0.546561 0.823984
0.570134 0.603751 0.867184
0.776539 0.632578 0.890763
0.870296 0.637741 0.898611
0.905864 0.645913 0.902881
0.920787 0.664697 0.908263
0.000000 0.538389 0.803136
0.000000 0.563572 0.819539
0.000000 0.612391 0.844784
0.120110 0.678732 0.864610
0.594482 0.753689 0.907866
0.817503 0.795304 0.932982
0.918517 0.807616 0.942069
0.955510 0.813521 0.945530
0.968694 0.823775 0.948380
0.000000 0.587971 0.822108
0.000000 0.621173 0.840415
0.000000 0.669852 0.863116
0.097636 0.740565 0.882348
0.603732 0.824299 0.925439
0.834913 0.874904 0.951809
0.941383 0.893893 0.962120
0.980404 0.900345 0.965695
0.991549 0.904196 0.966336
0.000000 0.605430 0.828118
0.000000 0.645672 0.851787
0.000000 0.693527 0.871681
0.122717 0.761708 0.889506
0.608414 0.844874 0.931393
0.837122 0.897729 0.957653
0.946248 0.920154 0.968910
0.987003 0.927944 0.972550
0.997860 0.929353 0.972210
0.000000 0.630752 0.841663
0.000000 0.677543 0.865613
0.000000 0.721454 0.881305
0.278084 0.781379 0.898639
0.627629 0.854180 0.935766
0.836950 0.902905 0.959743
0.943522 0.925541 0.970623
0.986374 0.933596 0.974322
0.999949 0.936343 0.975411
