Film Looks/DCI-P3 Fujifilm 3513DI D60.cube
# Resolve Film Look LUT
#   Input: Cineon Log 
#        : floating point data (range 0.0 - 1.0)
#  Output: FUJIFILM 3513DI film stock 'look' with D60 White Point
#        : floating point data (range 0.0 - 1.0)
# Display: DCI-P3, Gamma 2.6
LUT_3D_SIZE 5
LUT_3D_INPUT_RANGE 0.0 1.0
0.043397 0.038448 0.049971
0.071879 0.047321 0.053078
0.314720 0.069724 0.061560
0.527368 0.000000 0.079839
0.597307 0.000000 0.088336
0.043453 0.110167 0.071406
0.100854 0.117592 0.074741
0.400003 0.170013 0.074190
0.626365 0.174659 0.082516
0.691830 0.192898 0.085034
0.000000 0.299046 0.105765
0.111209 0.316353 0.100039
0.513656 0.413184 0.061782
0.760014 0.440318 0.020174
0.825200 0.467805 0.006355
0.000000 0.430449 0.118313
0.138911 0.482607 0.098431
0.611785 0.632211 0.000000
0.889548 0.696182 0.000000
0.956098 0.719621 0.000000
0.000000 0.480635 0.144108
0.295779 0.578940 0.114574
0.686913 0.709708 0.000000
0.952575 0.780645 0.000000
1.000000 0.791565 0.000000
0.041483 0.033745 0.123967
0.079396 0.044963 0.120634
0.358128 0.061826 0.127227
0.584080 0.000000 0.145874
0.646087 0.000000 0.178393
0.000000 0.131788 0.162535
0.106328 0.138164 0.153089
0.454502 0.189733 0.154726
0.688521 0.187913 0.155875
0.744383 0.209260 0.192022
0.000000 0.373421 0.240494
0.000000 0.392999 0.226273
0.586371 0.496696 0.214717
0.840525 0.519000 0.207644
0.891465 0.546210 0.252209
0.000000 0.520872 0.339802
0.000000 0.577536 0.328921
0.669311 0.726512 0.310597
0.952622 0.781712 0.293469
0.999208 0.800148 0.338323
0.000000 0.577977 0.490418
0.134120 0.670302 0.499842
0.692857 0.789801 0.500810
0.959364 0.848420 0.501534
1.000000 0.861974 0.539627
0.000000 0.000000 0.370715
0.047121 0.000000 0.370191
0.388287 0.000000 0.402785
0.613528 0.000000 0.422592
0.670699 0.000000 0.460333
0.000000 0.107110 0.447527
0.000386 0.143611 0.447711
0.468026 0.192180 0.474961
0.703053 0.185330 0.481354
0.753247 0.209723 0.528325
0.000000 0.454333 0.589548
0.000000 0.473296 0.589981
0.580766 0.564364 0.603011
0.848248 0.584662 0.608934
0.895194 0.612014 0.652309
0.000000 0.597088 0.681036
0.000000 0.655607 0.693964
0.641337 0.796429 0.712851
0.944303 0.856458 0.724632
0.989535 0.872033 0.758219
0.000000 0.626244 0.749957
0.000000 0.718686 0.777051
0.665187 0.834703 0.804225
0.951187 0.901470 0.827180
0.999481 0.915779 0.852091
0.000000 0.000000 0.503284
0.000000 0.000000 0.518702
0.400268 0.000000 0.570955
0.637340 0.000000 0.603072
0.696796 0.000000 0.628015
0.000000 0.000000 0.601685
0.000000 0.059916 0.616940
0.466768 0.161601 0.671399
0.713550 0.143742 0.693722
0.764863 0.191134 0.720688
0.000000 0.475711 0.756075
0.000000 0.498154 0.775393
0.562794 0.590738 0.812918
0.852893 0.618101 0.842299
0.902443 0.643471 0.863580
0.000000 0.614144 0.811241
0.000000 0.676225 0.843012
0.614825 0.820423 0.889759
0.942896 0.892581 0.930684
0.991322 0.904964 0.943555
0.000000 0.635461 0.831667
0.000000 0.729012 0.866970
0.644944 0.846980 0.910876
0.948471 0.921978 0.953517
1.000000 0.934316 0.963906
0.000000 0.000000 0.529673
0.000000 0.000000 0.550362
0.399234 0.000000 0.608479
0.645642 0.000000 0.646164
0.706498 0.000000 0.666073
0.000000 0.000000 0.632586
0.000000 0.060967 0.654241
0.465022 0.179692 0.717989
0.721277 0.166922 0.745558
0.774051 0.213657 0.764534
0.000000 0.483484 0.780809
0.000000 0.504880 0.802856
0.551324 0.599419 0.848764
0.854089 0.631705 0.886671
0.906405 0.656726 0.900364
0.000000 0.619898 0.828173
0.000000 0.677005 0.860272
0.601469 0.822043 0.911711
0.940200 0.898003 0.959419
0.991683 0.909976 0.968146
0.000000 0.636260 0.838305
0.000000 0.727962 0.875175
0.632782 0.846541 0.920917
0.945209 0.923567 0.966338
0.999949 0.936341 0.975408
