Film Looks/DCI-P3 Kodak 2383 D55.cube
# Resolve Film Look LUT
#   Input: Cineon Log 
#        : floating point data (range 0.0 - 1.0)
#  Output: Kodak 2383 film stock 'look' with D55 White Point
#        : floating point data (range 0.0 - 1.0)
# Display: DCI-P3, Gamma 2.6
LUT_3D_SIZE 5
LUT_3D_INPUT_RANGE 0.0 1.0
0.043824 0.043596 0.051436
0.089765 0.056400 0.056054
0.339136 0.088650 0.059268
0.562494 0.048836 0.069094
0.620296 0.000000 0.074730
0.040208 0.086429 0.067631
0.112173 0.105502 0.072254
0.425175 0.158730 0.072633
0.655148 0.163238 0.078756
0.705455 0.184299 0.082329
0.000000 0.279811 0.114593
0.125227 0.328394 0.111222
0.571292 0.447258 0.079751
0.823904 0.482930 0.046322
0.870987 0.511402 0.023936
0.000000 0.427071 0.140538
0.102638 0.504772 0.125589
0.664522 0.681016 0.000089
0.949073 0.757753 0.000000
0.990210 0.769796 0.000000
0.000000 0.479751 0.167241
0.262605 0.577055 0.154083
0.700175 0.726225 0.096478
0.964560 0.798550 0.000000
1.000000 0.805133 0.000000
0.042013 0.044916 0.097297
0.093112 0.057735 0.105482
0.357213 0.088836 0.116441
0.583849 0.012578 0.124047
0.642460 0.000000 0.135739
0.000266 0.098578 0.125811
0.111957 0.117776 0.134621
0.445799 0.171529 0.146525
0.679896 0.175452 0.151254
0.730256 0.199908 0.163565
0.000000 0.316029 0.194413
0.056324 0.364982 0.196595
0.593790 0.488340 0.199194
0.853072 0.523040 0.194904
0.899310 0.552934 0.206346
0.000000 0.467183 0.243268
0.000000 0.545498 0.244219
0.674562 0.719695 0.235770
0.963024 0.788913 0.222889
1.000000 0.798857 0.232144
0.000000 0.530597 0.355992
0.132762 0.621680 0.366585
0.694681 0.770688 0.381111
0.968617 0.838939 0.381092
1.000000 0.842789 0.384902
0.000000 0.000000 0.298124
0.090077 0.000000 0.318670
0.379626 0.000000 0.358422
0.614538 0.000000 0.379738
0.670690 0.000000 0.395141
0.000000 0.081334 0.356438
0.071193 0.126250 0.382187
0.461092 0.175193 0.430039
0.699316 0.176299 0.442997
0.748805 0.207728 0.460746
0.000000 0.378255 0.482511
0.000000 0.429059 0.508369
0.588715 0.541747 0.548736
0.860651 0.573234 0.559250
0.906253 0.603429 0.572156
0.000000 0.538888 0.547419
0.000000 0.617676 0.577500
0.649972 0.780952 0.615887
0.956149 0.847970 0.628261
0.997262 0.858179 0.635155
0.000000 0.587004 0.622832
0.000000 0.677413 0.652604
0.670126 0.818342 0.693661
0.958153 0.885213 0.709682
1.000000 0.891904 0.711475
0.000000 0.000000 0.459397
0.037125 0.000000 0.480597
0.406821 0.000000 0.543928
0.646526 0.000000 0.576350
0.701885 0.000000 0.591740
0.000000 0.000000 0.532148
0.002606 0.096070 0.561241
0.469905 0.155746 0.632677
0.715192 0.149868 0.657031
0.765951 0.197676 0.675264
0.000000 0.396879 0.678598
0.000000 0.450675 0.713644
0.574126 0.561012 0.774070
0.860055 0.591677 0.798575
0.907837 0.621822 0.808995
0.000000 0.570507 0.741523
0.000000 0.648977 0.781603
0.623159 0.807239 0.840159
0.947388 0.875025 0.869847
0.992632 0.885008 0.873464
0.000000 0.611626 0.772452
0.000000 0.701702 0.808542
0.649226 0.838147 0.861828
0.950871 0.906475 0.890676
1.000000 0.915588 0.893673
0.000000 0.000000 0.538161
0.053998 0.000000 0.564049
0.446569 0.000000 0.634498
0.691763 0.000000 0.667050
0.739277 0.000000 0.682104
0.000000 0.127999 0.603319
0.000000 0.206663 0.644497
0.501225 0.282362 0.717214
0.758147 0.292459 0.745670
0.810756 0.332588 0.762408
0.000000 0.418188 0.719627
0.000000 0.480970 0.758967
0.573615 0.593112 0.822485
0.867469 0.626259 0.852211
0.917386 0.652619 0.861337
0.000000 0.578302 0.778530
0.000000 0.656798 0.816053
0.613484 0.809193 0.877604
0.941856 0.877315 0.912282
0.990955 0.887340 0.916253
0.000000 0.621029 0.798082
0.000000 0.706728 0.832784
0.637419 0.838490 0.887379
0.944672 0.908332 0.920328
0.999985 0.918905 0.924841
