Film Looks/DCI-P3 Fujifilm 3513DI D65.cube
# Resolve Film Look LUT
#   Input: Cineon Log 
#        : floating point data (range 0.0 - 1.0)
#  Output: FUJIFILM 3513DI film stock 'look' with D65 White Point
#        : floating point data (range 0.0 - 1.0)
# Display: DCI-P3, Gamma 2.6
LUT_3D_SIZE 9
LUT_3D_INPUT_RANGE 0.0 1.0
0.042307 0.038619 0.051634
0.044128 0.040135 0.052934
0.070806 0.047091 0.054656
0.172307 0.063593 0.059231
0.310949 0.070156 0.063801
0.434191 0.028436 0.070479
0.520946 0.000000 0.082836
0.568483 0.000000 0.088333
0.590082 0.000000 0.091838
0.050718 0.058584 0.059834
0.052033 0.056984 0.061060
0.082014 0.064926 0.063718
0.194493 0.087425 0.066310
0.345147 0.102594 0.067420
0.474819 0.092864 0.075765
0.558948 0.069167 0.082225
0.601994 0.053447 0.084986
0.623347 0.065967 0.086883
0.038406 0.109797 0.073648
0.052452 0.104732 0.074373
0.098482 0.117172 0.076969
0.230798 0.146766 0.077195
0.394975 0.169700 0.077228
0.532275 0.174969 0.081263
0.618799 0.174821 0.086472
0.662635 0.180802 0.088602
0.683460 0.193012 0.089689
0.000000 0.194599 0.092350
0.000000 0.186555 0.091962
0.108305 0.205033 0.091546
0.270361 0.244597 0.087616
0.449907 0.276246 0.081154
0.597583 0.290177 0.080057
0.685903 0.295057 0.083125
0.728528 0.305393 0.084126
0.748282 0.318684 0.084729
0.000000 0.298367 0.109379
0.000000 0.291466 0.108149
0.089655 0.315073 0.103387
0.309799 0.369195 0.090763
0.505282 0.411635 0.068042
0.657163 0.430006 0.053306
0.749631 0.438840 0.047673
0.793298 0.450520 0.041224
0.813534 0.465654 0.021301
0.000000 0.384577 0.120067
0.000000 0.383025 0.118359
0.081399 0.417586 0.107564
0.347736 0.486253 0.078112
0.559130 0.542005 0.000000
0.723677 0.573624 0.000000
0.821179 0.588096 0.000000
0.867910 0.602361 0.000000
0.890350 0.617430 0.000000
0.000000 0.429464 0.123366
0.000000 0.437348 0.120997
0.101974 0.480784 0.103450
0.379818 0.559476 0.034314
0.599405 0.629405 0.000000
0.771859 0.672135 0.000000
0.875585 0.693372 0.000000
0.922673 0.707713 0.000000
0.941405 0.716752 0.000000
0.000000 0.448888 0.125405
0.000000 0.467205 0.119732
0.168512 0.519030 0.097236
0.412821 0.598950 0.000000
0.629572 0.673451 0.000000
0.800751 0.721005 0.000000
0.906280 0.746047 0.000000
0.954020 0.759572 0.000000
0.971614 0.765652 0.000000
0.000000 0.479548 0.149786
0.000000 0.517290 0.137004
0.278998 0.576643 0.120537
0.480546 0.644336 0.070341
0.672855 0.706394 0.000000
0.834588 0.751427 0.000000
0.936849 0.777302 0.000000
0.980227 0.787896 0.000000
0.994608 0.792592 0.000000
0.043803 0.037783 0.060566
0.043157 0.040321 0.061633
0.076102 0.046854 0.061825
0.187779 0.065606 0.067036
0.332952 0.068455 0.070582
0.462253 0.000000 0.078077
0.550127 0.000000 0.092153
0.596372 0.000000 0.099674
0.618683 0.000000 0.106975
0.048690 0.060079 0.064931
0.053388 0.058761 0.064759
0.087151 0.068367 0.069043
0.210980 0.091849 0.072893
0.370086 0.104222 0.074907
0.504560 0.089070 0.081620
0.588646 0.053601 0.088031
0.630662 0.032208 0.092449
0.651139 0.052107 0.098450
0.030865 0.115602 0.084733
0.048524 0.110343 0.081364
0.105415 0.124952 0.085534
0.250509 0.155577 0.086029
0.424889 0.179043 0.085447
0.567244 0.182560 0.088999
0.652717 0.180586 0.093798
0.692830 0.185378 0.098339
0.715152 0.199659 0.105265
0.000000 0.211619 0.108848
0.000000 0.201354 0.103125
0.117166 0.223149 0.104208
0.296325 0.265607 0.099148
0.486410 0.298143 0.091513
0.637410 0.310095 0.090972
0.723940 0.313504 0.093969
0.764598 0.324465 0.099711
0.783328 0.337586 0.106476
0.000000 0.329035 0.133011
0.000000 0.322359 0.128005
0.090095 0.350893 0.121816
0.342021 0.410448 0.106902
0.550440 0.453789 0.085331
0.707963 0.471925 0.071246
0.798997 0.479868 0.067944
0.839053 0.490302 0.078134
0.857934 0.505574 0.093023
0.000000 0.423157 0.157604
0.000000 0.423435 0.150877
0.079877 0.462512 0.139601
0.383376 0.538538 0.114482
0.610971 0.596631 0.065210
0.780314 0.627139 0.000000
0.877196 0.640984 0.000000
0.917927 0.651513 0.000000
0.934299 0.662915 0.060745
0.000000 0.469812 0.189377
0.000000 0.478694 0.179884
0.083625 0.526635 0.168802
0.412575 0.610035 0.145621
0.645817 0.676724 0.097408
0.821224 0.715761 0.022207
0.923580 0.736438 0.000000
0.963523 0.746764 0.040277
0.976796 0.754264 0.095570
0.000000 0.496025 0.234251
0.000000 0.514408 0.226611
0.105317 0.567671 0.220039
0.433249 0.648718 0.202527
0.665648 0.716090 0.180001
0.840974 0.757426 0.153332
0.941422 0.778416 0.140488
0.981466 0.789368 0.157068
0.993353 0.796355 0.188472
0.000000 0.541079 0.345425
0.000000 0.581664 0.347448
0.220237 0.635742 0.345164
0.479790 0.702812 0.341219
0.686981 0.757188 0.330066
0.851529 0.794265 0.317499
0.948806 0.816846 0.321434
0.986449 0.826686 0.333498
0.996607 0.834570 0.365885
0.040225 0.033119 0.127085
0.037206 0.025982 0.118023
0.077994 0.044817 0.123723
0.199323 0.063328 0.130079
0.353852 0.062450 0.130642
0.488909 0.000033 0.135833
0.576996 0.000000 0.149499
0.619570 0.000000 0.164018
0.638406 0.000000 0.182888
0.038271 0.062213 0.132979
0.044974 0.062204 0.121871
0.089959 0.071542 0.129675
0.224712 0.095454 0.135421
0.392352 0.106237 0.134843
0.530791 0.086019 0.135326
0.614021 0.033409 0.141976
0.653811 0.000000 0.155683
0.671775 0.043922 0.174366
0.000000 0.131168 0.166800
0.000000 0.121873 0.148568
0.103306 0.137521 0.156964
0.265442 0.168440 0.161315
0.448751 0.189243 0.158950
0.595718 0.191211 0.158154
0.680188 0.188115 0.160674
0.717733 0.194861 0.176320
0.735333 0.209299 0.197692
0.000000 0.240486 0.205671
0.000000 0.228339 0.187799
0.083722 0.249138 0.192945
0.309647 0.291404 0.193239
0.511385 0.321168 0.187258
0.667397 0.331410 0.183826
0.752623 0.333948 0.185720
0.788954 0.345588 0.205198
0.803457 0.359750 0.224714
0.000000 0.372710 0.247754
0.000000 0.364894 0.235982
0.000000 0.392150 0.233117
0.349838 0.451737 0.229442
0.576503 0.494821 0.221073
0.739340 0.511104 0.213656
0.828777 0.517239 0.214509
0.864741 0.528463 0.232594
0.879106 0.544386 0.259759
0.000000 0.473028 0.296192
0.000000 0.472608 0.284000
0.000000 0.512495 0.281667
0.382065 0.587737 0.274477
0.631167 0.645647 0.261166
0.806572 0.673794 0.250178
0.901472 0.685511 0.248886
0.937844 0.696547 0.267286
0.950159 0.709054 0.296938
0.000000 0.519666 0.349243
0.000000 0.528129 0.337213
0.000000 0.576362 0.338899
0.400040 0.657103 0.329155
0.655136 0.723673 0.319465
0.837089 0.761003 0.306356
0.937006 0.778778 0.302722
0.973853 0.789996 0.323135
0.983494 0.797362 0.348652
0.000000 0.542164 0.405044
0.000000 0.561983 0.403374
0.000000 0.613925 0.403467
0.413045 0.691474 0.398102
0.664705 0.757113 0.392464
0.845855 0.797305 0.382988
0.945222 0.817172 0.379512
0.982386 0.827703 0.395612
0.991383 0.833527 0.420722
0.000000 0.576273 0.503811
0.000000 0.617851 0.514208
0.080422 0.667707 0.512943
0.455632 0.732825 0.516241
0.676959 0.786595 0.513876
0.845681 0.823614 0.509756
0.942649 0.845118 0.514877
0.979187 0.854961 0.528288
0.987734 0.861111 0.556495
0.000000 0.000000 0.251833
0.009579 0.000000 0.235938
0.076730 0.000019 0.247650
0.207776 0.000000 0.260167
0.366021 0.000000 0.263895
0.505501 0.000000 0.268766
0.592049 0.000000 0.282036
0.632230 0.000000 0.302210
0.649681 0.000000 0.324237
0.000000 0.010782 0.262523
0.000000 0.040121 0.244365
0.086174 0.053411 0.259015
0.231892 0.082804 0.272525
0.403949 0.093438 0.273003
0.543799 0.061649 0.272794
0.627972 0.000000 0.281349
0.665527 0.000000 0.303850
0.680828 0.000000 0.326652
0.000000 0.136559 0.316781
0.000000 0.130505 0.293987
0.067044 0.148272 0.303903
0.269535 0.177911 0.316993
0.459566 0.197207 0.316242
0.609099 0.197861 0.313926
0.690941 0.193456 0.317436
0.725413 0.200828 0.337349
0.741117 0.215431 0.367421
0.000000 0.273312 0.374253
0.000000 0.258700 0.351545
0.000000 0.279512 0.360940
0.304879 0.318530 0.367094
0.519716 0.346021 0.365208
0.677937 0.353755 0.361364
0.762369 0.356166 0.363952
0.795920 0.367949 0.388269
0.808446 0.382606 0.413420
0.000000 0.419224 0.430992
0.000000 0.410730 0.417562
0.000000 0.438602 0.421904
0.330877 0.493597 0.423883
0.579098 0.533890 0.421578
0.746654 0.548258 0.416378
0.836436 0.554058 0.418730
0.869801 0.564922 0.441575
0.881476 0.579826 0.469259
0.000000 0.521660 0.486212
0.000000 0.521896 0.474955
0.000000 0.563153 0.482210
0.348724 0.633159 0.482013
0.626072 0.690502 0.479536
0.808563 0.717777 0.474229
0.903944 0.729281 0.476689
0.937848 0.739409 0.496544
0.947620 0.750059 0.526397
0.000000 0.563366 0.537687
0.000000 0.573195 0.530853
0.000000 0.622011 0.540777
0.358212 0.697164 0.537273
0.641910 0.762837 0.539220
0.832325 0.800768 0.535372
0.933030 0.818743 0.536501
0.968096 0.828841 0.554723
0.976051 0.834804 0.578717
0.000000 0.580437 0.584604
0.000000 0.600643 0.587916
0.000000 0.653196 0.596760
0.371918 0.725452 0.595089
0.647848 0.789722 0.599953
0.836147 0.830360 0.598966
0.937580 0.851244 0.601460
0.973545 0.860700 0.615090
0.982113 0.866320 0.637539
0.000000 0.604496 0.653524
0.000000 0.647200 0.669546
0.000000 0.696745 0.674068
0.423142 0.757947 0.680313
0.661454 0.811914 0.686483
0.836368 0.850660 0.689497
0.935215 0.873021 0.698157
0.972542 0.882842 0.710646
0.981901 0.888983 0.733663
0.000000 0.000000 0.380995
0.000000 0.000000 0.367764
0.015393 0.000000 0.379379
0.216935 0.000000 0.401267
0.383207 0.000000 0.412681
0.521322 0.000000 0.420397
0.605649 0.000000 0.431661
0.645336 0.000000 0.451602
0.663002 0.000000 0.471381
0.000000 0.000000 0.406115
0.000000 0.000000 0.387470
0.053219 0.000000 0.402294
0.237343 0.000000 0.423018
0.411680 0.000000 0.429384
0.556024 0.000071 0.434660
0.641027 0.000000 0.445154
0.679074 0.000000 0.470447
0.693417 0.000000 0.491001
0.000000 0.087420 0.457896
0.000000 0.084895 0.440974
0.000000 0.138393 0.459489
0.265917 0.172178 0.481731
0.461382 0.190456 0.486804
0.612122 0.189215 0.487098
0.694177 0.184430 0.493459
0.728282 0.192711 0.514490
0.743673 0.208553 0.541595
0.000000 0.285301 0.535700
0.000000 0.273672 0.520355
0.000000 0.295822 0.533080
0.287846 0.335360 0.545067
0.516697 0.361370 0.551317
0.678348 0.367820 0.550702
0.763928 0.370361 0.555666
0.796440 0.381492 0.577596
0.809305 0.397761 0.601359
0.000000 0.451397 0.603938
0.000000 0.442497 0.593543
0.000000 0.471757 0.606580
0.296975 0.523513 0.611543
0.568920 0.561822 0.618192
0.743300 0.576207 0.619319
0.835232 0.582212 0.624380
0.869651 0.594831 0.647372
0.881590 0.609433 0.668825
0.000000 0.556268 0.657782
0.000000 0.558116 0.653108
0.000000 0.599779 0.667458
0.296318 0.665865 0.670825
0.609514 0.722756 0.679955
0.801768 0.752712 0.684644
0.899616 0.764697 0.689679
0.934639 0.775041 0.708471
0.944733 0.785032 0.731547
0.000000 0.594612 0.698710
0.000000 0.603974 0.697691
0.000000 0.654140 0.713822
0.302417 0.726299 0.716481
0.623941 0.792967 0.730895
0.822724 0.833132 0.736960
0.927106 0.852921 0.743120
0.962925 0.862503 0.758362
0.971866 0.868408 0.777535
0.000000 0.605582 0.729253
0.000000 0.627018 0.737389
0.000000 0.680407 0.754005
0.325704 0.749858 0.757271
0.628962 0.814567 0.772038
0.826747 0.858590 0.781495
0.932791 0.882587 0.792622
0.969877 0.891343 0.801206
0.979097 0.896311 0.817870
0.000000 0.624811 0.771405
0.000000 0.665533 0.789180
0.000000 0.716483 0.798777
0.387875 0.774720 0.808158
0.646593 0.830994 0.824503
0.830028 0.873782 0.837487
0.932754 0.897629 0.848158
0.971166 0.907816 0.861137
0.980708 0.911859 0.873691
0.000000 0.000000 0.471354
0.000000 0.000000 0.463567
0.000000 0.000000 0.480887
0.213078 0.000000 0.505088
0.391520 0.000000 0.524040
0.534534 0.000000 0.537973
0.619946 0.000000 0.549705
0.661148 0.000000 0.567475
0.677467 0.000000 0.582340
0.000000 0.000000 0.508723
0.000000 0.000000 0.497202
0.000000 0.000000 0.515552
0.237677 0.000000 0.540185
0.423581 0.000000 0.556486
0.570347 0.000000 0.566986
0.656200 0.000000 0.578311
0.694815 0.000000 0.598738
0.709619 0.000000 0.616753
0.000000 0.000000 0.563481
0.000000 0.000000 0.553903
0.000000 0.090031 0.573320
0.259915 0.155394 0.604370
0.461074 0.173141 0.618430
0.615152 0.170962 0.624796
0.699712 0.162924 0.632950
0.734533 0.173570 0.650912
0.750196 0.195790 0.670785
0.000000 0.283620 0.648361
0.000000 0.271759 0.639016
0.000000 0.296509 0.657414
0.269664 0.343297 0.674527
0.511152 0.367743 0.688955
0.677668 0.374621 0.696136
0.766900 0.378917 0.703303
0.800499 0.390272 0.721509
0.813208 0.407112 0.739142
0.000000 0.465392 0.721584
0.000000 0.458675 0.717362
0.000000 0.488501 0.735303
0.250550 0.539333 0.743679
0.556895 0.578609 0.760812
0.741317 0.596862 0.772118
0.837521 0.603579 0.780543
0.873092 0.616024 0.798864
0.885162 0.629651 0.813402
0.000000 0.574199 0.770565
0.000000 0.576848 0.772154
0.000000 0.618922 0.791289
0.195834 0.683546 0.798389
0.593177 0.742802 0.820406
0.796451 0.777242 0.836350
0.899805 0.791117 0.846041
0.936186 0.801317 0.860895
0.946499 0.809276 0.873416
0.000000 0.607857 0.796720
0.000000 0.619827 0.801380
0.000000 0.669615 0.822561
0.200414 0.740777 0.830723
0.606048 0.810088 0.856598
0.815937 0.855489 0.875409
0.926019 0.877812 0.887546
0.963044 0.886506 0.897655
0.972137 0.891002 0.909003
0.000000 0.615779 0.810737
0.000000 0.638057 0.825219
0.000000 0.692118 0.844683
0.265060 0.760566 0.853221
0.612890 0.828514 0.880407
0.820067 0.876945 0.900259
0.930785 0.902489 0.914813
0.969228 0.911455 0.923007
0.978850 0.915307 0.932100
0.000000 0.630973 0.832723
0.000000 0.672825 0.854080
0.000000 0.725117 0.867838
0.359071 0.781834 0.879420
0.634109 0.841019 0.905010
0.824695 0.887332 0.927367
0.930709 0.912185 0.941248
0.970634 0.922136 0.950686
0.980463 0.925177 0.956738
0.000000 0.000000 0.516972
0.000000 0.000000 0.513586
0.000000 0.000000 0.533335
0.206908 0.000000 0.559508
0.393068 0.000000 0.584802
0.540126 0.000000 0.602809
0.628651 0.000000 0.616362
0.669309 0.000000 0.629509
0.687833 0.000000 0.642863
0.000000 0.000000 0.562697
0.000000 0.000000 0.556572
0.000000 0.000000 0.577900
0.232586 0.000000 0.603914
0.426722 0.000000 0.627259
0.578348 0.000000 0.642832
0.667165 0.000000 0.655610
0.705275 0.000000 0.671017
0.719514 0.000000 0.683900
0.000000 0.000000 0.619189
0.000000 0.000000 0.616220
0.000000 0.030119 0.633422
0.252233 0.138365 0.667360
0.459098 0.157026 0.688088
0.617317 0.152185 0.701854
0.703988 0.138841 0.711013
0.739184 0.154915 0.724068
0.754631 0.187623 0.738661
0.000000 0.276870 0.698628
0.000000 0.256562 0.692867
0.000000 0.293881 0.718099
0.255890 0.344900 0.738104
0.506154 0.370868 0.760897
0.677023 0.378953 0.775179
0.768456 0.382963 0.784296
0.802407 0.393440 0.796262
0.816031 0.412951 0.809164
0.000000 0.469081 0.773430
0.000000 0.460059 0.771906
0.000000 0.493959 0.795061
0.199647 0.545625 0.806793
0.548975 0.587637 0.833229
0.739059 0.607374 0.851500
0.838783 0.615088 0.863411
0.874809 0.625603 0.875012
0.887736 0.640365 0.885237
0.000000 0.580092 0.819197
0.000000 0.582649 0.823413
0.000000 0.624775 0.844525
0.145815 0.689564 0.856635
0.581938 0.751419 0.887171
0.792676 0.789040 0.911328
0.899463 0.804073 0.924668
0.937075 0.813270 0.934052
0.947428 0.820631 0.941230
0.000000 0.612044 0.833095
0.000000 0.623386 0.841600
0.000000 0.673504 0.866383
0.152115 0.745043 0.878850
0.595294 0.816603 0.912092
0.811023 0.865190 0.938939
0.924309 0.888612 0.954143
0.963120 0.897238 0.961543
0.972578 0.900970 0.967343
0.000000 0.620969 0.840784
0.000000 0.643008 0.857378
0.000000 0.694786 0.878742
0.216448 0.763552 0.890096
0.602692 0.833409 0.923836
0.815364 0.884365 0.951054
0.929512 0.910833 0.967542
0.969176 0.919922 0.974600
0.978607 0.922865 0.979079
0.000000 0.633878 0.854434
0.000000 0.675272 0.877535
0.000000 0.726398 0.890527
0.340036 0.782607 0.903814
0.624934 0.843070 0.933754
0.819518 0.891349 0.960935
0.929234 0.917869 0.977550
0.969932 0.927335 0.984740
0.980534 0.930224 0.988257
0.000000 0.000000 0.534959
0.000000 0.000000 0.534571
0.000000 0.000000 0.555724
0.202813 0.000000 0.584072
0.392415 0.000000 0.611282
0.542473 0.000000 0.632605
0.633384 0.000000 0.647546
0.675075 0.000000 0.658683
0.691824 0.000000 0.667099
0.000000 0.000000 0.585296
0.000000 0.000000 0.584331
0.000000 0.000000 0.605464
0.228168 0.000000 0.632197
0.427848 0.000000 0.659691
0.581357 0.000000 0.677269
0.672544 0.000000 0.691609
0.711484 0.000000 0.703928
0.724787 0.000000 0.713126
0.000000 0.000000 0.641144
0.000000 0.000000 0.640671
0.000000 0.000000 0.659327
0.247655 0.139796 0.694907
0.457439 0.157510 0.719486
0.617997 0.148723 0.736042
0.706245 0.131658 0.745901
0.742110 0.154113 0.756407
0.758496 0.192449 0.768917
0.000000 0.277456 0.717164
0.000000 0.262514 0.717095
0.000000 0.295471 0.740431
0.244277 0.347989 0.763022
0.501806 0.375296 0.790102
0.675349 0.383176 0.807648
0.769601 0.388177 0.819157
0.803788 0.397321 0.827338
0.817687 0.418536 0.837296
0.000000 0.475509 0.793574
0.000000 0.464346 0.794121
0.000000 0.498095 0.816876
0.155631 0.548267 0.829400
0.542576 0.591746 0.860519
0.736642 0.612943 0.882920
0.839069 0.621323 0.896529
0.876228 0.631656 0.904516
0.889877 0.647952 0.913115
0.000000 0.581763 0.833184
0.000000 0.584109 0.839080
0.000000 0.627206 0.863252
0.127432 0.691829 0.876680
0.573694 0.754324 0.910483
0.789481 0.794395 0.939225
0.898759 0.809494 0.953492
0.937526 0.818991 0.960857
0.948125 0.825968 0.965523
0.000000 0.613998 0.845513
0.000000 0.626981 0.856718
0.000000 0.675122 0.880217
0.132147 0.745473 0.893776
0.586045 0.817846 0.929534
0.807474 0.868709 0.960493
0.923071 0.892596 0.976818
0.962861 0.901103 0.983367
0.972535 0.904441 0.986678
0.000000 0.621924 0.849008
0.000000 0.643973 0.866375
0.000000 0.695142 0.887783
0.172284 0.763404 0.900554
0.596920 0.834186 0.936510
0.812116 0.886561 0.967063
0.927554 0.913305 0.983997
0.968832 0.922618 0.990756
0.978529 0.925331 0.993119
0.000000 0.634563 0.859803
0.000000 0.675321 0.883407
0.000000 0.726141 0.896917
0.331652 0.782573 0.910777
0.618269 0.843664 0.942579
0.815388 0.892456 0.971020
0.927632 0.919219 0.987733
0.969395 0.928919 0.994540
0.980651 0.931829 0.997279
0.000000 0.000000 0.544053
0.000000 0.000000 0.545593
0.000000 0.000000 0.565791
0.199321 0.000000 0.593489
0.391386 0.000000 0.622615
0.544795 0.000000 0.645928
0.637534 0.000000 0.661866
0.678826 0.000000 0.670711
0.696376 0.000000 0.680138
0.000000 0.000000 0.599156
0.000000 0.000000 0.599115
0.000000 0.000000 0.620044
0.225887 0.000000 0.648021
0.427139 0.000000 0.675804
0.583912 0.000000 0.695370
0.677730 0.000000 0.710550
0.715731 0.000000 0.720928
0.730669 0.000000 0.731133
0.000000 0.000000 0.651187
0.000000 0.000000 0.651922
0.000000 0.025843 0.671624
0.243461 0.156669 0.708210
0.456963 0.175192 0.735821
0.619952 0.170358 0.753092
0.711377 0.162456 0.764134
0.746949 0.175896 0.772603
0.763548 0.210271 0.783588
0.000000 0.288326 0.726864
0.000000 0.270476 0.726040
0.000000 0.299242 0.749420
0.233672 0.356556 0.773118
0.498645 0.383649 0.802087
0.675536 0.393545 0.821853
0.770537 0.396744 0.833005
0.806469 0.407715 0.841328
0.820338 0.427157 0.849248
0.000000 0.480687 0.800581
0.000000 0.469762 0.802619
0.000000 0.500616 0.824069
0.139678 0.552527 0.837650
0.537037 0.596280 0.869961
0.734493 0.619182 0.894728
0.839499 0.628523 0.908873
0.877798 0.638331 0.916230
0.891384 0.653471 0.922923
0.000000 0.582583 0.836736
0.000000 0.585450 0.844551
0.000000 0.627141 0.868116
0.112885 0.692992 0.882801
0.566695 0.755849 0.917768
0.785083 0.796665 0.947839
0.897987 0.813330 0.963234
0.938062 0.822250 0.970215
0.949299 0.830040 0.973803
0.000000 0.613125 0.848288
0.000000 0.626148 0.860673
0.000000 0.674849 0.883866
0.121281 0.745121 0.897912
0.581393 0.818184 0.934582
0.803602 0.869417 0.966648
0.921349 0.893939 0.983569
0.962549 0.902633 0.990431
0.972617 0.905915 0.992535
0.000000 0.621638 0.850680
0.000000 0.643456 0.868272
0.000000 0.694701 0.890563
0.159631 0.762547 0.903322
0.589172 0.833255 0.939308
0.807521 0.886239 0.970834
0.926007 0.913978 0.988680
0.968330 0.923580 0.995578
0.978770 0.926349 0.997859
0.000000 0.634660 0.861233
0.000000 0.675558 0.884968
0.000000 0.725142 0.898897
0.322711 0.781447 0.911949
0.612611 0.842621 0.944035
0.811884 0.892175 0.973431
0.925861 0.919434 0.990680
0.969289 0.929783 0.997901
0.980444 0.932184 0.999996
