Film Looks/Rec709 Kodak 2383 D55.cube
# Resolve Film Look LUT
#   Input: Cineon Log 
#        : floating point data (range 0.0 - 1.0)
#  Output: Kodak 2383 film stock 'look' with D55 White Point
#        : floating point data (range 0.0 - 1.0)
# Display: ITU-Rec.709, Gamma 2.4
LUT_3D_SIZE 5
LUT_3D_INPUT_RANGE 0.0 1.0
0.027455 0.027940 0.030632
0.074147 0.038764 0.033567
0.343678 0.046793 0.000000
0.613485 0.000000 0.000000
0.683616 0.000000 0.000000
0.000000 0.073350 0.045926
0.089934 0.089718 0.044241
0.437557 0.132819 0.000000
0.711750 0.117776 0.000000
0.771284 0.141880 0.000000
0.000000 0.269023 0.037380
0.000211 0.326174 0.000039
0.585658 0.469364 0.000000
0.899200 0.512004 0.000000
0.955475 0.545695 0.000000
0.000000 0.433872 0.000000
0.000000 0.533748 0.000000
0.657171 0.749714 0.000000
1.000000 0.832975 0.000000
1.000000 0.830356 0.000000
0.000000 0.489475 0.000000
0.000000 0.611664 0.000000
0.691319 0.800057 0.000000
1.000000 0.880221 0.000000
1.000000 0.875223 0.000000
0.021695 0.029699 0.077690
0.077358 0.040718 0.084730
0.356900 0.000000 0.081060
0.631187 0.000000 0.066666
0.699935 0.000000 0.072080
0.000000 0.085239 0.105626
0.088165 0.102267 0.109720
0.446549 0.124570 0.094869
0.714530 0.000000 0.024479
0.768424 0.039199 0.001151
0.000000 0.307274 0.151135
0.000000 0.361185 0.141444
0.584040 0.483384 0.000000
0.905236 0.523685 0.000000
0.958172 0.556112 0.000000
0.000000 0.468362 0.171793
0.000000 0.558003 0.143049
0.639825 0.759880 0.000000
1.000000 0.844738 0.000000
1.000000 0.839437 0.000000
0.000000 0.537712 0.300905
0.000000 0.643106 0.296067
0.636581 0.794800 0.235287
0.977895 0.862515 0.131430
1.000000 0.860495 0.121465
0.000000 0.000000 0.275620
0.076734 0.000000 0.293406
0.390335 0.000000 0.337473
0.664875 0.000000 0.367184
0.730754 0.000000 0.382824
0.000000 0.043899 0.328435
0.028833 0.110922 0.355368
0.463273 0.126227 0.399278
0.737161 0.000000 0.410311
0.788005 0.051945 0.422585
0.000000 0.368966 0.458500
0.000000 0.426027 0.483686
0.562964 0.538490 0.502952
0.889214 0.557813 0.502797
0.940461 0.589734 0.512471
0.000000 0.545837 0.519365
0.000000 0.635499 0.545558
0.570195 0.808032 0.549510
0.959616 0.873393 0.543205
1.000000 0.879561 0.544087
0.000000 0.597569 0.597282
0.000000 0.704588 0.626779
0.584020 0.850366 0.635089
0.953684 0.916994 0.636579
1.000000 0.921078 0.633967
0.000000 0.000000 0.439101
0.024172 0.000000 0.458625
0.417539 0.000000 0.527054
0.696987 0.000000 0.568085
0.763273 0.000000 0.585993
0.000000 0.000000 0.511669
0.000309 0.071694 0.539868
0.474013 0.081201 0.612073
0.762121 0.000000 0.642076
0.810467 0.000000 0.654217
0.000000 0.383380 0.666489
0.000000 0.444651 0.703983
0.539895 0.560849 0.750300
0.886029 0.579401 0.770482
0.939814 0.611206 0.779131
0.000000 0.577084 0.732156
0.000000 0.668516 0.772844
0.519024 0.838939 0.805368
0.942071 0.905529 0.826761
0.998541 0.915089 0.828760
0.000000 0.622877 0.762549
0.000000 0.728817 0.799462
0.543919 0.873720 0.826832
0.938816 0.942318 0.847664
1.000000 0.950608 0.848719
0.000000 0.000000 0.518862
0.043558 0.000000 0.543779
0.458249 0.000000 0.620058
0.747139 0.000000 0.661505
0.803766 0.000000 0.677536
0.000000 0.064545 0.579334
0.000000 0.178274 0.628142
0.500592 0.252007 0.699978
0.793961 0.223851 0.726353
0.852728 0.268451 0.742502
0.000000 0.411428 0.714585
0.000000 0.477903 0.753498
0.530635 0.597050 0.801902
0.889972 0.619410 0.828178
0.947087 0.646742 0.835696
0.000000 0.583748 0.771892
0.000000 0.675591 0.810649
0.503028 0.841443 0.847834
0.934391 0.908512 0.875725
0.995762 0.917928 0.878185
0.000000 0.630622 0.788811
0.000000 0.733809 0.826930
0.525488 0.874469 0.856094
0.930297 0.944714 0.881976
0.999996 0.954591 0.884855
