Film Looks/Rec709 Kodak 2383 D55.cube
# Resolve Film Look LUT
#   Input: Cineon Log 
#        : floating point data (range 0.0 - 1.0)
#  Output: Kodak 2383 film stock 'look' with D55 White Point
#        : floating point data (range 0.0 - 1.0)
# Display: ITU-Rec.709, Gamma 2.4
LUT_3D_SIZE 33
LUT_3D_INPUT_RANGE 0.0 1.0
0.027455 0.027940 0.030632
0.028771 0.028640 0.031588
0.029688 0.029229 0.032502
0.033218 0.029886 0.033110
0.038679 0.030846 0.033368
0.040203 0.032147 0.033662
0.045908 0.033592 0.033716
0.060469 0.035176 0.033571
0.074147 0.038764 0.033567
0.086850 0.042979 0.032703
0.109447 0.045148 0.030796
0.141233 0.047389 0.027518
0.171253 0.050028 0.015106
0.203916 0.052315 0.000920
0.245081 0.053624 0.000000
0.293532 0.051818 0.000000
0.343678 0.046793 0.000000
0.390342 0.037880 0.000000
0.431468 0.005177 0.000000
0.472838 0.000000 0.000000
0.511870 0.000000 0.000000
0.545101 0.000000 0.000000
0.571750 0.000000 0.000000
0.594285 0.000000 0.000000
0.613485 0.000000 0.000000
0.629549 0.000000 0.000000
0.642509 0.000000 0.000000
0.652898 0.000000 0.000000
0.661570 0.000000 0.000000
0.668915 0.000000 0.000000
0.674400 0.000000 0.000000
0.678920 0.000000 0.000000
0.683616 0.000000 0.000000
0.027112 0.030111 0.031707
0.028601 0.030703 0.032538
0.029392 0.031250 0.033394
0.032931 0.031871 0.033955
0.038694 0.032812 0.034168
0.040230 0.034168 0.034502
0.046815 0.035549 0.034453
0.061847 0.037377 0.034469
0.076255 0.041284 0.034305
0.089296 0.045542 0.033284
0.112676 0.048419 0.031576
0.145679 0.050845 0.027466
0.176976 0.052773 0.014159
0.211084 0.054691 0.000798
0.253314 0.056443 0.000000
0.302603 0.055046 0.000000
0.353622 0.051436 0.000000
0.401004 0.042528 0.000000
0.442619 0.026401 0.000000
0.483907 0.000000 0.000000
0.523227 0.000000 0.000000
0.556570 0.000000 0.000000
0.583114 0.000000 0.000000
0.605360 0.000000 0.000000
0.624200 0.000000 0.000000
0.639910 0.000000 0.000000
0.652493 0.000000 0.000000
0.662470 0.000000 0.000000
0.670762 0.000000 0.000000
0.677810 0.000000 0.000000
0.683073 0.000000 0.000000
0.687396 0.000000 0.000000
0.691892 0.000000 0.000000
0.027231 0.031553 0.032624
0.028663 0.032101 0.033384
0.029334 0.032623 0.034186
0.032893 0.033223 0.034702
0.038826 0.034166 0.034898
0.040464 0.035562 0.035253
0.047487 0.036940 0.035192
0.063241 0.038965 0.035308
0.078199 0.043107 0.034987
0.091598 0.047397 0.033806
0.115686 0.050796 0.032174
0.149736 0.052714 0.027588
0.182340 0.054544 0.012663
0.217797 0.056463 0.000561
0.261017 0.058378 0.000000
0.311105 0.057114 0.000000
0.362956 0.054048 0.000000
0.411038 0.046217 0.000000
0.453147 0.030251 0.000000
0.494533 0.000000 0.000000
0.534161 0.000102 0.000000
0.567628 0.000000 0.000000
0.594096 0.000000 0.000000
0.616090 0.000000 0.000000
0.634595 0.000000 0.000000
0.649976 0.000000 0.000000
0.662202 0.000000 0.000000
0.671777 0.000000 0.000000
0.679697 0.000000 0.000000
0.686470 0.000000 0.000000
0.691517 0.000000 0.000000
0.695649 0.000000 0.000000
0.699951 0.000000 0.000000
0.026770 0.034893 0.033766
0.028224 0.035461 0.034495
0.028816 0.035929 0.035236
0.032346 0.036486 0.035706
0.038368 0.037424 0.035886
0.040101 0.038871 0.036254
0.047624 0.040398 0.036231
0.064969 0.042806 0.036302
0.080408 0.046999 0.035762
0.094047 0.051336 0.034600
0.118821 0.054659 0.032519
0.153887 0.056142 0.027787
0.187974 0.058354 0.011078
0.224908 0.061244 0.000299
0.269081 0.062720 0.000000
0.320087 0.062252 0.000000
0.372855 0.059671 0.000000
0.421718 0.054297 0.000000
0.464342 0.042446 0.000000
0.505379 0.012919 0.000000
0.545103 0.000000 0.000000
0.578727 0.000053 0.000000
0.605120 0.000000 0.000000
0.626860 0.000000 0.000000
0.645040 0.000000 0.000000
0.660109 0.000000 0.000000
0.672012 0.000000 0.000000
0.681227 0.000000 0.000000
0.688821 0.000000 0.000000
0.695335 0.000000 0.000000
0.700176 0.000000 0.000000
0.704125 0.000000 0.000000
0.708245 0.000000 0.000000
0.024467 0.039874 0.035348
0.027097 0.040447 0.036039
0.027864 0.040941 0.036753
0.031677 0.041578 0.037227
0.037756 0.042544 0.037393
0.039579 0.044067 0.037751
0.047565 0.045843 0.037796
0.067285 0.048961 0.037723
0.082642 0.052621 0.036691
0.096545 0.056891 0.036044
0.122371 0.060247 0.033231
0.158741 0.062085 0.028978
0.194322 0.064677 0.010046
0.232789 0.069015 0.000072
0.278114 0.071799 0.000000
0.330122 0.071565 0.000000
0.384014 0.069853 0.000000
0.433788 0.066106 0.000000
0.476978 0.058206 0.000000
0.518028 0.041159 0.000000
0.556664 0.005437 0.000000
0.590372 0.000000 0.000000
0.616681 0.000000 0.000000
0.638142 0.000000 0.000000
0.655972 0.000000 0.000000
0.670741 0.000000 0.000000
0.682375 0.000000 0.000000
0.691316 0.000000 0.000000
0.698648 0.000000 0.000000
0.704951 0.000000 0.000000
0.709615 0.000000 0.000000
0.713402 0.000000 0.000000
0.717360 0.000000 0.000000
0.024446 0.043202 0.037354
0.027196 0.043727 0.037995
0.028077 0.044172 0.038661
0.032109 0.044827 0.039109
0.038361 0.045843 0.039246
0.040351 0.047485 0.039596
0.049402 0.049814 0.039909
0.069180 0.052754 0.039424
0.084992 0.056218 0.038159
0.099675 0.060842 0.037986
0.126417 0.064366 0.034448
0.164194 0.066796 0.030551
0.200980 0.069464 0.011120
0.240814 0.074929 0.000127
0.287349 0.078624 0.000000
0.340537 0.079164 0.000000
0.395711 0.078483 0.000000
0.446503 0.075635 0.000000
0.490284 0.069233 0.000000
0.531645 0.057323 0.000000
0.569933 0.028057 0.000000
0.602813 0.000112 0.000000
0.628987 0.000000 0.000000
0.650111 0.000000 0.000000
0.667561 0.000000 0.000000
0.682032 0.000000 0.000000
0.693463 0.000000 0.000000
0.702216 0.000000 0.000000
0.709383 0.000000 0.000000
0.715538 0.000000 0.000000
0.720069 0.000000 0.000000
0.723728 0.000000 0.000000
0.727562 0.000000 0.000000
0.018677 0.049222 0.039474
0.024681 0.049709 0.039945
0.026844 0.050106 0.040497
0.031688 0.050874 0.040966
0.038348 0.052214 0.041354
0.040923 0.054124 0.041829
0.049612 0.056339 0.042171
0.069831 0.059039 0.041061
0.087447 0.062974 0.040066
0.102957 0.067880 0.039754
0.130776 0.071822 0.035772
0.170015 0.075132 0.031317
0.208179 0.078809 0.010595
0.249315 0.083710 0.000000
0.297120 0.087629 0.000000
0.351650 0.089382 0.000000
0.408218 0.089804 0.000000
0.460142 0.088861 0.000000
0.504574 0.085459 0.000000
0.546233 0.077435 0.000000
0.584685 0.065947 0.000000
0.616807 0.049468 0.000000
0.641914 0.019703 0.000000
0.662425 0.013899 0.000000
0.679297 0.010831 0.000000
0.693378 0.007753 0.000000
0.704611 0.007180 0.000000
0.713260 0.008392 0.000000
0.720368 0.010486 0.000000
0.726480 0.012672 0.000000
0.731007 0.014232 0.000000
0.734687 0.016186 0.000000
0.738536 0.018059 0.000000
0.003413 0.061209 0.042355
0.007396 0.061676 0.042581
0.009357 0.062084 0.043003
0.019527 0.062782 0.042820
0.033501 0.064387 0.043201
0.036123 0.066380 0.043693
0.046583 0.068921 0.044077
0.069941 0.072130 0.043167
0.088957 0.076483 0.042046
0.105871 0.081616 0.039920
0.135137 0.086404 0.037414
0.175923 0.090196 0.030800
0.216232 0.094881 0.008324
0.259124 0.100946 0.000000
0.308346 0.106195 0.000000
0.364227 0.109463 0.000000
0.422244 0.111673 0.000000
0.475338 0.112469 0.000000
0.520449 0.111011 0.000000
0.562473 0.106519 0.000000
0.601109 0.100535 0.000000
0.633405 0.094257 0.000000
0.658227 0.089243 0.000000
0.677769 0.081739 0.000000
0.693755 0.073631 0.000000
0.707280 0.067181 0.000000
0.718308 0.066670 0.000000
0.726954 0.070318 0.000000
0.734171 0.076131 0.000000
0.740472 0.082138 0.000000
0.745289 0.087266 0.000000
0.749321 0.093339 0.000000
0.753501 0.099159 0.000000
0.000000 0.073350 0.045926
0.000000 0.073845 0.046257
0.000000 0.074275 0.046710
0.000256 0.074930 0.046441
0.023564 0.076520 0.046465
0.029930 0.078669 0.046850
0.041181 0.081392 0.046757
0.070038 0.085002 0.046006
0.089934 0.089718 0.044241
0.109267 0.095424 0.042041
0.140315 0.100853 0.038395
0.182934 0.105495 0.031152
0.225172 0.111083 0.008283
0.269969 0.118250 0.000000
0.320736 0.124905 0.000000
0.378018 0.129315 0.000000
0.437557 0.132819 0.000000
0.491902 0.134887 0.000000
0.537836 0.135424 0.000000
0.580277 0.133739 0.000000
0.619122 0.129890 0.000000
0.651559 0.126416 0.000000
0.676439 0.123785 0.000000
0.695896 0.120586 0.000000
0.711750 0.117776 0.000000
0.725158 0.116753 0.000000
0.736092 0.118229 0.000000
0.744618 0.121130 0.000000
0.751769 0.124334 0.000000
0.758042 0.127813 0.000000
0.762909 0.132278 0.000000
0.767027 0.137191 0.000000
0.771284 0.141880 0.000000
0.000000 0.084616 0.049031
0.000000 0.085181 0.049525
0.000000 0.085661 0.050127
0.000000 0.086477 0.050244
0.000342 0.088047 0.049893
0.001974 0.090321 0.050194
0.036341 0.093345 0.050422
0.069212 0.097343 0.049498
0.093022 0.102737 0.047769
0.112135 0.108808 0.045423
0.145572 0.114846 0.039832
0.190402 0.120309 0.030998
0.234724 0.126808 0.007950
0.281351 0.134915 0.000000
0.333715 0.142359 0.000000
0.392630 0.148265 0.000000
0.453831 0.153320 0.000000
0.509567 0.157003 0.000000
0.556348 0.158971 0.000000
0.599238 0.158539 0.000000
0.638360 0.156326 0.000000
0.670976 0.154379 0.000000
0.695900 0.152693 0.000000
0.715333 0.150809 0.000000
0.731083 0.149513 0.000000
0.744399 0.149593 0.000000
0.755210 0.151409 0.000000
0.763633 0.154414 0.000000
0.770676 0.157747 0.000000
0.776964 0.161613 0.000000
0.781936 0.166416 0.000000
0.786199 0.171861 0.000000
0.790607 0.177161 0.000000
0.000000 0.102616 0.053657
0.000000 0.103316 0.053914
0.000000 0.103919 0.054266
0.000000 0.104896 0.054209
0.000000 0.106744 0.053729
0.000000 0.109259 0.053614
0.007923 0.112320 0.052842
0.061294 0.116737 0.051330
0.092328 0.122832 0.049168
0.114259 0.129771 0.045199
0.149933 0.136729 0.039280
0.197263 0.143128 0.023278
0.244643 0.151374 0.001799
0.293879 0.161261 0.000000
0.347857 0.169793 0.000000
0.408293 0.176704 0.000000
0.471248 0.183345 0.000000
0.528404 0.188601 0.000000
0.576083 0.191832 0.000000
0.619442 0.192342 0.000000
0.658951 0.191912 0.000000
0.691788 0.191073 0.000000
0.716864 0.190507 0.000000
0.736323 0.189884 0.000000
0.752004 0.189431 0.000000
0.765232 0.190060 0.000000
0.775951 0.192234 0.000000
0.784217 0.195197 0.000000
0.791175 0.198836 0.000000
0.797478 0.203090 0.000000
0.802545 0.208318 0.000000
0.806964 0.213971 0.000000
0.811473 0.219007 0.000000
0.000000 0.126847 0.055713
0.000000 0.127849 0.055909
0.000000 0.128726 0.056209
0.000000 0.130068 0.056069
0.000000 0.132396 0.055446
0.000012 0.135320 0.054999
0.000000 0.139103 0.054108
0.032896 0.143779 0.050966
0.084746 0.150737 0.046368
0.112502 0.158856 0.040813
0.152177 0.167016 0.031289
0.203354 0.175434 0.007854
0.255075 0.186427 0.000000
0.306826 0.197700 0.000008
0.362889 0.207533 0.000000
0.425315 0.216149 0.000000
0.489925 0.224015 0.000000
0.548496 0.230536 0.000000
0.597163 0.235008 0.000000
0.641165 0.236950 0.000000
0.681073 0.237659 0.000000
0.714215 0.237881 0.000000
0.739481 0.238153 0.000000
0.758961 0.238146 0.000000
0.774582 0.238195 0.000000
0.787756 0.239254 0.000000
0.798411 0.241686 0.000000
0.806570 0.244885 0.000000
0.813467 0.248732 0.000000
0.819712 0.253006 0.000000
0.824821 0.258319 0.000000
0.829271 0.263944 0.000000
0.833826 0.269329 0.000000
0.000000 0.151377 0.057310
0.000000 0.152689 0.057407
0.000000 0.153848 0.057624
0.000000 0.155568 0.057356
0.000000 0.158421 0.056486
0.000000 0.162152 0.055931
0.000000 0.166512 0.054485
0.012690 0.171633 0.049430
0.068835 0.179333 0.042245
0.107478 0.188693 0.034500
0.153534 0.198393 0.006379
0.210691 0.209942 0.000000
0.265976 0.222754 0.000050
0.320692 0.235419 0.000000
0.379218 0.246801 0.000000
0.443338 0.256482 0.000000
0.509817 0.265526 0.000000
0.569879 0.273117 0.000000
0.619623 0.278619 0.000000
0.664293 0.281533 0.000000
0.704699 0.282973 0.000000
0.738215 0.283987 0.000000
0.763761 0.285033 0.000000
0.783328 0.285413 0.000000
0.798853 0.285650 0.000000
0.812051 0.287321 0.000000
0.822681 0.290021 0.000000
0.830787 0.293448 0.000000
0.837513 0.297346 0.000000
0.843757 0.302188 0.000000
0.848867 0.307996 0.000000
0.853305 0.314063 0.000000
0.857871 0.319852 0.000000
0.000000 0.176599 0.058198
0.000000 0.178230 0.058330
0.000000 0.179676 0.058601
0.000000 0.181793 0.058223
0.000000 0.185201 0.056847
0.000000 0.189529 0.055663
0.000000 0.194642 0.053226
0.000000 0.200640 0.045257
0.044830 0.209017 0.035754
0.099339 0.219658 0.003706
0.153374 0.232610 0.000000
0.216588 0.246060 0.000021
0.276638 0.260429 0.000000
0.334621 0.274735 0.000000
0.395220 0.287414 0.000000
0.461520 0.298376 0.000000
0.530005 0.308645 0.000000
0.591702 0.317322 0.000000
0.642517 0.323679 0.000000
0.688082 0.327643 0.000000
0.729066 0.329900 0.000000
0.763054 0.331594 0.000000
0.788872 0.333020 0.000000
0.808476 0.333578 0.000000
0.824108 0.334363 0.000000
0.837284 0.336084 0.000000
0.847847 0.338873 0.000000
0.855791 0.342379 0.000000
0.862529 0.346781 0.000000
0.868771 0.352024 0.000000
0.873809 0.358044 0.000000
0.878131 0.364335 0.000000
0.882585 0.370485 0.000000
0.000000 0.204796 0.056776
0.000000 0.206792 0.056611
0.000000 0.208574 0.056595
0.000000 0.211115 0.055795
0.000000 0.215164 0.053906
0.000000 0.220235 0.052001
0.000000 0.226099 0.046492
0.000099 0.233306 0.034984
0.000000 0.242991 0.004559
0.079719 0.256572 0.000000
0.151075 0.271354 0.000000
0.220789 0.286463 0.000000
0.285015 0.302574 0.000000
0.346813 0.318684 0.000000
0.410656 0.333165 0.000000
0.478953 0.345594 0.000000
0.549376 0.357185 0.000000
0.612690 0.367066 0.000000
0.664815 0.374552 0.000000
0.711289 0.379478 0.000000
0.752965 0.382563 0.000000
0.787546 0.385042 0.000000
0.813708 0.386958 0.000000
0.833534 0.387853 0.000000
0.849202 0.388645 0.000000
0.862362 0.390401 0.000000
0.872924 0.393361 0.000000
0.880883 0.397059 0.000000
0.887537 0.401386 0.000000
0.893632 0.406481 0.000000
0.898561 0.412563 0.000000
0.902784 0.418941 0.000000
0.907135 0.425042 0.000000
0.000000 0.236338 0.050900
0.000000 0.238660 0.050499
0.000000 0.240824 0.050438
0.000000 0.243771 0.048488
0.000000 0.248526 0.043432
0.000000 0.254495 0.037268
0.000000 0.261663 0.024401
0.000000 0.270917 0.007126
0.000000 0.283706 0.000000
0.032182 0.298597 0.000001
0.141687 0.315052 0.000000
0.221434 0.332030 0.000000
0.291539 0.350173 0.000000
0.357289 0.368336 0.000000
0.423727 0.384636 0.000000
0.494974 0.398860 0.000000
0.567673 0.412101 0.000000
0.633062 0.423582 0.000000
0.686380 0.432217 0.000000
0.733967 0.438245 0.000000
0.776537 0.442368 0.000000
0.811691 0.445480 0.000000
0.838242 0.447678 0.000000
0.858288 0.448629 0.000000
0.874007 0.449301 0.000000
0.887254 0.451057 0.000000
0.897846 0.454040 0.000000
0.905732 0.457652 0.000000
0.912247 0.461859 0.000000
0.918178 0.466714 0.000000
0.922990 0.472495 0.000000
0.927062 0.478582 0.000000
0.931192 0.484341 0.000000
0.000000 0.269023 0.037380
0.000000 0.271778 0.036078
0.000000 0.274221 0.035802
0.000000 0.277684 0.027044
0.000000 0.283448 0.016242
0.000000 0.290811 0.011432
0.000000 0.299861 0.000000
0.000000 0.311638 0.000000
0.000211 0.326174 0.000039
0.000000 0.342659 0.000000
0.122177 0.360466 0.000000
0.219038 0.379425 0.000000
0.295823 0.399689 0.000000
0.366331 0.420012 0.000000
0.436516 0.438364 0.000000
0.510491 0.454390 0.000000
0.585658 0.469364 0.000000
0.653070 0.482350 0.000000
0.708201 0.492439 0.000000
0.756784 0.499457 0.000000
0.800213 0.504402 0.000000
0.836097 0.508158 0.000000
0.863139 0.510680 0.000000
0.883394 0.511542 0.000000
0.899200 0.512004 0.000000
0.912537 0.513670 0.000000
0.923138 0.516613 0.000000
0.930985 0.520269 0.000000
0.937486 0.524514 0.000000
0.943318 0.529216 0.000000
0.947813 0.534561 0.000000
0.951610 0.540256 0.000000
0.955475 0.545695 0.000000
0.000000 0.299748 0.006576
0.000000 0.303049 0.006200
0.000000 0.305950 0.006181
0.000000 0.310221 0.002644
0.000000 0.317239 0.000000
0.000000 0.325985 0.000000
0.000000 0.336541 0.000056
0.000000 0.349541 0.000000
0.000000 0.365525 0.000000
0.000000 0.383607 0.000000
0.069485 0.402623 0.000000
0.217190 0.423453 0.000000
0.298932 0.445712 0.000000
0.374042 0.468053 0.000000
0.447446 0.488283 0.000000
0.524291 0.506043 0.000000
0.601914 0.522697 0.000000
0.671441 0.537206 0.000000
0.728021 0.548504 0.000000
0.777861 0.556618 0.000000
0.822290 0.562423 0.000000
0.858886 0.566802 0.000000
0.886357 0.569639 0.000000
0.906918 0.570602 0.000000
0.922882 0.570971 0.000000
0.936212 0.572486 0.000000
0.946975 0.575505 0.000000
0.954841 0.579185 0.000000
0.961167 0.583252 0.000000
0.966804 0.587662 0.000000
0.971109 0.592658 0.000000
0.974622 0.597905 0.000000
0.978279 0.603000 0.000000
0.000000 0.327451 0.000000
0.000000 0.331309 0.000000
0.000000 0.334712 0.000000
0.000000 0.339655 0.000000
0.000000 0.347472 0.000000
0.000000 0.357021 0.000000
0.000000 0.368494 0.000000
0.000000 0.382603 0.000000
0.000000 0.399844 0.000000
0.000000 0.419284 0.000000
0.023768 0.439624 0.000000
0.212683 0.461827 0.000000
0.300910 0.485837 0.000000
0.380084 0.509943 0.000000
0.456780 0.531865 0.000000
0.535746 0.551179 0.000000
0.615584 0.569378 0.000000
0.686756 0.585296 0.000000
0.744593 0.597739 0.000000
0.795725 0.606893 0.000000
0.841072 0.613590 0.000000
0.878319 0.618654 0.000000
0.906451 0.622041 0.000000
0.927252 0.623276 0.000000
0.943366 0.623813 0.000000
0.957053 0.625493 0.000000
0.967804 0.628397 0.000000
0.975604 0.631844 0.000000
0.981825 0.635609 0.000000
0.987492 0.639767 0.000000
0.991589 0.644234 0.000000
0.994835 0.648878 0.000000
0.998267 0.653429 0.000000
0.000000 0.354066 0.000000
0.000000 0.358519 0.000000
0.000000 0.362492 0.000000
0.000000 0.368060 0.000000
0.000000 0.376608 0.000000
0.000000 0.386923 0.000000
0.000000 0.399258 0.000000
0.000000 0.414400 0.000000
0.000000 0.432836 0.000000
0.000000 0.453578 0.000000
0.020491 0.475293 0.000000
0.201058 0.498729 0.000000
0.300673 0.524429 0.000000
0.383888 0.550251 0.000000
0.463860 0.573822 0.000000
0.544859 0.594677 0.000000
0.626803 0.614455 0.000000
0.699604 0.631805 0.000000
0.758796 0.645517 0.000000
0.810846 0.655722 0.000000
0.857295 0.663377 0.000000
0.895378 0.669226 0.000000
0.924119 0.673335 0.000000
0.945384 0.675165 0.000000
0.961970 0.676145 0.000000
0.975696 0.677919 0.000000
0.986523 0.680703 0.000000
0.993530 0.683492 0.000000
0.998909 0.686502 0.000000
1.000000 0.688615 0.000000
1.000000 0.690679 0.000000
1.000000 0.693261 0.000000
1.000000 0.695707 0.000000
0.000000 0.378707 0.000000
0.000000 0.383777 0.000000
0.000000 0.388342 0.000000
0.000000 0.394548 0.000000
0.000000 0.403794 0.000000
0.000000 0.414808 0.000000
0.000000 0.427917 0.000000
0.000000 0.443996 0.000000
0.000000 0.463522 0.000000
0.000000 0.485459 0.000000
0.017710 0.508439 0.000000
0.186226 0.533018 0.000000
0.299734 0.560292 0.000000
0.387011 0.587697 0.000000
0.469404 0.612796 0.000000
0.552694 0.635151 0.000000
0.636168 0.656374 0.000000
0.710420 0.675115 0.000000
0.770795 0.690014 0.000000
0.824054 0.701289 0.000000
0.871356 0.709861 0.000000
0.910184 0.716498 0.000000
0.939594 0.721285 0.000000
0.961323 0.723744 0.000000
0.978388 0.725240 0.000000
0.992012 0.727083 0.000000
1.000000 0.728684 0.000000
1.000000 0.728734 0.000000
1.000000 0.729070 0.000000
0.999986 0.729943 0.000000
1.000000 0.731665 0.000000
1.000000 0.733619 0.000000
1.000000 0.735481 0.000000
0.000000 0.399011 0.000000
0.000000 0.404695 0.000000
0.000000 0.409844 0.000000
0.000000 0.416643 0.000000
0.000000 0.426501 0.000000
0.000000 0.438077 0.000000
0.000000 0.451791 0.000000
0.000000 0.468600 0.000000
0.000000 0.488977 0.000000
0.000000 0.511844 0.000000
0.014836 0.535825 0.000000
0.171347 0.561323 0.000000
0.298853 0.589835 0.000000
0.389431 0.618507 0.000000
0.474124 0.644845 0.000000
0.559161 0.668410 0.000000
0.643991 0.690872 0.000000
0.719217 0.710736 0.000000
0.780594 0.726620 0.000000
0.834821 0.738783 0.000000
0.882891 0.748123 0.000000
0.922482 0.755483 0.000000
0.952404 0.760884 0.000000
0.974706 0.763953 0.000000
0.991712 0.765755 0.000000
1.000000 0.765844 0.000000
1.000000 0.764595 0.000000
0.999999 0.764263 0.000000
1.000000 0.764533 0.000000
1.000000 0.765073 0.000000
1.000000 0.766135 0.000000
1.000000 0.767534 0.000000
1.000000 0.768853 0.000000
0.000000 0.413917 0.000000
0.000000 0.420175 0.000000
0.000000 0.425891 0.000000
0.000000 0.433227 0.000000
0.000000 0.443557 0.000000
0.000000 0.455531 0.000000
0.000000 0.469629 0.000000
0.000000 0.486912 0.000000
0.000000 0.507845 0.000000
0.000000 0.531321 0.000000
0.012530 0.555964 0.000000
0.159670 0.582105 0.000000
0.298486 0.611471 0.000000
0.391284 0.641030 0.000000
0.477716 0.668261 0.000000
0.564048 0.692732 0.000000
0.649813 0.716118 0.000000
0.726104 0.736902 0.000000
0.788209 0.753565 0.000000
0.842964 0.766403 0.000000
0.891631 0.776386 0.000000
0.931751 0.784298 0.000000
0.962054 0.790216 0.000000
0.984826 0.793778 0.000000
1.000000 0.795387 0.000000
1.000000 0.792845 0.000000
0.999997 0.791337 0.000000
1.000000 0.790805 0.000000
1.000000 0.790822 0.000000
1.000000 0.791267 0.000000
1.000000 0.792427 0.000000
1.000000 0.793449 0.000000
1.000000 0.794433 0.000000
0.000000 0.425009 0.000000
0.000000 0.431837 0.000000
0.000000 0.438111 0.000000
0.000000 0.445940 0.000000
0.000000 0.456660 0.000000
0.000000 0.468896 0.000000
0.000000 0.483223 0.000000
0.000000 0.500794 0.000000
0.000000 0.522067 0.000000
0.000000 0.545923 0.000000
0.010422 0.570995 0.000000
0.149414 0.597584 0.000000
0.298650 0.627537 0.000000
0.392754 0.657722 0.000000
0.479948 0.685608 0.000000
0.567147 0.710804 0.000000
0.654037 0.734988 0.000000
0.730862 0.756504 0.000000
0.793521 0.773840 0.000000
0.848548 0.787225 0.000000
0.897690 0.797764 0.000000
0.938165 0.806212 0.000000
0.968808 0.812593 0.000000
0.991922 0.816650 0.000000
1.000000 0.816272 0.000000
1.000000 0.813774 0.000000
1.000000 0.812551 0.000000
1.000000 0.812010 0.000000
1.000000 0.811870 0.000000
1.000000 0.811984 0.000000
1.000000 0.812519 0.000000
1.000000 0.813288 0.000000
1.000000 0.814001 0.000000
0.000000 0.433872 0.000000
0.000000 0.441320 0.000000
0.000000 0.448203 0.000000
0.000000 0.456565 0.000000
0.000000 0.467645 0.000000
0.000000 0.480087 0.000000
0.000000 0.494556 0.000000
0.000000 0.512278 0.000000
0.000000 0.533748 0.000000
0.000000 0.557797 0.000000
0.009523 0.583111 0.000000
0.145561 0.609991 0.000000
0.299847 0.640303 0.000000
0.394552 0.670891 0.000000
0.482485 0.699243 0.000000
0.570007 0.724948 0.000000
0.657171 0.749714 0.000000
0.734549 0.771823 0.000000
0.797385 0.789669 0.000000
0.852840 0.803576 0.000000
0.902188 0.814569 0.000000
0.942893 0.823435 0.000000
0.973791 0.830266 0.000000
0.997097 0.834730 0.000000
1.000000 0.832975 0.000000
1.000000 0.830923 0.000000
1.000000 0.829795 0.000000
1.000000 0.829188 0.000000
1.000000 0.828919 0.000000
1.000000 0.828905 0.000000
1.000000 0.829273 0.000000
1.000000 0.829838 0.000000
1.000000 0.830356 0.000000
0.000000 0.441599 0.000000
0.000000 0.449779 0.000000
0.000000 0.457395 0.000000
0.000000 0.466365 0.000000
0.000000 0.477842 0.000000
0.000000 0.490495 0.000000
0.000000 0.505061 0.000000
0.000000 0.522871 0.000000
0.000000 0.544412 0.000000
0.000000 0.568512 0.000000
0.010527 0.593917 0.000000
0.151402 0.620952 0.000000
0.302791 0.651402 0.000000
0.397742 0.682165 0.000000
0.485794 0.710746 0.000000
0.573407 0.736760 0.000000
0.660601 0.761876 0.000000
0.737873 0.784337 0.000000
0.800750 0.802529 0.000000
0.856379 0.816765 0.000000
0.905774 0.828112 0.000000
0.946701 0.837320 0.000000
0.977925 0.844496 0.000000
1.000000 0.848946 0.000000
0.999999 0.846429 0.000000
1.000000 0.844646 0.000000
1.000000 0.843560 0.000000
1.000000 0.842886 0.000000
1.000000 0.842504 0.000000
1.000000 0.842376 0.000000
1.000000 0.842595 0.000000
1.000000 0.842991 0.000000
1.000000 0.843345 0.000000
0.000000 0.447769 0.000000
0.000000 0.456804 0.000000
0.000000 0.465257 0.000000
0.000000 0.474922 0.000000
0.000000 0.486851 0.000000
0.000000 0.499733 0.000000
0.000000 0.514401 0.000000
0.000000 0.532244 0.000000
0.000000 0.553765 0.000000
0.000000 0.577787 0.000000
0.012772 0.603136 0.000000
0.163877 0.630205 0.000000
0.307352 0.660595 0.000000
0.402095 0.691326 0.000000
0.489684 0.719928 0.000000
0.576961 0.746032 0.000000
0.663825 0.771264 0.000000
0.740851 0.793881 0.000000
0.803693 0.812229 0.000000
0.859427 0.826702 0.000000
