Film Looks/Rec709 Fujifilm 3513DI D65.cube
# Resolve Film Look LUT
#   Input: Cineon Log 
#        : floating point data (range 0.0 - 1.0)
#  Output: FUJIFILM 3513DI film stock 'look' with D65 White Point
#        : floating point data (range 0.0 - 1.0)
# Display: ITU-Rec.709, Gamma 2.4
LUT_3D_SIZE 5
LUT_3D_INPUT_RANGE 0.0 1.0
0.028579 0.023029 0.030894
0.056584 0.031602 0.032995
0.320698 0.000000 0.000000
0.578509 0.000000 0.000000
0.662085 0.000000 0.000000
0.000000 0.099923 0.050641
0.074721 0.105351 0.049877
0.412380 0.150536 0.000000
0.683732 0.134706 0.000000
0.763422 0.155143 0.000000
0.000000 0.300036 0.000000
0.000000 0.323004 0.000000
0.525780 0.443078 0.000000
0.835766 0.475142 0.000000
0.915401 0.507599 0.000000
0.000000 0.455576 0.000000
0.000000 0.525301 0.000000
0.599986 0.708026 0.000000
0.958567 0.782808 0.000000
1.000000 0.796371 0.000000
0.000000 0.509754 0.000000
0.000000 0.636968 0.000000
0.680258 0.802723 0.000000
1.000000 0.879490 0.000000
1.000000 0.875982 0.000000
0.016994 0.013311 0.109035
0.065468 0.029432 0.105358
0.371691 0.000000 0.109413
0.641632 0.000000 0.119771
0.715591 0.000000 0.158062
0.000000 0.119610 0.148475
0.071452 0.126146 0.134233
0.462095 0.152166 0.111890
0.732014 0.048306 0.047369
0.794686 0.066400 0.108567
0.000000 0.378201 0.208752
0.000000 0.402274 0.187788
0.575591 0.502058 0.072230
0.895044 0.524255 0.000000
0.944232 0.540351 0.051667
0.000000 0.541269 0.304099
0.000000 0.609548 0.280350
0.616550 0.764935 0.127737
0.988359 0.831699 0.000000
1.000000 0.825620 0.001084
0.000000 0.605702 0.480993
0.000000 0.716768 0.481699
0.624436 0.837816 0.435709
0.970887 0.896577 0.408376
1.000000 0.903955 0.449454
0.000000 0.000000 0.369999
0.006771 0.000000 0.365940
0.405482 0.000000 0.404544
0.672224 0.000000 0.431929
0.740901 0.000000 0.474692
0.000000 0.055557 0.444511
0.000000 0.118235 0.448337
0.476486 0.151782 0.471703
0.748636 0.004308 0.474442
0.805390 0.065050 0.524612
0.000000 0.458609 0.600891
0.000000 0.487113 0.606783
0.549019 0.578658 0.595709
0.882747 0.587222 0.594004
0.936625 0.616454 0.641692
0.000000 0.623071 0.702292
0.000000 0.695026 0.716902
0.542588 0.846962 0.702306
0.948314 0.906759 0.702122
1.000000 0.921783 0.738853
0.000000 0.655612 0.782337
0.000000 0.769864 0.812946
0.559411 0.891301 0.808221
0.944453 0.960387 0.823271
1.000000 0.973610 0.849034
0.000000 0.000000 0.514252
0.000000 0.000000 0.530664
0.414124 0.000000 0.586416
0.696412 0.000000 0.628779
0.768113 0.000000 0.658754
0.000000 0.000000 0.620504
0.000000 0.000000 0.633922
0.475775 0.092495 0.691150
0.770790 0.000000 0.720251
0.822698 0.000000 0.745265
0.000000 0.478079 0.793698
0.000000 0.506411 0.816806
0.514923 0.609362 0.838506
0.882121 0.626333 0.866893
0.939651 0.653237 0.889510
0.000000 0.639687 0.854602
0.000000 0.715922 0.891673
0.484070 0.875656 0.912820
0.935564 0.949917 0.950691
0.997263 0.962580 0.964176
0.000000 0.664322 0.877911
0.000000 0.778597 0.917994
0.518340 0.906156 0.935551
0.934112 0.984967 0.975673
1.000000 0.997449 0.985927
0.000000 0.000000 0.543325
0.000000 0.000000 0.565750
0.412141 0.000000 0.627559
0.704822 0.000000 0.676228
0.776155 0.000000 0.698568
0.000000 0.000000 0.655113
0.000000 0.000000 0.676025
0.472256 0.123012 0.743276
0.774303 0.000000 0.775804
0.829089 0.061403 0.792653
0.000000 0.481019 0.818276
0.000000 0.511367 0.846896
0.495650 0.619774 0.879963
0.880885 0.642489 0.918399
0.942296 0.668875 0.932170
0.000000 0.643157 0.869642
0.000000 0.713381 0.909919
0.459734 0.877848 0.939066
0.930080 0.956494 0.985124
0.996136 0.968531 0.993613
0.000000 0.665091 0.885559
0.000000 0.777546 0.928320
0.498034 0.905923 0.947763
0.929236 0.986971 0.991166
0.999982 1.000000 0.999967
