Film Looks/Rec709 Kodak 2383 D65.cube
# Resolve Film Look LUT
#   Input: Cineon Log 
#        : floating point data (range 0.0 - 1.0)
#  Output: Kodak 2383 film stock 'look' with D65 White Point
#        : floating point data (range 0.0 - 1.0)
# Display: ITU-Rec.709, Gamma 2.4
LUT_3D_SIZE 33
LUT_3D_INPUT_RANGE 0.0 1.0
0.026593 0.027922 0.033092
0.027961 0.028699 0.034241
0.028727 0.029390 0.035374
0.031679 0.030281 0.036298
0.037351 0.031358 0.036684
0.038841 0.032775 0.037073
0.045727 0.034209 0.037005
0.061430 0.036216 0.037006
0.075496 0.040320 0.037264
0.088369 0.044361 0.036423
0.111849 0.047844 0.034954
0.144545 0.050433 0.031779
0.175381 0.053057 0.027073
0.207965 0.053870 0.006034
0.249723 0.054639 0.000000
0.299351 0.052617 0.000000
0.350657 0.046771 0.000000
0.398325 0.035706 0.000000
0.440694 0.001118 0.000000
0.483187 0.000000 0.000000
0.523177 0.000000 0.000000
0.557217 0.000000 0.000000
0.584515 0.000000 0.000000
0.607596 0.000000 0.000000
0.627265 0.000000 0.000000
0.643718 0.000000 0.000000
0.656984 0.000000 0.000000
0.667624 0.000000 0.000000
0.676494 0.000000 0.000000
0.684004 0.000000 0.000000
0.689616 0.000000 0.000000
0.694234 0.000000 0.000000
0.699030 0.000000 0.000000
0.026198 0.030301 0.034375
0.027481 0.031012 0.035437
0.028145 0.031645 0.036489
0.031258 0.032456 0.037321
0.037159 0.033505 0.037670
0.038749 0.034965 0.038086
0.046087 0.036421 0.038025
0.062919 0.038667 0.038102
0.077589 0.042997 0.038172
0.090857 0.047087 0.037160
0.115098 0.051170 0.035916
0.148975 0.053248 0.032013
0.181217 0.055425 0.027005
0.215065 0.056070 0.003754
0.258109 0.057569 0.000000
0.308579 0.055853 0.000000
0.360780 0.051514 0.000000
0.409211 0.042016 0.000000
0.451659 0.002655 0.000000
0.494487 0.000000 0.000000
0.534739 0.000000 0.000000
0.568894 0.000000 0.000000
0.596087 0.000000 0.000000
0.618882 0.000000 0.000000
0.638178 0.000000 0.000000
0.654267 0.000000 0.000000
0.667152 0.000000 0.000000
0.677359 0.000000 0.000000
0.685840 0.000000 0.000000
0.693051 0.000000 0.000000
0.698426 0.000000 0.000000
0.702838 0.000000 0.000000
0.707429 0.000000 0.000000
0.026255 0.031904 0.035499
0.027356 0.032568 0.036479
0.027912 0.033167 0.037461
0.031130 0.033932 0.038220
0.037247 0.034970 0.038539
0.038924 0.036469 0.038982
0.046702 0.038055 0.038979
0.064469 0.040589 0.039174
0.079577 0.044925 0.038994
0.093283 0.049338 0.037932
0.117988 0.053130 0.036615
0.153069 0.054994 0.032263
0.186699 0.057163 0.026669
0.221814 0.058001 0.002329
0.265942 0.059456 0.000003
0.317245 0.057929 0.000000
0.370287 0.054011 0.000000
0.419435 0.044564 0.000000
0.462410 0.017351 0.000000
0.505335 0.000000 0.000000
0.545891 0.000000 0.000000
0.580176 0.000000 0.000000
0.607288 0.000000 0.000000
0.629817 0.000000 0.000000
0.648776 0.000000 0.000000
0.664528 0.000000 0.000000
0.677041 0.000000 0.000000
0.686838 0.000000 0.000000
0.694940 0.000000 0.000000
0.701861 0.000000 0.000000
0.707015 0.000000 0.000000
0.711232 0.000000 0.000000
0.715624 0.000000 0.000000
0.024315 0.035571 0.036950
0.026561 0.036309 0.037921
0.026932 0.036826 0.038811
0.030382 0.037468 0.039443
0.036678 0.038472 0.039721
0.038447 0.040017 0.040179
0.046663 0.041757 0.040236
0.066111 0.044748 0.040460
0.081778 0.049048 0.039929
0.095651 0.053595 0.039183
0.121027 0.056908 0.037256
0.157422 0.058992 0.032975
0.192514 0.061569 0.026087
0.229068 0.063315 0.002339
0.274165 0.064556 0.000000
0.326370 0.063188 0.000000
0.380365 0.060015 0.000000
0.430310 0.053459 0.000000
0.473826 0.038704 0.000000
0.516059 0.000000 0.000000
0.557045 0.000224 0.000000
0.591454 0.000000 0.000000
0.618494 0.000000 0.000000
0.640769 0.000000 0.000000
0.659391 0.000000 0.000000
0.674823 0.000000 0.000000
0.687005 0.000000 0.000000
0.696434 0.000000 0.000000
0.704194 0.000000 0.000000
0.710852 0.000000 0.000000
0.715794 0.000000 0.000000
0.719819 0.000000 0.000000
0.724018 0.000000 0.000000
0.019979 0.040868 0.038835
0.023240 0.041702 0.039824
0.024977 0.042276 0.040693
0.029655 0.042932 0.041268
0.035919 0.043945 0.041520
0.037807 0.045574 0.041972
0.047034 0.047821 0.042312
0.067807 0.051017 0.042181
0.083766 0.054800 0.041285
0.098133 0.059391 0.041005
0.124565 0.062871 0.038362
0.162416 0.065429 0.034304
0.199033 0.068778 0.026674
0.237043 0.071493 0.002412
0.283342 0.074420 0.000000
0.336574 0.073835 0.000000
0.391705 0.071051 0.000000
0.442592 0.066258 0.000000
0.486710 0.057313 0.000000
0.528649 0.031853 0.000000
0.568632 0.000000 0.000000
0.603270 0.000075 0.000000
0.630210 0.000000 0.000000
0.652196 0.000000 0.000000
0.670468 0.000000 0.000000
0.685587 0.000000 0.000000
0.697493 0.000000 0.000000
0.706633 0.000000 0.000000
0.714129 0.000000 0.000000
0.720565 0.000000 0.000000
0.725317 0.000000 0.000000
0.729168 0.000000 0.000000
0.733197 0.000000 0.000000
0.019229 0.044458 0.041237
0.022870 0.045251 0.042171
0.025416 0.045737 0.042951
0.030022 0.046401 0.043489
0.036446 0.047464 0.043710
0.039084 0.049439 0.044288
0.048786 0.051968 0.044757
0.069270 0.054770 0.044116
0.086395 0.058786 0.043438
0.101236 0.063552 0.043264
0.128688 0.067265 0.039969
0.168003 0.070628 0.035942
0.205891 0.074434 0.029484
0.245156 0.077603 0.002753
0.292607 0.080470 0.000000
0.347118 0.080950 0.000000
0.403582 0.079868 0.000000
0.455519 0.076182 0.000000
0.500247 0.068928 0.000000
0.542461 0.054154 0.000000
0.581755 0.021686 0.000000
0.615876 0.000000 0.000000
0.642698 0.000000 0.000000
0.664346 0.000000 0.000000
0.682220 0.000000 0.000000
0.697039 0.000008 0.000000
0.708729 0.000000 0.000000
0.717679 0.000001 0.000000
0.724995 0.000000 0.000000
0.731271 0.000000 0.000000
0.735883 0.000000 0.000000
0.739603 0.000000 0.000000
0.743502 0.000000 0.000000
0.011997 0.050911 0.043840
0.015671 0.051609 0.044653
0.019380 0.052061 0.045400
0.028673 0.052837 0.045826
0.037134 0.054403 0.046367
0.039402 0.056258 0.046876
0.048343 0.058580 0.047270
0.069950 0.061602 0.046564
0.088886 0.066006 0.045901
0.104398 0.070934 0.045472
0.133292 0.075482 0.042426
0.173747 0.079281 0.037181
0.212990 0.083036 0.030575
0.253741 0.086625 0.002842
0.302521 0.090222 0.000000
0.358384 0.091885 0.000000
0.416287 0.091926 0.000000
0.469393 0.090462 0.000000
0.514793 0.086431 0.000000
0.557335 0.076773 0.000000
0.596544 0.061485 0.000000
0.629422 0.029131 0.000000
0.655523 0.014544 0.000000
0.676558 0.010865 0.000000
0.693827 0.003820 0.000000
0.708278 0.000000 0.000000
0.719804 0.000000 0.000000
0.728585 0.000000 0.000000
0.735781 0.000000 0.000000
0.742015 0.006533 0.000000
0.746622 0.010147 0.000000
0.750361 0.013225 0.000000
0.754271 0.015280 0.000000
0.000000 0.063844 0.047657
0.000348 0.064342 0.048161
0.002051 0.064806 0.048810
0.008931 0.065552 0.048844
0.029775 0.067213 0.049227
0.033393 0.069323 0.049806
0.043456 0.071964 0.050193
0.069458 0.075382 0.049637
0.088929 0.080020 0.048735
0.107105 0.085520 0.046972
0.137096 0.090443 0.044572
0.179660 0.094891 0.038030
0.220764 0.099579 0.028833
0.263433 0.104360 0.002557
0.313832 0.109867 0.000000
0.371115 0.113225 0.000000
0.430519 0.115236 0.000000
0.484845 0.115843 0.000000
0.530966 0.114076 0.000000
0.573878 0.108460 0.000000
0.613334 0.101327 0.000000
0.646282 0.094343 0.000000
0.671575 0.086212 0.000000
0.691489 0.075562 0.000000
0.707798 0.060373 0.000000
0.721677 0.046090 0.000000
0.733002 0.047248 0.000000
0.741737 0.048345 0.000000
0.749005 0.056353 0.000000
0.755431 0.070317 0.000000
0.760357 0.079238 0.000000
0.764474 0.087405 0.000000
0.768740 0.093708 0.000000
0.000000 0.076706 0.052671
0.000000 0.077317 0.052828
0.000000 0.077760 0.053354
0.000000 0.078482 0.053381
0.004192 0.079943 0.053047
0.009868 0.082144 0.053360
0.038486 0.084990 0.053406
0.068481 0.088838 0.052945
0.089948 0.093921 0.052083
0.109988 0.100013 0.050731
0.142156 0.105691 0.046992
0.186209 0.110794 0.039969
0.229358 0.116107 0.028249
0.274360 0.122623 0.002357
0.326220 0.129041 0.000000
0.384978 0.133580 0.000000
0.446009 0.137280 0.000000
0.501669 0.139544 0.000000
0.548612 0.139580 0.000000
0.592001 0.137169 0.000000
0.631695 0.132893 0.000000
0.664810 0.128512 0.000000
0.690205 0.125228 0.000000
0.710090 0.121768 0.000000
0.726237 0.118448 0.000000
0.739924 0.117671 0.000000
0.751069 0.118818 0.000000
0.759797 0.121798 0.000000
0.767072 0.125140 0.000000
0.773478 0.128921 0.000000
0.778453 0.133625 0.000000
0.782650 0.138785 0.000000
0.786993 0.143825 0.000000
0.000000 0.088882 0.056817
0.000000 0.089443 0.057196
0.000000 0.089920 0.057681
0.000001 0.090723 0.057716
0.000000 0.092290 0.057316
0.000000 0.094632 0.057528
0.013187 0.097494 0.057138
0.068182 0.101821 0.056721
0.092400 0.107473 0.055374
0.111819 0.113864 0.053646
0.147569 0.120528 0.050420
0.193768 0.126421 0.042007
0.238829 0.132613 0.027741
0.285483 0.139524 0.002240
0.339257 0.147304 0.000000
0.399726 0.153521 0.000000
0.462439 0.158595 0.000000
0.519484 0.162087 0.000000
0.567390 0.163909 0.000000
0.611275 0.163302 0.000000
0.651252 0.160610 0.000000
0.684576 0.158153 0.000000
0.710071 0.156254 0.000000
0.729927 0.154250 0.000000
0.745992 0.152780 0.000000
0.759576 0.152648 0.000000
0.770637 0.154370 0.000000
0.779195 0.157048 0.000000
0.786377 0.160527 0.000000
0.792796 0.164977 0.000000
0.797889 0.170413 0.000000
0.802241 0.176287 0.000000
0.806746 0.181451 0.000000
0.000000 0.107502 0.060796
0.000000 0.108236 0.061134
0.000000 0.108870 0.061571
0.000000 0.109892 0.061569
0.000000 0.111816 0.061135
0.000000 0.114523 0.061205
0.006316 0.117672 0.060515
0.053718 0.122121 0.059193
0.089571 0.128558 0.057483
0.113550 0.135939 0.055111
0.149844 0.143205 0.050887
0.199952 0.150176 0.041656
0.247906 0.157549 0.013106
0.297824 0.167017 0.000000
0.353403 0.176058 0.000000
0.415474 0.183354 0.000000
0.479944 0.189896 0.000000
0.538520 0.195142 0.000000
0.587410 0.198621 0.000000
0.631838 0.199297 0.000000
0.672173 0.198131 0.000000
0.705758 0.197058 0.000000
0.731426 0.196510 0.000000
0.751290 0.195397 0.000000
0.767292 0.194688 0.000000
0.780831 0.195627 0.000000
0.791784 0.197679 0.000000
0.800211 0.200643 0.000000
0.807304 0.204437 0.000000
0.813737 0.209290 0.000000
0.818938 0.214899 0.000000
0.823420 0.220473 0.000000
0.827992 0.225715 0.000000
0.000000 0.132562 0.063650
0.000000 0.133657 0.064050
0.000000 0.134612 0.064540
0.000000 0.136082 0.064629
0.000000 0.138750 0.064366
0.000010 0.142100 0.064358
0.000000 0.145955 0.063325
0.025108 0.150656 0.060139
0.077094 0.157821 0.057193
0.108607 0.166388 0.053740
0.151157 0.175031 0.046327
0.205040 0.183344 0.029012
0.257289 0.193463 0.004145
0.310476 0.205156 0.000000
0.368358 0.215671 0.000000
0.432349 0.224503 0.000000
0.498668 0.232589 0.000000
0.558792 0.239411 0.000000
0.608687 0.244060 0.000000
0.653828 0.246203 0.000000
0.694642 0.246600 0.000000
0.728570 0.246732 0.000000
0.754447 0.246987 0.000000
0.774332 0.246713 0.000000
0.790309 0.246730 0.000000
0.803821 0.247957 0.000000
0.814695 0.250247 0.000000
0.822987 0.253376 0.000000
0.830034 0.257491 0.000000
0.836433 0.262091 0.000000
0.841620 0.267593 0.000000
0.846150 0.273611 0.000000
0.850755 0.279132 0.000000
0.000000 0.158565 0.066475
0.000000 0.159959 0.066805
0.000000 0.161188 0.067249
0.000000 0.163020 0.067206
0.000000 0.166046 0.066608
0.000000 0.169984 0.066391
0.000000 0.174655 0.065106
0.001874 0.180030 0.061065
0.053236 0.187840 0.055973
0.099877 0.197680 0.050071
0.149423 0.207634 0.035447
0.209598 0.217909 0.003805
0.266791 0.231103 0.000000
0.323877 0.244617 0.000012
0.384103 0.256530 0.000000
0.450210 0.266716 0.000000
0.518451 0.276102 0.000000
0.580074 0.283844 0.000000
0.631253 0.289638 0.000000
0.677165 0.292805 0.000000
0.718581 0.294241 0.000000
0.752948 0.295240 0.000000
0.779082 0.296100 0.000000
0.799063 0.296335 0.000000
0.815041 0.296808 0.000000
0.828482 0.298248 0.000000
0.839300 0.300912 0.000000
0.847560 0.304537 0.000000
0.854519 0.308908 0.000000
0.860895 0.313906 0.000000
0.866050 0.319848 0.000000
0.870504 0.326136 0.000000
0.875127 0.332285 0.000000
0.000000 0.185238 0.069803
0.000000 0.186959 0.070042
0.000000 0.188484 0.070408
0.000000 0.190713 0.070277
0.000000 0.194323 0.069122
0.000000 0.198881 0.068011
0.000012 0.204294 0.065614
0.000000 0.210702 0.060131
0.000000 0.219180 0.053060
0.082795 0.230073 0.041618
0.145888 0.241609 0.011408
0.213813 0.255351 0.000000
0.276355 0.270515 0.000014
0.336271 0.285529 0.000000
0.399627 0.299009 0.000000
0.468088 0.310588 0.000000
0.538444 0.321209 0.000000
0.601917 0.330313 0.000000
0.654043 0.336825 0.000000
0.700922 0.340919 0.000000
0.743058 0.343329 0.000000
0.777937 0.345030 0.000000
0.804368 0.346388 0.000000
0.824552 0.347121 0.000000
0.840559 0.347827 0.000000
0.853984 0.349482 0.000000
0.864866 0.352618 0.000000
0.873031 0.356316 0.000000
0.879827 0.360700 0.000000
0.886074 0.365984 0.000000
0.891231 0.372475 0.000000
0.895711 0.379316 0.000000
0.900213 0.385658 0.000000
0.000000 0.214698 0.069014
0.000000 0.216801 0.069129
0.000000 0.218671 0.069427
0.000000 0.221365 0.068976
0.000000 0.225648 0.067493
0.000000 0.231007 0.066188
0.000000 0.237401 0.063497
0.000000 0.244993 0.056958
0.000000 0.254763 0.042409
0.033904 0.266302 0.005957
0.138133 0.281667 0.000000
0.214597 0.297585 0.000024
0.283106 0.314585 0.000000
0.347753 0.331602 0.000000
0.413753 0.346789 0.000000
0.484657 0.359915 0.000000
0.557215 0.372025 0.000000
0.622624 0.382446 0.000000
0.676356 0.390366 0.000000
0.724051 0.395390 0.000000
0.766962 0.398630 0.000000
0.802412 0.401066 0.000000
0.829331 0.403077 0.000000
0.849673 0.403886 0.000000
0.865668 0.404580 0.000000
0.879262 0.406580 0.000000
0.890105 0.409716 0.000000
0.898247 0.413615 0.000000
0.905014 0.418124 0.000000
0.911203 0.423446 0.000000
0.916184 0.429752 0.000000
0.920456 0.436474 0.000000
0.924835 0.442896 0.000000
0.000000 0.248005 0.067209
0.000000 0.250485 0.067023
0.000000 0.252722 0.067242
0.000000 0.255920 0.066292
0.000000 0.260988 0.063695
0.000000 0.267283 0.060850
0.000000 0.274724 0.055914
0.000000 0.283575 0.040336
0.000196 0.295068 0.002890
0.000000 0.310524 0.000000
0.113787 0.327321 0.000029
0.211655 0.345234 0.000000
0.286782 0.364371 0.000000
0.355815 0.383502 0.000000
0.425821 0.400771 0.000000
0.499630 0.415737 0.000000
0.574951 0.429694 0.000000
0.642348 0.441688 0.000000
0.697557 0.450913 0.000000
0.746467 0.457141 0.000000
0.790262 0.461374 0.000000
0.826446 0.464610 0.000000
0.853771 0.466882 0.000000
0.874321 0.467804 0.000000
0.890550 0.468527 0.000000
0.904105 0.470267 0.000000
0.914955 0.473370 0.000000
0.923089 0.477296 0.000000
0.929733 0.481721 0.000000
0.935776 0.486796 0.000000
0.940521 0.492712 0.000000
0.944630 0.499095 0.000000
0.948857 0.505251 0.000000
0.000000 0.282492 0.061071
0.000000 0.285331 0.060456
0.000000 0.287917 0.060493
0.000000 0.291635 0.059410
0.000000 0.297450 0.055692
0.000000 0.304741 0.050550
0.000000 0.313305 0.035653
0.000000 0.324269 0.005067
0.000000 0.339341 0.000000
0.000000 0.356746 0.000001
0.049639 0.374900 0.000000
0.205533 0.394800 0.000000
0.287997 0.416186 0.000000
0.362448 0.437615 0.000000
0.436383 0.456976 0.000000
0.513337 0.473858 0.000000
0.591614 0.489649 0.000000
0.661365 0.503310 0.000000
0.718366 0.513926 0.000000
0.768591 0.521321 0.000000
0.813449 0.526513 0.000000
0.850477 0.530433 0.000000
0.878365 0.533089 0.000000
0.899163 0.533916 0.000000
0.915467 0.534347 0.000000
0.929157 0.536043 0.000000
0.940122 0.539216 0.000000
0.948141 0.543039 0.000000
0.954676 0.547413 0.000000
0.960646 0.552378 0.000000
0.965208 0.558005 0.000000
0.969022 0.563987 0.000000
0.972907 0.569692 0.000000
0.000000 0.314269 0.053093
0.000000 0.317600 0.051930
0.000000 0.320561 0.051368
0.000000 0.324789 0.048214
0.000000 0.331348 0.040113
0.000000 0.339486 0.016482
0.000000 0.350160 0.003905
0.000000 0.363709 0.000000
0.000000 0.380567 0.000025
0.000027 0.399607 0.000000
0.017751 0.419417 0.000000
0.191326 0.440817 0.000000
0.286912 0.464336 0.000000
0.367477 0.487909 0.000000
0.445479 0.509274 0.000000
0.525665 0.527995 0.000000
0.606714 0.545570 0.000000
0.678678 0.560835 0.000000
0.737310 0.572729 0.000000
0.788922 0.581286 0.000000
0.834788 0.587366 0.000000
0.872654 0.591987 0.000000
0.901035 0.594957 0.000000
0.922258 0.595916 0.000000
0.938794 0.596341 0.000000
0.952539 0.597902 0.000000
0.963562 0.601056 0.000000
0.971620 0.604889 0.000000
0.978078 0.609159 0.000000
0.984105 0.613911 0.000000
0.988705 0.619240 0.000000
0.992477 0.624842 0.000000
0.996379 0.630309 0.000000
0.000000 0.341833 0.037418
0.000000 0.345637 0.034706
0.000000 0.349051 0.033522
0.000000 0.353714 0.020855
0.000000 0.361492 0.002238
0.000000 0.371450 0.000245
0.000000 0.383506 0.000000
0.000000 0.398348 0.000003
0.000000 0.416495 0.000000
0.000000 0.436975 0.000000
0.015444 0.458293 0.000000
0.169938 0.480960 0.000000
0.284885 0.506341 0.000000
0.370665 0.531779 0.000000
0.451904 0.554891 0.000000
0.535352 0.575286 0.000000
0.618738 0.594475 0.000000
0.692834 0.611272 0.000000
0.753064 0.624427 0.000000
0.805870 0.634045 0.000000
0.852913 0.641113 0.000000
0.891504 0.646434 0.000000
0.920506 0.649965 0.000000
0.942133 0.651278 0.000000
0.958786 0.651838 0.000000
0.972769 0.653515 0.000000
0.983922 0.656611 0.000000
0.992138 0.660318 0.000000
0.998458 0.664276 0.000000
0.999713 0.666812 0.000000
0.999772 0.669892 0.000000
0.999900 0.673534 0.000000
1.000000 0.677004 0.000000
0.000000 0.368253 0.000000
0.000000 0.372914 0.000000
0.000000 0.377068 0.000000
0.000000 0.382932 0.000000
0.000000 0.391929 0.000000
0.000000 0.402751 0.000000
0.000000 0.415717 0.000000
0.000000 0.431651 0.000000
0.000000 0.451064 0.000000
0.000000 0.472923 0.000000
0.007649 0.495699 0.000000
0.130057 0.519610 0.000000
0.281065 0.546781 0.000000
0.371592 0.574026 0.000000
0.456827 0.598904 0.000000
0.542814 0.620937 0.000000
0.628522 0.641798 0.000000
0.704414 0.660110 0.000000
0.765985 0.674579 0.000000
0.820128 0.685341 0.000000
0.868189 0.693382 0.000000
0.907708 0.699590 0.000000
0.937425 0.703853 0.000000
0.959473 0.705764 0.000000
0.976636 0.706791 0.000000
0.990784 0.708617 0.000000
0.999647 0.710669 0.000000
1.000000 0.711169 0.000000
1.000000 0.712141 0.000000
0.999995 0.713665 0.000000
1.000000 0.716081 0.000000
1.000000 0.718952 0.000000
1.000000 0.721686 0.000000
0.000000 0.394097 0.000000
0.000000 0.399402 0.000000
0.000000 0.404170 0.000000
0.000000 0.410670 0.000000
0.000000 0.420387 0.000000
0.000000 0.431949 0.000000
0.000000 0.445732 0.000000
0.000000 0.462661 0.000000
0.000000 0.483232 0.000000
0.000000 0.506353 0.000000
0.000000 0.530493 0.000000
0.072345 0.555678 0.000000
0.276367 0.584354 0.000000
0.371204 0.613287 0.000000
0.460015 0.639774 0.000000
0.548379 0.663368 0.000000
0.636274 0.685801 0.000000
0.713809 0.705578 0.000000
0.776730 0.721301 0.000000
0.832177 0.733192 0.000000
0.881283 0.742219 0.000000
0.921626 0.749247 0.000000
0.952057 0.754261 0.000000
0.974713 0.756869 0.000000
0.992160 0.758344 0.000000
1.000000 0.758198 0.000000
1.000000 0.756823 0.000000
0.999998 0.756702 0.000000
1.000000 0.757636 0.000000
1.000000 0.758707 0.000000
1.000000 0.760467 0.000000
1.000000 0.762594 0.000000
1.000000 0.764618 0.000000
0.000000 0.415322 0.000000
0.000000 0.421274 0.000000
0.000000 0.426667 0.000000
0.000000 0.433795 0.000000
0.000000 0.444149 0.000000
0.000000 0.456318 0.000000
0.000000 0.470736 0.000000
0.000000 0.488442 0.000000
0.000000 0.509911 0.000000
0.000000 0.534023 0.000000
0.000000 0.559262 0.000000
0.071295 0.585533 0.000000
0.268499 0.615305 0.000000
0.370642 0.645586 0.000000
0.462475 0.673382 0.000000
0.552994 0.698261 0.000000
0.642563 0.721990 0.000000
0.721430 0.742978 0.000000
0.785495 0.759776 0.000000
0.841773 0.772554 0.000000
0.891904 0.782431 0.000000
0.933083 0.790215 0.000000
0.964032 0.795857 0.000000
0.987250 0.799067 0.000000
1.000000 0.799336 0.000000
1.000000 0.796637 0.000000
0.999995 0.795411 0.000000
1.000000 0.795257 0.000000
1.000000 0.795630 0.000000
1.000000 0.796304 0.000000
1.000000 0.797524 0.000000
1.000000 0.799041 0.000000
1.000000 0.800479 0.000000
0.000000 0.430908 0.000000
0.000000 0.437468 0.000000
0.000000 0.443450 0.000000
0.000000 0.451145 0.000000
0.000000 0.462002 0.000000
0.000000 0.474585 0.000000
0.000000 0.489424 0.000000
0.000000 0.507622 0.000000
0.000000 0.529686 0.000000
0.000000 0.554441 0.000000
0.000000 0.580398 0.000000
0.067570 0.607420 0.000000
0.262757 0.637963 0.000000
0.370287 0.669188 0.000000
0.464462 0.697932 0.000000
0.556616 0.723772 0.000000
0.647522 0.748503 0.000000
0.727399 0.770445 0.000000
0.792246 0.788052 0.000000
0.849226 0.801575 0.000000
0.900017 0.812118 0.000000
0.941733 0.820479 0.000000
0.973072 0.826676 0.000000
0.996688 0.830398 0.000000
1.000000 0.828067 0.000000
0.999996 0.825581 0.000000
1.000000 0.824496 0.000000
1.000000 0.824225 0.000000
1.000000 0.824407 0.000000
1.000000 0.824840 0.000000
1.000000 0.825731 0.000000
1.000000 0.826869 0.000000
1.000000 0.827945 0.000000
0.000000 0.442510 0.000000
0.000000 0.449662 0.000000
0.000000 0.456234 0.000000
0.000000 0.464453 0.000000
0.000000 0.475715 0.000000
0.000000 0.488590 0.000000
0.000000 0.503659 0.000000
0.000000 0.522166 0.000000
0.000000 0.544596 0.000000
0.000000 0.569744 0.000000
0.000000 0.596179 0.000000
0.064608 0.623709 0.000000
0.258564 0.654790 0.000000
0.369921 0.686687 0.000000
0.465659 0.716135 0.000000
0.558921 0.742731 0.000000
0.650521 0.768263 0.000000
0.731337 0.791022 0.000000
0.796677 0.809309 0.000000
0.854371 0.823474 0.000000
0.905296 0.834558 0.000000
0.947524 0.843468 0.000000
0.979606 0.850267 0.000000
1.000000 0.853508 0.000000
0.999997 0.850493 0.000000
1.000000 0.848477 0.000000
1.000000 0.847497 0.000000
1.000000 0.847141 0.000000
1.000000 0.847156 0.000000
1.000000 0.847413 0.000000
1.000000 0.848065 0.000000
1.000000 0.848927 0.000000
1.000000 0.849737 0.000000
0.000000 0.451771 0.000000
0.000000 0.459581 0.000000
0.000000 0.466795 0.000000
0.000000 0.475566 0.000000
0.000000 0.487219 0.000000
0.000000 0.500302 0.000000
0.000000 0.515524 0.000000
0.000000 0.534204 0.000000
0.000000 0.556836 0.000000
0.000000 0.582188 0.000000
0.000000 0.608883 0.000000
0.063111 0.636730 0.000000
0.256788 0.668152 0.000000
0.370235 0.700478 0.000000
0.466876 0.730412 0.000000
0.560922 0.757572 0.000000
0.653193 0.783729 0.000000
0.734187 0.807067 0.000000
0.800121 0.825927 0.000000
0.857925 0.840595 0.000000
0.909395 0.852192 0.000000
0.951634 0.861520 0.000000
0.984327 0.868894 0.000000
1.000000 0.871017 0.000000
1.000000 0.868408 0.000000
1.000000 0.866599 0.000000
1.000000 0.865623 0.000000
1.000000 0.865129 0.000000
1.000000 0.864953 0.000000
1.000000 0.865026 0.000000
1.000000 0.865462 0.000000
1.000000 0.866086 0.000000
1.000000 0.866664 0.000000
0.000000 0.459837 0.000000
0.000000 0.468417 0.000000
0.000000 0.476396 0.000000
0.000000 0.485815 0.000000
0.000000 0.497882 0.000000
0.000000 0.511186 0.000000
0.000000 0.526518 0.000000
0.000000 0.545292 0.000000
0.000000 0.567993 0.000000
0.000000 0.593408 0.000000
0.000000 0.620188 0.000000
0.063624 0.648177 0.000000
0.258488 0.679758 0.000000
0.372478 0.712267 0.000000
0.469277 0.742443 0.000000
0.563393 0.769912 0.000000
0.655825 0.796441 0.000000
0.737169 0.820169 0.000000
0.803081 0.839392 0.000000
0.860992 0.854429 0.000000
0.912615 0.866395 0.000000
0.955171 0.876101 0.000000
0.988207 0.883869 0.000000
1.000000 0.885181 0.000000
1.000000 0.883026 0.000000
1.000000 0.881495 0.000000
1.000000 0.880615 0.000000
1.000000 0.880084 0.000000
1.000000 0.879814 0.000000
1.000000 0.879786 0.000000
1.000000 0.880076 0.000000
1.000000 0.880527 0.000000
1.000000 0.880939 0.000000
0.000000 0.466269 0.000000
0.000000 0.475744 0.000000
0.000000 0.484611 0.000000
0.000000 0.494762 0.000000
0.000000 0.507301 0.000000
0.000000 0.520846 0.000000
0.000000 0.536289 0.000000
0.000000 0.555097 0.000000
0.000000 0.577776 0.000000
0.000000 0.603111 0.000000
0.000000 0.629821 0.000000
0.065951 0.657795 0.000000
0.263454 0.689364 0.000000
0.376217 0.721835 0.000000
0.472790 0.752036 0.000000
0.566623 0.779599 0.000000
0.658699 0.806251 0.000000
0.739862 0.830149 0.000000
0.805605 0.849553 0.000000
0.863536 0.864789 0.000000
