Film Looks/Rec709 Kodak 2383 D60.cube
# Resolve Film Look LUT
#   Input: Cineon Log 
#        : floating point data (range 0.0 - 1.0)
#  Output: Kodak 2383 film stock 'look' with D60 White Point
#        : floating point data (range 0.0 - 1.0)
# Display: ITU-Rec.709, Gamma 2.4
LUT_3D_SIZE 33
LUT_3D_INPUT_RANGE 0.0 1.0
0.026979 0.027936 0.031946
0.028308 0.028680 0.033007
0.029028 0.029349 0.034061
0.032303 0.030119 0.034824
0.038008 0.031120 0.035123
0.039476 0.032488 0.035473
0.046030 0.033908 0.035421
0.060955 0.035742 0.035398
0.074886 0.039616 0.035529
0.087659 0.043735 0.034676
0.110741 0.046646 0.032985
0.143010 0.049095 0.029975
0.173484 0.051785 0.021754
0.205936 0.052967 0.001785
0.247589 0.054226 0.000000
0.296671 0.052364 0.000000
0.347437 0.046906 0.000000
0.394643 0.036930 0.000000
0.436385 0.001168 0.000000
0.478396 0.000000 0.000000
0.517941 0.000000 0.000000
0.551608 0.000000 0.000000
0.578603 0.000000 0.000000
0.601430 0.000000 0.000000
0.620885 0.000000 0.000000
0.637155 0.000000 0.000000
0.650279 0.000000 0.000000
0.660802 0.000000 0.000000
0.669584 0.000000 0.000000
0.677013 0.000000 0.000000
0.682566 0.000000 0.000000
0.687141 0.000000 0.000000
0.691894 0.000000 0.000000
0.026605 0.030218 0.033130
0.027852 0.030903 0.034112
0.028478 0.031518 0.035092
0.031922 0.032211 0.035767
0.037857 0.033189 0.036031
0.039426 0.034602 0.036406
0.046443 0.036000 0.036335
0.062392 0.038042 0.036383
0.076961 0.042213 0.036355
0.090128 0.046389 0.035340
0.114012 0.050054 0.033851
0.147471 0.052277 0.030159
0.179247 0.054197 0.021272
0.213172 0.055386 0.001705
0.255901 0.057102 0.000000
0.305824 0.055563 0.000000
0.357479 0.051647 0.000000
0.405424 0.042310 0.000000
0.447487 0.015545 0.000000
0.489586 0.000000 0.000000
0.529408 0.000000 0.000000
0.563185 0.000000 0.000000
0.590080 0.000000 0.000000
0.612619 0.000000 0.000000
0.631703 0.000000 0.000000
0.647618 0.000000 0.000000
0.660361 0.000000 0.000000
0.670464 0.000000 0.000000
0.678854 0.000000 0.000000
0.685991 0.000000 0.000000
0.691317 0.000000 0.000000
0.695686 0.000000 0.000000
0.700231 0.000000 0.000000
0.026626 0.031760 0.034169
0.027712 0.032408 0.035083
0.028311 0.032974 0.035982
0.031865 0.033623 0.036587
0.037968 0.034603 0.036832
0.039625 0.036055 0.037234
0.047038 0.037527 0.037197
0.063869 0.039812 0.037348
0.078930 0.044098 0.037114
0.092470 0.048353 0.035945
0.116988 0.052214 0.034490
0.151504 0.053917 0.030335
0.184678 0.055995 0.020408
0.219969 0.057340 0.001561
0.263673 0.059012 0.000000
0.314415 0.057617 0.000000
0.366907 0.054156 0.000000
0.415560 0.045493 0.000000
0.458131 0.025631 0.000000
0.500335 0.000000 0.000000
0.540458 0.000034 0.000000
0.574366 0.000000 0.000000
0.601178 0.000000 0.000000
0.623460 0.000000 0.000000
0.642208 0.000000 0.000000
0.657787 0.000000 0.000000
0.670169 0.000000 0.000000
0.679860 0.000000 0.000000
0.687880 0.000000 0.000000
0.694733 0.000000 0.000000
0.699835 0.000000 0.000000
0.704012 0.000000 0.000000
0.708364 0.000000 0.000000
0.025285 0.035324 0.035510
0.027099 0.035950 0.036346
0.027654 0.036440 0.037160
0.031271 0.037022 0.037693
0.037449 0.037993 0.037922
0.039200 0.039494 0.038337
0.047143 0.041146 0.038344
0.065642 0.043869 0.038484
0.081168 0.048141 0.037988
0.094880 0.052488 0.036993
0.120019 0.055888 0.034983
0.155763 0.057655 0.030813
0.190409 0.060119 0.018948
0.227152 0.062405 0.001314
0.271824 0.063767 0.000000
0.323475 0.062831 0.000000
0.376902 0.059931 0.000000
0.426345 0.054103 0.000000
0.469449 0.040717 0.000000
0.511066 0.000919 0.000000
0.551524 0.000000 0.000000
0.585560 0.000000 0.000000
0.612301 0.000000 0.000000
0.634327 0.000000 0.000000
0.652744 0.000000 0.000000
0.668008 0.000000 0.000000
0.680059 0.000000 0.000000
0.689391 0.000000 0.000000
0.697073 0.000000 0.000000
0.703663 0.000000 0.000000
0.708558 0.000000 0.000000
0.712550 0.000000 0.000000
0.716713 0.000000 0.000000
0.021278 0.040464 0.037241
0.025936 0.041153 0.038066
0.026680 0.041663 0.038843
0.030548 0.042312 0.039371
0.036756 0.043305 0.039582
0.038620 0.044888 0.039991
0.047231 0.046900 0.040180
0.067597 0.050100 0.040096
0.083123 0.053735 0.038990
0.097415 0.058260 0.038685
0.123540 0.061670 0.035933
0.160708 0.063914 0.032011
0.196851 0.066937 0.018592
0.235083 0.070395 0.001235
0.280935 0.073278 0.000000
0.333600 0.072860 0.000000
0.388158 0.070569 0.000000
0.438530 0.066437 0.000000
0.482219 0.057882 0.000000
0.523723 0.035277 0.000000
0.563019 0.000000 0.000000
0.597299 0.000085 0.000000
0.623943 0.000000 0.000000
0.645686 0.000000 0.000000
0.663752 0.000000 0.000000
0.678709 0.000000 0.000000
0.690491 0.000000 0.000000
0.699536 0.000000 0.000000
0.706956 0.000000 0.000000
0.713333 0.000000 0.000000
0.718045 0.000000 0.000000
0.721864 0.000000 0.000000
0.725859 0.000000 0.000000
0.020535 0.043950 0.039469
0.026089 0.044558 0.040209
0.026895 0.045019 0.040933
0.030950 0.045680 0.041431
0.037339 0.046732 0.041616
0.039454 0.048464 0.042036
0.049072 0.050989 0.042483
0.069220 0.053849 0.041902
0.085732 0.057608 0.040954
0.100500 0.062311 0.040779
0.127630 0.065943 0.037361
0.166233 0.068797 0.033290
0.203621 0.072264 0.020691
0.243173 0.076547 0.001512
0.290184 0.079664 0.000000
0.344085 0.080186 0.000000
0.399952 0.079294 0.000000
0.451363 0.076074 0.000000
0.495648 0.069185 0.000000
0.537467 0.055741 0.000000
0.576295 0.025056 0.000000
0.609818 0.000000 0.000000
0.636347 0.000000 0.000000
0.657751 0.000000 0.000000
0.675430 0.000000 0.000000
0.690087 0.000000 0.000000
0.701657 0.000000 0.000000
0.710515 0.000000 0.000000
0.717764 0.000000 0.000000
0.723982 0.000000 0.000000
0.728555 0.000000 0.000000
0.732247 0.000000 0.000000
0.736116 0.000000 0.000000
0.013706 0.050177 0.041806
0.020196 0.050755 0.042509
0.023227 0.051175 0.043142
0.030173 0.051932 0.043511
0.037789 0.053458 0.044024
0.040087 0.055281 0.044501
0.048894 0.057553 0.044881
0.069812 0.060394 0.043916
0.088228 0.064609 0.043096
0.103754 0.069558 0.042805
0.132078 0.073755 0.039213
0.172016 0.077462 0.034329
0.210779 0.081192 0.021550
0.251706 0.085328 0.001567
0.300034 0.089082 0.000000
0.355282 0.090820 0.000000
0.412574 0.091102 0.000000
0.465125 0.089856 0.000000
0.510077 0.085980 0.000000
0.552209 0.077235 0.000000
0.591072 0.064150 0.000000
0.623489 0.032448 0.000000
0.649199 0.015552 0.000000
0.670018 0.012691 0.000000
0.687098 0.007870 0.000000
0.701349 0.003152 0.000000
0.712713 0.000574 0.000000
0.721462 0.004653 0.000000
0.728643 0.006946 0.000000
0.734818 0.009586 0.000000
0.739391 0.012574 0.000000
0.743104 0.014729 0.000000
0.746987 0.016668 0.000000
0.000165 0.062614 0.045144
0.003068 0.063148 0.045670
0.005130 0.063582 0.046166
0.012641 0.064309 0.046139
0.031537 0.065915 0.046392
0.034506 0.067971 0.046909
0.044853 0.070571 0.047313
0.069621 0.073891 0.046586
0.088987 0.078408 0.045524
0.106710 0.083785 0.043528
0.136167 0.088587 0.041189
0.177905 0.092729 0.034652
0.218544 0.097257 0.017085
0.261412 0.102766 0.000872
0.311306 0.108235 0.000000
0.367944 0.111609 0.000000
0.426715 0.113804 0.000000
0.480459 0.114422 0.000000
0.526112 0.112788 0.000000
0.568614 0.107602 0.000000
0.607686 0.101081 0.000000
0.640338 0.094874 0.000000
0.665407 0.087817 0.000000
0.685153 0.079286 0.000000
0.701303 0.067947 0.000000
0.714970 0.058563 0.000000
0.726115 0.054564 0.000000
0.734855 0.062956 0.000000
0.742147 0.069118 0.000000
0.748517 0.076310 0.000000
0.753390 0.083924 0.000000
0.757468 0.090454 0.000000
0.761696 0.096490 0.000000
0.000000 0.075220 0.049257
0.000000 0.075677 0.049545
0.000000 0.076045 0.050028
0.000000 0.076814 0.050189
0.011874 0.078369 0.050060
0.020267 0.080574 0.050475
0.039116 0.083400 0.050611
0.069178 0.087119 0.049985
0.089879 0.092014 0.048607
0.109696 0.097923 0.046604
0.141207 0.103459 0.042785
0.184761 0.108410 0.036115
0.227266 0.113674 0.014232
0.272315 0.120635 0.000348
0.323701 0.127212 0.000000
0.381771 0.131683 0.000000
0.442115 0.135305 0.000000
0.497167 0.137516 0.000000
0.543638 0.137618 0.000000
0.586589 0.135668 0.000000
0.625891 0.131622 0.000000
0.658691 0.127688 0.000000
0.683847 0.124685 0.000000
0.703518 0.121294 0.000000
0.719546 0.118135 0.000000
0.733103 0.117288 0.000000
0.744150 0.118795 0.000000
0.752793 0.121488 0.000000
0.759998 0.124632 0.000000
0.766342 0.128522 0.000000
0.771270 0.133095 0.000000
0.775428 0.138156 0.000000
0.779731 0.143035 0.000000
0.000000 0.087055 0.053666
0.000000 0.087598 0.054006
0.000000 0.088059 0.054449
0.000000 0.088842 0.054450
0.000125 0.090374 0.054022
0.001237 0.092667 0.054199
0.028538 0.095562 0.053930
0.068581 0.099803 0.053510
0.092668 0.105340 0.052252
0.111891 0.111581 0.050256
0.146737 0.117939 0.045191
0.192181 0.123651 0.037387
0.236530 0.129510 0.010673
0.283504 0.137372 0.000000
0.336714 0.145111 0.000000
0.396468 0.151197 0.000000
0.458450 0.156159 0.000000
0.514898 0.159725 0.000000
0.562300 0.161737 0.000000
0.605721 0.161184 0.000000
0.645299 0.158623 0.000000
0.678296 0.156430 0.000000
0.703538 0.154762 0.000000
0.723206 0.152990 0.000000
0.739094 0.151309 0.000000
0.752552 0.151260 0.000000
0.763517 0.153217 0.000000
0.772007 0.155957 0.000000
0.779120 0.159331 0.000000
0.785478 0.163400 0.000000
0.790513 0.168664 0.000000
0.794833 0.174384 0.000000
0.799311 0.179734 0.000000
0.000000 0.105172 0.057317
0.000000 0.105903 0.057640
0.000000 0.106612 0.058101
0.000000 0.107604 0.058059
0.000000 0.109453 0.057577
0.000000 0.112129 0.057638
0.007015 0.115212 0.056809
0.057735 0.119634 0.055357
0.090973 0.125949 0.053773
0.113968 0.133166 0.051460
0.149737 0.140235 0.045591
0.198523 0.146861 0.034129
0.246305 0.154678 0.007718
0.296009 0.164430 0.000000
0.350842 0.173236 0.000000
0.412181 0.180407 0.000000
0.475949 0.187016 0.000000
0.533853 0.192214 0.000000
0.582180 0.195574 0.000000
0.626124 0.196199 0.000000
0.666073 0.195330 0.000000
0.699306 0.194336 0.000000
0.724705 0.193900 0.000000
0.744376 0.192952 0.000000
0.760225 0.192312 0.000000
0.773614 0.193119 0.000000
0.784470 0.195312 0.000000
0.792826 0.198269 0.000000
0.799856 0.201953 0.000000
0.806220 0.206404 0.000000
0.811372 0.212040 0.000000
0.815815 0.217599 0.000000
0.820369 0.222768 0.000000
0.000000 0.129789 0.059498
0.000000 0.130779 0.059741
0.000000 0.131709 0.060198
0.000000 0.133159 0.060270
0.000000 0.135652 0.059925
0.000012 0.139064 0.060059
0.000000 0.142827 0.058999
0.029717 0.147504 0.055709
0.080913 0.154587 0.052998
0.110277 0.162956 0.048297
0.151758 0.171352 0.038613
0.203897 0.179457 0.014593
0.256102 0.190149 0.000000
0.308774 0.201789 0.000016
0.365887 0.212047 0.000000
0.429152 0.220817 0.000000
0.494636 0.228725 0.000000
0.554056 0.235454 0.000000
0.603370 0.239990 0.000000
0.647974 0.242013 0.000000
0.688364 0.242502 0.000000
0.721921 0.242668 0.000000
0.747528 0.243007 0.000000
0.767233 0.242836 0.000000
0.783031 0.242787 0.000000
0.796385 0.244030 0.000000
0.807172 0.246488 0.000000
0.815432 0.249626 0.000000
0.822352 0.253413 0.000000
0.828705 0.258063 0.000000
0.833871 0.263464 0.000000
0.838344 0.269230 0.000000
0.842949 0.274786 0.000000
0.000000 0.155417 0.062282
0.000000 0.156771 0.062423
0.000000 0.157966 0.062687
0.000000 0.159679 0.062328
0.000000 0.162488 0.061373
0.000000 0.166312 0.061113
0.000000 0.170857 0.059895
0.004308 0.176173 0.055839
0.059942 0.183959 0.050450
0.104017 0.193583 0.041818
0.151148 0.203352 0.027426
0.210158 0.214258 0.000966
0.266386 0.227340 0.000000
0.322364 0.240446 0.000000
0.381859 0.252154 0.000000
0.447044 0.262089 0.000000
0.514488 0.271344 0.000000
0.575388 0.279037 0.000000
0.625877 0.284659 0.000000
0.671210 0.287695 0.000000
0.712128 0.289084 0.000000
0.746142 0.290190 0.000000
0.772008 0.291167 0.000000
0.791771 0.291348 0.000000
0.807561 0.291846 0.000000
0.820930 0.293464 0.000000
0.831655 0.296042 0.000000
0.839784 0.299416 0.000000
0.846638 0.303648 0.000000
0.852971 0.308687 0.000000
0.858122 0.314558 0.000000
0.862555 0.320685 0.000000
0.867105 0.326535 0.000000
0.000000 0.181301 0.064320
0.000000 0.182981 0.064503
0.000000 0.184470 0.064814
0.000000 0.186635 0.064624
0.000000 0.190131 0.063250
0.000000 0.194592 0.062134
0.000016 0.199882 0.059804
0.000000 0.206119 0.054679
0.019224 0.214450 0.043203
0.090145 0.225241 0.031335
0.148936 0.237366 0.000741
0.215078 0.251170 0.000000
0.276443 0.265951 0.000007
0.335479 0.280648 0.000000
0.397442 0.293709 0.000000
0.465155 0.305122 0.000000
0.534529 0.315518 0.000000
0.597210 0.324454 0.000000
0.648760 0.330939 0.000000
0.694980 0.334913 0.000000
0.736535 0.337166 0.000000
0.771010 0.338883 0.000000
0.797184 0.340265 0.000000
0.817086 0.340961 0.000000
0.832959 0.341757 0.000000
0.846250 0.343374 0.000000
0.856936 0.346277 0.000000
0.865069 0.350087 0.000000
0.871905 0.354588 0.000000
0.878098 0.359678 0.000000
0.883120 0.365811 0.000000
0.887532 0.372486 0.000000
0.892128 0.378973 0.000000
0.000000 0.210272 0.063431
0.000000 0.212320 0.063268
0.000000 0.214143 0.063290
0.000000 0.216764 0.062555
0.000000 0.220939 0.060766
0.000000 0.226012 0.058806
0.000000 0.232253 0.056301
0.000044 0.239654 0.046576
0.000000 0.249164 0.029997
0.059203 0.261814 0.000000
0.144139 0.277018 0.000048
0.217383 0.292553 0.000000
0.283964 0.309152 0.000000
0.347315 0.325748 0.000000
0.412192 0.340595 0.000000
0.482019 0.353424 0.000000
0.553585 0.365298 0.000000
0.617891 0.375387 0.000000
0.670913 0.383087 0.000000
0.718235 0.388285 0.000000
0.760550 0.391445 0.000000
0.795551 0.393840 0.000000
0.822091 0.395765 0.000000
0.842193 0.396610 0.000000
0.858024 0.397295 0.000000
0.871373 0.399151 0.000000
0.882148 0.402294 0.000000
0.890197 0.406077 0.000000
0.896927 0.410532 0.000000
0.903095 0.415820 0.000000
0.908023 0.421975 0.000000
0.912263 0.428508 0.000000
0.916648 0.434800 0.000000
0.000000 0.242672 0.059949
0.000000 0.245125 0.059830
0.000000 0.247306 0.059846
0.000000 0.250433 0.058789
0.000000 0.255332 0.055753
0.000000 0.261501 0.052234
0.000000 0.268741 0.044348
0.000000 0.277447 0.023086
0.000329 0.289873 0.000860
0.000000 0.305089 0.000000
0.129795 0.321781 0.000000
0.216338 0.339259 0.000000
0.288957 0.357935 0.000000
0.356460 0.376625 0.000000
0.424705 0.393418 0.000000
0.497463 0.408080 0.000000
0.571551 0.421704 0.000000
0.638045 0.433472 0.000000
0.692376 0.442414 0.000000
0.740673 0.448543 0.000000
0.783946 0.452806 0.000000
0.819637 0.455963 0.000000
0.846574 0.458193 0.000000
0.866861 0.459072 0.000000
0.882879 0.459801 0.000000
0.896293 0.461552 0.000000
0.907008 0.464549 0.000000
0.914957 0.468243 0.000000
0.921628 0.472701 0.000000
0.927723 0.477834 0.000000
0.932431 0.483583 0.000000
0.936446 0.489706 0.000000
0.940602 0.495658 0.000000
0.000000 0.276347 0.051279
0.000000 0.279184 0.050502
0.000000 0.281706 0.050171
0.000000 0.285343 0.048688
0.000000 0.290965 0.043048
0.000000 0.298033 0.030473
0.000000 0.306857 0.011120
0.000000 0.318397 0.000000
0.000000 0.333400 0.000000
0.000000 0.350376 0.000001
0.078081 0.368285 0.000000
0.212841 0.387838 0.000000
0.291708 0.408705 0.000000
0.364397 0.429632 0.000000
0.436364 0.448512 0.000000
0.512023 0.465013 0.000000
0.588801 0.480423 0.000000
0.657501 0.493796 0.000000
0.713560 0.504122 0.000000
0.763210 0.511430 0.000000
0.807372 0.516515 0.000000
0.843753 0.520298 0.000000
0.871231 0.522856 0.000000
0.891856 0.523774 0.000000
0.907844 0.524151 0.000000
0.921378 0.525809 0.000000
0.932206 0.528895 0.000000
0.940207 0.532691 0.000000
0.946718 0.537010 0.000000
0.952614 0.541874 0.000000
0.957105 0.547333 0.000000
0.960907 0.553149 0.000000
0.964862 0.558795 0.000000
0.000000 0.307461 0.037825
0.000000 0.310689 0.035668
0.000000 0.313578 0.035087
0.000000 0.317613 0.022433
0.000000 0.324432 0.008033
0.000000 0.333160 0.003543
0.000000 0.343916 0.000000
0.000000 0.357318 0.000000
0.000000 0.373759 0.000005
0.000000 0.392355 0.000000
0.025731 0.411752 0.000000
0.205269 0.432942 0.000000
0.292250 0.455872 0.000000
0.370503 0.478887 0.000000
0.446304 0.499722 0.000000
0.524969 0.518005 0.000000
0.604477 0.535161 0.000000
0.675355 0.550096 0.000000
0.732806 0.561653 0.000000
0.783660 0.570003 0.000000
0.829092 0.576070 0.000000
0.866279 0.580545 0.000000
0.894275 0.583484 0.000000
0.915046 0.584364 0.000000
0.931384 0.584784 0.000000
0.944978 0.586369 0.000000
0.955730 0.589350 0.000000
0.963721 0.593106 0.000000
0.970243 0.597353 0.000000
0.975986 0.601956 0.000000
0.980324 0.607098 0.000000
0.983954 0.612498 0.000000
0.987820 0.617779 0.000000
0.000000 0.334637 0.001179
0.000000 0.338574 0.001096
0.000000 0.342055 0.001076
0.000000 0.347108 0.000534
0.000000 0.355126 0.000000
0.000000 0.364921 0.000000
0.000000 0.376714 0.000003
0.000000 0.391220 0.000000
0.000000 0.408952 0.000000
0.000001 0.428954 0.000000
0.019202 0.449820 0.000000
0.191802 0.472276 0.000000
0.292267 0.497026 0.000000
0.375034 0.521849 0.000000
0.453986 0.544415 0.000000
0.535488 0.564307 0.000000
0.617186 0.583047 0.000000
0.689808 0.599395 0.000000
0.749085 0.612250 0.000000
0.801068 0.621665 0.000000
0.847235 0.628512 0.000000
0.885424 0.633778 0.000000
0.913998 0.637264 0.000000
0.935234 0.638545 0.000000
0.951784 0.639169 0.000000
0.965448 0.640773 0.000000
0.976379 0.643760 0.000000
0.984372 0.647315 0.000000
0.990864 0.651276 0.000000
0.996647 0.655519 0.000000
0.999488 0.659594 0.000000
0.999617 0.663092 0.000000
0.999738 0.666546 0.000000
0.000000 0.361881 0.000000
0.000000 0.366438 0.000000
0.000000 0.370502 0.000000
0.000000 0.376215 0.000000
0.000000 0.384999 0.000000
0.000000 0.395587 0.000000
0.000000 0.408263 0.000000
0.000000 0.423836 0.000000
0.000000 0.442799 0.000000
0.000000 0.464151 0.000000
0.015391 0.486431 0.000000
0.171330 0.510119 0.000000
0.290014 0.536623 0.000000
0.377359 0.563210 0.000000
0.460203 0.587485 0.000000
0.543848 0.608987 0.000000
0.627770 0.629344 0.000000
0.702100 0.647208 0.000000
0.762454 0.661294 0.000000
0.815738 0.671814 0.000000
0.863069 0.679711 0.000000
0.901978 0.685773 0.000000
0.931034 0.689858 0.000000
0.952923 0.691794 0.000000
0.969804 0.692827 0.000000
0.983822 0.694628 0.000000
0.994239 0.697261 0.000000
1.000000 0.699891 0.000000
1.000000 0.700878 0.000000
1.000000 0.702237 0.000000
1.000000 0.704511 0.000000
1.000000 0.707296 0.000000
1.000000 0.709932 0.000000
0.000000 0.387131 0.000000
0.000000 0.392334 0.000000
0.000000 0.397011 0.000000
0.000000 0.403372 0.000000
0.000000 0.412874 0.000000
0.000000 0.424189 0.000000
0.000000 0.437660 0.000000
0.000000 0.454201 0.000000
0.000000 0.474290 0.000000
0.000000 0.496875 0.000000
0.008051 0.520456 0.000000
0.134304 0.545291 0.000000
0.287011 0.573411 0.000000
0.378585 0.601642 0.000000
0.464454 0.627491 0.000000
0.550258 0.650503 0.000000
0.636210 0.672397 0.000000
0.712135 0.691686 0.000000
0.773901 0.707035 0.000000
0.828158 0.718595 0.000000
0.876534 0.727438 0.000000
0.916386 0.734351 0.000000
0.946094 0.739188 0.000000
0.968511 0.741761 0.000000
0.985757 0.743269 0.000000
0.998236 0.744634 0.000000
1.000000 0.744236 0.000000
1.000000 0.743863 0.000000
1.000000 0.744465 0.000000
1.000000 0.745439 0.000000
1.000000 0.747102 0.000000
1.000000 0.749124 0.000000
1.000000 0.751245 0.000000
0.000000 0.407940 0.000000
0.000000 0.413767 0.000000
0.000000 0.419050 0.000000
0.000000 0.426031 0.000000
0.000000 0.436154 0.000000
0.000000 0.448055 0.000000
0.000000 0.462149 0.000000
0.000000 0.479442 0.000000
0.000000 0.500416 0.000000
0.000000 0.523953 0.000000
0.000000 0.548578 0.000000
0.087628 0.574386 0.000000
0.285294 0.603724 0.000000
0.379419 0.633259 0.000000
0.467989 0.660388 0.000000
0.555854 0.684655 0.000000
0.643095 0.707796 0.000000
0.720419 0.728281 0.000000
0.783141 0.744646 0.000000
0.838483 0.757142 0.000000
0.887699 0.766801 0.000000
0.928114 0.774359 0.000000
0.958538 0.779883 0.000000
0.981394 0.783024 0.000000
0.998221 0.784710 0.000000
1.000000 0.782656 0.000000
0.999983 0.781153 0.000000
1.000000 0.780893 0.000000
1.000000 0.781187 0.000000
1.000000 0.781774 0.000000
1.000000 0.782919 0.000000
1.000000 0.784324 0.000000
1.000000 0.786390 0.000000
0.000000 0.423214 0.000000
0.000000 0.429638 0.000000
0.000000 0.435502 0.000000
0.000000 0.443028 0.000000
0.000000 0.453647 0.000000
0.000000 0.465950 0.000000
0.000000 0.480447 0.000000
0.000000 0.498231 0.000000
0.000000 0.519771 0.000000
0.000000 0.543939 0.000000
0.000000 0.569272 0.000000
0.077759 0.595817 0.000000
0.282713 0.625914 0.000000
0.380114 0.656362 0.000000
0.470527 0.684409 0.000000
0.560030 0.709619 0.000000
0.648501 0.733731 0.000000
0.726769 0.755143 0.000000
0.790250 0.772305 0.000000
0.846183 0.785502 0.000000
0.896024 0.795798 0.000000
0.936963 0.803951 0.000000
0.967896 0.810019 0.000000
0.991080 0.813666 0.000000
1.000000 0.813229 0.000000
0.999995 0.810463 0.000000
1.000000 0.809255 0.000000
1.000000 0.808887 0.000000
1.000000 0.808985 0.000000
1.000000 0.809342 0.000000
1.000000 0.810170 0.000000
1.000000 0.811248 0.000000
1.000000 0.812361 0.000000
0.000000 0.434589 0.000000
0.000000 0.441591 0.000000
0.000000 0.448023 0.000000
0.000000 0.456068 0.000000
0.000000 0.467081 0.000000
0.000000 0.479659 0.000000
0.000000 0.494396 0.000000
0.000000 0.512467 0.000000
0.000000 0.534374 0.000000
0.000000 0.558925 0.000000
0.000000 0.584712 0.000000
0.076288 0.611758 0.000000
0.280437 0.642387 0.000000
0.380808 0.673494 0.000000
0.472492 0.702230 0.000000
0.562872 0.728178 0.000000
0.652235 0.753086 0.000000
0.731101 0.775268 0.000000
0.795204 0.793119 0.000000
0.851608 0.806934 0.000000
0.901836 0.817793 0.000000
0.943185 0.826474 0.000000
0.974400 0.833039 0.000000
0.997766 0.837124 0.000000
1.000000 0.834807 0.000000
1.000000 0.832593 0.000000
1.000000 0.831485 0.000000
1.000000 0.831034 0.000000
1.000000 0.830972 0.000000
1.000000 0.831160 0.000000
1.000000 0.831758 0.000000
1.000000 0.832587 0.000000
1.000000 0.833354 0.000000
0.000000 0.443665 0.000000
0.000000 0.451307 0.000000
0.000000 0.458376 0.000000
0.000000 0.466958 0.000000
0.000000 0.478346 0.000000
0.000000 0.491143 0.000000
0.000000 0.506012 0.000000
0.000000 0.524255 0.000000
0.000000 0.546352 0.000000
0.000000 0.571105 0.000000
0.000000 0.597158 0.000000
0.075650 0.624512 0.000000
0.279886 0.655478 0.000000
0.381588 0.687000 0.000000
0.474072 0.716202 0.000000
0.565108 0.742694 0.000000
0.654923 0.768204 0.000000
0.734268 0.790982 0.000000
0.798647 0.809364 0.000000
0.855467 0.823672 0.000000
0.905778 0.834986 0.000000
0.947488 0.844133 0.000000
0.979312 0.851223 0.000000
1.000000 0.854995 0.000000
0.999987 0.852287 0.000000
1.000000 0.850491 0.000000
1.000000 0.849134 0.000000
1.000000 0.848440 0.000000
1.000000 0.848195 0.000000
1.000000 0.848204 0.000000
1.000000 0.848549 0.000000
1.000000 0.849723 0.000000
1.000000 0.850393 0.000000
0.000000 0.451575 0.000000
0.000000 0.459978 0.000000
0.000000 0.467790 0.000000
0.000000 0.477000 0.000000
0.000000 0.488801 0.000000
0.000000 0.501804 0.000000
0.000000 0.516786 0.000000
0.000000 0.535117 0.000000
0.000000 0.557289 0.000000
0.000000 0.582094 0.000000
0.000000 0.608227 0.000000
0.076685 0.635726 0.000000
0.282393 0.666850 0.000000
0.383990 0.698548 0.000000
0.476665 0.727990 0.000000
0.567918 0.754794 0.000000
0.657976 0.780671 0.000000
0.737246 0.803804 0.000000
0.801946 0.822550 0.000000
0.858812 0.837233 0.000000
0.909402 0.848910 0.000000
0.951088 0.858370 0.000000
0.983437 0.865914 0.000000
1.000000 0.868644 0.000000
1.000000 0.866190 0.000000
1.000000 0.864487 0.000000
1.000000 0.863496 0.000000
1.000000 0.862882 0.000000
1.000000 0.862542 0.000000
1.000000 0.862452 0.000000
1.000000 0.862704 0.000000
1.000000 0.863080 0.000000
1.000000 0.863449 0.000000
0.000000 0.457893 0.000000
0.000000 0.467166 0.000000
0.000000 0.475840 0.000000
0.000000 0.485774 0.000000
0.000000 0.498029 0.000000
0.000000 0.511278 0.000000
0.000000 0.526357 0.000000
0.000000 0.544726 0.000000
0.000000 0.566870 0.000000
0.000000 0.591607 0.000000
0.000000 0.617671 0.000000
0.078885 0.645154 0.000000
0.287435 0.676269 0.000000
0.388099 0.707929 0.000000
0.480326 0.737391 0.000000
0.571062 0.764277 0.000000
0.660914 0.790293 0.000000
0.740192 0.813582 0.000000
0.804813 0.832527 0.000000
0.861594 0.847417 0.000000
