Film Looks/Rec709 Fujifilm 3513DI D60.cube
# Resolve Film Look LUT
#   Input: Cineon Log 
#        : floating point data (range 0.0 - 1.0)
#  Output: FUJIFILM 3513DI film stock 'look' with D60 White Point
#        : floating point data (range 0.0 - 1.0)
# Display: ITU-Rec.709, Gamma 2.4
LUT_3D_SIZE 33
LUT_3D_INPUT_RANGE 0.0 1.0
0.028746 0.023058 0.029833
0.028660 0.023838 0.030246
0.028186 0.024537 0.030662
0.028842 0.025489 0.031051
0.029657 0.026233 0.031363
0.024178 0.026854 0.031596
0.023546 0.027596 0.031730
0.043430 0.028903 0.031592
0.056285 0.031355 0.031679
0.066689 0.034926 0.032286
0.092113 0.038007 0.031740
0.127209 0.036891 0.029547
0.161602 0.036018 0.024939
0.195306 0.032426 0.009508
0.232626 0.025614 0.000000
0.274120 0.000000 0.000000
0.317631 0.000000 0.000000
0.358738 0.000000 0.000000
0.396551 0.000000 0.000000
0.433865 0.000000 0.000000
0.469442 0.000000 0.000000
0.500735 0.000000 0.000000
0.527391 0.000000 0.000000
0.551324 0.000000 0.000000
0.572511 0.000000 0.000000
0.590549 0.000000 0.000000
0.605693 0.000000 0.000000
0.618545 0.000000 0.000000
0.629375 0.000000 0.000000
0.638164 0.000000 0.000000
0.644556 0.000000 0.000000
0.649762 0.000000 0.000000
0.655174 0.000000 0.000000
0.028999 0.028644 0.032044
0.028621 0.028651 0.032445
0.028000 0.028619 0.032837
0.028664 0.028750 0.033211
0.029708 0.029177 0.033551
0.025782 0.029695 0.033851
0.026876 0.030373 0.034040
0.045576 0.031314 0.033742
0.058838 0.033620 0.033797
0.069961 0.038235 0.034828
0.095714 0.041187 0.033857
0.131526 0.041210 0.031525
0.166759 0.041669 0.026630
0.201252 0.039241 0.008513
0.239785 0.034843 0.000000
0.281985 0.023755 0.000000
0.325400 0.000000 0.000000
0.367473 0.000000 0.000000
0.405907 0.000001 0.000000
0.443621 0.000000 0.000000
0.479497 0.000000 0.000000
0.511043 0.000000 0.000000
0.537941 0.000000 0.000000
0.562096 0.000000 0.000000
0.583414 0.000000 0.000000
0.601436 0.000000 0.000000
0.616339 0.000000 0.000000
0.628822 0.000000 0.000000
0.639339 0.000000 0.000000
0.647982 0.000000 0.000000
0.654348 0.000000 0.000000
0.659575 0.000000 0.000000
0.664998 0.000000 0.000000
0.029993 0.030713 0.033928
0.029279 0.030629 0.034373
0.028384 0.030476 0.034783
0.028997 0.030480 0.035161
0.030326 0.030768 0.035511
0.026882 0.031169 0.035875
0.029373 0.031779 0.036102
0.047776 0.032415 0.035691
0.061557 0.035318 0.036025
0.073146 0.040270 0.037134
0.098992 0.042988 0.035815
0.135553 0.044163 0.033257
0.171478 0.045612 0.028613
0.206702 0.044396 0.007232
0.246375 0.041537 0.000000
0.289596 0.034974 0.000000
0.333514 0.015871 0.000000
0.375884 0.000000 0.000000
0.414956 0.000000 0.000000
0.453053 0.000000 0.000000
0.489226 0.000000 0.000000
0.521017 0.000000 0.000000
0.548146 0.000000 0.000000
0.572528 0.000000 0.000000
0.593992 0.000000 0.000000
0.612001 0.000000 0.000000
0.626672 0.000000 0.000000
0.638803 0.000000 0.000000
0.649012 0.000000 0.000000
0.657523 0.000000 0.000000
0.663883 0.000000 0.000000
0.669145 0.000000 0.000000
0.674590 0.000000 0.000000
0.029947 0.036853 0.035742
0.029126 0.036520 0.036203
0.027929 0.036151 0.036673
0.028579 0.035885 0.037038
0.030325 0.035941 0.037343
0.026801 0.036460 0.037921
0.029826 0.036981 0.038133
0.049401 0.037609 0.037602
0.064111 0.041089 0.038200
0.077019 0.046313 0.038806
0.102935 0.049725 0.037570
0.140140 0.051576 0.034451
0.176819 0.053160 0.029585
0.212913 0.052918 0.004221
0.253926 0.053634 0.000000
0.298099 0.050246 0.000000
0.342840 0.040962 0.000000
0.384987 0.023489 0.000000
0.423745 0.000000 0.000000
0.462435 0.000000 0.000000
0.498968 0.000024 0.000000
0.531056 0.000000 0.000000
0.558441 0.000000 0.000000
0.583035 0.000000 0.000000
0.604633 0.000000 0.000000
0.622650 0.000000 0.000000
0.637145 0.000000 0.000000
0.648987 0.000000 0.000000
0.658942 0.000000 0.000000
0.667332 0.000000 0.000000
0.673648 0.000000 0.000000
0.678899 0.000000 0.000000
0.684331 0.000000 0.000000
0.028457 0.046169 0.037620
0.028015 0.045537 0.038033
0.027119 0.044831 0.038457
0.028274 0.044391 0.038838
0.030623 0.044453 0.039213
0.026894 0.044777 0.039805
0.030156 0.045413 0.040104
0.050889 0.046945 0.039903
0.067639 0.051016 0.040145
0.080584 0.055456 0.039576
0.107331 0.059431 0.039129
0.145688 0.061556 0.034471
0.183715 0.063748 0.028976
0.221268 0.065256 0.002713
0.263396 0.067530 0.000000
0.308430 0.067200 0.000000
0.354072 0.062558 0.000000
0.396837 0.056006 0.000000
0.435183 0.041447 0.000000
0.472255 0.000000 0.000000
0.509369 0.000000 0.000000
0.541832 0.000047 0.000000
0.569489 0.000000 0.000000
0.594280 0.000000 0.000000
0.616000 0.000000 0.000000
0.634053 0.000000 0.000000
0.648473 0.000000 0.000000
0.660163 0.000000 0.000000
0.669962 0.000000 0.000000
0.678233 0.000000 0.000000
0.684452 0.000000 0.000000
0.689612 0.000000 0.000000
0.694948 0.000000 0.000000
0.027930 0.053135 0.039676
0.028164 0.052329 0.040090
0.027936 0.051419 0.040480
0.029489 0.050797 0.040801
0.032084 0.050763 0.041210
0.028538 0.050972 0.041891
0.032219 0.051806 0.042451
0.053282 0.053874 0.042672
0.070882 0.057816 0.041727
0.085131 0.062869 0.041221
0.112796 0.067383 0.040307
0.152608 0.070558 0.035301
0.192162 0.074066 0.028434
0.231184 0.076991 0.002607
0.274185 0.080048 0.000000
0.319928 0.080223 0.000000
0.366364 0.078585 0.000000
0.409847 0.073651 0.000000
0.448745 0.066145 0.000000
0.485894 0.051204 0.000000
0.521220 0.013878 0.000000
0.553842 0.000000 0.000000
0.581748 0.000000 0.000000
0.606718 0.000000 0.000000
0.628558 0.000000 0.000000
0.646695 0.000000 0.000000
0.661162 0.000000 0.000000
0.672851 0.000000 0.000000
0.682605 0.000000 0.000000
0.690795 0.000000 0.000000
0.696874 0.000000 0.000000
0.701863 0.000000 0.000000
0.707048 0.000000 0.000000
0.018589 0.063029 0.041453
0.020268 0.061966 0.041750
0.021677 0.060780 0.041992
0.027249 0.059949 0.042139
0.031940 0.059900 0.042722
0.025869 0.060098 0.043338
0.030807 0.061136 0.044271
0.054227 0.063547 0.044790
0.073767 0.067986 0.043628
0.089641 0.073730 0.042840
0.118929 0.078948 0.040178
0.159913 0.082967 0.035423
0.200803 0.086478 0.025209
0.241601 0.089962 0.002079
0.285767 0.094266 0.000000
0.332261 0.095629 0.000000
0.379501 0.095047 0.000000
0.423787 0.093629 0.000000
0.463332 0.089691 0.000000
0.501038 0.081569 0.000000
0.536455 0.068048 0.000000
0.567456 0.036536 0.000000
0.594841 0.018492 0.000000
0.619685 0.015493 0.000000
0.641398 0.013364 0.000000
0.659477 0.011314 0.000000
0.673956 0.009698 0.000000
0.685684 0.009401 0.000000
0.695470 0.010312 0.000000
0.703651 0.012175 0.000000
0.709697 0.013965 0.000000
0.714640 0.015993 0.000000
0.719783 0.017992 0.000000
0.000000 0.079468 0.043658
0.000485 0.078046 0.043842
0.002446 0.076485 0.044017
0.009278 0.075356 0.044055
0.013089 0.075196 0.044281
0.007701 0.075778 0.045289
0.015647 0.077170 0.046191
0.052509 0.079955 0.046132
0.075280 0.084875 0.045464
0.092394 0.090808 0.042989
0.124170 0.096568 0.039476
0.166643 0.101102 0.033777
0.209292 0.105444 0.013771
0.252712 0.111457 0.000372
0.298121 0.116890 0.000000
0.345492 0.119430 0.000000
0.393676 0.121070 0.000000
0.438800 0.121249 0.000000
0.479111 0.119753 0.000000
0.517536 0.115483 0.000000
0.553629 0.108407 0.000000
0.585355 0.102886 0.000000
0.612370 0.097069 0.000000
0.636429 0.089984 0.000000
0.657514 0.084553 0.000000
0.675205 0.080029 0.000000
0.689534 0.077265 0.000000
0.701259 0.077347 0.000000
0.711135 0.080008 0.000000
0.719484 0.084789 0.000000
0.725797 0.090243 0.000000
0.731057 0.096639 0.000000
0.736500 0.102866 0.000000
0.000000 0.097512 0.046108
0.000000 0.095655 0.046434
0.000000 0.093611 0.046839
0.000000 0.092131 0.047070
0.000000 0.091963 0.047294
0.000000 0.093008 0.048526
0.003242 0.094854 0.049009
0.041801 0.097957 0.048050
0.075423 0.103184 0.045816
0.095936 0.109601 0.043468
0.129146 0.115833 0.037562
0.173940 0.121254 0.029360
0.218675 0.127066 0.006568
0.264099 0.134561 0.000000
0.310778 0.140866 0.000000
0.359431 0.144965 0.000000
0.408879 0.148197 0.000000
0.455138 0.149966 0.000000
0.496418 0.150286 0.000000
0.535864 0.148404 0.000000
0.572854 0.144641 0.000000
0.605208 0.140913 0.000000
0.632512 0.138127 0.000000
0.656518 0.135478 0.000000
0.677456 0.133738 0.000000
0.695061 0.132654 0.000000
0.709390 0.133424 0.000000
0.721116 0.135314 0.000000
0.730994 0.137873 0.000000
0.739345 0.140993 0.000000
0.745670 0.145329 0.000000
0.750940 0.149830 0.000000
0.756380 0.153954 0.000000
0.000000 0.115317 0.049083
0.000000 0.113043 0.049735
0.000000 0.110508 0.050439
0.000000 0.108851 0.051312
0.000000 0.108739 0.051616
0.000000 0.110164 0.052436
0.000000 0.112420 0.052265
0.028921 0.115612 0.050156
0.074302 0.121220 0.047067
0.098944 0.128141 0.043106
0.134664 0.134936 0.037026
0.180419 0.140815 0.018450
0.228327 0.148568 0.000000
0.275643 0.157557 0.000000
0.323472 0.164448 0.000000
0.373849 0.169999 0.000000
0.424749 0.174477 0.000000
0.472287 0.177565 0.000000
0.514750 0.179301 0.000000
0.555376 0.178961 0.000000
0.593462 0.177223 0.000000
0.626562 0.175342 0.000000
0.654052 0.173944 0.000000
0.677812 0.171870 0.000000
0.698406 0.170808 0.000000
0.715803 0.170672 0.000000
0.730031 0.171794 0.000000
0.741697 0.174319 0.000000
0.751552 0.177525 0.000000
0.759951 0.181101 0.000000
0.766306 0.185316 0.000000
0.771647 0.190088 0.000000
0.777171 0.194644 0.000000
0.000000 0.135650 0.049552
0.000000 0.133095 0.050966
0.000000 0.130399 0.052671
0.000000 0.128600 0.053256
0.000000 0.128487 0.053316
0.000000 0.129816 0.053433
0.000000 0.132844 0.053595
0.021377 0.136417 0.050168
0.068221 0.142343 0.046089
0.098689 0.149884 0.039555
0.138638 0.157477 0.030614
0.187748 0.164921 0.009516
0.237939 0.174540 0.000000
0.287017 0.184419 0.000001
0.336683 0.192684 0.000000
0.388244 0.199067 0.000000
0.440358 0.204298 0.000000
0.489196 0.208508 0.000000
0.532760 0.211321 0.000000
0.574516 0.212230 0.000000
0.613670 0.211927 0.000000
0.647505 0.211424 0.000000
0.675208 0.210837 0.000000
0.698856 0.209721 0.000000
0.719192 0.208983 0.000000
0.736432 0.209468 0.000000
0.750610 0.211355 0.000000
0.762181 0.213968 0.000000
0.771959 0.217145 0.000000
0.780298 0.220770 0.000000
0.786672 0.225236 0.000000
0.792057 0.230235 0.000000
0.797628 0.235045 0.000000
0.000000 0.159277 0.048572
0.000000 0.156605 0.049967
0.000000 0.153768 0.051874
0.000000 0.151726 0.052672
0.000000 0.151752 0.052690
0.000000 0.153701 0.053084
0.000000 0.156768 0.052029
0.001539 0.160700 0.047263
0.051040 0.167082 0.040002
0.094733 0.175499 0.031797
0.139635 0.184448 0.012018
0.193816 0.194365 0.000000
0.246520 0.205266 0.000065
0.297850 0.216042 0.000000
0.348953 0.225167 0.000000
0.401633 0.232326 0.000000
0.455051 0.238647 0.000000
0.504895 0.243767 0.000000
0.549301 0.247283 0.000000
0.591936 0.249108 0.000000
0.631862 0.249598 0.000000
0.666322 0.249953 0.000000
0.694437 0.250221 0.000000
0.718238 0.249720 0.000000
0.738645 0.249781 0.000000
0.755896 0.250613 0.000000
0.769976 0.252656 0.000000
0.781471 0.255816 0.000000
0.791175 0.259427 0.000000
0.799438 0.263253 0.000000
0.805675 0.267532 0.000000
0.810932 0.272156 0.000000
0.816359 0.276472 0.000000
0.000000 0.183335 0.043934
0.000000 0.180506 0.045686
0.000000 0.177411 0.047951
0.000000 0.175366 0.049434
0.000000 0.175473 0.049109
0.000000 0.177475 0.048486
0.000028 0.180843 0.045881
0.000000 0.185443 0.040278
0.025868 0.192142 0.025230
0.087695 0.202198 0.007864
0.140698 0.213670 0.000000
0.198833 0.225113 0.000082
0.254457 0.236747 0.000000
0.307837 0.248240 0.000000
0.360441 0.258091 0.000000
0.414429 0.266210 0.000000
0.468588 0.273310 0.000000
0.519114 0.279082 0.000000
0.564259 0.283391 0.000000
0.607460 0.285693 0.000000
0.648141 0.286997 0.000000
0.683097 0.287835 0.000000
0.711670 0.288753 0.000000
0.735909 0.289008 0.000000
0.756545 0.289381 0.000000
0.774014 0.290948 0.000000
0.788118 0.293496 0.000000
0.799506 0.296943 0.000000
0.808979 0.300595 0.000000
0.816979 0.304265 0.000000
0.822872 0.308023 0.000000
0.827695 0.312013 0.000000
0.832783 0.316033 0.000000
0.000000 0.207806 0.038021
0.000000 0.204882 0.039896
0.000000 0.201616 0.042071
0.000000 0.199450 0.043069
0.000000 0.199671 0.042220
0.000000 0.201851 0.041011
0.000000 0.205611 0.038352
0.000000 0.210621 0.022081
0.000000 0.219031 0.002804
0.076376 0.231170 0.000000
0.139830 0.244167 0.000015
0.202751 0.256567 0.000000
0.261787 0.269119 0.000000
0.317415 0.281413 0.000000
0.371966 0.292199 0.000000
0.426742 0.301065 0.000000
0.481651 0.308876 0.000000
0.532864 0.315374 0.000000
0.578497 0.320160 0.000000
0.622482 0.323193 0.000000
0.663647 0.324999 0.000000
0.699135 0.326411 0.000000
0.728172 0.327750 0.000000
0.752954 0.328707 0.000000
0.774045 0.329638 0.000000
0.791669 0.331446 0.000000
0.805791 0.334308 0.000000
0.817010 0.337935 0.000000
0.826311 0.341752 0.000000
0.834052 0.345381 0.000000
0.839642 0.349014 0.000000
0.844053 0.352615 0.000000
0.848754 0.356270 0.000000
0.000000 0.233741 0.025498
0.000000 0.230799 0.027844
0.000000 0.227500 0.030603
0.000000 0.225401 0.031833
0.000000 0.225830 0.030352
0.000000 0.228271 0.027926
0.000000 0.232364 0.016182
0.000000 0.239034 0.000000
0.000000 0.249571 0.000000
0.050126 0.262646 0.000000
0.136047 0.276860 0.000000
0.204892 0.290412 0.000000
0.267940 0.304116 0.000000
0.326573 0.317550 0.000000
0.382771 0.329289 0.000000
0.439037 0.339075 0.000000
0.494904 0.347621 0.000000
0.546832 0.354737 0.000000
0.593346 0.360268 0.000000
0.637785 0.363832 0.000000
0.679428 0.366035 0.000000
0.715329 0.367820 0.000000
0.744849 0.369646 0.000000
0.770086 0.370986 0.000000
0.791534 0.372304 0.000000
0.809576 0.374676 0.000000
0.823806 0.377769 0.000000
0.834972 0.381471 0.000000
0.844214 0.385429 0.000000
0.851887 0.389149 0.000000
0.857229 0.392650 0.000000
0.861427 0.396164 0.000000
0.865858 0.399684 0.000000
0.000000 0.263070 0.000000
0.000000 0.259876 0.000000
0.000000 0.256263 0.000000
0.000000 0.254144 0.000000
0.000000 0.255056 0.000000
0.000000 0.258158 0.000000
0.000000 0.263492 0.000000
0.000000 0.271426 0.000103
0.000279 0.282873 0.000000
0.000000 0.296893 0.000000
0.128709 0.312200 0.000000
0.205653 0.327118 0.000000
0.273413 0.342337 0.000000
0.335039 0.357245 0.000000
0.394025 0.370337 0.000000
0.451554 0.380972 0.000000
0.508801 0.390258 0.000000
0.561964 0.398070 0.000000
0.608876 0.403974 0.000000
0.653971 0.408003 0.000000
0.695931 0.410551 0.000000
0.732211 0.412711 0.000000
0.762180 0.414920 0.000000
0.787973 0.416837 0.000000
0.809939 0.418649 0.000000
0.828280 0.421254 0.000000
0.842661 0.424475 0.000000
0.853973 0.428202 0.000000
0.863302 0.432088 0.000000
0.871070 0.435934 0.000000
0.876655 0.439894 0.000000
0.881077 0.443901 0.000000
0.885855 0.448007 0.000000
0.000000 0.294711 0.000000
0.000000 0.291592 0.000000
0.000000 0.288047 0.000000
0.000000 0.286060 0.000000
0.000000 0.287193 0.000000
0.000000 0.290535 0.000000
0.000000 0.296202 0.000000
0.000000 0.304749 0.000000
0.000000 0.317139 0.000000
0.000000 0.332320 0.000000
0.109065 0.348511 0.000000
0.203874 0.364901 0.000000
0.277854 0.381825 0.000000
0.343839 0.398498 0.000000
0.404957 0.412952 0.000000
0.464418 0.424582 0.000000
0.523195 0.434550 0.000000
0.577439 0.442834 0.000000
0.625257 0.449287 0.000000
0.670612 0.453610 0.000000
0.712775 0.456394 0.000000
0.749265 0.458792 0.000000
0.779737 0.461397 0.000000
0.806084 0.463706 0.000000
0.828584 0.465944 0.000000
0.847375 0.468803 0.000000
0.861967 0.472018 0.000000
0.873468 0.475646 0.000000
0.882994 0.479581 0.000000
0.891134 0.483793 0.000000
0.897146 0.488311 0.000000
0.902171 0.493119 0.000000
0.907408 0.497788 0.000000
0.000000 0.324015 0.000000
0.000000 0.321023 0.000000
0.000000 0.317592 0.000000
0.000000 0.315805 0.000000
0.000000 0.317275 0.000000
0.000000 0.321002 0.000000
0.000000 0.327181 0.000000
0.000000 0.336485 0.000000
0.000000 0.349905 0.000000
0.000000 0.366321 0.000000
0.070688 0.383492 0.000000
0.203243 0.401306 0.000000
0.281984 0.419758 0.000000
0.351576 0.437939 0.000000
0.415508 0.453726 0.000000
0.476629 0.466313 0.000000
0.536958 0.477039 0.000000
0.592305 0.485942 0.000000
0.641026 0.492983 0.000000
0.686883 0.497750 0.000000
0.729280 0.500863 0.000000
0.766156 0.503659 0.000000
0.797120 0.506641 0.000000
0.823967 0.509324 0.000000
0.847068 0.511961 0.000000
0.866177 0.514976 0.000000
0.881033 0.518279 0.000000
0.892798 0.521924 0.000000
0.902543 0.525894 0.000000
0.911047 0.530381 0.000000
0.917562 0.535366 0.000000
0.923111 0.540666 0.000000
0.928803 0.545785 0.000000
0.000000 0.349179 0.000000
0.000000 0.346463 0.000000
0.000000 0.343294 0.000000
0.000000 0.341873 0.000000
0.000000 0.343883 0.000000
0.000000 0.348239 0.000000
0.000000 0.355176 0.000000
0.000000 0.365436 0.000000
0.000000 0.380054 0.000000
0.000000 0.397832 0.000000
0.023221 0.416228 0.000000
0.203379 0.435170 0.000000
0.285458 0.454764 0.000000
0.357779 0.474006 0.000000
0.424257 0.490812 0.000000
0.487322 0.504394 0.000000
0.548980 0.516041 0.000000
0.605707 0.525819 0.000000
0.655579 0.533667 0.000000
0.702074 0.539128 0.000000
0.745122 0.542895 0.000000
0.782592 0.546243 0.000000
0.814030 0.549648 0.000000
0.841434 0.552695 0.000000
0.864763 0.555530 0.000000
0.884305 0.558838 0.000000
0.899526 0.562381 0.000000
0.911376 0.566081 0.000000
0.921283 0.570116 0.000000
0.929931 0.574600 0.000000
0.936665 0.579634 0.000000
0.942487 0.584978 0.000000
0.948475 0.590210 0.000000
0.000000 0.372529 0.000000
0.000000 0.370189 0.000000
0.000000 0.367374 0.000000
0.000000 0.366443 0.000000
0.000000 0.369184 0.000000
0.000000 0.374421 0.000000
0.000000 0.382386 0.000000
0.000000 0.393847 0.000000
0.000000 0.409899 0.000000
0.000000 0.429267 0.000000
0.021295 0.449125 0.000000
0.201408 0.469067 0.000000
0.288575 0.489467 0.000000
0.363395 0.509417 0.000000
0.430980 0.526979 0.000000
0.496138 0.541560 0.000000
0.559748 0.554356 0.000000
0.617961 0.565262 0.000000
0.668981 0.574086 0.000000
0.716776 0.580492 0.000000
0.760965 0.585180 0.000000
0.799391 0.589302 0.000000
0.831408 0.593200 0.000000
0.859021 0.596537 0.000000
0.882655 0.599580 0.000000
0.902193 0.602973 0.000000
0.917582 0.606741 0.000000
0.929812 0.610790 0.000000
0.939979 0.615030 0.000000
0.948826 0.619531 0.000000
0.955610 0.624334 0.000000
0.961274 0.629261 0.000000
0.967132 0.634091 0.000000
0.000000 0.394008 0.000000
0.000000 0.392114 0.000000
0.000000 0.389720 0.000000
0.000000 0.389347 0.000000
0.000000 0.392892 0.000000
0.000000 0.399087 0.000000
0.000000 0.408138 0.000000
0.000000 0.420833 0.000000
0.000000 0.438337 0.000000
0.000000 0.459291 0.000000
0.020702 0.480590 0.000000
0.198949 0.501490 0.000000
0.290811 0.522570 0.000000
0.367762 0.543075 0.000000
0.437594 0.561355 0.000000
0.504201 0.576927 0.000000
0.569217 0.590843 0.000000
0.629087 0.602926 0.000000
0.681532 0.612795 0.000000
0.730711 0.620234 0.000000
0.776407 0.625961 0.000000
0.815894 0.630902 0.000000
0.848319 0.635268 0.000000
0.876139 0.638799 0.000000
0.899689 0.641930 0.000000
0.919615 0.645601 0.000000
0.935285 0.649677 0.000000
0.947789 0.654040 0.000000
0.958093 0.658414 0.000000
0.966845 0.662741 0.000000
0.973444 0.667136 0.000000
0.979056 0.671648 0.000000
0.984996 0.676136 0.000000
0.000000 0.412141 0.000000
0.000000 0.410782 0.000000
0.000000 0.408908 0.000000
0.000000 0.409151 0.000000
0.000000 0.413474 0.000000
0.000000 0.420545 0.000000
0.000000 0.430557 0.000000
0.000000 0.444310 0.000000
0.000000 0.463026 0.000000
0.000000 0.485291 0.000000
0.020393 0.507797 0.000000
0.198404 0.529577 0.000000
0.294005 0.551341 0.000000
0.372625 0.572433 0.000000
0.443510 0.591395 0.000000
0.511563 0.607861 0.000000
0.578117 0.622825 0.000000
0.639110 0.635936 0.000000
0.692676 0.646749 0.000000
0.743362 0.655178 0.000000
0.790191 0.661814 0.000000
0.830576 0.667479 0.000000
0.863574 0.672375 0.000000
0.891659 0.676210 0.000000
0.915498 0.679587 0.000000
0.935470 0.683387 0.000000
0.951357 0.687714 0.000000
0.963971 0.692187 0.000000
0.974481 0.696651 0.000000
0.983357 0.700879 0.000000
0.990195 0.705046 0.000000
0.995564 0.709064 0.000000
0.998040 0.711889 0.000000
0.000000 0.426331 0.000000
0.000000 0.425635 0.000000
0.000000 0.424420 0.000000
0.000000 0.425359 0.000000
0.000000 0.430410 0.000000
0.000000 0.438177 0.000000
0.000000 0.448907 0.000000
0.000000 0.463462 0.000000
0.000000 0.483093 0.000000
0.000000 0.506328 0.000000
0.020374 0.529777 0.000000
0.199683 0.552396 0.000000
0.297934 0.574923 0.000000
0.377714 0.596744 0.000000
0.449947 0.616473 0.000000
0.518986 0.633779 0.000000
0.586266 0.649618 0.000000
0.648217 0.663621 0.000000
0.702760 0.675298 0.000000
0.754122 0.684578 0.000000
0.801839 0.692067 0.000000
0.842801 0.698447 0.000000
0.876508 0.703934 0.000000
0.904905 0.708108 0.000000
0.929296 0.711864 0.000000
0.949476 0.715842 0.000000
0.965545 0.720254 0.000000
0.978120 0.724731 0.000000
0.988507 0.729027 0.000000
0.997179 0.732951 0.000000
0.999590 0.735132 0.000000
1.000000 0.736930 0.000000
1.000000 0.738451 0.000000
0.000000 0.437663 0.000000
0.000000 0.437760 0.000000
0.000000 0.437344 0.000000
0.000000 0.439064 0.000000
0.000000 0.444825 0.000000
0.000000 0.453191 0.000000
0.000000 0.464495 0.000000
0.000000 0.479697 0.000000
0.000000 0.500074 0.000000
0.000000 0.524097 0.000000
0.020551 0.548376 0.000000
0.202141 0.571806 0.000000
0.302625 0.595156 0.000000
0.383377 0.617796 0.000000
0.456300 0.638340 0.000000
0.525819 0.656456 0.000000
0.593837 0.673145 0.000000
0.656238 0.687948 0.000000
0.711184 0.700434 0.000000
0.763163 0.710549 0.000000
0.811684 0.718914 0.000000
0.853356 0.726086 0.000000
0.887470 0.732118 0.000000
0.916834 0.736906 0.000000
0.941474 0.740935 0.000000
0.962071 0.745168 0.000000
0.978266 0.749628 0.000000
0.990800 0.753981 0.000000
1.000000 0.757791 0.000000
1.000000 0.758258 0.000000
0.999998 0.759214 0.000000
1.000000 0.760432 0.000000
1.000000 0.761587 0.000000
0.000000 0.447000 0.000000
0.000000 0.447958 0.000000
0.000000 0.448405 0.000000
0.000000 0.450961 0.000000
0.000000 0.457468 0.000000
0.000000 0.466460 0.000000
0.000000 0.478324 0.000000
0.000000 0.494108 0.000000
0.000000 0.515064 0.000000
0.000000 0.539664 0.000000
0.021112 0.564548 0.000000
0.206818 0.588674 0.000000
0.308047 0.612753 0.000000
0.389300 0.636128 0.000000
0.462731 0.657396 0.000000
0.532760 0.676245 0.000000
0.600929 0.693637 0.000000
0.663760 0.709179 0.000000
0.719234 0.722399 0.000000
0.771715 0.733302 0.000000
0.820456 0.742413 0.000000
0.862630 0.750259 0.000000
0.897388 0.756907 0.000000
0.927157 0.762136 0.000000
0.952548 0.766591 0.000000
0.973311 0.770942 0.000000
0.989847 0.775533 0.000000
1.000000 0.779014 0.000000
0.999991 0.779251 0.000000
0.999998 0.779628 0.000000
1.000000 0.780293 0.000000
1.000000 0.781139 0.000000
1.000000 0.781942 0.000000
0.000000 0.454875 0.000000
0.000000 0.456685 0.000000
0.000000 0.457979 0.000000
0.000000 0.461363 0.000000
0.000000 0.468658 0.000000
0.000000 0.478406 0.000000
0.000000 0.490963 0.000000
0.000000 0.507310 0.000000
0.000000 0.528654 0.000000
0.000000 0.553517 0.000000
0.022359 0.578704 0.000000
0.215329 0.603317 0.000000
0.314602 0.627882 0.000000
0.396088 0.651779 0.000000
0.469845 0.673594 0.000000
0.539833 0.692959 0.000000
0.608293 0.710897 0.000000
0.671008 0.726967 0.000000
0.726672 0.740727 0.000000
0.779556 0.752261 0.000000
0.828494 0.761981 0.000000
0.870920 0.770357 0.000000
0.906182 0.777460 0.000000
0.936327 0.783073 0.000000
0.962206 0.787852 0.000000
0.983424 0.792425 0.000000
0.998202 0.796366 0.000000
1.000000 0.796839 0.000000
1.000000 0.797022 0.000000
1.000000 0.797214 0.000000
1.000000 0.797619 0.000000
1.000000 0.798165 0.000000
1.000000 0.798681 0.000000
0.000000 0.460753 0.000000
0.000000 0.463296 0.000000
0.000000 0.465305 0.000000
0.000000 0.469429 0.000000
0.000000 0.477541 0.000000
0.000000 0.488225 0.000000
0.000000 0.501642 0.000000
0.000000 0.518587 0.000000
0.000000 0.540133 0.000000
0.000000 0.564950 0.000000
0.023746 0.590137 0.000000
0.224752 0.615018 0.000000
0.321197 0.639914 0.000000
0.403033 0.664216 0.000000
0.476416 0.686417 0.000000
0.546744 0.706191 0.000000
0.615001 0.724521 0.000000
0.677922 0.741010 0.000000
0.733678 0.755187 0.000000
0.786407 0.767172 0.000000
