Film Looks/Rec709 Kodak 2383 D60.cube
# Resolve Film Look LUT
#   Input: Cineon Log 
#        : floating point data (range 0.0 - 1.0)
#  Output: Kodak 2383 film stock 'look' with D60 White Point
#        : floating point data (range 0.0 - 1.0)
# Display: ITU-Rec.709, Gamma 2.4
LUT_3D_SIZE 9
LUT_3D_INPUT_RANGE 0.0 1.0
0.026979 0.027936 0.031946
0.038008 0.031120 0.035123
0.074886 0.039616 0.035529
0.173484 0.051785 0.021754
0.347437 0.046906 0.000000
0.517941 0.000000 0.000000
0.620885 0.000000 0.000000
0.669584 0.000000 0.000000
0.691894 0.000000 0.000000
0.021278 0.040464 0.037241
0.036756 0.043305 0.039582
0.083123 0.053735 0.038990
0.196851 0.066937 0.018592
0.388158 0.070569 0.000000
0.563019 0.000000 0.000000
0.663752 0.000000 0.000000
0.706956 0.000000 0.000000
0.725859 0.000000 0.000000
0.000000 0.075220 0.049257
0.011874 0.078369 0.050060
0.089879 0.092014 0.048607
0.227266 0.113674 0.014232
0.442115 0.135305 0.000000
0.625891 0.131622 0.000000
0.719546 0.118135 0.000000
0.759998 0.124632 0.000000
0.779731 0.143035 0.000000
0.000000 0.155417 0.062282
0.000000 0.162488 0.061373
0.059942 0.183959 0.050450
0.266386 0.227340 0.000000
0.514488 0.271344 0.000000
0.712128 0.289084 0.000000
0.807561 0.291846 0.000000
0.846638 0.303648 0.000000
0.867105 0.326535 0.000000
0.000000 0.276347 0.051279
0.000000 0.290965 0.043048
0.000000 0.333400 0.000000
0.291708 0.408705 0.000000
0.588801 0.480423 0.000000
0.807372 0.516515 0.000000
0.907844 0.524151 0.000000
0.946718 0.537010 0.000000
0.964862 0.558795 0.000000
0.000000 0.387131 0.000000
0.000000 0.412874 0.000000
0.000000 0.474290 0.000000
0.287011 0.573411 0.000000
0.636210 0.672397 0.000000
0.876534 0.727438 0.000000
0.985757 0.743269 0.000000
1.000000 0.744465 0.000000
1.000000 0.751245 0.000000
0.000000 0.443665 0.000000
0.000000 0.478346 0.000000
0.000000 0.546352 0.000000
0.279886 0.655478 0.000000
0.654923 0.768204 0.000000
0.905778 0.834986 0.000000
0.999987 0.852287 0.000000
1.000000 0.848195 0.000000
1.000000 0.850393 0.000000
0.000000 0.468194 0.000000
0.000000 0.514986 0.000000
0.000000 0.583621 0.000000
0.304949 0.690775 0.000000
0.667155 0.802704 0.000000
0.915502 0.871792 0.000000
1.000000 0.889492 0.000000
1.000000 0.886356 0.000000
1.000000 0.886403 0.000000
0.000000 0.500289 0.000000
0.000000 0.562487 0.000000
0.000000 0.625900 0.000000
0.369263 0.721272 0.000000
0.687890 0.819200 0.000000
0.918056 0.882845 0.000000
1.000000 0.900930 0.000000
1.000000 0.898003 0.000000
1.000000 0.895525 0.000000
0.026029 0.029607 0.043890
0.036096 0.032309 0.047583
0.077739 0.041037 0.049082
0.181797 0.052735 0.042380
0.354910 0.003831 0.000000
0.530197 0.000000 0.000000
0.632469 0.000000 0.000000
0.680573 0.000000 0.000000
0.702384 0.000000 0.000000
0.020467 0.042712 0.050357
0.035426 0.045734 0.052759
0.086245 0.056539 0.054409
0.204857 0.069228 0.045606
0.395603 0.054881 0.000016
0.575634 0.000016 0.000000
0.675817 0.000000 0.000000
0.718300 0.000000 0.000000
0.736592 0.000000 0.000000
0.000000 0.079785 0.064278
0.002987 0.083460 0.064979
0.093220 0.097499 0.065311
0.236643 0.119996 0.053096
0.450671 0.131925 0.000000
0.635767 0.124168 0.000000
0.728971 0.105164 0.000000
0.768732 0.111964 0.000000
0.788435 0.135271 0.000000
0.000000 0.165620 0.082021
0.000000 0.173547 0.082408
0.051091 0.195922 0.072998
0.272708 0.236447 0.020008
0.525652 0.279125 0.000000
0.724981 0.296255 0.000000
0.819864 0.298030 0.000000
0.858189 0.310561 0.000000
0.878392 0.334486 0.000000
0.000000 0.292767 0.083405
0.000000 0.308734 0.080225
0.000000 0.348484 0.025146
0.295150 0.425362 0.000000
0.601287 0.498621 0.000000
0.821885 0.534303 0.000000
0.922164 0.541905 0.000000
0.960288 0.555134 0.000000
0.978018 0.576859 0.000000
0.000000 0.402364 0.056667
0.000000 0.427181 0.019632
0.000000 0.490098 0.000000
0.286652 0.591455 0.000000
0.647132 0.692754 0.000000
0.890472 0.748114 0.000000
0.997655 0.763571 0.000000
1.000000 0.759934 0.000000
1.000000 0.766998 0.000000
0.000000 0.454331 0.039855
0.000000 0.488804 0.000000
0.000000 0.558530 0.000000
0.270037 0.668823 0.000000
0.662221 0.782962 0.000000
0.916305 0.849872 0.000000
1.000000 0.864012 0.000000
1.000000 0.859708 0.000000
1.000000 0.860835 0.000000
0.000000 0.479707 0.087347
0.000000 0.521242 0.031013
0.000000 0.589914 0.000010
0.282946 0.697133 0.000000
0.666015 0.809835 0.000000
0.918977 0.879119 0.000000
1.000000 0.895056 0.000000
1.000000 0.891689 0.000000
1.000000 0.890886 0.000000
0.000000 0.522320 0.182578
0.000000 0.576531 0.165832
0.000000 0.630717 0.129754
0.322751 0.714293 0.000000
0.664565 0.811438 0.000000
0.900357 0.874440 0.000000
1.000000 0.896258 0.000000
1.000000 0.892511 0.000000
1.000000 0.888529 0.000000
0.018241 0.029587 0.082455
0.035601 0.032428 0.085629
0.077757 0.041517 0.090076
0.184924 0.052010 0.092875
0.361322 0.000000 0.088052
0.537478 0.000000 0.086392
0.639725 0.000000 0.080982
0.687714 0.000000 0.081638
0.709603 0.000000 0.090077
0.000843 0.044328 0.091332
0.030253 0.049094 0.093842
0.085243 0.058611 0.098850
0.208098 0.071474 0.101365
0.398454 0.022054 0.091283
0.581845 0.000000 0.084915
0.682164 0.000000 0.077258
0.724175 0.000000 0.076776
0.741865 0.000000 0.085181
0.000000 0.087414 0.113572
0.000000 0.091643 0.114475
0.086562 0.104791 0.117024
0.239128 0.127091 0.118345
0.452404 0.128987 0.104680
0.629293 0.077412 0.067838
0.722856 0.000000 0.047055
0.761668 0.000000 0.041489
0.778046 0.049887 0.046705
0.000000 0.180255 0.140883
0.000000 0.187802 0.142222
0.000000 0.210515 0.140506
0.270921 0.250391 0.134245
0.521024 0.278465 0.107193
0.714618 0.280775 0.049921
0.807772 0.275798 0.000000
0.845988 0.288041 0.000000
0.864611 0.312520 0.000000
0.000000 0.314974 0.162529
0.000000 0.331038 0.163816
0.000000 0.371150 0.156190
0.272754 0.434338 0.123433
0.585085 0.493227 0.003404
0.810414 0.527897 0.000000
0.911951 0.534437 0.000000
0.949393 0.546550 0.000000
0.965171 0.567510 0.000000
0.000000 0.428781 0.173726
0.000000 0.453082 0.170439
0.000000 0.507954 0.152913
0.226757 0.591733 0.061144
0.626490 0.690296 0.000494
0.876474 0.745433 0.000000
0.987751 0.761235 0.000000
0.999990 0.760135 0.000000
1.000000 0.766475 0.000000
0.000000 0.481337 0.189767
0.000000 0.513230 0.186040
0.000000 0.573246 0.165546
0.154934 0.664114 0.058202
0.633976 0.776015 0.000419
0.895889 0.842876 0.000000
1.000000 0.862395 0.000000
1.000000 0.857461 0.000000
1.000000 0.857630 0.000000
0.000000 0.509216 0.234756
0.000000 0.550830 0.232744
0.000000 0.609786 0.218787
0.147004 0.695584 0.156387
0.624461 0.792499 0.000000
0.885888 0.861872 0.000000
1.000000 0.887165 0.000068
1.000000 0.882700 0.000048
1.000000 0.880583 0.000058
0.000000 0.552869 0.325644
0.000000 0.606850 0.328948
0.000000 0.660743 0.322878
0.242499 0.735594 0.298188
0.630463 0.815583 0.267209
0.865472 0.864771 0.226721
0.981271 0.884931 0.191560
1.000000 0.883238 0.152151
1.000000 0.881633 0.176824
0.000000 0.000000 0.172522
0.028631 0.000172 0.175921
0.078714 0.007645 0.187347
0.189786 0.010353 0.200631
0.375550 0.000000 0.214218
0.552526 0.000000 0.226867
0.655462 0.000000 0.234587
0.703145 0.000000 0.241665
0.723973 0.000000 0.249966
0.000000 0.015241 0.186671
0.000477 0.038173 0.191260
0.082035 0.051045 0.203823
0.212226 0.061890 0.218276
0.409931 0.001229 0.226929
0.596481 0.000000 0.240244
0.697095 0.000000 0.246633
0.738556 0.000000 0.252860
0.755701 0.000000 0.260868
0.000000 0.086176 0.223360
0.000000 0.091605 0.227209
0.062928 0.113390 0.235652
0.239513 0.134449 0.251351
0.460496 0.135388 0.258073
0.640643 0.084897 0.255029
0.733312 0.000000 0.254925
0.770881 0.000000 0.257864
0.787828 0.064615 0.266940
0.000000 0.203171 0.273175
0.000000 0.210371 0.278485
0.000054 0.234276 0.285055
0.258858 0.272301 0.292164
0.524319 0.299690 0.296280
0.721881 0.300783 0.290915
0.813606 0.292293 0.286131
0.850147 0.302709 0.288777
0.868764 0.329571 0.298457
0.000000 0.348625 0.314048
0.000000 0.365931 0.323277
0.000000 0.406457 0.329291
0.225188 0.466490 0.324673
0.575960 0.522512 0.321927
0.799608 0.543886 0.309877
0.898958 0.544311 0.302147
0.935238 0.554293 0.303045
0.950647 0.577150 0.311292
0.000000 0.468725 0.343767
0.000000 0.493422 0.350333
0.000000 0.548442 0.355749
0.098451 0.628662 0.342247
0.595705 0.710300 0.327975
0.846787 0.750573 0.306401
0.956679 0.759969 0.293969
0.994179 0.766605 0.293182
1.000000 0.776102 0.300454
0.000000 0.522119 0.368992
0.000000 0.554681 0.376978
0.000000 0.614615 0.382279
0.000000 0.702232 0.366270
0.594284 0.794751 0.348253
0.859374 0.845832 0.323071
0.976847 0.862549 0.307496
1.000000 0.862529 0.299120
1.000000 0.863318 0.304235
0.000000 0.549551 0.416399
0.000000 0.591284 0.427258
0.000000 0.649542 0.432398
0.000000 0.733782 0.419457
0.589832 0.824785 0.408671
0.855544 0.878279 0.390567
0.976465 0.897923 0.377049
1.000000 0.897809 0.367480
1.000000 0.896388 0.371490
0.000000 0.586706 0.487806
0.000000 0.640374 0.501289
0.000000 0.694834 0.506666
0.097869 0.767202 0.497275
0.600204 0.846233 0.496523
0.847810 0.895287 0.489507
0.967805 0.915242 0.481733
1.000000 0.918076 0.476002
1.000000 0.916106 0.477909
0.000000 0.000000 0.294706
0.000000 0.000000 0.299205
0.071444 0.000000 0.311788
0.204534 0.000000 0.335659
0.395276 0.000000 0.358565
0.572365 0.000000 0.377886
0.673131 0.000000 0.388372
0.719695 0.000000 0.396723
0.741425 0.000000 0.406341
0.000000 0.000000 0.315127
0.000000 0.000000 0.320004
0.077371 0.000079 0.334188
0.221458 0.000000 0.359421
0.429722 0.000000 0.383024
0.614672 0.000000 0.401205
0.714467 0.000000 0.411587
0.755111 0.000000 0.419272
0.771747 0.000000 0.427789
0.000000 0.011290 0.347955
0.000000 0.051582 0.358219
0.001828 0.110546 0.378378
0.240663 0.131358 0.405959
0.468595 0.129411 0.425224
0.651301 0.064744 0.431636
0.746075 0.000000 0.436806
0.783071 0.000000 0.441891
0.798347 0.060812 0.451028
0.000000 0.209530 0.426300
0.000000 0.216567 0.433568
0.000000 0.250241 0.452397
0.240636 0.291690 0.466609
0.525113 0.318200 0.485803
0.726966 0.318963 0.490933
0.820014 0.310532 0.490655
0.856369 0.321246 0.494928
0.874662 0.349823 0.506039
0.000000 0.376157 0.487244
0.000000 0.393129 0.499595
0.000000 0.435998 0.516107
0.113722 0.497205 0.520723
0.562835 0.552377 0.537553
0.795042 0.573040 0.540425
0.897050 0.572931 0.538882
0.933903 0.583018 0.541624
0.948766 0.605712 0.549630
0.000000 0.505415 0.528803
0.000000 0.529928 0.540351
0.000000 0.585123 0.556480
0.000000 0.665665 0.559166
0.567667 0.744682 0.566951
0.832208 0.784369 0.567391
0.946169 0.793386 0.564830
0.984749 0.799866 0.565822
0.996278 0.811077 0.571824
0.000000 0.558827 0.554721
0.000000 0.591490 0.567555
0.000000 0.651267 0.583413
0.000000 0.740179 0.586594
0.558886 0.828863 0.589802
0.840289 0.879732 0.589397
0.961997 0.896408 0.585643
1.000000 0.901201 0.585352
1.000000 0.901718 0.585879
0.000000 0.582749 0.590762
0.000000 0.624005 0.607346
0.000000 0.682857 0.621916
0.000345 0.768428 0.624694
0.554697 0.855925 0.629616
0.835811 0.908911 0.630694
0.960953 0.928626 0.627576
1.000000 0.933617 0.625592
1.000000 0.931596 0.625477
0.000000 0.611935 0.638505
0.000000 0.668476 0.660653
0.000000 0.722477 0.670399
0.000000 0.795363 0.670318
0.570527 0.872210 0.680372
0.830571 0.920792 0.685120
0.954356 0.940998 0.683926
0.999836 0.947580 0.682720
1.000000 0.944756 0.681047
0.000000 0.000000 0.400638
0.000000 0.000000 0.407078
0.029159 0.000000 0.418837
0.209499 0.000000 0.450238
0.410840 0.000000 0.480755
0.588720 0.000000 0.504405
0.691171 0.000000 0.517930
0.736916 0.000000 0.526115
0.758751 0.000000 0.536372
0.000000 0.000000 0.428907
0.000000 0.000000 0.435926
0.037657 0.000000 0.449367
0.228720 0.000000 0.483608
0.445339 0.000000 0.515220
0.631391 0.000000 0.537827
0.731168 0.000000 0.549484
0.771730 0.000000 0.557564
0.789281 0.000000 0.567981
0.000000 0.000000 0.469752
0.000000 0.000033 0.477632
0.000000 0.080604 0.498277
0.240946 0.115493 0.534835
0.473695 0.099968 0.563531
0.661209 0.000094 0.578008
0.760632 0.000000 0.587798
0.797568 0.000000 0.593854
0.809128 0.000000 0.600598
0.000000 0.183185 0.545289
0.000000 0.199452 0.558544
0.000000 0.244777 0.584653
0.221892 0.300529 0.607282
0.522882 0.325988 0.637722
0.729277 0.325809 0.650171
0.824459 0.317069 0.652597
0.861590 0.327938 0.657575
0.879638 0.358468 0.668375
0.000000 0.386403 0.627377
0.000000 0.402684 0.640071
0.000000 0.449503 0.664969
0.022347 0.514633 0.676073
0.548165 0.568773 0.703428
0.788858 0.589033 0.715103
0.894528 0.588873 0.717024
0.932293 0.598342 0.719987
0.947413 0.621779 0.727248
0.000000 0.524493 0.675405
0.000000 0.550611 0.690801
0.000000 0.606164 0.713876
0.000680 0.688176 0.726519
0.539659 0.765231 0.742784
0.818217 0.804942 0.754205
0.936634 0.813762 0.755548
0.977230 0.820243 0.757273
0.989301 0.831430 0.761143
0.000000 0.579103 0.697269
0.000000 0.612057 0.714719
0.000000 0.674832 0.738975
0.000000 0.763932 0.751185
0.524348 0.850838 0.763468
0.822914 0.902007 0.775017
0.949696 0.918844 0.776661
0.992893 0.924510 0.777511
1.000000 0.927383 0.778327
0.000000 0.599867 0.720413
0.000000 0.643942 0.743451
0.000000 0.703166 0.763590
0.000000 0.789966 0.774873
0.521108 0.875892 0.787347
0.818849 0.929415 0.799450
0.949027 0.949763 0.801711
0.994875 0.956381 0.802253
1.000000 0.956133 0.801346
0.000000 0.629388 0.753523
0.000000 0.685033 0.778373
0.000000 0.739860 0.792337
0.000537 0.813588 0.798728
0.543782 0.888995 0.813960
0.815860 0.937828 0.826418
0.943935 0.958508 0.829640
0.992384 0.965688 0.829813
1.000000 0.965233 0.828735
0.000000 0.000000 0.468780
0.000000 0.000000 0.475888
0.000000 0.000000 0.490254
0.211115 0.000000 0.523951
0.421398 0.000000 0.560539
0.602356 0.000000 0.587131
0.704821 0.000000 0.601405
0.752783 0.000000 0.613812
0.770977 0.000000 0.619239
0.000000 0.000000 0.504123
0.000000 0.000000 0.512555
0.000000 0.000000 0.527993
0.230935 0.000000 0.564804
0.455702 0.000000 0.602133
0.646293 0.000000 0.628856
0.746425 0.000000 0.641890
0.786807 0.000000 0.650149
0.802804 0.000000 0.658965
0.000000 0.000000 0.547032
0.000000 0.000000 0.556060
0.000000 0.033530 0.574536
0.240286 0.103767 0.615999
0.478473 0.079617 0.651273
0.670828 0.000000 0.671803
0.771255 0.000000 0.682850
0.808595 0.000000 0.689243
0.820204 0.000000 0.696332
0.000000 0.161834 0.615873
0.000000 0.183281 0.631133
0.000000 0.240243 0.664265
0.205156 0.305983 0.691507
0.520404 0.330779 0.729135
0.730441 0.330270 0.746786
0.828165 0.320881 0.751629
0.866148 0.331114 0.756871
0.884296 0.363997 0.767055
0.000000 0.385905 0.706770
0.000000 0.405511 0.723324
0.000000 0.451454 0.749254
0.000000 0.521097 0.767037
0.536642 0.574693 0.799496
0.783757 0.595273 0.817492
0.892448 0.594490 0.821768
0.931575 0.603142 0.824922
0.946959 0.627136 0.831234
0.000000 0.531221 0.759949
0.000000 0.556328 0.774431
0.000000 0.613348 0.802968
0.000000 0.697169 0.821564
0.519773 0.772861 0.842383
0.807994 0.812797 0.860614
0.930530 0.821606 0.865110
0.973047 0.827798 0.867161
0.985347 0.838667 0.869214
0.000000 0.586319 0.778482
0.000000 0.621762 0.796537
0.000000 0.683516 0.825170
0.000000 0.773467 0.842645
0.499916 0.860151 0.859819
0.810619 0.911854 0.878485
0.941864 0.928950 0.883902
0.987334 0.934822 0.885327
0.999734 0.938820 0.886238
0.000000 0.608963 0.794796
0.000000 0.650322 0.813696
0.000000 0.711927 0.839226
0.000000 0.798740 0.855519
0.496398 0.884189 0.871475
0.806765 0.938641 0.890196
0.941514 0.959534 0.896123
0.989430 0.966494 0.897434
1.000000 0.967616 0.897077
0.000000 0.636991 0.812915
0.000000 0.690248 0.836439
0.000000 0.748060 0.855971
0.000000 0.820428 0.864500
0.524582 0.895844 0.882861
0.805292 0.945322 0.900094
0.937183 0.966632 0.906295
0.988040 0.974146 0.908087
1.000000 0.975169 0.907593
0.000000 0.000000 0.508228
0.000000 0.000000 0.516157
0.000000 0.000000 0.531807
0.218287 0.000000 0.566569
0.437247 0.000000 0.605486
0.622321 0.000000 0.634586
0.724838 0.000000 0.649684
0.770237 0.000000 0.660240
0.788950 0.000000 0.667879
0.000000 0.000000 0.548445
0.000000 0.000000 0.558399
0.000000 0.000000 0.574919
0.235884 0.000000 0.612870
0.465884 0.000000 0.652178
0.659700 0.000000 0.679754
0.760513 0.000000 0.692707
0.800475 0.000000 0.700925
0.817555 0.000000 0.710780
0.000000 0.000000 0.586174
0.000000 0.000000 0.596429
0.000080 0.065139 0.617803
0.238677 0.142482 0.661157
0.486948 0.138104 0.699318
0.679196 0.076988 0.719720
0.777010 0.000000 0.728802
0.814922 0.000000 0.735307
0.831980 0.095598 0.745089
0.000000 0.173324 0.651646
0.000000 0.199949 0.671113
0.000000 0.249855 0.701125
0.183038 0.324995 0.730255
0.520379 0.351392 0.771041
0.734146 0.352141 0.791159
0.834340 0.343384 0.797285
0.873297 0.352855 0.802891
0.891399 0.384271 0.812146
0.000000 0.388844 0.739740
0.000000 0.411723 0.758499
0.000000 0.458394 0.784274
0.000000 0.529133 0.803768
0.530184 0.582879 0.837430
0.780701 0.603509 0.858177
0.891868 0.602543 0.864051
0.932625 0.611230 0.867851
0.948150 0.633615 0.873218
0.000000 0.532736 0.789993
0.000000 0.560394 0.809201
0.000000 0.615874 0.834139
0.000000 0.699817 0.856351
0.508944 0.774988 0.878907
0.801565 0.814926 0.900432
0.926625 0.823575 0.906847
0.971144 0.829640 0.909635
0.984636 0.841291 0.911648
0.000000 0.595500 0.812063
0.000000 0.627854 0.831125
0.000000 0.687426 0.855318
0.000000 0.776490 0.876649
0.487191 0.861855 0.894735
0.803130 0.913872 0.916684
0.937385 0.931284 0.924097
0.984523 0.937169 0.926255
0.998102 0.941716 0.927074
0.000000 0.610854 0.817849
0.000000 0.655317 0.843067
0.000000 0.713606 0.864429
0.000000 0.800734 0.883335
0.483928 0.886207 0.901393
0.799098 0.940894 0.923009
0.937086 0.962333 0.930808
0.986997 0.969357 0.932901
1.000000 0.971253 0.932880
0.000000 0.638025 0.833308
0.000000 0.697006 0.860795
0.000000 0.749625 0.876979
0.000000 0.822574 0.888332
0.511616 0.896888 0.906936
0.797604 0.947151 0.926501
0.932761 0.968972 0.934387
0.985615 0.976697 0.936908
1.000000 0.978527 0.936803
0.000000 0.000000 0.554386
0.000000 0.000000 0.564520
0.000000 0.000000 0.580394
0.237370 0.000000 0.619790
0.461790 0.000000 0.659239
0.653360 0.000000 0.688198
0.755453 0.000000 0.701544
0.797251 0.000000 0.711161
0.813237 0.000000 0.719749
0.000000 0.000000 0.587694
0.000000 0.000000 0.599236
0.000023 0.071282 0.619777
0.241154 0.134161 0.662384
0.481475 0.130126 0.700883
0.670464 0.059879 0.721799
0.771894 0.000071 0.733415
0.811705 0.000000 0.741037
0.826458 0.083329 0.749142
0.000000 0.000000 0.614316
0.000000 0.077404 0.631423
0.000000 0.166888 0.666551
0.226682 0.240864 0.705075
0.503615 0.256778 0.744860
0.704590 0.246907 0.766008
0.802908 0.229258 0.773427
0.843008 0.237623 0.780288
0.862419 0.275721 0.790806
0.000000 0.239492 0.689996
0.000000 0.269263 0.708459
0.000000 0.312439 0.735432
0.123085 0.382661 0.759532
0.523992 0.416713 0.800780
0.745658 0.423996 0.822127
0.849924 0.417878 0.828877
0.890645 0.427004 0.834247
0.908223 0.456828 0.842355
0.000000 0.414521 0.759967
0.000000 0.438227 0.776765
0.000000 0.486149 0.802668
0.000000 0.556626 0.822512
0.525161 0.611748 0.854408
0.780537 0.635115 0.876315
0.895496 0.635277 0.883087
0.937936 0.642377 0.886695
0.953427 0.663475 0.891370
0.000000 0.539612 0.801817
0.000000 0.567639 0.819255
0.000000 0.626404 0.846095
0.000000 0.707353 0.867347
0.503123 0.781792 0.890335
0.796356 0.821920 0.912611
0.924224 0.831574 0.920143
0.970295 0.836623 0.922865
0.984837 0.847927 0.925040
0.000000 0.594850 0.817020
0.000000 0.630788 0.838282
0.000000 0.693489 0.866017
0.000000 0.778560 0.885322
0.481950 0.862627 0.904739
0.796961 0.914051 0.927415
0.933570 0.931884 0.935593
0.983063 0.937646 0.938310
0.996701 0.941686 0.938478
0.000000 0.618493 0.829914
0.000000 0.660194 0.852056
0.000000 0.720158 0.875124
0.000000 0.802773 0.891783
0.477894 0.886262 0.909777
0.792773 0.940633 0.932095
0.933085 0.962579 0.941002
0.985054 0.969939 0.943610
0.998993 0.971129 0.942845
0.000000 0.646937 0.843633
0.000000 0.699210 0.865384
0.000000 0.752038 0.884003
0.000000 0.823372 0.894923
0.503869 0.896539 0.913789
0.790953 0.946729 0.934056
0.928142 0.969062 0.942556
0.982989 0.976682 0.945161
0.999974 0.979295 0.945876
