Film Looks/Rec709 Fujifilm 3513DI D55.cube
# Resolve Film Look LUT
#   Input: Cineon Log 
#        : floating point data (range 0.0 - 1.0)
#  Output: FUJIFILM 3513DI film stock 'look' with D55 White Point
#        : floating point data (range 0.0 - 1.0)
# Display: ITU-Rec.709, Gamma 2.4
LUT_3D_SIZE 9
LUT_3D_INPUT_RANGE 0.0 1.0
0.028959 0.023073 0.028616
0.030240 0.026121 0.029965
0.055975 0.031052 0.030182
0.159538 0.035077 0.020183
0.314054 0.000000 0.000000
0.463833 0.000000 0.000000
0.565531 0.000000 0.000000
0.621656 0.000000 0.000000
0.647141 0.000000 0.000000
0.029637 0.045217 0.035513
0.031785 0.043551 0.036993
0.067369 0.049849 0.037750
0.181448 0.062040 0.020599
0.350349 0.061942 0.000000
0.503496 0.000000 0.000000
0.608734 0.000000 0.000000
0.662012 0.000000 0.000000
0.686734 0.000000 0.000000
0.000000 0.094990 0.041840
0.001832 0.089608 0.043150
0.076281 0.100624 0.041853
0.217094 0.124368 0.000287
0.404757 0.145201 0.000000
0.566703 0.142142 0.000000
0.670131 0.132306 0.000000
0.723071 0.136524 0.000000
0.748172 0.152331 0.000000
0.000000 0.178577 0.036921
0.000000 0.170802 0.041592
0.044484 0.187486 0.012985
0.254270 0.231740 0.000000
0.464534 0.267295 0.000000
0.641416 0.280769 0.000000
0.748410 0.283196 0.000000
0.800157 0.294147 0.000000
0.823747 0.309224 0.000000
0.000000 0.288236 0.000000
0.000000 0.280920 0.000000
0.000239 0.310047 0.000000
0.281392 0.373195 0.000000
0.520403 0.424383 0.000000
0.706327 0.445570 0.000000
0.820394 0.455037 0.000000
0.873926 0.468215 0.000000
0.898111 0.485976 0.000000
0.000000 0.385052 0.000000
0.000000 0.383954 0.000000
0.000000 0.428118 0.000000
0.300694 0.510306 0.000000
0.568740 0.576519 0.000000
0.771147 0.610578 0.000000
0.892256 0.626236 0.000000
0.949459 0.642145 0.000000
0.975882 0.659360 0.000000
0.000000 0.436687 0.000000
0.000000 0.446855 0.000000
0.000000 0.502794 0.000000
0.321297 0.598077 0.000000
0.602214 0.676532 0.000000
0.816396 0.723854 0.000000
0.945699 0.747343 0.000000
1.000000 0.762566 0.000000
1.000000 0.764560 0.000000
0.000000 0.459022 0.000000
0.000000 0.482362 0.000000
0.000036 0.547931 0.000000
0.355090 0.644054 0.000000
0.631753 0.727212 0.000000
0.844843 0.780516 0.000000
0.976872 0.808554 0.000000
1.000000 0.811808 0.000000
1.000000 0.811520 0.000000
0.000000 0.489026 0.000000
0.000000 0.538755 0.000000
0.085601 0.609923 0.000000
0.438108 0.695298 0.000000
0.683366 0.767385 0.000000
0.885053 0.817707 0.000000
1.000000 0.843130 0.000000
1.000000 0.837619 0.000000
1.000000 0.838089 0.000000
0.030318 0.020523 0.038031
0.028706 0.026480 0.039043
0.061630 0.030410 0.037593
0.175449 0.034146 0.031108
0.339078 0.000001 0.000000
0.496593 0.000000 0.000000
0.598546 0.000000 0.000000
0.652960 0.000000 0.000000
0.678565 0.000000 0.000000
0.026758 0.047139 0.040840
0.033020 0.045510 0.040588
0.072976 0.053544 0.042457
0.198603 0.064848 0.030806
0.376640 0.052895 0.000000
0.539380 0.000050 0.000000
0.645006 0.000000 0.000000
0.696788 0.000000 0.000000
0.719727 0.000000 0.000000
0.000000 0.101515 0.055475
0.000000 0.095357 0.051372
0.082944 0.108114 0.051221
0.236613 0.131100 0.009803
0.437010 0.151345 0.000000
0.606110 0.145644 0.000000
0.709015 0.132548 0.000000
0.756863 0.132665 0.000000
0.781690 0.146459 0.000000
0.000000 0.195340 0.056698
0.000000 0.185441 0.053059
0.046803 0.205459 0.035618
0.280823 0.252148 0.000000
0.504447 0.288820 0.000000
0.686435 0.299889 0.000000
0.791860 0.300820 0.000000
0.840323 0.310697 0.000000
0.861288 0.323707 0.000000
0.000000 0.316099 0.000000
0.000000 0.310345 0.000000
0.000253 0.346386 0.000000
0.312365 0.417246 0.000000
0.568912 0.469935 0.000000
0.763525 0.491316 0.000000
0.876482 0.499643 0.000000
0.924839 0.510076 0.000000
0.945581 0.525454 0.000000
0.000000 0.419265 0.000061
0.000000 0.422119 0.000000
0.000000 0.473200 0.000000
0.331422 0.565443 0.000000
0.624629 0.638281 0.000000
0.837152 0.674281 0.000000
0.958294 0.689135 0.000000
1.000000 0.698329 0.000000
0.999998 0.703072 0.000000
0.000000 0.464560 0.001201
0.000000 0.478944 0.000000
0.000000 0.541967 0.000000
0.345076 0.644102 0.000000
0.652766 0.729472 0.000000
0.876954 0.779036 0.000000
1.000000 0.801043 0.000000
1.000000 0.795054 0.000000
1.000000 0.795500 0.000000
0.000000 0.490563 0.112939
0.000000 0.511848 0.084485
0.000000 0.575974 0.000000
0.355157 0.676723 0.000023
0.663872 0.763062 0.000000
0.889167 0.817137 0.000000
1.000000 0.837849 0.000000
1.000000 0.832375 0.000000
1.000000 0.831279 0.000000
0.000000 0.539003 0.254084
0.000000 0.585244 0.246098
0.000027 0.644159 0.221368
0.389022 0.710939 0.162551
0.657688 0.768014 0.009928
0.869603 0.817866 0.000244
0.991424 0.843715 0.000000
1.000000 0.839851 0.000000
1.000000 0.836656 0.000000
0.026135 0.016512 0.097597
0.023682 0.000000 0.089925
0.064796 0.028983 0.094211
0.187550 0.025712 0.096363
0.362831 0.000000 0.096385
0.522972 0.000000 0.095349
0.624983 0.000000 0.098623
0.674910 0.000000 0.112886
0.697157 0.000000 0.135701
0.004658 0.050289 0.102210
0.025900 0.049696 0.092419
0.075447 0.056644 0.098612
0.212856 0.066953 0.098808
0.394012 0.000000 0.083523
0.564457 0.000000 0.071474
0.668754 0.000000 0.063598
0.716591 0.000000 0.086433
0.737070 0.000000 0.115028
0.000000 0.115618 0.131581
0.000001 0.106952 0.114996
0.077001 0.120750 0.119313
0.251871 0.143462 0.115618
0.451208 0.142991 0.091395
0.616376 0.100267 0.042150
0.716727 0.042741 0.000000
0.758866 0.004469 0.029115
0.775975 0.049293 0.067723
0.000000 0.224095 0.158587
0.000000 0.211923 0.142221
0.000000 0.233111 0.142691
0.286441 0.270233 0.127062
0.513098 0.288876 0.074454
0.694737 0.287556 0.000000
0.798663 0.285082 0.000000
0.836207 0.287959 0.000000
0.849125 0.299182 0.045883
0.000000 0.360311 0.180457
0.000000 0.352277 0.168772
0.000000 0.383099 0.159132
0.298408 0.439119 0.110409
0.571595 0.480604 0.000000
0.773034 0.500766 0.000000
0.883252 0.505827 0.000000
0.922561 0.512174 0.000000
0.931602 0.520839 0.000000
0.000000 0.466047 0.211999
0.000000 0.466017 0.198398
0.000000 0.511109 0.183172
0.294717 0.586380 0.101659
0.616352 0.652714 0.000000
0.838603 0.689608 0.000000
0.958149 0.703173 0.000000
0.997632 0.709659 0.000000
1.000000 0.713210 0.000000
0.000000 0.515903 0.262968
0.000000 0.525283 0.247140
0.000000 0.580495 0.237272
0.284565 0.661847 0.174563
0.624318 0.731088 0.039227
0.856815 0.779584 0.000000
0.984211 0.802119 0.000198
1.000000 0.800140 0.000000
1.000000 0.798025 0.000000
0.000000 0.539855 0.320676
0.000000 0.562075 0.315304
0.000000 0.622049 0.306048
0.286918 0.699849 0.263637
0.627346 0.766313 0.212176
0.851214 0.805424 0.124878
0.973373 0.824436 0.065503
1.000000 0.827270 0.087608
1.000000 0.828351 0.139008
0.000000 0.576038 0.420355
0.000000 0.623262 0.426117
0.000000 0.682412 0.419115
0.337344 0.745154 0.396358
0.636760 0.799481 0.373787
0.845852 0.834824 0.348383
0.964283 0.854758 0.340892
0.999997 0.860849 0.349476
1.000000 0.863801 0.381421
0.000000 0.000000 0.209327
0.004907 0.000000 0.194570
0.068923 0.000000 0.205380
0.203310 0.000000 0.218213
0.380242 0.000000 0.225472
0.541001 0.000000 0.233177
0.642071 0.000000 0.246261
0.689639 0.000000 0.266500
0.710230 0.000000 0.287727
0.000005 0.008334 0.217044
0.001268 0.032266 0.201182
0.076669 0.039437 0.214132
0.221836 0.049732 0.224629
0.411965 0.000147 0.225288
0.583453 0.000000 0.232950
0.685806 0.000000 0.243635
0.730156 0.000000 0.265478
0.748093 0.000000 0.286885
0.000000 0.120330 0.267459
0.000000 0.112947 0.247132
0.036014 0.131968 0.253700
0.256590 0.153727 0.262696
0.463371 0.151452 0.255711
0.630675 0.105202 0.244928
0.725546 0.033606 0.243977
0.765129 0.021052 0.261852
0.782061 0.066094 0.290525
0.000000 0.255567 0.318554
0.000000 0.243939 0.300537
0.000000 0.263962 0.305402
0.277250 0.299405 0.301621
0.521118 0.316396 0.291060
0.702388 0.308762 0.277436
0.800059 0.299466 0.273366
0.838485 0.308976 0.296177
0.852346 0.325430 0.321089
0.000000 0.407460 0.363065
0.000000 0.399686 0.350576
0.000000 0.431608 0.353980
0.260165 0.485201 0.339237
0.566770 0.520647 0.323478
0.765870 0.526758 0.305392
0.872329 0.526365 0.300076
0.911332 0.536150 0.322587
0.923953 0.552493 0.351636
0.000000 0.517786 0.409848
0.000000 0.518679 0.399113
0.000000 0.565241 0.401186
0.164844 0.636817 0.379084
0.594381 0.693149 0.357205
0.817940 0.715787 0.334012
0.933757 0.723480 0.326584
0.974223 0.733084 0.347069
0.984722 0.744758 0.381756
0.000000 0.563188 0.459436
0.000000 0.573965 0.451424
0.000000 0.629433 0.455718
0.136534 0.707580 0.429014
0.596663 0.773908 0.411232
0.833395 0.809355 0.388713
0.956737 0.824920 0.378766
0.998801 0.834605 0.397066
1.000000 0.837950 0.422025
0.000000 0.580505 0.505664
0.000000 0.603321 0.506805
0.000000 0.664450 0.511873
0.138852 0.738796 0.487243
0.597612 0.804094 0.475624
0.832964 0.843118 0.459152
0.957287 0.862223 0.452249
1.000000 0.870929 0.464287
1.000000 0.873306 0.485768
0.000000 0.607354 0.575369
0.000000 0.654759 0.587078
0.000000 0.713646 0.588486
0.256904 0.773983 0.572961
0.610327 0.828900 0.567928
0.829702 0.866510 0.559921
0.951068 0.887660 0.562080
0.996501 0.897171 0.573057
1.000000 0.901131 0.594956
0.000000 0.000000 0.327762
0.000000 0.000000 0.315395
0.051484 0.000000 0.326609
0.215641 0.000000 0.348452
0.397730 0.000000 0.363992
0.555986 0.000000 0.374349
0.656600 0.000000 0.390041
0.702579 0.000000 0.408853
0.722308 0.000000 0.427478
0.000000 0.000000 0.349201
0.000000 0.000000 0.331483
0.069363 0.000000 0.346862
0.233774 0.000000 0.367003
0.427959 0.000000 0.376710
0.597205 0.000000 0.387807
0.697672 0.000000 0.400126
0.742266 0.000000 0.424491
0.760174 0.000000 0.445369
0.000000 0.083593 0.397959
0.000000 0.083147 0.382366
0.000000 0.125071 0.399609
0.255564 0.149993 0.418598
0.466874 0.145443 0.420218
0.635463 0.081342 0.416558
0.731623 0.000000 0.422223
0.771182 0.000000 0.442044
0.786480 0.051931 0.466279
0.000000 0.268466 0.475570
0.000000 0.256358 0.459284
0.000000 0.280617 0.471041
0.256496 0.318550 0.474184
0.517459 0.334548 0.475726
0.702785 0.326257 0.470384
0.801802 0.317957 0.472117
0.839139 0.326808 0.492423
0.853245 0.345119 0.515208
0.000000 0.440973 0.534916
0.000000 0.431015 0.524054
0.000000 0.465345 0.536609
0.156153 0.518701 0.527861
0.550851 0.552541 0.527624
0.759587 0.559272 0.522679
0.868995 0.559548 0.524066
0.908958 0.571406 0.545728
0.921954 0.587445 0.566519
0.000000 0.554384 0.582660
0.000000 0.557136 0.578800
0.000000 0.603856 0.589625
0.035665 0.674959 0.577585
0.566252 0.730269 0.574157
0.804729 0.756345 0.570193
0.924331 0.764911 0.570510
0.966118 0.774806 0.588363
0.977339 0.785800 0.611951
0.000000 0.596064 0.622551
0.000000 0.606595 0.619901
0.000000 0.663051 0.632674
0.000000 0.742485 0.620292
0.565554 0.808782 0.619542
0.816237 0.847196 0.615770
0.944509 0.865006 0.616186
0.988228 0.874265 0.630366
0.998521 0.880683 0.650518
0.000000 0.607362 0.652382
0.000000 0.631578 0.659884
0.000000 0.693439 0.673443
0.000000 0.768151 0.659643
0.565980 0.833104 0.660894
0.816356 0.876222 0.660958
0.947013 0.899049 0.666610
0.992204 0.907336 0.673625
1.000000 0.911528 0.689821
0.000000 0.627497 0.692510
0.000000 0.675471 0.710787
0.000000 0.734368 0.717085
0.135329 0.793909 0.707244
0.585819 0.851295 0.714704
0.817785 0.893574 0.719764
0.944417 0.916519 0.725618
0.991513 0.926469 0.737329
1.000000 0.929731 0.749156
0.000000 0.000000 0.412808
0.000000 0.000000 0.405372
0.000000 0.000000 0.418686
0.216360 0.000000 0.446741
0.407328 0.000000 0.468612
0.570980 0.000000 0.486876
0.671251 0.000000 0.501430
0.719245 0.000000 0.519875
0.740473 0.000000 0.535639
0.000000 0.000000 0.446245
0.000000 0.000000 0.435180
0.024468 0.000000 0.450302
0.238890 0.000000 0.478910
0.440709 0.000000 0.497856
0.611312 0.000000 0.513213
0.712579 0.000000 0.526676
0.758691 0.000000 0.547282
0.775565 0.000000 0.564523
0.000000 0.008346 0.494568
0.000000 0.000000 0.485051
0.000000 0.099787 0.507582
0.253488 0.135517 0.536764
0.468482 0.122222 0.548091
0.641691 0.047782 0.552615
0.744915 0.000000 0.563845
0.784649 0.000000 0.580482
0.796997 0.000000 0.595908
0.000000 0.265651 0.582188
0.000000 0.255709 0.575086
0.000000 0.281896 0.592401
0.237670 0.328284 0.600885
0.512037 0.342909 0.611974
0.702645 0.335454 0.615767
0.805605 0.329096 0.620566
0.844250 0.338262 0.637536
0.858130 0.357114 0.654347
0.000000 0.459622 0.654315
0.000000 0.447542 0.647401
0.000000 0.482449 0.664901
0.095628 0.537372 0.662363
0.534730 0.572188 0.672454
0.755740 0.583345 0.679314
0.870441 0.584565 0.685129
0.911856 0.596189 0.702242
0.925022 0.611103 0.716036
0.000000 0.573432 0.696218
0.000000 0.576041 0.696897
0.000000 0.624181 0.716120
0.000000 0.697331 0.713936
0.540541 0.753675 0.720268
0.794884 0.784943 0.729908
0.921551 0.795721 0.736177
0.965236 0.805465 0.749979
0.976885 0.814102 0.762265
0.000000 0.609340 0.720138
0.000000 0.624755 0.728189
0.000000 0.678730 0.743347
0.000000 0.761449 0.744063
0.537139 0.828946 0.751613
0.804087 0.873395 0.763013
0.939895 0.894126 0.770857
0.985321 0.902410 0.779804
0.996028 0.907112 0.791273
0.000000 0.620732 0.736362
0.000000 0.645375 0.750087
0.000000 0.704102 0.765229
0.000000 0.782581 0.763979
0.540518 0.849577 0.774829
0.804884 0.897808 0.787248
0.941584 0.922419 0.797455
0.988912 0.930987 0.804289
1.000000 0.934789 0.813232
0.000000 0.636289 0.757468
0.000000 0.682671 0.777985
0.000000 0.743341 0.788014
0.065154 0.802828 0.782428
0.566497 0.863201 0.799320
0.808796 0.909588 0.815081
0.939889 0.933667 0.824930
0.988824 0.943295 0.833019
1.000000 0.946070 0.838628
0.000000 0.000000 0.456294
0.000000 0.000000 0.452951
0.000040 0.000000 0.469470
0.213792 0.000000 0.499406
0.410787 0.000000 0.526847
0.576519 0.000000 0.547651
0.681141 0.000000 0.565425
0.729451 0.000000 0.579883
0.749559 0.000000 0.591446
0.000000 0.000000 0.497948
0.000000 0.000000 0.492103
0.000000 0.000000 0.509740
0.237461 0.000000 0.540772
0.443989 0.000000 0.565151
0.619581 0.000000 0.585552
0.724454 0.000000 0.601289
0.769300 0.000000 0.616953
0.788040 0.000000 0.630987
0.000000 0.000000 0.548280
0.000000 0.000000 0.545461
0.000000 0.070794 0.564181
0.248930 0.120500 0.598158
0.468031 0.092536 0.616574
0.646507 0.002985 0.629474
0.753707 0.000000 0.642765
0.793638 0.000000 0.655023
0.804715 0.000000 0.664788
0.000000 0.256260 0.630574
0.000000 0.247620 0.628612
0.000000 0.277846 0.649592
0.218480 0.330974 0.663613
0.506999 0.347249 0.683569
0.702413 0.341398 0.694915
0.807950 0.334504 0.702011
0.846843 0.342556 0.712951
0.861674 0.364371 0.724997
0.000000 0.464291 0.707195
0.000000 0.451602 0.704538
0.000000 0.490235 0.726742
0.023206 0.545143 0.727568
0.524303 0.582790 0.745906
0.752355 0.595769 0.760403
0.871315 0.597974 0.770059
0.913590 0.607569 0.780543
0.927449 0.623537 0.789898
0.000000 0.578318 0.743402
0.000000 0.583202 0.750119
0.000000 0.630671 0.771139
0.000000 0.704758 0.776119
0.524051 0.763893 0.789386
0.788681 0.798832 0.808080
0.919714 0.810867 0.818499
0.965035 0.819442 0.826702
0.976984 0.827448 0.833419
0.000000 0.612210 0.757559
0.000000 0.628571 0.769764
0.000000 0.683700 0.789083
0.000000 0.767130 0.796120
0.520414 0.836774 0.809618
0.796190 0.884878 0.829924
0.936359 0.906861 0.841371
0.983920 0.914954 0.847498
0.995260 0.918831 0.853107
0.000000 0.622911 0.766163
0.000000 0.646536 0.781373
0.000000 0.707803 0.801559
0.000000 0.786794 0.804428
0.525322 0.855527 0.820349
0.797631 0.906643 0.840890
0.938846 0.932291 0.853386
0.987696 0.940881 0.859057
0.999183 0.943844 0.863347
0.000000 0.636138 0.778390
0.000000 0.684045 0.799971
0.000000 0.745605 0.812786
0.000000 0.804479 0.809224
0.553378 0.865891 0.829628
0.801509 0.914499 0.850668
0.937191 0.940391 0.863427
0.987342 0.949503 0.869240
1.000000 0.952246 0.872317
0.000000 0.000000 0.473519
0.000000 0.000000 0.473023
0.000000 0.000000 0.491075
0.211809 0.000000 0.523227
0.409238 0.000000 0.551599
0.578442 0.000000 0.575718
0.686310 0.000000 0.595239
0.735928 0.000000 0.607584
0.755367 0.000000 0.616749
0.000000 0.000000 0.519601
0.000000 0.000000 0.518678
0.000000 0.000000 0.536520
0.234262 0.000000 0.567965
0.445688 0.000000 0.596714
0.623224 0.000000 0.619109
0.731287 0.000000 0.637126
0.776311 0.000000 0.648609
0.792108 0.000000 0.658181
0.000000 0.000000 0.569387
0.000000 0.000000 0.569147
0.000000 0.058181 0.588885
0.245194 0.123614 0.625077
0.466719 0.095550 0.647453
0.647670 0.002286 0.663338
0.756603 0.000000 0.677391
0.796723 0.000000 0.686754
0.807920 0.000000 0.693747
0.000000 0.270923 0.654748
0.000000 0.245882 0.649215
0.000000 0.278063 0.671550
0.203527 0.334798 0.688232
0.502028 0.352644 0.712644
0.700418 0.346638 0.727450
0.809205 0.341119 0.737032
0.848444 0.347300 0.744241
0.863489 0.371149 0.753296
0.000000 0.463630 0.721680
0.000000 0.453881 0.725233
0.000000 0.491998 0.746512
0.000000 0.548256 0.751370
0.515785 0.587685 0.773624
0.748978 0.602271 0.792439
0.871234 0.605303 0.803924
0.914838 0.614558 0.810718
0.929486 0.632292 0.818304
0.000000 0.583060 0.761798
0.000000 0.584979 0.767140
0.000000 0.631495 0.787729
0.000533 0.707415 0.797688
0.512148 0.767467 0.813552
0.783947 0.805192 0.837056
0.918286 0.817256 0.848558
0.965166 0.826190 0.854633
0.977234 0.833589 0.858722
0.000000 0.618910 0.773273
0.000000 0.629080 0.781368
0.000000 0.685218 0.803604
0.000000 0.767472 0.812162
0.507202 0.838451 0.827959
0.791180 0.889086 0.852609
0.934320 0.911579 0.865271
0.983248 0.919531 0.870537
0.994874 0.922909 0.873530
0.000000 0.626187 0.777157
0.000000 0.647686 0.790545
0.000000 0.707745 0.810127
0.000000 0.787058 0.816233
0.516578 0.856624 0.833703
0.793088 0.909336 0.857783
0.935983 0.935245 0.870865
0.986826 0.944080 0.876211
0.998772 0.946792 0.878236
0.000000 0.636847 0.783810
0.000000 0.684025 0.806063
0.000000 0.743801 0.817957
0.000000 0.804751 0.817245
0.543729 0.866767 0.838981
0.796031 0.915935 0.861378
0.934945 0.942058 0.874282
0.986561 0.951383 0.879624
1.000000 0.954118 0.881887
0.000000 0.000000 0.482166
0.000000 0.000000 0.483533
0.000000 0.000000 0.500779
0.208882 0.000000 0.532351
0.407959 0.000000 0.561714
0.582388 0.000000 0.590393
0.691014 0.000000 0.609985
0.742517 0.000000 0.621128
0.760315 0.000000 0.629212
0.000000 0.000000 0.532582
0.000000 0.000000 0.532621
0.000000 0.000000 0.550392
0.232629 0.000000 0.583016
0.444335 0.000000 0.611802
0.625095 0.000000 0.636162
0.735525 0.000000 0.654164
0.781184 0.000000 0.665279
0.798417 0.000000 0.674304
0.000000 0.000000 0.578609
0.000000 0.000000 0.579669
0.000066 0.069403 0.600957
0.240576 0.141332 0.637996
0.465694 0.128357 0.663289
0.648256 0.060991 0.679107
0.757556 0.000000 0.692128
0.797602 0.000000 0.699516
0.810932 0.059313 0.706473
0.000000 0.274152 0.660316
0.000000 0.253858 0.660039
0.000000 0.286410 0.683209
0.181504 0.344123 0.697972
0.497708 0.362102 0.724409
0.700072 0.358574 0.741419
0.809818 0.351289 0.750734
0.851200 0.359787 0.758006
0.866098 0.381428 0.765079
0.000000 0.468017 0.729217
0.000000 0.458348 0.731641
0.000000 0.494708 0.753039
0.000000 0.553203 0.761039
0.507906 0.592971 0.783074
0.745616 0.609525 0.804274
0.871180 0.613662 0.816243
0.916014 0.622147 0.822424
0.930846 0.638625 0.828118
0.000000 0.584072 0.765720
0.000000 0.587511 0.774607
0.000000 0.633064 0.793489
0.000000 0.709252 0.804948
0.502311 0.769381 0.821101
0.777971 0.807978 0.846021
0.916741 0.821735 0.858549
0.965256 0.829896 0.864258
0.978067 0.838217 0.867135
0.000000 0.619525 0.776366
0.000000 0.628616 0.784198
0.000000 0.685059 0.807593
0.000000 0.767296 0.816941
0.500646 0.838974 0.833285
0.786101 0.890066 0.859159
0.931956 0.913273 0.872431
0.982599 0.921327 0.877963
0.994761 0.924628 0.879655
0.000000 0.625835 0.778855
0.000000 0.647781 0.793249
0.000000 0.707122 0.812958
0.000034 0.786377 0.820081
0.505662 0.855782 0.836829
0.787344 0.909136 0.861912
0.934006 0.936086 0.875841
0.986110 0.945224 0.881300
0.998919 0.947954 0.883218
0.000000 0.636934 0.785254
0.000000 0.684106 0.807552
0.000000 0.742538 0.819421
0.000000 0.803994 0.819606
0.536186 0.865713 0.840671
0.791613 0.915744 0.864036
0.932758 0.942380 0.877449
0.986340 0.952386 0.883149
0.999996 0.954611 0.884869
