Film Looks/Rec709 Kodak 2383 D55.cube
# Resolve Film Look LUT
#   Input: Cineon Log 
#        : floating point data (range 0.0 - 1.0)
#  Output: Kodak 2383 film stock 'look' with D55 White Point
#        : floating point data (range 0.0 - 1.0)
# Display: ITU-Rec.709, Gamma 2.4
LUT_3D_SIZE 9
LUT_3D_INPUT_RANGE 0.0 1.0
0.027455 0.027940 0.030632
0.038679 0.030846 0.033368
0.074147 0.038764 0.033567
0.171253 0.050028 0.015106
0.343678 0.046793 0.000000
0.511870 0.000000 0.000000
0.613485 0.000000 0.000000
0.661570 0.000000 0.000000
0.683616 0.000000 0.000000
0.024467 0.039874 0.035348
0.037756 0.042544 0.037393
0.082642 0.052621 0.036691
0.194322 0.064677 0.010046
0.384014 0.069853 0.000000
0.556664 0.005437 0.000000
0.655972 0.000000 0.000000
0.698648 0.000000 0.000000
0.717360 0.000000 0.000000
0.000000 0.073350 0.045926
0.023564 0.076520 0.046465
0.089934 0.089718 0.044241
0.225172 0.111083 0.008283
0.437557 0.132819 0.000000
0.619122 0.129890 0.000000
0.711750 0.117776 0.000000
0.751769 0.124334 0.000000
0.771284 0.141880 0.000000
0.000000 0.151377 0.057310
0.000000 0.158421 0.056486
0.068835 0.179333 0.042245
0.265976 0.222754 0.000050
0.509817 0.265526 0.000000
0.704699 0.282973 0.000000
0.798853 0.285650 0.000000
0.837513 0.297346 0.000000
0.857871 0.319852 0.000000
0.000000 0.269023 0.037380
0.000000 0.283448 0.016242
0.000211 0.326174 0.000039
0.295823 0.399689 0.000000
0.585658 0.469364 0.000000
0.800213 0.504402 0.000000
0.899200 0.512004 0.000000
0.937486 0.524514 0.000000
0.955475 0.545695 0.000000
0.000000 0.378707 0.000000
0.000000 0.403794 0.000000
0.000000 0.463522 0.000000
0.299734 0.560292 0.000000
0.636168 0.656374 0.000000
0.871356 0.709861 0.000000
0.978388 0.725240 0.000000
1.000000 0.729070 0.000000
1.000000 0.735481 0.000000
0.000000 0.433872 0.000000
0.000000 0.467645 0.000000
0.000000 0.533748 0.000000
0.299847 0.640303 0.000000
0.657171 0.749714 0.000000
0.902188 0.814569 0.000000
1.000000 0.832975 0.000000
1.000000 0.828919 0.000000
1.000000 0.830356 0.000000
0.000000 0.457871 0.000000
0.000000 0.503416 0.000000
0.000000 0.570126 0.000000
0.322855 0.674779 0.000000
0.670283 0.783450 0.000000
0.912525 0.850516 0.000000
1.000000 0.868773 0.000000
1.000000 0.865160 0.000000
1.000000 0.865074 0.000000
0.000000 0.489475 0.000000
0.000000 0.550002 0.000000
0.000000 0.611664 0.000000
0.385861 0.704941 0.000000
0.691319 0.800057 0.000000
0.915642 0.861851 0.000000
1.000000 0.880221 0.000000
1.000000 0.876908 0.000000
1.000000 0.875223 0.000000
0.026701 0.029445 0.041600
0.036483 0.032042 0.044998
0.077095 0.040307 0.046212
0.179519 0.051147 0.038380
0.351278 0.007503 0.000000
0.524079 0.000000 0.000000
0.624988 0.000000 0.000000
0.672476 0.000000 0.000000
0.694035 0.000000 0.000000
0.022295 0.042122 0.047569
0.035998 0.044830 0.049696
0.085618 0.055391 0.051176
0.202319 0.067153 0.040656
0.391686 0.055143 0.000000
0.569125 0.000023 0.000000
0.667972 0.000000 0.000000
0.709933 0.000000 0.000000
0.728051 0.000000 0.000000
0.000000 0.077943 0.060245
0.005229 0.081440 0.060712
0.092977 0.095067 0.060899
0.233928 0.116503 0.046293
0.446383 0.129951 0.000000
0.629159 0.123011 0.000000
0.721293 0.105799 0.000000
0.760619 0.112634 0.000000
0.780139 0.134821 0.000000
0.000000 0.161444 0.075793
0.000000 0.168942 0.075818
0.060678 0.190993 0.065598
0.271888 0.231056 0.004816
0.521346 0.273499 0.000000
0.717766 0.290232 0.000000
0.811412 0.292211 0.000000
0.849251 0.304278 0.000000
0.869338 0.327588 0.000000
0.000000 0.284934 0.072288
0.000000 0.300464 0.067149
0.000000 0.340148 0.000000
0.300480 0.416336 0.000000
0.598694 0.487556 0.000000
0.815185 0.522244 0.000000
0.913750 0.529587 0.000000
0.951452 0.542596 0.000000
0.968887 0.563695 0.000000
0.000000 0.391839 0.021879
0.000000 0.417752 0.000000
0.000000 0.479320 0.000000
0.299142 0.578348 0.000000
0.647809 0.676741 0.000000
0.885754 0.730496 0.000000
0.992561 0.746155 0.000000
1.000000 0.743945 0.000000
1.000000 0.750632 0.000000
0.000000 0.443587 0.000000
0.000000 0.478285 0.000000
0.000000 0.546108 0.000000
0.297531 0.653906 0.000000
0.665327 0.764732 0.000000
0.913114 0.829705 0.000000
1.000000 0.844600 0.000000
1.000000 0.840002 0.000000
1.000000 0.841020 0.000000
0.000000 0.467137 0.060278
0.000000 0.509667 0.000000
0.000000 0.577015 0.000004
0.308340 0.681875 0.000000
0.670052 0.791337 0.000000
0.916820 0.858623 0.000000
1.000000 0.875144 0.000000
1.000000 0.871024 0.000000
1.000000 0.870219 0.000000
0.000000 0.508512 0.163341
0.000000 0.561287 0.144130
0.000000 0.614131 0.097073
0.345704 0.700118 0.000000
0.670368 0.794427 0.000000
0.900227 0.855668 0.000000
1.000000 0.877542 0.000000
1.000000 0.873796 0.000000
1.000000 0.869334 0.000000
0.021695 0.029699 0.077690
0.037855 0.031824 0.080627
0.077358 0.040718 0.084730
0.182651 0.050040 0.086880
0.356900 0.000000 0.081060
0.530344 0.000000 0.075983
0.631187 0.000000 0.066666
0.678462 0.000000 0.063909
0.699935 0.000000 0.072080
0.002438 0.044088 0.085875
0.032598 0.048095 0.088305
0.084746 0.057177 0.092877
0.205564 0.068981 0.094650
0.393431 0.018423 0.083194
0.574360 0.000000 0.072544
0.673308 0.000000 0.055513
0.714796 0.000000 0.055267
0.732157 0.000000 0.061049
0.000000 0.085239 0.105626
0.000000 0.089158 0.106750
0.088165 0.102267 0.109720
0.236730 0.123673 0.110139
0.446549 0.124570 0.094869
0.621264 0.069459 0.049034
0.714530 0.000000 0.024479
0.753039 0.001004 0.000044
0.768424 0.039199 0.001151
0.000000 0.176627 0.132540
0.000000 0.183216 0.132982
0.007006 0.205065 0.130441
0.270069 0.243990 0.123880
0.515344 0.270640 0.090630
0.706514 0.272988 0.000000
0.801120 0.271872 0.000000
0.838881 0.283763 0.000000
0.857536 0.307765 0.000000
0.000000 0.307274 0.151135
0.000000 0.322456 0.151315
0.000000 0.361185 0.141444
0.279450 0.423228 0.102999
0.584040 0.483384 0.000000
0.805510 0.517386 0.000119
0.905236 0.523685 0.000000
0.942316 0.535601 0.000000
0.958172 0.556112 0.000000
0.000000 0.417326 0.157328
0.000000 0.441286 0.154591
0.000000 0.494385 0.133502
0.255109 0.578004 0.006916
0.629461 0.675980 0.000000
0.873702 0.729582 0.000000
0.982806 0.744947 0.000000
0.999951 0.745389 0.000000
1.000000 0.751630 0.000000
0.000000 0.468362 0.171793
0.000000 0.499714 0.167507
0.000000 0.558003 0.143049
0.222824 0.649157 0.005857
0.639825 0.759880 0.000000
0.895169 0.824887 0.000000
1.000000 0.844738 0.000000
1.000000 0.839299 0.000000
1.000000 0.839437 0.000000
0.000000 0.495933 0.215349
0.000000 0.535956 0.211884
0.000000 0.593575 0.196066
0.219620 0.678193 0.119991
0.632656 0.777106 0.000000
0.886945 0.844293 0.000000
1.000000 0.869262 0.000018
1.000000 0.864358 0.000000
1.000000 0.862295 0.000000
0.000000 0.537712 0.300905
0.000000 0.590494 0.303322
0.000000 0.643106 0.296067
0.285674 0.717127 0.271124
0.636581 0.794800 0.235287
0.864497 0.842348 0.181883
0.977895 0.862515 0.131430
1.000000 0.862439 0.111359
1.000000 0.860495 0.121465
0.003634 0.000059 0.161193
0.032474 0.001707 0.165414
0.079184 0.008307 0.176098
0.187657 0.011086 0.188503
0.370512 0.000000 0.201068
0.545663 0.000000 0.213971
0.646132 0.000000 0.219465
0.693098 0.000000 0.225766
0.714576 0.000000 0.234647
0.000000 0.031477 0.175944
0.005753 0.040484 0.179721
0.082604 0.051155 0.191680
0.210025 0.060542 0.205053
0.404993 0.000000 0.213077
0.588850 0.000000 0.225208
0.687808 0.000000 0.230887
0.728611 0.000000 0.236595
0.745819 0.000000 0.244432
0.000000 0.085563 0.209549
0.000000 0.091975 0.213931
0.069891 0.111024 0.221533
0.237642 0.131059 0.235964
0.454734 0.130947 0.241524
0.632170 0.076926 0.237528
0.724574 0.000000 0.237900
0.761725 0.000000 0.240469
0.777447 0.054948 0.247712
0.000000 0.197385 0.255617
0.000000 0.204487 0.259173
0.000213 0.229121 0.267501
0.259581 0.265523 0.273710
0.519154 0.291623 0.276416
0.713325 0.291964 0.269935
0.803512 0.283052 0.264582
0.839587 0.293172 0.266631
0.858141 0.319495 0.275490
0.000000 0.340191 0.294951
0.000000 0.355527 0.300025
0.000000 0.395333 0.306404
0.240668 0.454878 0.302602
0.574091 0.509060 0.297883
0.792830 0.529424 0.284226
0.890207 0.529561 0.275669
0.925966 0.539244 0.275972
0.941466 0.561560 0.283389
0.000000 0.457331 0.321524
0.000000 0.481095 0.326193
0.000000 0.534080 0.330020
0.126243 0.612601 0.316225
0.599205 0.692195 0.299744
0.843321 0.731100 0.275439
0.950636 0.740059 0.261997
0.987232 0.746396 0.261338
0.997877 0.757454 0.268964
0.000000 0.508775 0.343899
0.000000 0.540030 0.350574
0.000000 0.598554 0.354493
0.081546 0.683990 0.337289
0.601356 0.774561 0.317470
0.858166 0.824037 0.289077
0.972701 0.840142 0.272510
1.000000 0.841617 0.266385
1.000000 0.842244 0.271260
0.000000 0.535530 0.388128
0.000000 0.576082 0.398482
0.000000 0.632470 0.401912
0.064404 0.714535 0.387323
0.598587 0.803884 0.375692
0.855582 0.855725 0.355050
0.973310 0.874693 0.340187
1.000000 0.875656 0.331286
1.000000 0.874133 0.335039
0.000000 0.571735 0.455092
0.000000 0.623490 0.466859
0.000000 0.676486 0.471083
0.142048 0.747610 0.461913
0.609624 0.824844 0.459968
0.848809 0.872388 0.451210
0.965625 0.891690 0.442717
1.000000 0.895376 0.437644
1.000000 0.893233 0.439153
0.000000 0.000000 0.275620
0.000000 0.000000 0.279585
0.076734 0.000000 0.293406
0.203506 0.000000 0.315949
0.390335 0.000000 0.337473
0.564501 0.000000 0.356232
0.664875 0.000000 0.367184
0.710271 0.000000 0.373556
0.730754 0.000000 0.382824
0.000000 0.000000 0.294620
0.000000 0.000000 0.298936
0.082163 0.000139 0.314206
0.219781 0.000000 0.337842
0.424372 0.000000 0.360118
0.606537 0.000000 0.377660
0.705425 0.000000 0.387963
0.745120 0.000000 0.394878
0.761490 0.000000 0.402687
0.000000 0.043899 0.328435
0.000000 0.067326 0.338016
0.028833 0.110922 0.355368
0.239856 0.129257 0.381568
0.463273 0.126227 0.399278
0.643056 0.060053 0.404878
0.737161 0.000000 0.410311
0.773656 0.000000 0.414940
0.788005 0.051945 0.422585
0.000000 0.207750 0.400123
0.000000 0.213280 0.406902
0.000000 0.244824 0.423976
0.244028 0.284888 0.438188
0.520780 0.310086 0.455665
0.718887 0.310158 0.459842
0.810271 0.301265 0.459201
0.846189 0.311836 0.463024
0.864427 0.339800 0.473329
0.000000 0.368966 0.458500
0.000000 0.384337 0.467805
0.000000 0.426027 0.483686
0.139158 0.484870 0.487440
0.562964 0.538490 0.502952
0.789390 0.558175 0.504712
0.889214 0.557813 0.502797
0.925434 0.567570 0.505156
0.940461 0.589734 0.512471
0.000000 0.492287 0.493836
0.000000 0.517338 0.506449
0.000000 0.570498 0.520054
0.000000 0.648174 0.520621
0.574635 0.725951 0.528816
0.830556 0.764291 0.527871
0.941537 0.772874 0.524782
0.979364 0.779134 0.525425
0.990712 0.790033 0.531011
0.000000 0.545837 0.519365
0.000000 0.576601 0.530481
0.000000 0.635499 0.545558
0.000000 0.720611 0.545701
0.570195 0.808032 0.549510
0.841212 0.857307 0.547558
0.959616 0.873393 0.543205
0.999167 0.878817 0.543502
1.000000 0.879561 0.544087
0.000000 0.569218 0.553442
0.000000 0.607736 0.567382
0.000000 0.665482 0.581338
0.000000 0.748132 0.581368
0.567834 0.834458 0.587085
0.838005 0.885834 0.586691
0.959576 0.904861 0.582897
1.000000 0.910523 0.581641
1.000000 0.908339 0.581225
0.000000 0.597569 0.597282
0.000000 0.652333 0.618058
0.000000 0.704588 0.626779
0.000000 0.774393 0.624046
0.584020 0.850366 0.635089
0.833611 0.897465 0.638378
0.953684 0.916994 0.636579
0.998573 0.923523 0.635336
1.000000 0.921078 0.633967
0.000000 0.000000 0.375122
0.000000 0.000000 0.380940
0.056037 0.000000 0.393980
0.211372 0.000000 0.424400
0.407070 0.000000 0.453349
0.581068 0.000000 0.475266
0.682744 0.000000 0.489497
0.728109 0.000000 0.497861
0.747682 0.000000 0.505586
0.000000 0.000000 0.401422
0.000000 0.000000 0.407770
0.063554 0.000000 0.422488
0.229285 0.000000 0.455129
0.440088 0.000000 0.484382
0.624463 0.000000 0.507120
0.722346 0.000000 0.518865
0.762147 0.000000 0.525676
0.778448 0.000000 0.534901
0.000000 0.000044 0.439226
0.000000 0.000000 0.446312
0.003271 0.093397 0.468430
0.241385 0.115474 0.502847
0.468826 0.100265 0.529540
0.653219 0.000000 0.542986
0.751352 0.000000 0.552587
0.787882 0.000000 0.558102
0.799403 0.000000 0.564120
0.000000 0.197456 0.516666
0.000000 0.203736 0.525235
0.000000 0.244453 0.550068
0.230184 0.294014 0.570712
0.519629 0.318396 0.598887
0.721805 0.317575 0.610157
0.815181 0.308368 0.612190
0.851796 0.318977 0.616732
0.869842 0.348670 0.626751
0.000000 0.381732 0.590564
0.000000 0.396299 0.601903
0.000000 0.441263 0.624649
0.081775 0.502308 0.633408
0.550140 0.554770 0.659656
0.784222 0.574094 0.670038
0.887456 0.573679 0.671545
0.924633 0.582858 0.674164
0.939794 0.605677 0.680832
0.000000 0.513154 0.633680
0.000000 0.536506 0.646299
0.000000 0.591377 0.667890
0.000000 0.670664 0.678365
0.550049 0.746258 0.695425
0.818283 0.784627 0.705301
0.933325 0.793026 0.706150
0.973011 0.799271 0.707582
0.985065 0.810175 0.711110
0.000000 0.566011 0.655006
0.000000 0.598429 0.669556
0.000000 0.658151 0.691225
0.000000 0.744133 0.701118
0.540202 0.829695 0.714232
0.825874 0.879265 0.724082
0.948911 0.895501 0.725095
0.990889 0.900964 0.725722
1.000000 0.904435 0.727154
0.000000 0.586653 0.677598
0.000000 0.627288 0.694944
0.000000 0.685856 0.714484
0.000000 0.769328 0.723042
0.538797 0.854142 0.736616
0.823052 0.906025 0.746993
0.949233 0.925682 0.748569
0.993785 0.932068 0.748877
1.000000 0.932137 0.748299
0.000000 0.613405 0.705192
0.000000 0.669681 0.728599
0.000000 0.722115 0.741527
0.000000 0.792427 0.745046
0.560775 0.866927 0.761663
0.820534 0.914263 0.772501
0.944657 0.934253 0.775012
0.991694 0.941174 0.774958
1.000000 0.940935 0.774111
0.000000 0.000000 0.439101
0.000000 0.000000 0.445549
0.024172 0.000000 0.458625
0.214220 0.000000 0.493222
0.417539 0.000000 0.527054
0.596033 0.000000 0.553835
0.696987 0.000000 0.568085
0.744066 0.000000 0.578777
0.763273 0.000000 0.585993
0.000000 0.000000 0.471981
0.000000 0.000000 0.479643
0.033822 0.000000 0.494303
0.233126 0.000000 0.531259
0.451873 0.000000 0.566560
0.638730 0.000000 0.592568
0.737002 0.000000 0.604692
0.777408 0.000000 0.612960
0.794803 0.000000 0.621949
0.000000 0.000000 0.511669
0.000000 0.000000 0.519876
0.000309 0.071694 0.539868
0.242081 0.106363 0.579196
0.474013 0.081201 0.612073
0.662862 0.000000 0.631223
0.762121 0.000000 0.642076
0.798725 0.000000 0.647926
0.810467 0.000000 0.654217
0.000000 0.175937 0.582572
0.000000 0.193616 0.596316
0.000000 0.242161 0.624596
0.216798 0.299684 0.649990
0.517925 0.323393 0.684978
0.723407 0.322302 0.701217
0.819264 0.312793 0.705569
0.856610 0.322445 0.710383
0.874784 0.354267 0.719830
0.000000 0.383380 0.666489
0.000000 0.398654 0.679505
0.000000 0.444651 0.703983
0.017716 0.508927 0.717926
0.539895 0.560849 0.750300
0.779822 0.580444 0.766723
0.886029 0.579401 0.770482
0.924447 0.587828 0.773325
0.939814 0.611206 0.779131
0.000000 0.517294 0.711054
0.000000 0.542937 0.727104
0.000000 0.600285 0.752493
0.000426 0.679055 0.767472
0.532427 0.753884 0.789554
0.809098 0.792481 0.806003
0.928021 0.800907 0.809913
0.969511 0.806871 0.811692
0.981733 0.817390 0.813478
0.000000 0.577084 0.732156
0.000000 0.608290 0.749835
0.000000 0.668516 0.772844
0.000000 0.754067 0.787539
0.519024 0.838939 0.805368
0.814871 0.889052 0.822105
0.942071 0.905529 0.826761
0.986289 0.911199 0.827945
0.998541 0.915089 0.828760
0.000000 0.596977 0.745000
0.000000 0.637065 0.764696
0.000000 0.694466 0.785420
0.000000 0.778341 0.799368
0.517320 0.862359 0.816181
0.812253 0.915139 0.832923
0.942743 0.935372 0.838070
0.989303 0.942087 0.839119
1.000000 0.943302 0.838893
0.000000 0.622877 0.762549
0.000000 0.676296 0.784968
0.000000 0.728817 0.799462
0.000000 0.799712 0.807532
0.543919 0.873720 0.826832
0.811128 0.921690 0.842263
0.938816 0.942318 0.847664
0.988096 0.949559 0.849164
1.000000 0.950608 0.848719
0.000000 0.000000 0.476050
0.000000 0.000000 0.483253
0.007316 0.000000 0.496734
0.222118 0.000000 0.533464
0.434146 0.000000 0.570248
0.615027 0.000000 0.597194
0.717460 0.000000 0.614310
0.760256 0.000000 0.622374
0.778680 0.000000 0.629615
0.000000 0.000000 0.513398
0.000000 0.000000 0.522459
0.021478 0.000007 0.537178
0.238452 0.000013 0.576342
0.462382 0.000000 0.613887
0.652557 0.000000 0.640463
0.751540 0.000000 0.652690
0.791619 0.000000 0.661287
0.807165 0.000000 0.668927
0.000000 0.000000 0.548205
0.000000 0.000000 0.557540
0.000000 0.095250 0.581480
0.241556 0.142264 0.621636
0.482927 0.137790 0.657304
0.671529 0.076820 0.676192
0.767777 0.000000 0.684832
0.805210 0.000000 0.690780
0.822001 0.092377 0.699741
0.000000 0.196414 0.619623
0.000000 0.203731 0.630140
0.000000 0.256957 0.661397
0.203509 0.318276 0.686483
0.518457 0.343731 0.724391
0.727483 0.343875 0.742966
0.825677 0.334744 0.748529
0.864100 0.343982 0.753687
0.882187 0.374405 0.762271
0.000000 0.385002 0.693870
0.000000 0.408498 0.713522
0.000000 0.450311 0.735184
0.000000 0.516833 0.751575
0.534267 0.568927 0.786036
0.777381 0.588641 0.805081
0.885778 0.587475 0.810384
0.925713 0.595777 0.813818
0.941323 0.617629 0.818736
0.000000 0.523960 0.741985
0.000000 0.549316 0.758463
0.000000 0.603151 0.783055
0.000000 0.682446 0.800952
0.522728 0.756031 0.824047
0.803203 0.794643 0.843646
0.924448 0.802916 0.849394
0.967852 0.808762 0.851881
0.981292 0.820034 0.853626
0.000000 0.579702 0.760773
0.000000 0.613112 0.778089
0.000000 0.671176 0.801891
0.000000 0.757045 0.818938
0.507667 0.840656 0.838367
0.808000 0.891057 0.858228
0.938053 0.907871 0.864808
0.983890 0.913552 0.866688
0.997052 0.917964 0.867406
0.000000 0.598365 0.766115
0.000000 0.638791 0.787905
0.000000 0.698112 0.810318
0.000000 0.781017 0.826308
0.506299 0.864403 0.844485
0.805300 0.917430 0.864009
0.938445 0.938148 0.870930
0.987001 0.944935 0.872731
1.000000 0.946870 0.872766
0.000000 0.627051 0.783219
0.000000 0.679330 0.804817
0.000000 0.731907 0.822020
0.000000 0.801270 0.829527
0.532470 0.874805 0.849615
0.804019 0.923524 0.867262
0.934579 0.944634 0.874268
0.986004 0.952101 0.876456
1.000000 0.953848 0.876286
0.000000 0.000000 0.518862
0.000000 0.000000 0.528020
0.043558 0.000000 0.543779
0.239697 0.000000 0.582686
0.458249 0.000000 0.620058
0.646191 0.000000 0.647468
0.747139 0.000000 0.661505
0.788243 0.000000 0.669186
0.803766 0.000000 0.677536
0.000000 0.000000 0.549645
0.000000 0.000000 0.560109
0.000000 0.098063 0.583137
0.243973 0.134891 0.622796
0.477512 0.130120 0.658788
0.662960 0.061947 0.678170
0.762753 0.000000 0.689216
0.801963 0.000000 0.696235
0.816559 0.080234 0.703550
0.000000 0.064545 0.579334
0.000000 0.110511 0.596265
0.000000 0.178274 0.628142
0.233342 0.236975 0.662820
0.500592 0.252007 0.699978
0.697425 0.241243 0.719559
0.793961 0.223851 0.726353
0.833393 0.231607 0.732706
0.852728 0.268451 0.742502
0.000000 0.248636 0.649953
0.000000 0.264234 0.664928
0.000000 0.313341 0.692568
0.147064 0.374535 0.713152
0.523501 0.407201 0.752188
0.739737 0.413754 0.771908
0.841825 0.407479 0.778061
0.881930 0.416317 0.782994
0.899633 0.445368 0.790488
0.000000 0.411428 0.714585
0.000000 0.432701 0.730572
0.000000 0.477903 0.753498
0.000000 0.543609 0.769201
0.530635 0.597050 0.801902
0.777927 0.619445 0.822034
0.889972 0.619410 0.828178
0.931507 0.626198 0.831439
0.947087 0.646742 0.835696
0.000000 0.530921 0.752691
0.000000 0.558292 0.768802
0.000000 0.612589 0.794133
0.000000 0.690280 0.811428
0.517876 0.762666 0.834787
0.798462 0.801518 0.855130
0.922415 0.810693 0.861885
0.967278 0.815525 0.864305
0.981823 0.826551 0.866242
0.000000 0.583748 0.771892
0.000000 0.621011 0.788988
0.000000 0.675591 0.810649
0.000000 0.759540 0.828088
0.503028 0.841443 0.847834
0.802002 0.891265 0.868408
0.934391 0.908512 0.875725
0.982403 0.914059 0.878132
0.995762 0.917928 0.878185
0.000000 0.602828 0.776081
0.000000 0.647662 0.799964
0.000000 0.701541 0.817100
0.000000 0.782847 0.833536
0.500990 0.864475 0.852413
0.799190 0.917225 0.872649
0.934843 0.938394 0.880557
0.985321 0.945523 0.882855
0.998777 0.946658 0.882088
0.000000 0.630622 0.788811
0.000000 0.684197 0.812101
0.000000 0.733809 0.826930
0.000000 0.802412 0.836118
0.525488 0.874469 0.856094
0.797598 0.923152 0.874448
0.930297 0.944714 0.881976
0.983414 0.952087 0.884272
0.999996 0.954591 0.884855
