Film Looks/Rec709 Kodak 2383 D65.cube
# Resolve Film Look LUT
#   Input: Cineon Log 
#        : floating point data (range 0.0 - 1.0)
#  Output: Kodak 2383 film stock 'look' with D65 White Point
#        : floating point data (range 0.0 - 1.0)
# Display: ITU-Rec.709, Gamma 2.4
LUT_3D_SIZE 5
LUT_3D_INPUT_RANGE 0.0 1.0
0.026593 0.027922 0.033092
0.075496 0.040320 0.037264
0.350657 0.046771 0.000000
0.627265 0.000000 0.000000
0.699030 0.000000 0.000000
0.000000 0.076706 0.052671
0.089948 0.093921 0.052083
0.446009 0.137280 0.000000
0.726237 0.118448 0.000000
0.786993 0.143825 0.000000
0.000000 0.282492 0.061071
0.000000 0.339341 0.000000
0.591614 0.489649 0.000000
0.915467 0.534347 0.000000
0.972907 0.569692 0.000000
0.000000 0.451771 0.000000
0.000000 0.556836 0.000000
0.653193 0.783729 0.000000
1.000000 0.868408 0.000000
1.000000 0.866664 0.000000
0.000000 0.509223 0.000000
0.000000 0.637721 0.000000
0.685333 0.835222 0.000000
1.000000 0.917965 0.000000
1.000000 0.913392 0.000000
0.014430 0.029566 0.086701
0.078132 0.041926 0.094816
0.365126 0.000000 0.094233
0.647195 0.000000 0.092826
0.717797 0.000000 0.102437
0.000000 0.089362 0.120210
0.085898 0.106825 0.123433
0.457453 0.132803 0.113369
0.730049 0.000000 0.061299
0.786448 0.058408 0.063693
0.000000 0.322571 0.174583
0.000000 0.379252 0.167927
0.587031 0.502875 0.043080
0.917677 0.543247 0.000337
0.971155 0.576782 0.000359
0.000000 0.491996 0.205564
0.000000 0.586038 0.183161
0.628895 0.789241 0.000000
1.000000 0.877076 0.000000
1.000000 0.872303 0.000000
0.000000 0.564393 0.345069
0.000000 0.675405 0.346191
0.625275 0.833078 0.294311
0.984912 0.904425 0.233628
1.000000 0.900098 0.222523
0.000000 0.000000 0.311588
0.063616 0.000000 0.328136
0.398739 0.000000 0.376472
0.681351 0.000000 0.408579
0.748943 0.000000 0.426139
0.000000 0.000000 0.367430
0.000508 0.108337 0.398924
0.473203 0.131865 0.448256
0.753890 0.000000 0.460453
0.807165 0.066487 0.476198
0.000000 0.384334 0.515448
0.000000 0.446160 0.547015
0.562939 0.564052 0.568242
0.903908 0.585595 0.570796
0.956067 0.619144 0.582499
0.000000 0.571094 0.587233
0.000000 0.665379 0.618203
0.548646 0.846367 0.625452
0.964161 0.915732 0.623056
1.000000 0.920312 0.622725
0.000000 0.624707 0.674215
0.000000 0.738250 0.710464
0.558666 0.890543 0.720443
0.954936 0.961166 0.725819
1.000000 0.964682 0.722716
0.000000 0.000000 0.495063
0.000000 0.000000 0.518955
0.422602 0.000000 0.587473
0.711391 0.000000 0.631584
0.779943 0.000000 0.651657
0.000000 0.000000 0.578447
0.000020 0.000000 0.606572
0.482200 0.078880 0.686112
0.779091 0.000000 0.719061
0.828789 0.000000 0.733835
0.000000 0.386496 0.743981
0.000000 0.458684 0.791445
0.533587 0.586289 0.843200
0.898031 0.606938 0.867257
0.953066 0.640509 0.877500
0.000000 0.598422 0.820792
0.000000 0.695838 0.868817
0.482512 0.877922 0.908130
0.941741 0.948584 0.934562
1.000000 0.958399 0.936825
0.000000 0.650216 0.859592
0.000000 0.761219 0.903521
0.506646 0.914395 0.932580
0.935901 0.987035 0.958284
1.000000 0.995748 0.959792
0.000000 0.000000 0.585910
0.000000 0.000000 0.614972
0.464886 0.000000 0.693986
0.763350 0.000000 0.738430
0.821463 0.000000 0.757395
0.000000 0.000000 0.650538
0.000000 0.158491 0.701915
0.506006 0.260551 0.784740
0.810524 0.233446 0.815237
0.870623 0.281233 0.833704
0.000000 0.420034 0.800289
0.000000 0.493426 0.847024
0.519929 0.623983 0.901043
0.900157 0.648547 0.931846
0.958926 0.677379 0.940769
0.000000 0.602714 0.861742
0.000000 0.703517 0.912201
0.462690 0.880396 0.955259
0.932917 0.951512 0.988720
0.997584 0.961530 0.991896
0.000000 0.657377 0.890810
0.000000 0.768980 0.935002
0.483949 0.915042 0.964995
0.926305 0.989420 0.996236
1.000000 0.999993 0.999964
