Film Looks/Rec709 Fujifilm 3513DI D55.cube
# Resolve Film Look LUT
#   Input: Cineon Log 
#        : floating point data (range 0.0 - 1.0)
#  Output: FUJIFILM 3513DI film stock 'look' with D55 White Point
#        : floating point data (range 0.0 - 1.0)
# Display: ITU-Rec.709, Gamma 2.4
LUT_3D_SIZE 33
LUT_3D_INPUT_RANGE 0.0 1.0
0.028959 0.023073 0.028616
0.028894 0.023809 0.028991
0.028619 0.024463 0.029363
0.029326 0.025424 0.029718
0.030240 0.026121 0.029965
0.025524 0.026765 0.030218
0.025108 0.027477 0.030339
0.043376 0.028641 0.030138
0.055975 0.031052 0.030182
0.066036 0.034142 0.030552
0.091199 0.037315 0.029899
0.125628 0.035822 0.027706
0.159538 0.035077 0.020183
0.192676 0.030422 0.001732
0.230326 0.026030 0.000000
0.271219 0.000000 0.000000
0.314054 0.000000 0.000000
0.354618 0.000000 0.000000
0.391922 0.000000 0.000000
0.428733 0.000000 0.000000
0.463833 0.000000 0.000000
0.494709 0.000000 0.000000
0.521012 0.000000 0.000000
0.544629 0.000000 0.000000
0.565531 0.000000 0.000000
0.583332 0.000000 0.000000
0.598277 0.000000 0.000000
0.610963 0.000000 0.000000
0.621656 0.000000 0.000000
0.630331 0.000000 0.000000
0.636648 0.000000 0.000000
0.641795 0.000000 0.000000
0.647141 0.000000 0.000000
0.030031 0.028347 0.030502
0.029449 0.028401 0.030918
0.028528 0.028437 0.031347
0.029329 0.028523 0.031652
0.030682 0.028859 0.031886
0.026399 0.029459 0.032279
0.028363 0.030095 0.032397
0.045844 0.030940 0.032035
0.058466 0.033182 0.032085
0.069256 0.037324 0.032881
0.094765 0.040345 0.031790
0.129884 0.039837 0.029479
0.164597 0.039958 0.020674
0.198746 0.037271 0.001643
0.237422 0.034926 0.000000
0.279045 0.024227 0.000000
0.321790 0.000119 0.000000
0.363289 0.000000 0.000000
0.401208 0.000001 0.000000
0.438418 0.000000 0.000000
0.473820 0.000000 0.000000
0.504946 0.000000 0.000000
0.531482 0.000000 0.000000
0.555314 0.000000 0.000000
0.576351 0.000000 0.000000
0.594134 0.000000 0.000000
0.608843 0.000000 0.000000
0.621167 0.000000 0.000000
0.631548 0.000000 0.000000
0.640086 0.000000 0.000000
0.646379 0.000000 0.000000
0.651544 0.000000 0.000000
0.656904 0.000000 0.000000
0.031099 0.030302 0.032195
0.030314 0.030240 0.032628
0.029119 0.030164 0.033081
0.029792 0.030151 0.033410
0.031392 0.030360 0.033660
0.027402 0.030882 0.034145
0.030001 0.031419 0.034291
0.048101 0.032024 0.033821
0.061016 0.034545 0.034022
0.072404 0.039277 0.034982
0.098004 0.042088 0.033583
0.133843 0.042569 0.031046
0.169243 0.043544 0.022150
0.204294 0.042661 0.001818
0.243938 0.041211 0.000000
0.286607 0.035805 0.000000
0.329945 0.018952 0.000000
0.371640 0.000000 0.000000
0.410184 0.000000 0.000000
0.447772 0.000000 0.000000
0.483461 0.000000 0.000000
0.514830 0.000000 0.000000
0.541602 0.000000 0.000000
0.565659 0.000000 0.000000
0.586836 0.000000 0.000000
0.604609 0.000000 0.000000
0.619091 0.000000 0.000000
0.631064 0.000000 0.000000
0.641148 0.000000 0.000000
0.649555 0.000000 0.000000
0.655840 0.000000 0.000000
0.661046 0.000000 0.000000
0.666433 0.000000 0.000000
0.031081 0.036216 0.033838
0.030297 0.035891 0.034265
0.029090 0.035543 0.034715
0.029740 0.035283 0.035047
0.031503 0.035324 0.035308
0.027857 0.035870 0.035902
0.030899 0.036367 0.036066
0.049612 0.036865 0.035500
0.063482 0.040048 0.036001
0.076332 0.045139 0.036465
0.101925 0.048500 0.035012
0.138499 0.050173 0.032007
0.174573 0.051415 0.022710
0.210759 0.051939 0.001848
0.251421 0.052974 0.000000
0.295028 0.049948 0.000000
0.339224 0.042140 0.000000
0.380832 0.025112 0.000000
0.418921 0.000000 0.000000
0.457083 0.000000 0.000000
0.493151 0.000100 0.000000
0.524812 0.000000 0.000000
0.551830 0.000000 0.000000
0.576098 0.000000 0.000000
0.597412 0.000000 0.000000
0.615192 0.000000 0.000000
0.629498 0.000000 0.000000
0.641192 0.000000 0.000000
0.651022 0.000000 0.000000
0.659309 0.000000 0.000000
0.665560 0.000000 0.000000
0.670758 0.000000 0.000000
0.676131 0.000000 0.000000
0.029637 0.045217 0.035513
0.029217 0.044603 0.035901
0.028354 0.043918 0.036300
0.029487 0.043490 0.036652
0.031785 0.043551 0.036993
0.028158 0.043858 0.037545
0.031386 0.044487 0.037811
0.051276 0.045848 0.037509
0.067369 0.049849 0.037750
0.080224 0.054242 0.037169
0.106366 0.057993 0.036355
0.144069 0.060065 0.031991
0.181448 0.062040 0.020599
0.219163 0.063982 0.001504
0.260834 0.066593 0.000000
0.305271 0.066126 0.000000
0.350349 0.061942 0.000000
0.392604 0.056055 0.000000
0.430494 0.042752 0.000000
0.467121 0.011890 0.000000
0.503496 0.000000 0.000000
0.535555 0.000066 0.000000
0.562845 0.000000 0.000000
0.587305 0.000000 0.000000
0.608734 0.000000 0.000000
0.626554 0.000000 0.000000
0.640791 0.000000 0.000000
0.652332 0.000000 0.000000
0.662012 0.000000 0.000000
0.670190 0.000000 0.000000
0.676341 0.000000 0.000000
0.681447 0.000000 0.000000
0.686734 0.000000 0.000000
0.029371 0.052019 0.037488
0.029475 0.051210 0.037818
0.029149 0.050303 0.038134
0.030707 0.049702 0.038435
0.033239 0.049665 0.038795
0.029778 0.049865 0.039444
0.033343 0.050665 0.039925
0.053817 0.052682 0.040037
0.070852 0.056525 0.039115
0.084390 0.061217 0.038234
0.111867 0.065720 0.037263
0.150822 0.068520 0.032380
0.189736 0.071538 0.018401
0.229026 0.075386 0.001158
0.271570 0.078861 0.000000
0.316705 0.079056 0.000000
0.362546 0.077490 0.000000
0.405501 0.072950 0.000000
0.443944 0.065933 0.000000
0.480688 0.052508 0.000000
0.515531 0.019734 0.000000
0.547518 0.000614 0.000000
0.575049 0.000000 0.000000
0.599687 0.000000 0.000000
0.621243 0.000000 0.000000
0.639144 0.000000 0.000000
0.653428 0.000000 0.000000
0.664976 0.000000 0.000000
0.674614 0.000000 0.000000
0.682708 0.000000 0.000000
0.688725 0.000000 0.000000
0.693669 0.000000 0.000000
0.698802 0.000000 0.000000
0.022936 0.061577 0.038797
0.025000 0.060532 0.038996
0.026494 0.059382 0.039237
0.030199 0.058600 0.039494
0.033016 0.058516 0.039911
0.029655 0.058745 0.040633
0.033311 0.059735 0.041446
0.054848 0.062075 0.041841
0.073840 0.066294 0.040233
0.089210 0.071829 0.039597
0.117910 0.076924 0.036853
0.158208 0.080702 0.032287
0.198423 0.084078 0.014283
0.239438 0.088358 0.000523
0.283092 0.092687 0.000000
0.328962 0.093960 0.000000
0.375583 0.093552 0.000000
0.419319 0.092424 0.000000
0.458397 0.088614 0.000000
0.495674 0.081059 0.000000
0.530715 0.068624 0.000000
0.561430 0.050253 0.000000
0.588226 0.021599 0.000000
0.612716 0.016284 0.000000
0.634161 0.014255 0.000000
0.652021 0.012906 0.000000
0.666330 0.012224 0.000000
0.677918 0.012175 0.000000
0.687589 0.012680 0.000000
0.695682 0.013691 0.000000
0.701661 0.015372 0.000000
0.706555 0.017355 0.000000
0.711645 0.019237 0.000000
0.003836 0.077490 0.040248
0.006486 0.076083 0.040400
0.008587 0.074546 0.040645
0.011742 0.073443 0.040773
0.021062 0.073406 0.041547
0.011804 0.073894 0.041972
0.018762 0.075263 0.042740
0.053359 0.078006 0.042773
0.075570 0.082769 0.041980
0.092662 0.088563 0.039091
0.123194 0.094057 0.035669
0.165219 0.098491 0.028387
0.207278 0.102895 0.006637
0.250558 0.109246 0.000000
0.295392 0.114707 0.000000
0.342154 0.117369 0.000000
0.389684 0.119044 0.000000
0.434223 0.119258 0.000000
0.474038 0.118045 0.000000
0.511986 0.113669 0.000000
0.547689 0.107147 0.000000
0.579061 0.101227 0.000000
0.605803 0.097160 0.000000
0.629599 0.090904 0.000000
0.650461 0.086063 0.000000
0.667967 0.082844 0.000000
0.682146 0.081707 0.000000
0.693741 0.082313 0.000000
0.703507 0.084286 0.000000
0.711763 0.087612 0.000000
0.718000 0.092700 0.000000
0.723196 0.098788 0.000000
0.728575 0.104721 0.000000
0.000000 0.094990 0.041840
0.000000 0.093182 0.042199
0.000000 0.091184 0.042606
0.000000 0.089736 0.042803
0.001832 0.089608 0.043150
0.000000 0.090597 0.044120
0.006861 0.092439 0.044789
0.049381 0.095565 0.044184
0.076281 0.100624 0.041853
0.096341 0.106850 0.039167
0.129037 0.112912 0.033412
0.172452 0.118002 0.019109
0.217094 0.124368 0.000287
0.262067 0.132008 0.000000
0.307993 0.138018 0.000000
0.355938 0.141904 0.000000
0.404757 0.145201 0.000000
0.450422 0.147180 0.000000
0.491162 0.147513 0.000000
0.530119 0.145698 0.000000
0.566703 0.142142 0.000000
0.598693 0.138735 0.000000
0.625685 0.136371 0.000000
0.649428 0.133655 0.000000
0.670131 0.132306 0.000000
0.687552 0.131563 0.000000
0.701712 0.132064 0.000000
0.713308 0.133955 0.000000
0.723071 0.136524 0.000000
0.731333 0.139774 0.000000
0.737591 0.144021 0.000000
0.742797 0.148348 0.000000
0.748172 0.152331 0.000000
0.000000 0.112312 0.044506
0.000000 0.110098 0.045127
0.000000 0.107643 0.045832
0.000000 0.105881 0.046263
0.000000 0.105737 0.046472
0.000000 0.107114 0.047427
0.000000 0.109365 0.047340
0.030717 0.112680 0.045472
0.076465 0.118183 0.041727
0.099894 0.124913 0.038264
0.134764 0.131520 0.031392
0.179625 0.137532 0.013165
0.226879 0.145550 0.000000
0.273557 0.154386 0.000000
0.320838 0.161252 0.000000
0.370401 0.166608 0.000000
0.420535 0.170874 0.000000
0.467402 0.173737 0.000000
0.509342 0.175590 0.000000
0.549432 0.175284 0.000000
0.587079 0.173672 0.000000
0.619792 0.171992 0.000000
0.646970 0.170807 0.000000
0.670494 0.169061 0.000000
0.690823 0.167933 0.000000
0.708040 0.168121 0.000000
0.722119 0.169175 0.000000
0.733628 0.171500 0.000000
0.743374 0.174724 0.000000
0.751667 0.178460 0.000000
0.757988 0.182604 0.000000
0.763240 0.186982 0.000000
0.768702 0.191421 0.000000
0.000000 0.132184 0.044119
0.000000 0.129699 0.045554
0.000000 0.126927 0.047058
0.000000 0.124963 0.047752
0.000000 0.124892 0.047915
0.000000 0.126568 0.048685
0.000000 0.129301 0.048201
0.026505 0.132917 0.044242
0.072830 0.138793 0.040523
0.101222 0.146122 0.033723
0.139082 0.153471 0.020336
0.187339 0.161207 0.000000
0.236921 0.171076 0.000060
0.285136 0.180623 0.000000
0.334034 0.188712 0.000000
0.384748 0.194870 0.000000
0.436063 0.199869 0.000000
0.484240 0.203928 0.000000
0.527233 0.206866 0.000000
0.568424 0.207751 0.000000
0.607095 0.207507 0.000000
0.640487 0.207003 0.000000
0.667896 0.206605 0.000000
0.691313 0.205844 0.000000
0.711375 0.204912 0.000000
0.728433 0.205579 0.000000
0.742442 0.207432 0.000000
0.753853 0.210078 0.000000
0.763562 0.213426 0.000000
0.771810 0.216996 0.000000
0.778123 0.221246 0.000000
0.783410 0.225800 0.000000
0.788914 0.230461 0.000000
0.000000 0.155093 0.041628
0.000000 0.152469 0.042887
0.000000 0.149549 0.044328
0.000000 0.147545 0.045226
0.000000 0.147589 0.045315
0.000000 0.149456 0.045790
0.000000 0.152550 0.044815
0.008632 0.156496 0.040121
0.059746 0.162875 0.034386
0.098657 0.171084 0.017800
0.141676 0.180308 0.000000
0.194331 0.190522 0.000000
0.245807 0.201019 0.000000
0.296078 0.211419 0.000000
0.346478 0.220386 0.000000
0.398222 0.227295 0.000000
0.450805 0.233388 0.000000
0.500013 0.238547 0.000000
0.543796 0.242070 0.000000
0.585810 0.243859 0.000000
0.625261 0.244523 0.000000
0.659253 0.244869 0.000000
0.686990 0.245194 0.000000
0.710531 0.244902 0.000000
0.730664 0.244836 0.000000
0.747715 0.245812 0.000000
0.761662 0.247824 0.000000
0.772945 0.250623 0.000000
0.782530 0.254175 0.000000
0.790703 0.257969 0.000000
0.796923 0.262245 0.000000
0.802116 0.266648 0.000000
0.807468 0.270955 0.000000
0.000000 0.178577 0.036921
0.000000 0.175829 0.038722
0.000000 0.172765 0.040780
0.000000 0.170691 0.041920
0.000000 0.170802 0.041592
0.000000 0.172785 0.041102
0.000056 0.176143 0.039016
0.000000 0.180477 0.032380
0.044484 0.187486 0.012985
0.094471 0.197841 0.000000
0.144127 0.209380 0.000000
0.200040 0.220442 0.000011
0.254270 0.231740 0.000000
0.306602 0.242901 0.000000
0.358307 0.252533 0.000000
0.411222 0.260379 0.000000
0.464534 0.267295 0.000000
0.514322 0.273000 0.000000
0.558733 0.277158 0.000000
0.601328 0.279447 0.000000
0.641416 0.280769 0.000000
0.675910 0.281661 0.000000
0.704050 0.282485 0.000000
0.728036 0.282915 0.000000
0.748410 0.283196 0.000000
0.765614 0.284740 0.000000
0.779611 0.287359 0.000000
0.790803 0.290497 0.000000
0.800157 0.294147 0.000000
0.808114 0.297897 0.000000
0.813989 0.301715 0.000000
0.818785 0.305542 0.000000
0.823747 0.309224 0.000000
0.000000 0.202369 0.029974
0.000000 0.199516 0.031743
0.000000 0.196354 0.033513
0.000000 0.194275 0.034491
0.000000 0.194482 0.033924
0.000000 0.196608 0.032990
0.000000 0.200176 0.026964
0.000000 0.205420 0.007873
0.000000 0.214300 0.000000
0.086756 0.226449 0.000000
0.144219 0.239070 0.000000
0.204516 0.251119 0.000000
0.262213 0.263317 0.000000
0.316524 0.275241 0.000000
0.370058 0.285732 0.000000
0.423709 0.294308 0.000000
0.477696 0.301913 0.000000
0.528145 0.308300 0.000000
0.573003 0.312917 0.000000
0.616362 0.315961 0.000000
0.656839 0.317616 0.000000
0.691825 0.319038 0.000000
0.720414 0.320243 0.000000
0.744899 0.321295 0.000000
0.765746 0.322280 0.000000
0.783099 0.324009 0.000000
0.797148 0.327086 0.000000
0.808276 0.330625 0.000000
0.817380 0.334234 0.000000
0.825068 0.337825 0.000000
0.830575 0.341356 0.000000
0.834969 0.344901 0.000000
0.839604 0.348358 0.000000
0.000000 0.227909 0.000000
0.000000 0.224774 0.000181
0.000000 0.221523 0.008806
0.000000 0.219482 0.013409
0.000000 0.219903 0.008367
0.000000 0.222301 0.000571
0.000000 0.226961 0.000000
0.000000 0.233995 0.000000
0.000000 0.244159 0.000008
0.074241 0.257146 0.000000
0.143439 0.270974 0.000000
0.208190 0.284142 0.000000
0.269000 0.297433 0.000000
0.326347 0.310496 0.000000
0.381062 0.321838 0.000000
0.436205 0.331307 0.000000
0.491223 0.339691 0.000000
0.542106 0.346517 0.000000
0.587996 0.351997 0.000000
0.631733 0.355451 0.000000
0.672687 0.357577 0.000000
0.708132 0.359454 0.000000
0.737253 0.361336 0.000000
0.762105 0.362655 0.000000
0.783327 0.364056 0.000000
0.800987 0.366204 0.000000
0.815084 0.369321 0.000000
0.826138 0.372892 0.000000
0.835127 0.376521 0.000000
0.842721 0.380190 0.000000
0.848107 0.383788 0.000000
0.852359 0.387390 0.000000
0.856755 0.390781 0.000000
0.000000 0.257454 0.000000
0.000000 0.254366 0.000000
0.000000 0.250853 0.000000
0.000000 0.248790 0.000000
0.000000 0.249675 0.000000
0.000000 0.252691 0.000000
0.000000 0.257832 0.000010
0.000000 0.265513 0.000000
0.000000 0.276630 0.000000
0.037790 0.290402 0.000000
0.139084 0.305448 0.000000
0.210355 0.319932 0.000000
0.275838 0.334711 0.000000
0.335719 0.349183 0.000000
0.393049 0.361861 0.000000
0.449427 0.372227 0.000000
0.505284 0.381145 0.000000
0.557605 0.388775 0.000000
0.604017 0.394708 0.000000
0.648137 0.398536 0.000000
0.689352 0.400979 0.000000
0.725070 0.403126 0.000000
0.754560 0.405261 0.000000
0.779954 0.407154 0.000000
0.801647 0.408978 0.000000
0.819614 0.411386 0.000000
0.833918 0.414679 0.000000
0.845090 0.418326 0.000000
0.854279 0.422125 0.000000
0.861976 0.425881 0.000000
0.867520 0.429754 0.000000
0.871942 0.433692 0.000000
0.876574 0.437540 0.000000
0.000000 0.288236 0.000000
0.000000 0.285201 0.000000
0.000000 0.281752 0.000000
0.000000 0.279818 0.000000
0.000000 0.280920 0.000000
0.000000 0.284174 0.000000
0.000000 0.289693 0.000000
0.000000 0.298012 0.000000
0.000239 0.310047 0.000000
0.000000 0.324794 0.000000
0.129657 0.340871 0.000000
0.211032 0.356775 0.000000
0.281392 0.373195 0.000000
0.345391 0.389372 0.000000
0.404941 0.403417 0.000000
0.462975 0.414695 0.000000
0.520403 0.424383 0.000000
0.573504 0.432418 0.000000
0.620586 0.438731 0.000000
0.665010 0.442894 0.000000
0.706327 0.445570 0.000000
0.742299 0.447978 0.000000
0.772245 0.450516 0.000000
0.798201 0.452785 0.000000
0.820394 0.455037 0.000000
0.838801 0.457753 0.000000
0.853313 0.460996 0.000000
0.864606 0.464453 0.000000
0.873926 0.468215 0.000000
0.882042 0.472401 0.000000
0.888087 0.476886 0.000000
0.893039 0.481533 0.000000
0.898111 0.485976 0.000000
0.000000 0.316809 0.000000
0.000000 0.313897 0.000000
0.000000 0.310559 0.000000
0.000000 0.308819 0.000000
0.000000 0.310250 0.000000
0.000000 0.313882 0.000000
0.000000 0.319902 0.000000
0.000000 0.328957 0.000000
0.000000 0.341990 0.000000
0.000000 0.357937 0.000000
0.114753 0.374994 0.000000
0.211516 0.392265 0.000000
0.286855 0.410164 0.000000
0.354102 0.427805 0.000000
0.416094 0.443104 0.000000
0.475928 0.455359 0.000000
0.534677 0.465750 0.000000
0.588964 0.474417 0.000000
0.636752 0.481281 0.000000
0.681541 0.485854 0.000000
0.723059 0.488887 0.000000
0.759355 0.491630 0.000000
0.789743 0.494508 0.000000
0.816219 0.497162 0.000000
0.838967 0.499774 0.000000
0.857755 0.502701 0.000000
0.872518 0.506034 0.000000
0.883965 0.509480 0.000000
0.893576 0.513332 0.000000
0.902041 0.517727 0.000000
0.908546 0.522626 0.000000
0.914037 0.527790 0.000000
0.919624 0.532718 0.000000
0.000000 0.341348 0.000000
0.000000 0.338705 0.000000
0.000000 0.335621 0.000000
0.000000 0.334238 0.000000
0.000000 0.336193 0.000000
0.000000 0.340438 0.000000
0.000000 0.347191 0.000000
0.000000 0.357172 0.000000
0.000000 0.371366 0.000000
0.000000 0.388633 0.000000
0.099600 0.406802 0.000000
0.213064 0.425278 0.000000
0.292032 0.444272 0.000000
0.361457 0.462944 0.000000
0.425362 0.479206 0.000000
0.487082 0.492413 0.000000
0.547353 0.503724 0.000000
0.602827 0.513239 0.000000
0.651538 0.520825 0.000000
0.696947 0.526075 0.000000
0.739156 0.529749 0.000000
0.776063 0.533057 0.000000
0.806991 0.536454 0.000000
0.833843 0.539386 0.000000
0.856862 0.542215 0.000000
0.875989 0.545364 0.000000
0.890998 0.548823 0.000000
0.902619 0.552385 0.000000
0.912388 0.556302 0.000000
0.921116 0.560803 0.000000
0.927838 0.565763 0.000000
0.933425 0.570845 0.000000
0.939216 0.575802 0.000000
0.000000 0.364118 0.000000
0.000000 0.361840 0.000000
0.000000 0.359095 0.000000
0.000000 0.358185 0.000000
0.000000 0.360856 0.000000
0.000000 0.365957 0.000000
0.000000 0.373704 0.000000
0.000000 0.384845 0.000000
0.000000 0.400431 0.000000
0.000000 0.419240 0.000000
0.081895 0.438700 0.000000
0.215261 0.458299 0.000000
0.296234 0.478061 0.000000
0.367994 0.497413 0.000000
0.433788 0.514472 0.000000
0.496403 0.528575 0.000000
0.558462 0.540990 0.000000
0.615468 0.551587 0.000000
0.665275 0.560122 0.000000
0.712013 0.566341 0.000000
0.755521 0.571001 0.000000
0.793177 0.574973 0.000000
0.824488 0.578754 0.000000
0.851578 0.581957 0.000000
0.874800 0.584947 0.000000
0.894034 0.588254 0.000000
0.909353 0.592031 0.000000
0.921331 0.595983 0.000000
0.931349 0.600055 0.000000
0.940043 0.604413 0.000000
0.946734 0.609083 0.000000
0.952361 0.613887 0.000000
0.958120 0.618548 0.000000
0.000000 0.385052 0.000000
0.000000 0.383206 0.000000
0.000000 0.380875 0.000000
0.000000 0.380509 0.000000
0.000000 0.383954 0.000000
0.000000 0.389987 0.000000
0.000000 0.398794 0.000000
0.000000 0.411127 0.000000
0.000000 0.428118 0.000000
0.000000 0.448465 0.000000
0.052156 0.469225 0.000000
0.218871 0.489880 0.000000
0.300694 0.510306 0.000000
0.373616 0.530184 0.000000
0.440892 0.547910 0.000000
0.505423 0.563012 0.000000
0.568740 0.576519 0.000000
0.626917 0.588197 0.000000
0.678247 0.597785 0.000000
0.726401 0.605033 0.000000
0.771147 0.610578 0.000000
0.809740 0.615325 0.000000
0.841752 0.619659 0.000000
0.868941 0.623068 0.000000
0.892256 0.626236 0.000000
0.911687 0.629752 0.000000
0.927185 0.633763 0.000000
0.939341 0.637926 0.000000
0.949459 0.642145 0.000000
0.958322 0.646467 0.000000
0.964928 0.650802 0.000000
0.970334 0.655140 0.000000
0.975882 0.659360 0.000000
0.000000 0.402733 0.000000
0.000000 0.401408 0.000000
0.000000 0.399582 0.000000
0.000000 0.399816 0.000000
0.000000 0.404020 0.000000
0.000000 0.410891 0.000000
0.000000 0.420628 0.000000
0.000000 0.433986 0.000000
0.000000 0.452156 0.000000
0.000010 0.473766 0.000000
0.023807 0.495662 0.000000
0.223405 0.517231 0.000000
0.305102 0.538309 0.000000
0.379637 0.558768 0.000000
0.447762 0.577155 0.000000
0.513404 0.593117 0.000000
0.578120 0.607623 0.000000
0.637671 0.620340 0.000000
0.690120 0.630875 0.000000
0.739399 0.639002 0.000000
0.785279 0.645436 0.000000
0.824760 0.650939 0.000000
0.857248 0.655762 0.000000
0.884718 0.659491 0.000000
0.908162 0.662795 0.000000
0.927627 0.666440 0.000000
0.943406 0.670683 0.000000
0.955885 0.675092 0.000000
0.966147 0.679393 0.000000
0.974903 0.683507 0.000000
0.981302 0.687446 0.000000
0.986638 0.691344 0.000000
0.992399 0.695297 0.000000
0.000000 0.416559 0.000000
0.000000 0.415880 0.000000
0.000000 0.414698 0.000000
0.000000 0.415607 0.000000
0.000000 0.420512 0.000000
0.000000 0.428067 0.000000
0.000000 0.438499 0.000000
0.000000 0.452633 0.000000
0.000000 0.471685 0.000000
0.000001 0.494232 0.000000
0.024736 0.517055 0.000000
0.226882 0.539446 0.000000
0.310411 0.561271 0.000000
0.385678 0.582437 0.000000
0.454528 0.601554 0.000000
0.521460 0.618347 0.000000
0.586901 0.633710 0.000000
0.647042 0.647258 0.000000
0.700217 0.658574 0.000000
0.750548 0.667608 0.000000
0.797022 0.674830 0.000000
0.837416 0.681096 0.000000
0.870338 0.686386 0.000000
0.898327 0.690568 0.000000
0.921995 0.694115 0.000000
0.941913 0.698010 0.000000
0.957603 0.702280 0.000000
0.970163 0.706696 0.000000
0.980473 0.710933 0.000000
0.989146 0.714836 0.000000
0.995817 0.718516 0.000000
0.998881 0.721165 0.000000
0.999713 0.722919 0.000000
0.000000 0.427589 0.000000
0.000000 0.427683 0.000000
0.000000 0.427277 0.000000
0.000000 0.428949 0.000000
0.000000 0.434554 0.000000
0.000000 0.442685 0.000000
0.000000 0.453668 0.000000
0.000000 0.468432 0.000000
0.000000 0.488209 0.000000
0.000000 0.511526 0.000000
0.025175 0.535138 0.000000
0.230605 0.558332 0.000000
0.315495 0.580960 0.000000
0.391523 0.602914 0.000000
0.461746 0.622850 0.000000
0.528998 0.640430 0.000000
0.594856 0.656595 0.000000
0.655596 0.670965 0.000000
0.709352 0.683075 0.000000
0.760104 0.692913 0.000000
0.807398 0.701023 0.000000
0.848038 0.707932 0.000000
0.881649 0.713865 0.000000
0.910246 0.718461 0.000000
0.934546 0.722466 0.000000
0.954680 0.726519 0.000000
0.970615 0.730879 0.000000
0.982792 0.735062 0.000000
0.992958 0.739064 0.000000
1.000000 0.742067 0.000000
1.000000 0.742933 0.000000
1.000000 0.744152 0.000000
1.000000 0.745267 0.000000
0.000000 0.436687 0.000000
0.000000 0.437619 0.000000
0.000000 0.438055 0.000000
0.000000 0.440536 0.000000
0.000000 0.446855 0.000000
0.000000 0.455597 0.000000
0.000000 0.467131 0.000000
0.000000 0.482454 0.000000
0.000000 0.502794 0.000000
0.000000 0.526655 0.000000
0.033383 0.550878 0.000000
0.236300 0.574752 0.000000
0.321297 0.598077 0.000000
0.398395 0.620766 0.000000
0.468740 0.641404 0.000000
0.536260 0.659675 0.000000
0.602214 0.676532 0.000000
0.663344 0.691584 0.000000
0.717509 0.704417 0.000000
0.768591 0.714979 0.000000
0.816396 0.723854 0.000000
0.857626 0.731490 0.000000
0.891616 0.737917 0.000000
0.920945 0.743039 0.000000
0.945699 0.747343 0.000000
0.966136 0.751627 0.000000
0.982128 0.755972 0.000000
0.994336 0.760056 0.000000
1.000000 0.762566 0.000000
1.000000 0.762534 0.000000
0.999996 0.763099 0.000000
1.000000 0.763850 0.000000
1.000000 0.764560 0.000000
0.000000 0.444351 0.000000
0.000000 0.446110 0.000000
0.000000 0.447370 0.000000
0.000000 0.450659 0.000000
0.000000 0.457752 0.000000
0.000000 0.467230 0.000000
0.000000 0.479427 0.000000
0.000000 0.495303 0.000000
0.000000 0.516011 0.000000
0.000000 0.540133 0.000000
0.080318 0.564714 0.000000
0.241311 0.588995 0.000000
0.328759 0.612807 0.000000
0.405665 0.636002 0.000000
0.476176 0.657160 0.000000
0.543518 0.675936 0.000000
0.609829 0.693326 0.000000
0.671112 0.708929 0.000000
0.725217 0.722263 0.000000
0.776753 0.733453 0.000000
0.824702 0.742913 0.000000
0.866247 0.751056 0.000000
0.900592 0.757923 0.000000
0.930270 0.763418 0.000000
0.955543 0.768022 0.000000
0.976096 0.772393 0.000000
0.992736 0.776954 0.000000
1.000000 0.779282 0.000000
0.999978 0.779287 0.000000
1.000000 0.779410 0.000000
1.000000 0.779752 0.000000
1.000000 0.780242 0.000000
1.000000 0.780700 0.000000
0.000000 0.450069 0.000000
0.000000 0.452543 0.000000
0.000000 0.454500 0.000000
0.000000 0.458513 0.000000
0.000000 0.466395 0.000000
0.000000 0.476772 0.000000
0.000000 0.489818 0.000000
0.000000 0.506270 0.000000
0.000000 0.527171 0.000000
0.000000 0.551247 0.000000
0.105635 0.575919 0.000000
0.248079 0.600375 0.000000
0.335733 0.624511 0.000000
0.412723 0.648086 0.000000
0.482891 0.669634 0.000000
0.550564 0.688798 0.000000
0.616820 0.706574 0.000000
0.677997 0.722560 0.000000
0.732197 0.736295 0.000000
0.783821 0.747945 0.000000
