Film Looks/Rec709 Fujifilm 3513DI D60.cube
# Resolve Film Look LUT
#   Input: Cineon Log 
#        : floating point data (range 0.0 - 1.0)
#  Output: FUJIFILM 3513DI film stock 'look' with D60 White Point
#        : floating point data (range 0.0 - 1.0)
# Display: ITU-Rec.709, Gamma 2.4
LUT_3D_SIZE 9
LUT_3D_INPUT_RANGE 0.0 1.0
0.028746 0.023058 0.029833
0.029657 0.026233 0.031363
0.056285 0.031355 0.031679
0.161602 0.036018 0.024939
0.317631 0.000000 0.000000
0.469442 0.000000 0.000000
0.572511 0.000000 0.000000
0.629375 0.000000 0.000000
0.655174 0.000000 0.000000
0.028457 0.046169 0.037620
0.030623 0.044453 0.039213
0.067639 0.051016 0.040145
0.183715 0.063748 0.028976
0.354072 0.062558 0.000000
0.509369 0.000000 0.000000
0.616000 0.000000 0.000000
0.669962 0.000000 0.000000
0.694948 0.000000 0.000000
0.000000 0.097512 0.046108
0.000000 0.091963 0.047294
0.075423 0.103184 0.045816
0.218675 0.127066 0.006568
0.408879 0.148197 0.000000
0.572854 0.144641 0.000000
0.677456 0.133738 0.000000
0.730994 0.137873 0.000000
0.756380 0.153954 0.000000
0.000000 0.183335 0.043934
0.000000 0.175473 0.049109
0.025868 0.192142 0.025230
0.254457 0.236747 0.000000
0.468588 0.273310 0.000000
0.648141 0.286997 0.000000
0.756545 0.289381 0.000000
0.808979 0.300595 0.000000
0.832783 0.316033 0.000000
0.000000 0.294711 0.000000
0.000000 0.287193 0.000000
0.000000 0.317139 0.000000
0.277854 0.381825 0.000000
0.523195 0.434550 0.000000
0.712775 0.456394 0.000000
0.828584 0.465944 0.000000
0.882994 0.479581 0.000000
0.907408 0.497788 0.000000
0.000000 0.394008 0.000000
0.000000 0.392892 0.000000
0.000000 0.438337 0.000000
0.290811 0.522570 0.000000
0.569217 0.590843 0.000000
0.776407 0.625961 0.000000
0.899689 0.641930 0.000000
0.958093 0.658414 0.000000
0.984996 0.676136 0.000000
0.000000 0.447000 0.000000
0.000000 0.457468 0.000000
0.000000 0.515064 0.000000
0.308047 0.612753 0.000000
0.600929 0.693637 0.000000
0.820456 0.742413 0.000000
0.952548 0.766591 0.000000
0.999991 0.779251 0.000000
1.000000 0.781942 0.000000
0.000000 0.469921 0.000000
0.000000 0.493941 0.000000
0.000000 0.561461 0.000000
0.341124 0.659994 0.000000
0.629618 0.745732 0.000000
0.848434 0.800656 0.000000
0.983419 0.829580 0.000000
1.000000 0.831210 0.000000
1.000000 0.831235 0.000000
0.000000 0.500355 0.000000
0.000000 0.551544 0.000000
0.000000 0.624526 0.000000
0.427134 0.712232 0.000000
0.681794 0.786602 0.000000
0.888494 0.838502 0.000000
1.000000 0.862844 0.000000
1.000000 0.858017 0.000000
1.000000 0.858596 0.000000
0.029726 0.020631 0.040102
0.028107 0.026648 0.041192
0.062180 0.031034 0.039866
0.177761 0.035511 0.034342
0.342914 0.000000 0.000000
0.502601 0.000000 0.000000
0.605946 0.000000 0.000000
0.661082 0.000000 0.000000
0.686987 0.000000 0.000000
0.024688 0.048173 0.043387
0.031759 0.046476 0.043111
0.073113 0.054767 0.045236
0.201139 0.067138 0.034844
0.380554 0.052702 0.000000
0.545674 0.000009 0.000000
0.652727 0.000000 0.000000
0.705169 0.000000 0.000000
0.728333 0.000000 0.000000
0.000000 0.104197 0.059581
0.000000 0.097877 0.055464
0.081793 0.110842 0.055283
0.238813 0.134410 0.022228
0.441330 0.154049 0.000000
0.612623 0.147904 0.000000
0.716719 0.134232 0.000000
0.765068 0.133335 0.000000
0.790104 0.147726 0.000000
0.000000 0.200602 0.063638
0.000000 0.190328 0.059337
0.018387 0.210799 0.043927
0.280984 0.257492 0.000047
0.508795 0.295241 0.000000
0.693495 0.306425 0.000000
0.800407 0.307318 0.000000
0.849405 0.317338 0.000000
0.870473 0.330629 0.000000
0.000000 0.323564 0.014050
0.000000 0.317305 0.010069
0.000000 0.354158 0.000072
0.308139 0.426784 0.000000
0.571634 0.481064 0.000000
0.770177 0.503086 0.000000
0.885011 0.511591 0.000000
0.934005 0.522197 0.000000
0.954753 0.537802 0.000000
0.000000 0.428491 0.000000
0.000000 0.431592 0.000007
0.000000 0.484145 0.000000
0.320054 0.578681 0.000000
0.624787 0.653799 0.000000
0.842370 0.690955 0.000000
0.965926 0.706218 0.000000
1.000000 0.712313 0.000000
1.000000 0.717258 0.000000
0.000000 0.475958 0.044760
0.000000 0.489367 0.000000
0.000000 0.554320 0.000044
0.329289 0.658955 0.000000
0.650823 0.747021 0.000000
0.880555 0.798162 0.000000
1.000000 0.818553 0.000000
1.000000 0.813328 0.000000
1.000000 0.813776 0.000000
0.000000 0.503886 0.134090
0.000000 0.525579 0.105908
0.000000 0.588799 0.011139
0.336851 0.691552 0.000065
0.660006 0.780507 0.000000
0.891320 0.836321 0.000000
1.000000 0.856358 0.000000
1.000000 0.851385 0.000000
1.000000 0.850183 0.000000
0.000000 0.553527 0.275441
0.000000 0.601075 0.269331
0.000000 0.661700 0.246480
0.371052 0.729427 0.193942
0.652894 0.786509 0.090599
0.868545 0.834393 0.000000
0.992753 0.860986 0.000000
1.000000 0.856931 0.000026
1.000000 0.853131 0.000000
0.021532 0.015474 0.103650
0.019128 0.000000 0.095694
0.065149 0.029285 0.100123
0.190030 0.027324 0.102826
0.367573 0.000000 0.103060
0.530054 0.000000 0.103276
0.634030 0.000000 0.110352
0.684453 0.000000 0.124398
0.707052 0.000000 0.147762
0.002609 0.051160 0.109080
0.017754 0.050690 0.098211
0.075192 0.057846 0.104887
0.215535 0.069067 0.105638
0.399135 0.009108 0.091663
0.571994 0.000000 0.084166
0.677856 0.000000 0.084509
0.726341 0.000000 0.101897
0.747010 0.000000 0.128700
0.000000 0.119046 0.140602
0.000000 0.110254 0.124061
0.074188 0.123731 0.127248
0.254443 0.147568 0.124490
0.457079 0.148165 0.102512
0.624246 0.107298 0.057549
0.724154 0.039830 0.024144
0.767597 0.002620 0.052533
0.785808 0.059009 0.085612
0.000000 0.230134 0.170271
0.000000 0.217567 0.153409
0.000000 0.239614 0.154337
0.286923 0.277343 0.138141
0.518371 0.296919 0.094257
0.701258 0.293842 0.025946
0.805432 0.289652 0.000000
0.843757 0.293178 0.023880
0.859238 0.308211 0.074090
0.000000 0.369499 0.194928
0.000000 0.361983 0.183311
0.000000 0.393514 0.174737
0.292150 0.450645 0.133131
0.573365 0.491714 0.037726
0.777406 0.510630 0.000000
0.889792 0.516165 0.000000
0.928981 0.521983 0.000000
0.937433 0.530336 0.000000
0.000000 0.478804 0.230916
0.000000 0.478380 0.215825
0.000000 0.525145 0.203057
0.274291 0.601088 0.127790
0.612765 0.665544 0.000000
0.840889 0.704092 0.000591
0.962775 0.718004 0.000000
1.000000 0.723397 0.000046
1.000000 0.725526 0.000000
0.000000 0.529749 0.284594
0.000000 0.539554 0.268363
0.000000 0.596270 0.260381
0.250880 0.679017 0.201531
0.620182 0.749621 0.101024
0.856383 0.795075 0.000000
0.986541 0.818510 0.000000
1.000000 0.815333 0.000000
1.000000 0.812806 0.000000
0.000000 0.553911 0.344802
0.000000 0.576877 0.340423
0.000000 0.638929 0.332268
0.246986 0.717870 0.289965
0.622256 0.786483 0.245214
0.852129 0.825727 0.159115
0.977469 0.845531 0.122182
1.000000 0.846853 0.132379
1.000000 0.848119 0.174099
0.000000 0.591219 0.450350
0.000000 0.640252 0.459167
0.000000 0.700944 0.452155
0.311090 0.764330 0.428066
0.630121 0.820308 0.406778
0.846299 0.856843 0.382947
0.967735 0.877483 0.377125
1.000000 0.882371 0.384772
1.000000 0.885626 0.417818
0.000000 0.000000 0.224160
0.000000 0.000000 0.208158
0.066782 0.000000 0.218227
0.204825 0.000000 0.231042
0.385448 0.000000 0.240139
0.548581 0.000000 0.247397
0.650982 0.000000 0.261389
0.698640 0.000000 0.281828
0.719470 0.000000 0.304077
0.000000 0.005092 0.232034
0.000000 0.017165 0.213830
0.075193 0.039893 0.227713
0.224220 0.050254 0.239079
0.417438 0.000000 0.240255
0.590923 0.000000 0.247614
0.695005 0.000000 0.259020
0.739516 0.000000 0.281528
0.758199 0.000000 0.305289
0.000000 0.122880 0.286484
0.000000 0.112511 0.261735
0.011555 0.134568 0.270076
0.258378 0.157392 0.279828
0.469094 0.156123 0.273175
0.639148 0.113267 0.262922
0.735269 0.046529 0.262465
0.775371 0.040210 0.281515
0.792456 0.075414 0.311765
0.000000 0.260940 0.339950
0.000000 0.247604 0.318073
0.000000 0.271305 0.327358
0.275741 0.307013 0.321997
0.525960 0.325020 0.311885
0.710626 0.317946 0.298801
0.809974 0.309077 0.295451
0.848894 0.318825 0.319596
0.862807 0.335676 0.345891
0.000000 0.416986 0.386623
0.000000 0.410401 0.376360
0.000000 0.442568 0.378977
0.243373 0.497598 0.363661
0.568113 0.534348 0.348669
0.772076 0.541068 0.331431
0.880803 0.540997 0.326873
0.920295 0.551027 0.350593
0.932923 0.567824 0.381092
0.000000 0.531034 0.438169
0.000000 0.532622 0.427920
0.000000 0.580173 0.430553
0.133451 0.653478 0.408465
0.590488 0.711240 0.387193
0.821052 0.734807 0.365177
0.939669 0.742913 0.358791
0.980882 0.752833 0.380295
0.991379 0.764818 0.416227
0.000000 0.577741 0.492546
0.000000 0.588897 0.482869
0.000000 0.646366 0.489063
0.096100 0.726102 0.461998
0.589175 0.794024 0.444866
0.834116 0.830697 0.423631
0.960677 0.846865 0.414690
1.000000 0.855534 0.432523
1.000000 0.858606 0.457988
0.000000 0.595885 0.541202
0.000000 0.618983 0.542863
0.000000 0.682021 0.549314
0.094810 0.758128 0.523704
0.588531 0.824923 0.512417
0.832358 0.865258 0.497132
0.960173 0.885055 0.491024
1.000000 0.892647 0.502471
1.000000 0.895325 0.525150
0.000000 0.624136 0.616538
0.000000 0.671611 0.627325
0.000000 0.732780 0.631219
0.165820 0.793742 0.613604
0.600104 0.850290 0.609540
0.828010 0.889134 0.602402
0.952756 0.910991 0.605485
0.999128 0.920776 0.617329
1.000000 0.924065 0.639569
0.000000 0.000000 0.350175
0.000000 0.000000 0.337023
0.031899 0.000000 0.347120
0.215647 0.000000 0.369822
0.401503 0.000000 0.384699
0.563780 0.000000 0.397108
0.665346 0.000000 0.412780
0.713086 0.000000 0.433844
0.731992 0.000000 0.451833
0.000000 0.000000 0.373364
0.000000 0.000000 0.354612
0.053682 0.000000 0.368740
0.235043 0.000000 0.390175
0.432676 0.000000 0.399944
0.604673 0.000000 0.411099
0.706783 0.000000 0.424370
0.752426 0.000000 0.450783
0.769734 0.000000 0.471912
0.000000 0.070146 0.422635
0.000000 0.065064 0.405578
0.000000 0.123234 0.425802
0.256108 0.152660 0.445368
0.472051 0.149071 0.447496
0.643519 0.086896 0.444055
0.740721 0.000000 0.449826
0.780505 0.000000 0.470714
0.796673 0.060141 0.497221
0.000000 0.272632 0.506158
0.000000 0.259286 0.488958
0.000000 0.285713 0.502700
0.252690 0.326157 0.504978
0.521235 0.343186 0.507167
0.710418 0.335405 0.502099
0.811169 0.327193 0.504332
0.849013 0.336578 0.526043
0.863160 0.355119 0.550247
0.000000 0.450523 0.569800
0.000000 0.441642 0.559688
0.000000 0.476672 0.573063
0.125491 0.531926 0.563893
0.549884 0.566780 0.563730
0.764444 0.574039 0.559232
0.876287 0.574588 0.561168
0.916941 0.586856 0.584285
0.929822 0.603214 0.606372
0.000000 0.567777 0.621870
0.000000 0.570154 0.617440
0.000000 0.619192 0.631126
0.000000 0.693069 0.619593
0.558527 0.749040 0.614684
0.805632 0.776110 0.611556
0.928542 0.785118 0.612503
0.971195 0.795335 0.631557
0.982335 0.806585 0.656508
0.000000 0.610512 0.665270
0.000000 0.622761 0.664113
0.000000 0.680110 0.676762
0.000000 0.762650 0.666143
0.553494 0.829547 0.663444
0.814519 0.869240 0.660624
0.946515 0.887721 0.661819
0.991162 0.897261 0.677000
1.000000 0.903290 0.697654
0.000000 0.623890 0.698018
0.000000 0.646383 0.702713
0.000000 0.710570 0.719787
0.000000 0.788833 0.707964
0.552369 0.854445 0.707284
0.813432 0.898950 0.708480
0.947845 0.922559 0.715205
0.994317 0.931128 0.722830
1.000000 0.934757 0.739238
0.000000 0.643016 0.741089
0.000000 0.692293 0.758463
0.000000 0.753938 0.767809
0.061812 0.814373 0.756476
0.572014 0.873043 0.764266
0.813973 0.916682 0.770617
0.944449 0.940378 0.777407
0.992681 0.950652 0.790037
1.000000 0.953618 0.802150
0.000000 0.000000 0.440724
0.000000 0.000000 0.432827
0.000000 0.000000 0.448257
0.214650 0.000000 0.474597
0.409803 0.000000 0.496117
0.576881 0.000000 0.515294
0.678669 0.000000 0.529937
0.728177 0.000000 0.549457
0.747877 0.000000 0.565651
0.000000 0.000000 0.476772
0.000000 0.000000 0.465040
0.000000 0.000000 0.481372
0.238030 0.000000 0.508944
0.443946 0.000000 0.527574
0.618192 0.000000 0.543875
0.721787 0.000000 0.558479
0.768298 0.000000 0.580281
0.785548 0.000000 0.598616
0.000000 0.000000 0.529348
0.000000 0.000000 0.519588
0.000000 0.084404 0.539786
0.252808 0.136187 0.570928
0.473104 0.123091 0.583248
0.649484 0.049913 0.588294
0.753924 0.000000 0.599738
0.794286 0.000000 0.617805
0.806667 0.000000 0.634255
0.000000 0.263372 0.618912
0.000000 0.250913 0.609598
0.000000 0.283640 0.630111
0.227947 0.335786 0.639446
0.514596 0.351104 0.651684
0.709574 0.344144 0.656126
0.814547 0.338281 0.661511
0.853636 0.347487 0.679664
0.867603 0.367076 0.697597
0.000000 0.467794 0.697344
0.000000 0.454891 0.688891
0.000000 0.493416 0.709648
0.024469 0.550876 0.706925
0.531412 0.586595 0.717069
0.759344 0.598400 0.724898
0.876828 0.599885 0.731389
0.918931 0.611916 0.749720
0.932076 0.627184 0.764443
0.000000 0.585436 0.741853
0.000000 0.588329 0.742887
0.000000 0.638758 0.764027
0.000000 0.715865 0.764902
0.529186 0.772791 0.769093
0.793917 0.805192 0.780115
0.924315 0.816444 0.787202
0.968971 0.826504 0.802002
0.980660 0.835362 0.815086
0.000000 0.625336 0.770685
0.000000 0.637518 0.776572
0.000000 0.696606 0.795950
0.000000 0.781519 0.796894
0.520746 0.850002 0.802925
0.800270 0.895889 0.815938
0.940284 0.917351 0.824821
0.986899 0.925898 0.834461
0.997762 0.930734 0.846658
0.000000 0.631775 0.783449
0.000000 0.658710 0.799824
0.000000 0.722512 0.819069
0.000100 0.803005 0.818158
0.522864 0.871141 0.827661
0.800031 0.920891 0.841753
0.941047 0.946331 0.853158
0.989617 0.955172 0.860584
1.000000 0.958807 0.869783
0.000000 0.651633 0.809139
0.000000 0.699118 0.829781
0.000000 0.762613 0.843354
0.000000 0.824003 0.837971
0.549877 0.885103 0.853706
0.803362 0.932929 0.871261
0.938897 0.957816 0.882224
0.989023 0.967743 0.890997
1.000000 0.970469 0.896832
0.000000 0.000000 0.487044
0.000000 0.000000 0.483526
0.000000 0.000000 0.501942
0.209873 0.000000 0.530146
0.411527 0.000000 0.557570
0.582081 0.000000 0.580089
0.688506 0.000000 0.598389
0.738480 0.000000 0.613221
0.759081 0.000000 0.626968
0.000000 0.000000 0.531872
0.000000 0.000000 0.525669
0.000000 0.000000 0.545583
0.234242 0.000000 0.574180
0.447819 0.000000 0.600584
0.626286 0.000000 0.620688
0.733202 0.000000 0.638228
0.779439 0.000000 0.654332
0.796120 0.000000 0.667863
0.000000 0.000000 0.586575
0.000000 0.000000 0.583555
0.000051 0.034947 0.600620
0.246955 0.118548 0.636181
0.472306 0.092959 0.656055
0.654104 0.000000 0.669937
0.762775 0.000000 0.683833
0.803130 0.000000 0.696507
0.814534 0.000000 0.707447
0.000000 0.254256 0.669962
0.000000 0.245313 0.669239
0.000000 0.278145 0.692802
0.203143 0.338291 0.706034
0.508778 0.355350 0.727700
0.708792 0.349752 0.740105
0.816466 0.343382 0.747899
0.855953 0.351494 0.759628
0.870754 0.373950 0.772525
0.000000 0.473535 0.754346
0.000000 0.460842 0.750559
0.000000 0.498832 0.774537
0.000000 0.558258 0.777184
0.519354 0.597271 0.794958
0.755198 0.610950 0.810826
0.877116 0.613502 0.821383
0.920081 0.623375 0.832659
0.934074 0.639805 0.842691
0.000000 0.591061 0.794134
0.000000 0.594748 0.800174
0.000000 0.645189 0.822139
0.000000 0.723081 0.830598
0.510038 0.783156 0.842291
0.786637 0.819256 0.862806
0.921643 0.831833 0.874270
0.968146 0.840713 0.883137
0.980088 0.848869 0.890312
0.000000 0.627964 0.810500
0.000000 0.642480 0.819044
0.000000 0.700705 0.844056
0.000000 0.786929 0.851924
0.501552 0.857939 0.864310
0.791231 0.907590 0.886714
0.936030 0.930300 0.899322
0.984901 0.938658 0.905982
0.996356 0.942612 0.911961
0.000000 0.636371 0.818471
0.000000 0.661988 0.833252
0.000000 0.725092 0.855352
0.000000 0.807336 0.861107
0.505490 0.877169 0.875821
0.791977 0.929876 0.898468
0.937544 0.956350 0.912252
0.987900 0.965247 0.918463
0.999578 0.968299 0.923062
0.000000 0.653363 0.831604
0.000000 0.701882 0.855851
0.000000 0.762521 0.867187
0.000000 0.825715 0.867058
0.535145 0.887792 0.885751
0.795606 0.937917 0.908872
0.935670 0.964659 0.922930
0.987153 0.974053 0.929274
1.000000 0.976846 0.932539
0.000000 0.000000 0.505385
0.000000 0.000000 0.504913
0.000000 0.000000 0.524926
0.206599 0.000000 0.554954
0.412072 0.000000 0.585703
0.585653 0.000000 0.611613
0.695774 0.000000 0.631321
0.743877 0.000000 0.642418
0.765829 0.000000 0.654009
0.000000 0.000000 0.554969
0.000000 0.000000 0.554024
0.000000 0.000000 0.573961
0.230629 0.000000 0.603558
0.449145 0.000000 0.634356
0.629654 0.000000 0.657076
0.738004 0.000000 0.672609
0.785939 0.000000 0.688788
0.800623 0.000000 0.696518
0.000000 0.000000 0.609129
0.000000 0.000000 0.608767
0.000000 0.027221 0.627460
0.242747 0.121034 0.664795
0.470637 0.095026 0.688882
0.655149 0.000000 0.705879
0.765666 0.000000 0.720535
0.806303 0.000000 0.730410
0.817656 0.000000 0.738420
0.000000 0.255244 0.690155
0.000000 0.237675 0.689516
0.000000 0.276286 0.713983
0.176559 0.342150 0.732161
0.503498 0.360736 0.758575
0.706595 0.355076 0.774643
0.817544 0.349635 0.785054
0.857361 0.356405 0.792847
0.872454 0.380789 0.802557
0.000000 0.472831 0.770337
0.000000 0.461140 0.770166
0.000000 0.500165 0.794728
0.000000 0.561584 0.803548
0.509978 0.602177 0.824353
0.751342 0.617573 0.844808
0.876827 0.620886 0.857267
0.921154 0.630418 0.864636
0.935707 0.648683 0.872832
0.000000 0.596144 0.811174
0.000000 0.598288 0.817399
0.000000 0.647124 0.842407
0.000000 0.725853 0.853724
0.497073 0.786763 0.867879
0.781301 0.825755 0.893515
0.919833 0.838288 0.906068
0.967812 0.847539 0.912706
0.980028 0.855171 0.917138
0.000000 0.631773 0.824939
0.000000 0.644947 0.835186
0.000000 0.701406 0.857891
0.000000 0.787679 0.869405
0.486781 0.859596 0.883692
0.785711 0.911781 0.910645
0.933392 0.935087 0.924617
0.983773 0.943286 0.930350
0.995696 0.946770 0.933572
0.000000 0.636083 0.825589
0.000000 0.662197 0.844180
0.000000 0.725404 0.866151
0.000000 0.807518 0.873721
0.495721 0.878275 0.889956
0.786907 0.932633 0.916364
0.934590 0.959352 0.930710
0.986802 0.968473 0.936570
0.999010 0.971269 0.938772
0.000000 0.653346 0.838388
0.000000 0.701006 0.861208
0.000000 0.762642 0.875321
0.000000 0.826204 0.875956
0.524524 0.888679 0.895647
0.789603 0.939382 0.920216
0.933250 0.966342 0.934388
0.986219 0.975971 0.940260
1.000000 0.978810 0.942733
0.000000 0.000000 0.514614
0.000000 0.000000 0.516120
0.000000 0.000000 0.535257
0.203064 0.000000 0.564584
0.410176 0.000000 0.596604
0.586742 0.000000 0.623742
0.696993 0.000000 0.643080
0.747703 0.000000 0.655613
0.769231 0.000000 0.666274
0.000000 0.000000 0.568897
0.000000 0.000000 0.568958
0.000000 0.000000 0.588782
0.228464 0.000000 0.619603
0.447522 0.000000 0.650239
0.631026 0.000000 0.674058
0.744314 0.000000 0.693084
0.790012 0.000000 0.705346
0.808194 0.000000 0.716488
0.000000 0.000000 0.619256
0.000000 0.000000 0.620166
0.000000 0.032090 0.639887
0.237153 0.140383 0.678537
0.469286 0.126747 0.705645
0.655498 0.059269 0.722717
0.766597 0.000000 0.736563
0.807297 0.000000 0.744401
0.820740 0.061090 0.752061
0.000000 0.272917 0.702906
0.000000 0.247468 0.699261
0.000000 0.289707 0.727208
0.144311 0.351444 0.742890
0.498700 0.370349 0.771092
0.706006 0.367369 0.789508
0.818018 0.360268 0.799631
0.860007 0.369166 0.807489
0.874984 0.391496 0.815099
0.000000 0.476926 0.778197
0.000000 0.465050 0.778336
0.000000 0.503172 0.803045
0.000000 0.566502 0.813552
0.501531 0.607557 0.834390
0.747671 0.624909 0.857369
0.876429 0.629344 0.870358
0.922195 0.638192 0.877078
0.936966 0.655098 0.883252
0.000000 0.597903 0.816202
0.000000 0.599229 0.823171
0.000000 0.647868 0.848261
0.000000 0.727035 0.860683
0.485894 0.788702 0.875875
0.775016 0.828574 0.902993
0.918051 0.842894 0.916688
0.967904 0.851360 0.922920
0.980749 0.859896 0.926061
0.000000 0.632312 0.828217
0.000000 0.644763 0.838577
0.000000 0.699868 0.860450
0.000000 0.787558 0.875217
0.479424 0.860131 0.889336
0.780217 0.912776 0.917577
0.930946 0.936767 0.932143
0.983097 0.945122 0.938207
0.995514 0.948537 0.940070
0.000000 0.635218 0.826843
0.000000 0.662948 0.848714
0.000000 0.724732 0.869148
0.000000 0.806673 0.877538
0.483755 0.877390 0.893239
0.780831 0.932410 0.920713
0.932401 0.960217 0.935988
0.985925 0.969636 0.941961
0.999087 0.972465 0.944059
0.000000 0.653422 0.839917
0.000000 0.700352 0.861964
0.000000 0.761347 0.876911
0.000000 0.825350 0.878329
0.516305 0.887596 0.897422
0.784979 0.939179 0.923016
0.930875 0.966677 0.937749
0.985975 0.977000 0.943995
0.999974 0.979317 0.945893
