Film Looks/Rec709 Fujifilm 3513DI D65.cube
# Resolve Film Look LUT
#   Input: Cineon Log 
#        : floating point data (range 0.0 - 1.0)
#  Output: FUJIFILM 3513DI film stock 'look' with D65 White Point
#        : floating point data (range 0.0 - 1.0)
# Display: ITU-Rec.709, Gamma 2.4
LUT_3D_SIZE 33
LUT_3D_INPUT_RANGE 0.0 1.0
0.028579 0.023029 0.030894
0.028326 0.023849 0.031347
0.027756 0.024587 0.031799
0.028441 0.025537 0.032219
0.029328 0.026294 0.032557
0.022674 0.026911 0.032804
0.022121 0.027704 0.032974
0.043244 0.029144 0.032916
0.056584 0.031602 0.032995
0.067273 0.035590 0.033817
0.092913 0.038610 0.033385
0.128585 0.037890 0.031298
0.163404 0.037165 0.028379
0.197580 0.034185 0.016811
0.234579 0.025199 0.000000
0.276686 0.000000 0.000000
0.320698 0.000000 0.000000
0.362280 0.000000 0.000000
0.400530 0.000000 0.000000
0.438276 0.000000 0.000000
0.474260 0.000000 0.000000
0.505911 0.000000 0.000000
0.532874 0.000000 0.000000
0.557081 0.000000 0.000000
0.578509 0.000000 0.000000
0.596754 0.000000 0.000000
0.612071 0.000000 0.000000
0.625064 0.000000 0.000000
0.636017 0.000000 0.000000
0.644900 0.000000 0.000000
0.651356 0.000000 0.000000
0.656616 0.000000 0.000000
0.662085 0.000000 0.000000
0.028575 0.028796 0.033299
0.028212 0.028801 0.033725
0.027563 0.028772 0.034148
0.028247 0.028909 0.034552
0.029349 0.029350 0.034919
0.024789 0.029876 0.035238
0.025680 0.030609 0.035488
0.045355 0.031611 0.035241
0.059254 0.034155 0.035381
0.070593 0.039012 0.036554
0.096541 0.041884 0.035689
0.132948 0.042348 0.033494
0.168623 0.043131 0.029448
0.203576 0.041054 0.016274
0.241790 0.034635 0.000000
0.284488 0.023061 0.000000
0.328504 0.000000 0.000000
0.371072 0.000000 0.000000
0.409948 0.000000 0.000000
0.448090 0.000000 0.000000
0.484380 0.000000 0.000000
0.516287 0.000000 0.000000
0.543489 0.000000 0.000000
0.567927 0.000000 0.000000
0.589488 0.000000 0.000000
0.607713 0.000000 0.000000
0.622784 0.000000 0.000000
0.635409 0.000000 0.000000
0.646041 0.000000 0.000000
0.654773 0.000000 0.000000
0.661206 0.000000 0.000000
0.666484 0.000000 0.000000
0.671960 0.000000 0.000000
0.029301 0.031006 0.035401
0.028781 0.030874 0.035827
0.027997 0.030689 0.036234
0.028620 0.030694 0.036641
0.029891 0.031010 0.037040
0.026466 0.031417 0.037410
0.028844 0.032079 0.037701
0.047544 0.032811 0.037372
0.062050 0.035987 0.037805
0.073804 0.041113 0.039042
0.099873 0.043813 0.037833
0.137030 0.045521 0.035490
0.173386 0.047191 0.030709
0.209088 0.046477 0.015003
0.248437 0.041665 0.000000
0.292141 0.033963 0.000000
0.336566 0.012552 0.000000
0.379534 0.000000 0.000000
0.419059 0.000000 0.000000
0.457595 0.000000 0.000000
0.494182 0.000000 0.000000
0.526335 0.000000 0.000000
0.553774 0.000000 0.000000
0.578433 0.000000 0.000000
0.600143 0.000000 0.000000
0.618358 0.000000 0.000000
0.633194 0.000000 0.000000
0.645459 0.000000 0.000000
0.655778 0.000000 0.000000
0.664382 0.000000 0.000000
0.670802 0.000000 0.000000
0.676111 0.000000 0.000000
0.681607 0.000000 0.000000
0.028977 0.037393 0.037427
0.028220 0.037033 0.037897
0.027091 0.036633 0.038371
0.027746 0.036361 0.038765
0.029451 0.036435 0.039116
0.026097 0.036917 0.039666
0.028975 0.037483 0.039948
0.049255 0.038288 0.039486
0.064689 0.041993 0.040158
0.077614 0.047301 0.040878
0.103790 0.050713 0.039856
0.141548 0.052741 0.036873
0.178721 0.054460 0.031645
0.215372 0.054911 0.012929
0.256040 0.054037 0.000000
0.300716 0.050372 0.000000
0.345925 0.039514 0.000000
0.388540 0.021757 0.000000
0.427899 0.000000 0.000000
0.467026 0.000176 0.000000
0.503971 0.000000 0.000000
0.536424 0.000000 0.000000
0.564122 0.000000 0.000000
0.589000 0.000000 0.000000
0.610845 0.000000 0.000000
0.629067 0.000000 0.000000
0.643723 0.000000 0.000000
0.655694 0.000000 0.000000
0.665761 0.000000 0.000000
0.674232 0.000000 0.000000
0.680608 0.000000 0.000000
0.685908 0.000000 0.000000
0.691387 0.000000 0.000000
0.027488 0.046976 0.039490
0.027030 0.046329 0.039927
0.026103 0.045608 0.040374
0.027269 0.045157 0.040778
0.029660 0.045220 0.041184
0.025871 0.045553 0.041806
0.029173 0.046207 0.042145
0.050579 0.047880 0.042050
0.067864 0.051996 0.042275
0.081047 0.056563 0.041872
0.108154 0.060643 0.041651
0.147171 0.063004 0.037241
0.185704 0.065467 0.032014
0.223568 0.067153 0.010010
0.265561 0.068253 0.000000
0.311121 0.067911 0.000000
0.357247 0.063070 0.000000
0.400452 0.055842 0.000000
0.439187 0.039791 0.000000
0.476803 0.000000 0.000000
0.514414 0.000068 0.000000
0.547235 0.000007 0.000000
0.575206 0.000000 0.000000
0.600280 0.000000 0.000000
0.622249 0.000000 0.000000
0.640504 0.000000 0.000000
0.655084 0.000000 0.000000
0.666904 0.000000 0.000000
0.676802 0.000000 0.000000
0.685158 0.000000 0.000000
0.691435 0.000000 0.000000
0.696634 0.000000 0.000000
0.702019 0.000000 0.000000
0.026348 0.054086 0.041667
0.026805 0.053258 0.042079
0.026756 0.052341 0.042515
0.028531 0.051727 0.042912
0.031144 0.051694 0.043360
0.027536 0.051909 0.044071
0.031210 0.052747 0.044651
0.052866 0.054870 0.044999
0.070519 0.058902 0.044243
0.085776 0.064265 0.043891
0.113612 0.068784 0.043036
0.154151 0.072263 0.038228
0.194240 0.076120 0.032174
0.233312 0.078477 0.007923
0.276401 0.080964 0.000000
0.322680 0.081167 0.000000
0.369618 0.079329 0.000000
0.413563 0.074245 0.000000
0.452849 0.065928 0.000000
0.490330 0.048051 0.000000
0.526099 0.001693 0.000000
0.559291 0.000446 0.000000
0.587515 0.000000 0.000000
0.612769 0.000000 0.000000
0.634854 0.000000 0.000000
0.653193 0.000000 0.000000
0.667819 0.000000 0.000000
0.679631 0.000000 0.000000
0.689488 0.000000 0.000000
0.697757 0.000000 0.000000
0.703889 0.000000 0.000000
0.708921 0.000000 0.000000
0.714152 0.000000 0.000000
0.013048 0.064343 0.044205
0.016106 0.063199 0.044269
0.017619 0.061962 0.044420
0.023431 0.061118 0.044591
0.030523 0.061074 0.045222
0.022120 0.061287 0.045924
0.027820 0.062339 0.046848
0.053683 0.064808 0.047480
0.073763 0.069414 0.046631
0.089894 0.075307 0.045819
0.119878 0.080691 0.043255
0.161290 0.084746 0.038514
0.202867 0.088511 0.032195
0.243505 0.091334 0.004142
0.288041 0.095505 0.000000
0.335092 0.097017 0.000000
0.382838 0.096200 0.000000
0.427599 0.094478 0.000000
0.467552 0.090459 0.000000
0.505627 0.081882 0.000000
0.541356 0.067204 0.000000
0.572758 0.032488 0.000000
0.600556 0.017443 0.000000
0.625672 0.014752 0.000000
0.647623 0.012161 0.000000
0.665890 0.009033 0.000000
0.680521 0.007134 0.000000
0.692369 0.006702 0.000000
0.702249 0.007536 0.000000
0.710512 0.009790 0.000000
0.716613 0.012630 0.000000
0.721599 0.014724 0.000000
0.726785 0.016817 0.000000
0.000000 0.081178 0.046898
0.000000 0.079725 0.047185
0.000000 0.078114 0.047396
0.003950 0.076928 0.047272
0.011703 0.076786 0.047522
0.002504 0.077419 0.048885
0.011355 0.078798 0.049578
0.051905 0.081627 0.049224
0.075037 0.086637 0.048525
0.092334 0.092724 0.046580
0.124735 0.098630 0.043014
0.167912 0.103297 0.036894
0.211380 0.108026 0.025001
0.254598 0.113297 0.001896
0.300446 0.118651 0.000003
0.348343 0.121112 0.000000
0.397086 0.122688 0.000000
0.442711 0.122866 0.000000
0.483445 0.121066 0.000000
0.522270 0.116757 0.000000
0.558715 0.109363 0.000000
0.590733 0.103483 0.000000
0.617990 0.096424 0.000000
0.642275 0.088940 0.000000
0.663556 0.082399 0.000000
0.681411 0.076022 0.000000
0.695877 0.072645 0.000000
0.707711 0.072418 0.000000
0.717679 0.074937 0.000000
0.726109 0.080444 0.000000
0.732484 0.087876 0.000000
0.737800 0.094486 0.000000
0.743296 0.100922 0.000000
0.000000 0.099923 0.050641
0.000001 0.097946 0.050879
0.000000 0.095832 0.051150
0.000000 0.094292 0.051265
0.000000 0.094096 0.051412
0.000000 0.095177 0.052532
0.000000 0.096988 0.052801
0.034103 0.099976 0.051599
0.074721 0.105351 0.049877
0.095746 0.111932 0.047360
0.129503 0.118322 0.041918
0.175185 0.123947 0.035269
0.220114 0.129376 0.011294
0.265872 0.136711 0.000000
0.313147 0.143176 0.000000
0.362410 0.147422 0.000000
0.412380 0.150536 0.000000
0.459124 0.152102 0.000000
0.500882 0.152398 0.000000
0.540738 0.150430 0.000000
0.578137 0.146676 0.000000
0.610792 0.142708 0.000000
0.638351 0.139404 0.000000
0.662601 0.136871 0.000000
0.683732 0.134706 0.000000
0.701505 0.133638 0.000000
0.715976 0.134464 0.000000
0.727814 0.136306 0.000000
0.737784 0.138702 0.000000
0.746209 0.141920 0.000000
0.752606 0.146401 0.000000
0.757927 0.150913 0.000000
0.763422 0.155143 0.000000
0.000000 0.118111 0.053378
0.000000 0.115754 0.053833
0.000000 0.113147 0.054357
0.000000 0.111260 0.054644
0.000000 0.111070 0.054765
0.000000 0.112519 0.055619
0.000000 0.114853 0.055536
0.027586 0.118070 0.053551
0.072679 0.123779 0.051738
0.097480 0.130831 0.047724
0.134762 0.137824 0.041647
0.181731 0.143992 0.029961
0.229752 0.151333 0.006676
0.277362 0.160110 0.000000
0.325834 0.167196 0.000000
0.376789 0.172765 0.000000
0.428364 0.177462 0.000000
0.476456 0.180537 0.000000
0.519342 0.182107 0.000000
0.560392 0.181564 0.000000
0.598943 0.179984 0.000000
0.632366 0.178044 0.000000
0.660120 0.176415 0.000000
0.684109 0.174323 0.000000
0.704893 0.172977 0.000000
0.722447 0.172652 0.000000
0.736827 0.173971 0.000000
0.748608 0.176487 0.000000
0.758587 0.179664 0.000000
0.767025 0.183100 0.000000
0.773456 0.187653 0.000000
0.778853 0.192536 0.000000
0.784432 0.197217 0.000000
0.000000 0.138806 0.054535
0.000000 0.136183 0.055407
0.000000 0.133240 0.056271
0.000000 0.131029 0.056457
0.000000 0.130901 0.056578
0.000000 0.132849 0.057569
0.000000 0.135736 0.057496
0.015238 0.139335 0.054566
0.062923 0.145330 0.051132
0.096844 0.153067 0.045412
0.138272 0.160844 0.036480
0.188112 0.168013 0.014404
0.238813 0.177367 0.000000
0.288497 0.187444 0.000013
0.338940 0.195933 0.000000
0.391235 0.202519 0.000000
0.444044 0.207944 0.000000
0.493450 0.212194 0.000000
0.537395 0.214753 0.000000
0.579658 0.215621 0.000000
0.619255 0.215255 0.000000
0.653441 0.214622 0.000000
0.681462 0.213994 0.000000
0.705375 0.213039 0.000000
0.725920 0.212246 0.000000
0.743308 0.212584 0.000000
0.757601 0.214321 0.000000
0.769284 0.216935 0.000000
0.779156 0.220109 0.000000
0.787575 0.223888 0.000000
0.794031 0.228701 0.000000
0.799479 0.233834 0.000000
0.805119 0.238660 0.000000
0.000000 0.163057 0.054190
0.000000 0.160261 0.054989
0.000000 0.157179 0.055959
0.000000 0.155066 0.056567
0.000000 0.155102 0.056626
0.000000 0.157053 0.056984
0.000095 0.160310 0.056398
0.000000 0.164289 0.052831
0.041570 0.170616 0.045978
0.091355 0.179261 0.038900
0.138699 0.188010 0.016968
0.193227 0.197558 0.000000
0.247284 0.208791 0.000000
0.299239 0.219772 0.000000
0.351161 0.229150 0.000000
0.404643 0.236545 0.000000
0.458737 0.243009 0.000000
0.509077 0.248052 0.000000
0.554015 0.251553 0.000000
0.597199 0.253477 0.000000
0.637586 0.253930 0.000000
0.672432 0.254246 0.000000
0.700829 0.254351 0.000000
0.724868 0.253900 0.000000
0.745496 0.253804 0.000000
0.762886 0.254535 0.000000
0.777159 0.256839 0.000000
0.788791 0.260097 0.000000
0.798577 0.263629 0.000000
0.806884 0.267452 0.000000
0.813219 0.271989 0.000000
0.818513 0.276585 0.000000
0.823975 0.280987 0.000000
0.000000 0.187470 0.051626
0.000000 0.184712 0.053498
0.000000 0.181473 0.054581
0.000000 0.179289 0.055203
0.000000 0.179402 0.055016
0.000000 0.181486 0.054897
0.000000 0.184990 0.053370
0.000000 0.189559 0.046759
0.006482 0.196431 0.038387
0.081246 0.205853 0.011060
0.137961 0.217257 0.000000
0.197625 0.228941 0.000000
0.254708 0.240894 0.000007
0.308799 0.252611 0.000000
0.362415 0.262741 0.000000
0.417280 0.271106 0.000000
0.472011 0.278252 0.000000
0.523242 0.284108 0.000000
0.569017 0.288558 0.000000
0.612817 0.290978 0.000000
0.653894 0.292147 0.000000
0.689315 0.293097 0.000000
0.718206 0.293957 0.000000
0.742660 0.294097 0.000000
0.763605 0.294629 0.000000
0.781206 0.296052 0.000000
0.795470 0.298671 0.000000
0.806949 0.302091 0.000000
0.816518 0.305750 0.000000
0.824539 0.309351 0.000000
0.830507 0.313374 0.000000
0.835447 0.317616 0.000000
0.840613 0.321781 0.000000
0.000000 0.212377 0.046407
0.000000 0.209411 0.048381
0.000000 0.206075 0.050517
0.000000 0.203872 0.051558
0.000000 0.204098 0.050711
0.000000 0.206324 0.049464
0.000000 0.210151 0.046010
0.000030 0.215394 0.038477
0.000000 0.223183 0.009203
0.065054 0.235055 0.000000
0.135640 0.248364 0.000000
0.200894 0.261050 0.000003
0.261541 0.273934 0.000000
0.318191 0.286512 0.000000
0.373604 0.297550 0.000000
0.429291 0.306645 0.000000
0.484962 0.314586 0.000000
0.536961 0.321258 0.000000
0.583331 0.326257 0.000000
0.627840 0.329352 0.000000
0.669462 0.331070 0.000000
0.705366 0.332464 0.000000
0.734758 0.333789 0.000000
0.759729 0.334532 0.000000
0.781138 0.335608 0.000000
0.798923 0.337336 0.000000
0.813199 0.340315 0.000000
0.824590 0.344073 0.000000
0.833972 0.347961 0.000000
0.841801 0.351677 0.000000
0.847430 0.355391 0.000000
0.851897 0.359088 0.000000
0.856599 0.362730 0.000000
0.000000 0.238850 0.034484
0.000000 0.235859 0.037323
0.000000 0.232512 0.040511
0.000000 0.230376 0.041808
0.000000 0.230809 0.040241
0.000000 0.233289 0.037386
0.000000 0.237499 0.031779
0.000000 0.243649 0.011073
0.000119 0.254010 0.000000
0.000000 0.267201 0.000000
0.130936 0.281726 0.000000
0.202111 0.295601 0.000000
0.267089 0.309666 0.000000
0.326851 0.323414 0.000000
0.384315 0.335490 0.000000
0.441298 0.345458 0.000000
0.498077 0.354224 0.000000
0.550894 0.361581 0.000000
0.597997 0.367195 0.000000
0.642860 0.370638 0.000000
0.685154 0.372931 0.000000
0.721475 0.374684 0.000000
0.751439 0.376617 0.000000
0.776960 0.377891 0.000000
0.798773 0.379412 0.000000
0.816953 0.381686 0.000000
0.831333 0.384888 0.000000
0.842702 0.388793 0.000000
0.851954 0.392640 0.000000
0.859577 0.396233 0.000000
0.864981 0.399875 0.000000
0.869302 0.403632 0.000000
0.873872 0.407330 0.000000
0.000000 0.267871 0.004805
0.000000 0.264873 0.013695
0.000000 0.261530 0.020612
0.000000 0.259499 0.021121
0.000000 0.260251 0.019984
0.000000 0.263063 0.012101
0.000000 0.268077 0.000000
0.000000 0.276274 0.000000
0.000000 0.288027 0.000047
0.000000 0.302388 0.000000
0.115659 0.317787 0.000000
0.201061 0.333076 0.000000
0.271371 0.348668 0.000000
0.334704 0.363966 0.000000
0.394833 0.377377 0.000000
0.453599 0.388314 0.000000
0.511768 0.397825 0.000000
0.565670 0.405785 0.000000
0.613452 0.411893 0.000000
0.658957 0.415864 0.000000
0.701638 0.418539 0.000000
0.738424 0.420745 0.000000
0.768824 0.423050 0.000000
0.794825 0.424849 0.000000
0.817183 0.426799 0.000000
0.835585 0.429246 0.000000
0.850192 0.432597 0.000000
0.861665 0.436436 0.000000
0.871052 0.440369 0.000000
0.878887 0.444279 0.000000
0.884565 0.448409 0.000000
0.889083 0.452567 0.000000
0.893806 0.456613 0.000000
0.000000 0.300036 0.000000
0.000000 0.296836 0.000000
0.000000 0.293189 0.000000
0.000000 0.291147 0.000000
0.000000 0.292320 0.000000
0.000000 0.295760 0.000000
0.000000 0.301574 0.000074
0.000000 0.310324 0.000001
0.000000 0.323004 0.000000
0.000000 0.338556 0.000000
0.074456 0.354830 0.000000
0.198844 0.371658 0.000000
0.274923 0.389013 0.000000
0.342472 0.406092 0.000000
0.405117 0.420923 0.000000
0.465941 0.432863 0.000000
0.525780 0.443078 0.000000
0.580957 0.451575 0.000000
0.629558 0.458188 0.000000
0.675368 0.462487 0.000000
0.718287 0.465376 0.000000
0.755327 0.467810 0.000000
0.786245 0.470510 0.000000
0.812808 0.472728 0.000000
0.835766 0.475142 0.000000
0.854640 0.477926 0.000000
0.869532 0.481317 0.000000
0.881186 0.485025 0.000000
0.890736 0.488950 0.000000
0.898896 0.493195 0.000000
0.905101 0.497965 0.000000
0.910142 0.502839 0.000000
0.915401 0.507599 0.000000
0.000000 0.329971 0.000000
0.000000 0.326919 0.000000
0.000000 0.323413 0.000000
0.000000 0.321586 0.000000
0.000000 0.323089 0.000000
0.000000 0.326893 0.000000
0.000000 0.333196 0.000000
0.000000 0.342723 0.000000
0.000000 0.356460 0.000000
0.000000 0.373283 0.000000
0.026254 0.390715 0.000000
0.195884 0.408821 0.000000
0.277289 0.427743 0.000000
0.349461 0.446398 0.000000
0.414850 0.462574 0.000000
0.477523 0.475492 0.000000
0.539149 0.486509 0.000000
0.595476 0.495628 0.000000
0.645084 0.502849 0.000000
0.691393 0.507639 0.000000
0.734598 0.510887 0.000000
0.771997 0.513683 0.000000
0.803484 0.516759 0.000000
0.830574 0.519390 0.000000
0.854120 0.522162 0.000000
0.873448 0.525194 0.000000
0.888598 0.528664 0.000000
0.900410 0.532333 0.000000
0.910190 0.536327 0.000000
0.918805 0.540896 0.000000
0.925466 0.546075 0.000000
0.931021 0.551462 0.000000
0.936734 0.556706 0.000000
0.000000 0.355669 0.000000
0.000000 0.352892 0.000000
0.000000 0.349651 0.000000
0.000000 0.348198 0.000000
0.000000 0.350254 0.000000
0.000000 0.354704 0.000000
0.000000 0.361787 0.000000
0.000000 0.372289 0.000000
0.000000 0.387257 0.000000
0.000001 0.405478 0.000000
0.019589 0.424278 0.000000
0.189762 0.443407 0.000000
0.279784 0.463509 0.000000
0.355132 0.483269 0.000000
0.423066 0.500493 0.000000
0.487488 0.514412 0.000000
0.550425 0.526328 0.000000
0.608542 0.536402 0.000000
0.659007 0.544383 0.000000
0.706307 0.549958 0.000000
0.750324 0.553881 0.000000
0.788314 0.557253 0.000000
0.820312 0.560777 0.000000
0.848071 0.563868 0.000000
0.871776 0.566798 0.000000
0.891412 0.570063 0.000000
0.906904 0.573697 0.000000
0.918897 0.577472 0.000000
0.928877 0.581568 0.000000
0.937723 0.586229 0.000000
0.944607 0.591468 0.000000
0.950336 0.596842 0.000000
0.956215 0.602067 0.000000
0.000000 0.379504 0.000000
0.000000 0.377112 0.000000
0.000000 0.374233 0.000000
0.000000 0.373282 0.000000
0.000000 0.376088 0.000000
0.000000 0.381442 0.000000
0.000000 0.389587 0.000000
0.000000 0.401315 0.000000
0.000000 0.417759 0.000000
0.000000 0.437614 0.000000
0.018261 0.457916 0.000000
0.183262 0.478044 0.000000
0.281409 0.498984 0.000000
0.359161 0.519447 0.000000
0.429118 0.537466 0.000000
0.495912 0.552437 0.000000
0.560854 0.565556 0.000000
0.620009 0.576708 0.000000
0.672079 0.585745 0.000000
0.720929 0.592362 0.000000
0.765964 0.597195 0.000000
0.804858 0.601336 0.000000
0.837446 0.605351 0.000000
0.865270 0.608606 0.000000
0.889420 0.611811 0.000000
0.909249 0.615246 0.000000
0.924964 0.619158 0.000000
0.937253 0.623285 0.000000
0.947378 0.627520 0.000000
0.956419 0.632165 0.000000
0.963265 0.637091 0.000000
0.968978 0.642139 0.000000
0.974922 0.647135 0.000000
0.000000 0.401433 0.000000
0.000000 0.399498 0.000000
0.000000 0.397052 0.000000
0.000000 0.396674 0.000000
0.000000 0.400301 0.000000
0.000000 0.406634 0.000000
0.000000 0.415899 0.000000
0.000000 0.428898 0.000000
0.000000 0.446833 0.000000
0.000000 0.468316 0.000000
0.016869 0.490094 0.000000
0.176483 0.511186 0.000000
0.282633 0.532835 0.000000
0.362639 0.553865 0.000000
0.434793 0.572623 0.000000
0.503050 0.588576 0.000000
0.569871 0.602881 0.000000
0.630913 0.615263 0.000000
0.684402 0.625401 0.000000
0.734524 0.633029 0.000000
0.781032 0.638866 0.000000
0.821094 0.643882 0.000000
0.854207 0.648404 0.000000
0.882366 0.651960 0.000000
0.906495 0.655261 0.000000
0.926460 0.658899 0.000000
0.942450 0.663098 0.000000
0.955024 0.667499 0.000000
0.965395 0.671943 0.000000
0.974413 0.676431 0.000000
0.981257 0.681031 0.000000
0.986984 0.685665 0.000000
0.992605 0.690102 0.000000
0.000000 0.419951 0.000000
0.000000 0.418563 0.000000
0.000000 0.416646 0.000000
0.000000 0.416899 0.000000
0.000000 0.421328 0.000000
0.000000 0.428560 0.000000
0.000000 0.438805 0.000000
0.000000 0.452895 0.000000
0.000000 0.472080 0.000000
0.000000 0.494901 0.000000
0.015772 0.517917 0.000000
0.171486 0.539903 0.000000
0.284295 0.562246 0.000000
0.366279 0.583878 0.000000
0.440067 0.603340 0.000000
0.510080 0.620238 0.000000
0.578125 0.635581 0.000000
0.640481 0.649023 0.000000
0.695375 0.660158 0.000000
0.746829 0.668765 0.000000
0.794495 0.675535 0.000000
0.835676 0.681381 0.000000
0.869333 0.686412 0.000000
0.897699 0.690290 0.000000
0.921977 0.693726 0.000000
0.942176 0.697563 0.000000
0.958327 0.701976 0.000000
0.971209 0.706629 0.000000
0.981755 0.711175 0.000000
0.991141 0.715609 0.000000
0.996732 0.719380 0.000000
0.998821 0.722238 0.000000
1.000000 0.724881 0.000000
0.000000 0.434449 0.000000
0.000000 0.433739 0.000000
0.000000 0.432498 0.000000
0.000000 0.433461 0.000000
0.000000 0.438628 0.000000
0.000000 0.446576 0.000000
0.000000 0.457564 0.000000
0.000000 0.472474 0.000000
0.000000 0.492595 0.000000
0.000000 0.516412 0.000000
0.015118 0.540413 0.000000
0.169246 0.563230 0.000000
0.287448 0.586361 0.000000
0.371064 0.608749 0.000000
0.445833 0.628983 0.000000
0.516703 0.646733 0.000000
0.585935 0.662997 0.000000
0.649295 0.677359 0.000000
0.704857 0.689353 0.000000
0.757192 0.698841 0.000000
0.805942 0.706509 0.000000
0.847763 0.713074 0.000000
0.881857 0.718658 0.000000
0.910970 0.722987 0.000000
0.935461 0.726724 0.000000
0.956094 0.730804 0.000000
0.972361 0.735291 0.000000
0.985203 0.739914 0.000000
0.995898 0.744384 0.000000
0.999784 0.746644 0.000000
1.000000 0.748194 0.000000
1.000000 0.749887 0.000000
1.000000 0.751499 0.000000
0.000000 0.446023 0.000000
0.000000 0.446123 0.000000
0.000000 0.445698 0.000000
0.000000 0.447462 0.000000
0.000000 0.453364 0.000000
0.000000 0.461931 0.000000
0.000000 0.473496 0.000000
0.000000 0.489076 0.000000
0.000000 0.509964 0.000000
0.000000 0.534601 0.000000
0.014779 0.559436 0.000000
0.168680 0.583077 0.000000
0.290817 0.607055 0.000000
0.375916 0.630272 0.000000
0.451332 0.651337 0.000000
0.523384 0.669935 0.000000
0.593148 0.687062 0.000000
0.657002 0.702269 0.000000
0.713208 0.715070 0.000000
0.766304 0.725469 0.000000
0.815539 0.733997 0.000000
0.857988 0.741327 0.000000
0.892897 0.747570 0.000000
0.922426 0.752380 0.000000
0.947675 0.756548 0.000000
0.968424 0.760791 0.000000
0.984953 0.765391 0.000000
0.997851 0.769941 0.000000
1.000000 0.771279 0.000000
0.999996 0.771927 0.000000
1.000000 0.773016 0.000000
1.000000 0.774339 0.000000
1.000000 0.775601 0.000000
0.000000 0.455576 0.000000
0.000000 0.456556 0.000000
0.000000 0.457013 0.000000
0.000000 0.459630 0.000000
0.000000 0.466291 0.000000
0.000000 0.475490 0.000000
0.000000 0.487644 0.000000
0.000000 0.503816 0.000000
0.000000 0.525301 0.000000
0.000000 0.550527 0.000000
0.015375 0.575987 0.000000
0.173131 0.600335 0.000000
0.295244 0.625045 0.000000
0.381194 0.649018 0.000000
0.457737 0.670836 0.000000
0.530004 0.690170 0.000000
0.599986 0.708026 0.000000
0.664080 0.723965 0.000000
0.720775 0.737514 0.000000
0.774406 0.748711 0.000000
0.824063 0.758036 0.000000
0.867031 0.766067 0.000000
0.902435 0.772850 0.000000
0.932737 0.778240 0.000000
0.958567 0.782808 0.000000
0.979730 0.787277 0.000000
0.995949 0.791750 0.000000
1.000000 0.793128 0.000000
0.999994 0.793487 0.000000
1.000000 0.793914 0.000000
1.000000 0.794628 0.000000
1.000000 0.795520 0.000000
1.000000 0.796371 0.000000
0.000000 0.463623 0.000000
0.000000 0.465473 0.000000
0.000000 0.466796 0.000000
0.000000 0.470258 0.000000
0.000000 0.477729 0.000000
0.000000 0.487711 0.000000
0.000000 0.500565 0.000000
0.000000 0.517314 0.000000
0.000000 0.539203 0.000000
0.000000 0.564699 0.000000
0.016804 0.590474 0.000000
0.182646 0.615308 0.000000
0.302108 0.640524 0.000000
0.387839 0.665030 0.000000
0.464597 0.687400 0.000000
0.536859 0.707273 0.000000
0.606801 0.725671 0.000000
0.671236 0.742164 0.000000
0.728276 0.756298 0.000000
0.781989 0.768101 0.000000
0.832077 0.778063 0.000000
0.875218 0.786647 0.000000
0.910993 0.793901 0.000000
0.941810 0.799655 0.000000
0.968023 0.804544 0.000000
0.990008 0.809346 0.000000
0.999881 0.811651 0.000000
1.000000 0.811643 0.000000
1.000000 0.811930 0.000000
1.000000 0.812203 0.000000
1.000000 0.812673 0.000000
1.000000 0.813276 0.000000
1.000000 0.813850 0.000000
0.000000 0.469628 0.000000
0.000000 0.472230 0.000000
0.000000 0.474286 0.000000
0.000000 0.478510 0.000000
0.000000 0.486822 0.000000
0.000000 0.497752 0.000000
0.000000 0.511494 0.000000
0.000000 0.528861 0.000000
0.000000 0.550951 0.000000
0.000000 0.576400 0.000000
0.018428 0.602176 0.000000
0.193248 0.627284 0.000000
0.308777 0.652841 0.000000
0.394615 0.677757 0.000000
0.471185 0.700542 0.000000
0.543322 0.720815 0.000000
0.613496 0.739625 0.000000
0.678010 0.756550 0.000000
0.734832 0.771082 0.000000
0.788612 0.783342 0.000000
