Film Looks/Rec709 Fujifilm 3513DI D65.cube
# Resolve Film Look LUT
#   Input: Cineon Log 
#        : floating point data (range 0.0 - 1.0)
#  Output: FUJIFILM 3513DI film stock 'look' with D65 White Point
#        : floating point data (range 0.0 - 1.0)
# Display: ITU-Rec.709, Gamma 2.4
LUT_3D_SIZE 9
LUT_3D_INPUT_RANGE 0.0 1.0
0.028579 0.023029 0.030894
0.029328 0.026294 0.032557
0.056584 0.031602 0.032995
0.163404 0.037165 0.028379
0.320698 0.000000 0.000000
0.474260 0.000000 0.000000
0.578509 0.000000 0.000000
0.636017 0.000000 0.000000
0.662085 0.000000 0.000000
0.027488 0.046976 0.039490
0.029660 0.045220 0.041184
0.067864 0.051996 0.042275
0.185704 0.065467 0.032014
0.357247 0.063070 0.000000
0.514414 0.000068 0.000000
0.622249 0.000000 0.000000
0.676802 0.000000 0.000000
0.702019 0.000000 0.000000
0.000000 0.099923 0.050641
0.000000 0.094096 0.051412
0.074721 0.105351 0.049877
0.220114 0.129376 0.011294
0.412380 0.150536 0.000000
0.578137 0.146676 0.000000
0.683732 0.134706 0.000000
0.737784 0.138702 0.000000
0.763422 0.155143 0.000000
0.000000 0.187470 0.051626
0.000000 0.179402 0.055016
0.006482 0.196431 0.038387
0.254708 0.240894 0.000007
0.472011 0.278252 0.000000
0.653894 0.292147 0.000000
0.763605 0.294629 0.000000
0.816518 0.305750 0.000000
0.840613 0.321781 0.000000
0.000000 0.300036 0.000000
0.000000 0.292320 0.000000
0.000000 0.323004 0.000000
0.274923 0.389013 0.000000
0.525780 0.443078 0.000000
0.718287 0.465376 0.000000
0.835766 0.475142 0.000000
0.890736 0.488950 0.000000
0.915401 0.507599 0.000000
0.000000 0.401433 0.000000
0.000000 0.400301 0.000000
0.000000 0.446833 0.000000
0.282633 0.532835 0.000000
0.569871 0.602881 0.000000
0.781032 0.638866 0.000000
0.906495 0.655261 0.000000
0.965395 0.671943 0.000000
0.992605 0.690102 0.000000
0.000000 0.455576 0.000000
0.000000 0.466291 0.000000
0.000000 0.525301 0.000000
0.295244 0.625045 0.000000
0.599986 0.708026 0.000000
0.824063 0.758036 0.000000
0.958567 0.782808 0.000000
0.999994 0.793487 0.000000
1.000000 0.796371 0.000000
0.000000 0.478986 0.000000
0.000000 0.503578 0.000000
0.000000 0.572758 0.000000
0.328790 0.673367 0.000000
0.628034 0.761323 0.000000
0.851691 0.817651 0.000000
0.988669 0.847101 0.000000
1.000000 0.847702 0.000000
1.000000 0.848039 0.000000
0.000000 0.509754 0.000000
0.000000 0.562183 0.000000
0.000000 0.636968 0.000000
0.417640 0.726411 0.000000
0.680258 0.802723 0.000000
0.891611 0.855986 0.000000
1.000000 0.879490 0.000000
1.000000 0.875310 0.000000
1.000000 0.875982 0.000000
0.029210 0.020748 0.041935
0.027601 0.026800 0.043097
0.062681 0.031592 0.041890
0.179756 0.036790 0.037249
0.346195 0.000000 0.000000
0.507761 0.000000 0.000000
0.612302 0.000000 0.000000
0.668062 0.000000 0.000000
0.694211 0.000000 0.000000
0.022075 0.048970 0.045566
0.030721 0.047290 0.045351
0.073221 0.055884 0.048145
0.203314 0.068933 0.038026
0.383887 0.052388 0.000000
0.551082 0.000008 0.000000
0.659365 0.000000 0.000000
0.712379 0.000000 0.000000
0.735733 0.000000 0.000000
0.000000 0.106458 0.063164
0.000000 0.100066 0.058987
0.080659 0.113145 0.058954
0.241057 0.137570 0.034083
0.445014 0.156232 0.000000
0.618192 0.149616 0.000000
0.723303 0.135020 0.000000
0.772092 0.133637 0.000000
0.797306 0.148352 0.000000
0.000000 0.204914 0.069465
0.000000 0.194572 0.065189
0.006957 0.215426 0.053252
0.281235 0.261914 0.000087
0.512661 0.300656 0.000000
0.699592 0.311834 0.000000
0.807713 0.312568 0.000000
0.857176 0.322710 0.000000
0.878363 0.336244 0.000000
0.000000 0.330719 0.041980
0.000000 0.323781 0.032413
0.000000 0.360578 0.000000
0.304421 0.434703 0.000000
0.574289 0.490391 0.000000
0.775971 0.512939 0.000000
0.892411 0.521561 0.000000
0.941896 0.532248 0.000000
0.962684 0.548083 0.000000
0.000000 0.436066 0.000000
0.000000 0.439394 0.000000
0.000000 0.493219 0.000000
0.310339 0.589726 0.000000
0.624979 0.666778 0.000000
0.846848 0.704879 0.000000
0.972535 0.720458 0.000000
0.999994 0.723892 0.000000
1.000000 0.729547 0.000000
0.000000 0.486385 0.068382
0.000000 0.498068 0.001328
0.000000 0.564538 0.000000
0.315538 0.671309 0.000000
0.649153 0.761680 0.000000
0.883718 0.814148 0.000000
1.000000 0.833296 0.000000
1.000000 0.828549 0.000000
1.000000 0.829020 0.000000
0.000000 0.515337 0.151813
0.000000 0.537122 0.123829
0.000000 0.600179 0.048332
0.320764 0.703813 0.000000
0.656816 0.795003 0.000000
0.893337 0.852298 0.000000
0.999994 0.871805 0.000000
1.000000 0.866566 0.000000
1.000000 0.865076 0.000000
0.000000 0.565775 0.294617
0.000000 0.614426 0.289422
0.000000 0.676456 0.267989
0.354919 0.744976 0.218716
0.649467 0.803176 0.130394
0.867498 0.847841 0.000000
0.993553 0.874911 0.000000
1.000000 0.870476 0.000000
1.000000 0.866182 0.000000
0.016994 0.013311 0.109035
0.013186 0.000000 0.100795
0.065468 0.029432 0.105358
0.192137 0.029485 0.108563
0.371691 0.000000 0.109413
0.536456 0.000000 0.111242
0.641632 0.000000 0.119771
0.692779 0.000000 0.134142
0.715591 0.000000 0.158062
0.000680 0.051963 0.115225
0.011549 0.051144 0.103300
0.075181 0.058792 0.110469
0.217826 0.070941 0.111750
0.403507 0.011153 0.098640
0.578470 0.000000 0.094525
0.685622 0.000000 0.096648
0.734899 0.000000 0.114928
0.755798 0.000000 0.140425
0.000000 0.119610 0.148475
0.000000 0.112358 0.130992
0.071452 0.126146 0.134233
0.256617 0.150744 0.131944
0.462095 0.152166 0.111890
0.630995 0.112466 0.068277
0.732014 0.048306 0.047369
0.775879 0.031583 0.067763
0.794686 0.066400 0.108567
0.000000 0.234693 0.179975
0.000000 0.222972 0.162971
0.000000 0.244855 0.164084
0.287276 0.283332 0.148451
0.522911 0.303733 0.111580
0.708110 0.300561 0.055229
0.811149 0.293255 0.000000
0.852480 0.300411 0.058934
0.867943 0.315648 0.091998
0.000000 0.378201 0.208752
0.000000 0.369584 0.195719
0.000000 0.402274 0.187788
0.286814 0.460314 0.148750
0.575591 0.502058 0.072230
0.781019 0.518596 0.000000
0.895044 0.524255 0.000000
0.934449 0.529946 0.000000
0.944232 0.540351 0.051667
0.000000 0.489761 0.248609
0.000000 0.488968 0.231788
0.000000 0.536788 0.219894
0.253535 0.613801 0.157471
0.610129 0.676886 0.015753
0.842604 0.715743 0.000000
0.966853 0.730226 0.000000
1.000000 0.734252 0.000000
1.000000 0.735548 0.000000
0.000000 0.541269 0.304099
0.000000 0.551385 0.286997
0.000000 0.609548 0.280350
0.203251 0.693446 0.223802
0.616550 0.764935 0.127737
0.855898 0.807711 0.000000
0.988359 0.831699 0.000000
1.000000 0.827939 0.000000
1.000000 0.825620 0.001084
0.000000 0.566936 0.367752
0.000000 0.589610 0.362300
0.000000 0.653040 0.355397
0.177731 0.733047 0.312946
0.617797 0.803411 0.271476
0.853686 0.843503 0.208854
0.981071 0.863152 0.156438
1.000000 0.863136 0.164369
1.000000 0.865188 0.226796
0.000000 0.605702 0.480993
0.000000 0.653845 0.486599
0.000000 0.716768 0.481699
0.278069 0.780405 0.455884
0.624436 0.837816 0.435709
0.846809 0.875355 0.413134
0.970887 0.896577 0.408376
1.000000 0.900420 0.415504
1.000000 0.903955 0.449454
0.000000 0.000000 0.237248
0.000000 0.000000 0.220561
0.064074 0.000000 0.229642
0.207327 0.000000 0.243800
0.389175 0.000000 0.251526
0.555052 0.000000 0.260175
0.658648 0.000000 0.274468
0.707243 0.000000 0.296222
0.728686 0.000000 0.320560
0.000000 0.000000 0.245410
0.000003 0.008823 0.225846
0.074091 0.039277 0.239773
0.226212 0.051371 0.251916
0.421566 0.000000 0.252639
0.597847 0.000000 0.261356
0.702679 0.000000 0.272636
0.748306 0.000000 0.296872
0.767468 0.000000 0.321355
0.000000 0.118383 0.300342
0.000000 0.113625 0.277480
0.000572 0.136415 0.284763
0.259892 0.160766 0.295058
0.474024 0.160160 0.288674
0.646427 0.119004 0.278791
0.743616 0.055356 0.278658
0.784184 0.050429 0.298755
0.801394 0.081405 0.330461
0.000000 0.264468 0.357352
0.000000 0.254773 0.338088
0.000000 0.276562 0.345504
0.274436 0.313414 0.340101
0.529987 0.332109 0.330276
0.717693 0.325546 0.317661
0.818522 0.317051 0.314852
0.857810 0.326864 0.340220
0.871826 0.344125 0.367712
0.000000 0.427568 0.411238
0.000000 0.417899 0.396621
0.000000 0.452237 0.401428
0.227034 0.507984 0.385220
0.569171 0.545852 0.370979
0.777418 0.553028 0.354221
0.888066 0.553179 0.350312
0.928127 0.563552 0.375214
0.940673 0.580629 0.406899
0.000000 0.542547 0.465105
0.000000 0.543387 0.452921
0.000000 0.592936 0.457263
0.109245 0.667506 0.434404
0.587275 0.726451 0.413539
0.823846 0.750779 0.392353
0.944894 0.759238 0.386825
0.986676 0.769389 0.409209
0.996917 0.781497 0.446119
0.000000 0.589955 0.520292
0.000000 0.601460 0.511621
0.000000 0.660369 0.518853
0.007100 0.741758 0.491372
0.582599 0.810923 0.474438
0.834895 0.848622 0.454075
0.964114 0.865273 0.445946
0.999987 0.872579 0.462916
1.000000 0.875952 0.489604
0.000000 0.608096 0.572805
0.000000 0.631480 0.573215
0.000000 0.697230 0.582502
0.001398 0.774465 0.556158
0.580441 0.842436 0.544973
0.831975 0.883839 0.530390
0.962716 0.904220 0.525059
0.999994 0.910902 0.536013
1.000000 0.913713 0.559660
0.000000 0.635645 0.649508
0.000000 0.685436 0.664557
0.000000 0.748665 0.669110
0.127541 0.810670 0.650313
0.591120 0.868247 0.646338
0.826440 0.908121 0.639940
0.954317 0.930598 0.643863
1.000000 0.940211 0.655995
1.000000 0.943262 0.678918
0.000000 0.000000 0.369999
0.000000 0.000000 0.356156
0.006771 0.000000 0.365940
0.215632 0.000000 0.388876
0.405482 0.000000 0.404544
0.570236 0.000000 0.417642
0.672224 0.000000 0.431929
0.719989 0.000000 0.453614
0.740901 0.000000 0.474692
0.000000 0.000000 0.394781
0.000000 0.000000 0.375114
0.039018 0.000000 0.388478
0.236028 0.000000 0.410771
0.437833 0.000000 0.421595
0.610589 0.000000 0.431431
0.714531 0.000000 0.445713
0.760862 0.000000 0.473029
0.778443 0.000000 0.495953
0.000000 0.055557 0.444511
0.000000 0.049891 0.425932
0.000000 0.118235 0.448337
0.256619 0.154591 0.469146
0.476486 0.151782 0.471703
0.650483 0.091212 0.468466
0.748636 0.004308 0.474442
0.788847 0.001583 0.496434
0.805390 0.065050 0.524612
0.000000 0.273916 0.532763
0.000000 0.260705 0.514377
0.000000 0.287343 0.528520
0.249163 0.332475 0.532295
0.524479 0.350216 0.535048
0.716966 0.342924 0.530214
0.819270 0.334989 0.532877
0.857495 0.344563 0.555820
0.871671 0.363561 0.581326
0.000000 0.458609 0.600891
0.000000 0.450972 0.592689
0.000000 0.487113 0.606783
0.111695 0.542976 0.595926
0.549019 0.578658 0.595709
0.768656 0.586443 0.591632
0.882747 0.587222 0.594004
0.923744 0.599717 0.618420
0.936625 0.616454 0.641692
0.000000 0.579156 0.657644
0.000000 0.583340 0.654548
0.000000 0.632200 0.667053
0.000000 0.708266 0.657069
0.551691 0.764786 0.650574
0.806437 0.792687 0.648154
0.932215 0.802046 0.649612
0.975616 0.812543 0.669755
0.986684 0.823997 0.695917
0.000000 0.623071 0.702292
0.000000 0.633655 0.700005
0.000000 0.695026 0.716902
0.000000 0.779352 0.706466
0.542588 0.846962 0.702306
0.812960 0.887748 0.700345
0.948314 0.906759 0.702122
0.993731 0.916540 0.718226
1.000000 0.921783 0.738853
0.000000 0.635704 0.737784
0.000000 0.658740 0.742740
0.000000 0.726101 0.762428
0.000000 0.805990 0.750433
0.539749 0.872345 0.748388
0.810871 0.918014 0.750543
0.948624 0.942272 0.758168
0.996116 0.951073 0.766354
1.000000 0.954282 0.783013
0.000000 0.655612 0.782337
0.000000 0.705086 0.801472
0.000000 0.769864 0.812946
0.000000 0.832042 0.801478
0.559411 0.891301 0.808221
0.810628 0.936055 0.815647
0.944453 0.960387 0.823271
0.993822 0.970937 0.836695
1.000000 0.973610 0.849034
0.000000 0.000000 0.465423
0.000000 0.000000 0.457117
0.000000 0.000000 0.474163
0.211568 0.000000 0.498456
0.412917 0.000000 0.521568
0.581719 0.000000 0.539968
0.685342 0.000000 0.555695
0.735602 0.000000 0.575381
0.757146 0.000000 0.594295
0.000000 0.000000 0.503820
0.000000 0.000000 0.491495
0.000284 0.000000 0.509759
0.236507 0.000000 0.535472
0.447685 0.000000 0.555214
0.624183 0.000000 0.571790
0.728917 0.000000 0.586268
0.776381 0.000000 0.609298
0.794174 0.000000 0.628705
0.000000 0.000292 0.560362
0.000000 0.000210 0.550040
0.000081 0.059412 0.568167
0.251635 0.136162 0.601279
0.476948 0.123048 0.614478
0.656097 0.050371 0.620024
0.761826 0.000000 0.631821
0.802557 0.000000 0.650769
0.815170 0.000000 0.668548
0.000000 0.268956 0.654382
0.000000 0.247896 0.639790
0.000000 0.282673 0.662325
0.217306 0.341982 0.673702
0.516734 0.357959 0.686954
0.715430 0.351212 0.691954
0.822126 0.345597 0.697850
0.861683 0.355141 0.717047
0.875604 0.374945 0.735967
0.000000 0.473696 0.733810
0.000000 0.462323 0.726841
0.000000 0.500666 0.748511
0.000000 0.561962 0.747106
0.528342 0.598596 0.756660
0.762463 0.610985 0.765336
0.882360 0.612734 0.772436
0.924947 0.624991 0.791819
0.938137 0.640635 0.807383
0.000000 0.595140 0.783364
0.000000 0.599843 0.785929
0.000000 0.651596 0.807515
0.000491 0.731018 0.809625
0.518600 0.788817 0.812418
0.793044 0.822121 0.824605
0.926734 0.833819 0.832436
0.972185 0.844091 0.848085
0.983893 0.853154 0.861899
0.000000 0.636491 0.813299
0.000000 0.650714 0.818495
0.000000 0.710536 0.841124
0.000000 0.798064 0.843804
0.505768 0.867652 0.848434
0.796850 0.914729 0.862842
0.940594 0.936794 0.872609
0.988173 0.945569 0.882889
0.999251 0.950520 0.895714
0.000000 0.646018 0.828870
0.000000 0.672794 0.843725
0.000000 0.737148 0.865859
0.000000 0.820283 0.866547
0.506629 0.889221 0.874521
0.795783 0.940235 0.890066
0.940459 0.966343 0.902493
0.990269 0.975457 0.910472
1.000000 0.978926 0.919873
0.000000 0.661428 0.853563
0.000000 0.712124 0.876301
0.000000 0.777225 0.890244
0.000000 0.841632 0.887597
0.534513 0.903462 0.901951
0.798815 0.952516 0.921071
0.937903 0.978059 0.933017
0.989292 0.988244 0.942383
1.000000 0.990916 0.948417
0.000000 0.000000 0.514252
0.000000 0.000000 0.510576
0.000000 0.000000 0.530664
0.205533 0.000000 0.557103
0.414124 0.000000 0.586416
0.588089 0.000000 0.609860
0.696412 0.000000 0.628779
0.744714 0.000000 0.643264
0.768113 0.000000 0.658754
0.000000 0.000000 0.561931
0.000000 0.000000 0.555407
0.000000 0.000000 0.577202
0.231289 0.000000 0.604340
0.451053 0.000000 0.632402
0.631472 0.000000 0.651958
0.739922 0.000000 0.669112
0.787856 0.000000 0.688289
0.803559 0.000000 0.700628
0.000000 0.000000 0.620504
0.000000 0.000000 0.617345
0.000000 0.000000 0.633922
0.245034 0.115901 0.669960
0.475775 0.092495 0.691150
0.660622 0.000000 0.705886
0.770790 0.000000 0.720251
0.811490 0.000000 0.733815
0.822698 0.000000 0.745265
0.000000 0.251719 0.706005
0.000000 0.227134 0.698193
0.000000 0.273229 0.727797
0.180479 0.344278 0.743696
0.510299 0.361939 0.766888
0.714249 0.356646 0.780226
0.823765 0.350351 0.788619
0.863682 0.358913 0.801067
0.878597 0.381789 0.814698
0.000000 0.478079 0.793698
0.000000 0.467850 0.792734
0.000000 0.506411 0.816806
0.000000 0.569186 0.821982
0.514923 0.609362 0.838506
0.757468 0.623590 0.855577
0.882121 0.626333 0.866893
0.925743 0.636518 0.878875
0.939651 0.653237 0.889510
0.000000 0.602368 0.838549
0.000000 0.605363 0.843374
0.000000 0.656830 0.867925
0.000000 0.738114 0.878990
0.497542 0.799246 0.889214
0.784795 0.836386 0.911363
0.923326 0.849358 0.923711
0.970786 0.858487 0.933165
0.982726 0.866842 0.940789
0.000000 0.639687 0.854602
0.000000 0.652227 0.863040
0.000000 0.715922 0.891673
0.000000 0.803629 0.902069
0.484070 0.875656 0.912820
0.786920 0.926559 0.937018
0.935564 0.949917 0.950691
0.985551 0.958482 0.957823
0.997263 0.962580 0.964176
0.000000 0.649869 0.863220
0.000000 0.675714 0.881643
0.000000 0.741025 0.905112
0.000000 0.824180 0.911456
0.487124 0.895275 0.925018
0.786813 0.949326 0.949517
0.936469 0.976522 0.964440
0.987832 0.985631 0.971113
0.999904 0.988767 0.975973
0.000000 0.664322 0.877911
0.000000 0.712128 0.901664
0.000000 0.778597 0.917994
0.000189 0.843721 0.918519
0.518340 0.906156 0.935551
0.790269 0.957505 0.960468
0.934112 0.984967 0.975673
0.986894 0.994608 0.982490
1.000000 0.997449 0.985927
0.000000 0.000000 0.533587
0.000000 0.000000 0.533134
0.000000 0.000000 0.554867
0.201117 0.000000 0.583675
0.412966 0.000000 0.614941
0.589869 0.000000 0.641660
0.699403 0.000000 0.660951
0.751209 0.000000 0.674252
0.769774 0.000000 0.683936
0.000000 0.000000 0.586318
0.000000 0.000000 0.585347
0.000000 0.000000 0.607117
0.226460 0.000000 0.634838
0.450704 0.000000 0.665882
0.634785 0.000000 0.690385
0.745516 0.000000 0.707879
0.794022 0.000000 0.722857
0.809561 0.000000 0.732591
0.000000 0.000000 0.644344
0.000000 0.000000 0.643962
0.000000 0.000000 0.663448
0.239889 0.117625 0.700087
0.473907 0.094147 0.725730
0.661724 0.000000 0.743927
0.773509 0.000000 0.758938
0.814627 0.000000 0.769406
0.826092 0.000000 0.778050
0.000000 0.249875 0.725401
0.000000 0.229155 0.722284
0.000000 0.273414 0.751836
0.146073 0.347744 0.771593
0.504442 0.367405 0.799377
0.711809 0.362021 0.816551
0.824623 0.356725 0.827695
0.865061 0.363882 0.835983
0.880063 0.388827 0.846292
0.000000 0.476522 0.809943
0.000000 0.470375 0.813685
0.000000 0.506400 0.838516
0.000000 0.572650 0.849876
0.504830 0.614305 0.869400
0.753244 0.630227 0.891274
0.881477 0.633835 0.904612
0.926523 0.643664 0.912486
0.941139 0.662305 0.921196
0.000000 0.604812 0.856231
0.000000 0.607722 0.862716
0.000000 0.657875 0.888407
0.000000 0.740743 0.902741
0.483126 0.802893 0.916084
0.778875 0.842925 0.943581
0.921126 0.855924 0.957102
0.970178 0.865401 0.964200
0.982474 0.873164 0.968904
0.000000 0.644740 0.868837
0.000000 0.656428 0.880572
0.000000 0.713559 0.905638
0.000000 0.803727 0.919348
0.468029 0.877306 0.933144
0.780779 0.930851 0.962164
0.932804 0.954776 0.977209
0.984306 0.963196 0.983380
0.996428 0.966727 0.986786
0.000000 0.649122 0.869822
0.000000 0.674356 0.889045
0.000000 0.741545 0.915964
0.000000 0.824713 0.925157
0.476266 0.896395 0.939851
0.781268 0.952110 0.968283
0.933200 0.979533 0.983771
0.986747 0.988905 0.990086
0.999151 0.991793 0.992460
0.000000 0.665015 0.883952
0.000000 0.711574 0.907669
0.000000 0.778802 0.926626
0.000000 0.843914 0.927660
0.506818 0.907030 0.945913
0.783851 0.958985 0.972360
0.931643 0.986641 0.987655
0.985926 0.996555 0.994006
1.000000 0.999474 0.996646
0.000000 0.000000 0.543325
0.000000 0.000000 0.544954
0.000000 0.000000 0.565750
0.197316 0.000000 0.593794
0.412141 0.000000 0.627559
0.592453 0.000000 0.656647
0.704822 0.000000 0.676228
0.756081 0.000000 0.688566
0.776155 0.000000 0.698568
0.000000 0.000000 0.601084
0.000000 0.000000 0.601157
0.000000 0.000000 0.622795
0.223813 0.000000 0.652015
0.450136 0.000000 0.684615
0.637159 0.000000 0.709426
0.751420 0.000000 0.728602
0.797783 0.000000 0.741234
0.816440 0.000000 0.752316
0.000000 0.000000 0.655113
0.000000 0.000000 0.656061
0.000000 0.000000 0.676025
0.233436 0.138591 0.714561
0.472256 0.123012 0.743276
0.661609 0.056465 0.761441
0.774303 0.000000 0.775804
0.815596 0.000000 0.784412
0.829089 0.061403 0.792653
0.000000 0.265020 0.739074
0.000000 0.243946 0.734562
0.000000 0.278623 0.761921
0.126377 0.357336 0.783163
0.499228 0.377030 0.812559
0.710965 0.374284 0.832200
0.824966 0.367597 0.843043
0.867545 0.376568 0.851402
0.882478 0.399405 0.859491
0.000000 0.481019 0.818276
0.000000 0.471144 0.820948
0.000000 0.511367 0.846896
0.000000 0.577349 0.860037
0.495650 0.619774 0.879963
0.749287 0.637747 0.904502
0.880885 0.642489 0.918399
0.927432 0.651530 0.925575
0.942296 0.668875 0.932170
0.000000 0.605661 0.860531
0.000000 0.608471 0.868111
0.000000 0.658943 0.894681
0.000000 0.742024 0.910239
0.471038 0.804859 0.924478
0.772191 0.845775 0.953529
0.919191 0.860599 0.968252
0.969981 0.869252 0.974928
0.983069 0.878015 0.978307
0.000000 0.643157 0.869642
0.000000 0.656306 0.884182
0.000000 0.713381 0.909919
0.000000 0.803580 0.925417
0.459734 0.877848 0.939066
0.775194 0.931837 0.969410
0.930080 0.956494 0.985124
0.983375 0.965051 0.991632
0.996136 0.968531 0.993613
0.000000 0.649784 0.873717
0.000000 0.673522 0.890896
0.000000 0.740874 0.919009
0.000000 0.823950 0.928996
0.463359 0.895464 0.943269
0.774914 0.951875 0.972833
0.930985 0.980396 0.989289
0.985888 0.990091 0.995737
0.999197 0.992989 0.997990
0.000000 0.665091 0.885559
0.000000 0.711635 0.909325
0.000000 0.777546 0.928320
0.000000 0.842978 0.930012
0.498034 0.905923 0.947763
0.778884 0.958779 0.975298
0.929236 0.986971 0.991166
0.985615 0.997607 0.997928
0.999982 1.000000 0.999967
