Film Looks/Rec709 Fujifilm 3513DI D60.cube
# Resolve Film Look LUT
#   Input: Cineon Log 
#        : floating point data (range 0.0 - 1.0)
#  Output: FUJIFILM 3513DI film stock 'look' with D60 White Point
#        : floating point data (range 0.0 - 1.0)
# Display: ITU-Rec.709, Gamma 2.4
LUT_3D_SIZE 5
LUT_3D_INPUT_RANGE 0.0 1.0
0.028746 0.023058 0.029833
0.056285 0.031355 0.031679
0.317631 0.000000 0.000000
0.572511 0.000000 0.000000
0.655174 0.000000 0.000000
0.000000 0.097512 0.046108
0.075423 0.103184 0.045816
0.408879 0.148197 0.000000
0.677456 0.133738 0.000000
0.756380 0.153954 0.000000
0.000000 0.294711 0.000000
0.000000 0.317139 0.000000
0.523195 0.434550 0.000000
0.828584 0.465944 0.000000
0.907408 0.497788 0.000000
0.000000 0.447000 0.000000
0.000000 0.515064 0.000000
0.600929 0.693637 0.000000
0.952548 0.766591 0.000000
1.000000 0.781942 0.000000
0.000000 0.500355 0.000000
0.000000 0.624526 0.000000
0.681794 0.786602 0.000000
1.000000 0.862844 0.000000
1.000000 0.858596 0.000000
0.021532 0.015474 0.103650
0.065149 0.029285 0.100123
0.367573 0.000000 0.103060
0.634030 0.000000 0.110352
0.707052 0.000000 0.147762
0.000000 0.119046 0.140602
0.074188 0.123731 0.127248
0.457079 0.148165 0.102512
0.724154 0.039830 0.024144
0.785808 0.059009 0.085612
0.000000 0.369499 0.194928
0.000000 0.393514 0.174737
0.573365 0.491714 0.037726
0.889792 0.516165 0.000000
0.937433 0.530336 0.000000
0.000000 0.529749 0.284594
0.000000 0.596270 0.260381
0.620182 0.749621 0.101024
0.986541 0.818510 0.000000
1.000000 0.812806 0.000000
0.000000 0.591219 0.450350
0.000000 0.700944 0.452155
0.630121 0.820308 0.406778
0.967735 0.877483 0.377125
1.000000 0.885626 0.417818
0.000000 0.000000 0.350175
0.031899 0.000000 0.347120
0.401503 0.000000 0.384699
0.665346 0.000000 0.412780
0.731992 0.000000 0.451833
0.000000 0.070146 0.422635
0.000000 0.123234 0.425802
0.472051 0.149071 0.447496
0.740721 0.000000 0.449826
0.796673 0.060141 0.497221
0.000000 0.450523 0.569800
0.000000 0.476672 0.573063
0.549884 0.566780 0.563730
0.876287 0.574588 0.561168
0.929822 0.603214 0.606372
0.000000 0.610512 0.665270
0.000000 0.680110 0.676762
0.553494 0.829547 0.663444
0.946515 0.887721 0.661819
1.000000 0.903290 0.697654
0.000000 0.643016 0.741089
0.000000 0.753938 0.767809
0.572014 0.873043 0.764266
0.944449 0.940378 0.777407
1.000000 0.953618 0.802150
0.000000 0.000000 0.487044
0.000000 0.000000 0.501942
0.411527 0.000000 0.557570
0.688506 0.000000 0.598389
0.759081 0.000000 0.626968
0.000000 0.000000 0.586575
0.000051 0.034947 0.600620
0.472306 0.092959 0.656055
0.762775 0.000000 0.683833
0.814534 0.000000 0.707447
0.000000 0.473535 0.754346
0.000000 0.498832 0.774537
0.519354 0.597271 0.794958
0.877116 0.613502 0.821383
0.934074 0.639805 0.842691
0.000000 0.627964 0.810500
0.000000 0.700705 0.844056
0.501552 0.857939 0.864310
0.936030 0.930300 0.899322
0.996356 0.942612 0.911961
0.000000 0.653363 0.831604
0.000000 0.762521 0.867187
0.535145 0.887792 0.885751
0.935670 0.964659 0.922930
1.000000 0.976846 0.932539
0.000000 0.000000 0.514614
0.000000 0.000000 0.535257
0.410176 0.000000 0.596604
0.696993 0.000000 0.643080
0.769231 0.000000 0.666274
0.000000 0.000000 0.619256
0.000000 0.032090 0.639887
0.469286 0.126747 0.705645
0.766597 0.000000 0.736563
0.820740 0.061090 0.752061
0.000000 0.476926 0.778197
0.000000 0.503172 0.803045
0.501531 0.607557 0.834390
0.876429 0.629344 0.870358
0.936966 0.655098 0.883252
0.000000 0.632312 0.828217
0.000000 0.699868 0.860450
0.479424 0.860131 0.889336
0.930946 0.936767 0.932143
0.995514 0.948537 0.940070
0.000000 0.653422 0.839917
0.000000 0.761347 0.876911
0.516305 0.887596 0.897422
0.930875 0.966677 0.937749
0.999974 0.979317 0.945893
