Film Looks/Rec709 Fujifilm 3513DI D55.cube
# Resolve Film Look LUT
#   Input: Cineon Log 
#        : floating point data (range 0.0 - 1.0)
#  Output: FUJIFILM 3513DI film stock 'look' with D55 White Point
#        : floating point data (range 0.0 - 1.0)
# Display: ITU-Rec.709, Gamma 2.4
LUT_3D_SIZE 5
LUT_3D_INPUT_RANGE 0.0 1.0
0.028959 0.023073 0.028616
0.055975 0.031052 0.030182
0.314054 0.000000 0.000000
0.565531 0.000000 0.000000
0.647141 0.000000 0.000000
0.000000 0.094990 0.041840
0.076281 0.100624 0.041853
0.404757 0.145201 0.000000
0.670131 0.132306 0.000000
0.748172 0.152331 0.000000
0.000000 0.288236 0.000000
0.000239 0.310047 0.000000
0.520403 0.424383 0.000000
0.820394 0.455037 0.000000
0.898111 0.485976 0.000000
0.000000 0.436687 0.000000
0.000000 0.502794 0.000000
0.602214 0.676532 0.000000
0.945699 0.747343 0.000000
1.000000 0.764560 0.000000
0.000000 0.489026 0.000000
0.085601 0.609923 0.000000
0.683366 0.767385 0.000000
1.000000 0.843130 0.000000
1.000000 0.838089 0.000000
0.026135 0.016512 0.097597
0.064796 0.028983 0.094211
0.362831 0.000000 0.096385
0.624983 0.000000 0.098623
0.697157 0.000000 0.135701
0.000000 0.115618 0.131581
0.077001 0.120750 0.119313
0.451208 0.142991 0.091395
0.716727 0.042741 0.000000
0.775975 0.049293 0.067723
0.000000 0.360311 0.180457
0.000000 0.383099 0.159132
0.571595 0.480604 0.000000
0.883252 0.505827 0.000000
0.931602 0.520839 0.000000
0.000000 0.515903 0.262968
0.000000 0.580495 0.237272
0.624318 0.731088 0.039227
0.984211 0.802119 0.000198
1.000000 0.798025 0.000000
0.000000 0.576038 0.420355
0.000000 0.682412 0.419115
0.636760 0.799481 0.373787
0.964283 0.854758 0.340892
1.000000 0.863801 0.381421
0.000000 0.000000 0.327762
0.051484 0.000000 0.326609
0.397730 0.000000 0.363992
0.656600 0.000000 0.390041
0.722308 0.000000 0.427478
0.000000 0.083593 0.397959
0.000000 0.125071 0.399609
0.466874 0.145443 0.420218
0.731623 0.000000 0.422223
0.786480 0.051931 0.466279
0.000000 0.440973 0.534916
0.000000 0.465345 0.536609
0.550851 0.552541 0.527624
0.868995 0.559548 0.524066
0.921954 0.587445 0.566519
0.000000 0.596064 0.622551
0.000000 0.663051 0.632674
0.565554 0.808782 0.619542
0.944509 0.865006 0.616186
0.998521 0.880683 0.650518
0.000000 0.627497 0.692510
0.000000 0.734368 0.717085
0.585819 0.851295 0.714704
0.944417 0.916519 0.725618
1.000000 0.929731 0.749156
0.000000 0.000000 0.456294
0.000040 0.000000 0.469470
0.410787 0.000000 0.526847
0.681141 0.000000 0.565425
0.749559 0.000000 0.591446
0.000000 0.000000 0.548280
0.000000 0.070794 0.564181
0.468031 0.092536 0.616574
0.753707 0.000000 0.642765
0.804715 0.000000 0.664788
0.000000 0.464291 0.707195
0.000000 0.490235 0.726742
0.524303 0.582790 0.745906
0.871315 0.597974 0.770059
0.927449 0.623537 0.789898
0.000000 0.612210 0.757559
0.000000 0.683700 0.789083
0.520414 0.836774 0.809618
0.936359 0.906861 0.841371
0.995260 0.918831 0.853107
0.000000 0.636138 0.778390
0.000000 0.745605 0.812786
0.553378 0.865891 0.829628
0.937191 0.940391 0.863427
1.000000 0.952246 0.872317
0.000000 0.000000 0.482166
0.000000 0.000000 0.500779
0.407959 0.000000 0.561714
0.691014 0.000000 0.609985
0.760315 0.000000 0.629212
0.000000 0.000000 0.578609
0.000066 0.069403 0.600957
0.465694 0.128357 0.663289
0.757556 0.000000 0.692128
0.810932 0.059313 0.706473
0.000000 0.468017 0.729217
0.000000 0.494708 0.753039
0.507906 0.592971 0.783074
0.871180 0.613662 0.816243
0.930846 0.638625 0.828118
0.000000 0.619525 0.776366
0.000000 0.685059 0.807593
0.500646 0.838974 0.833285
0.931956 0.913273 0.872431
0.994761 0.924628 0.879655
0.000000 0.636934 0.785254
0.000000 0.742538 0.819421
0.536186 0.865713 0.840671
0.932758 0.942380 0.877449
0.999996 0.954611 0.884869
