Film Looks/Rec709 Kodak 2383 D65.cube
# Resolve Film Look LUT
#   Input: Cineon Log 
#        : floating point data (range 0.0 - 1.0)
#  Output: Kodak 2383 film stock 'look' with D65 White Point
#        : floating point data (range 0.0 - 1.0)
# Display: ITU-Rec.709, Gamma 2.4
LUT_3D_SIZE 9
LUT_3D_INPUT_RANGE 0.0 1.0
0.026593 0.027922 0.033092
0.037351 0.031358 0.036684
0.075496 0.040320 0.037264
0.175381 0.053057 0.027073
0.350657 0.046771 0.000000
0.523177 0.000000 0.000000
0.627265 0.000000 0.000000
0.676494 0.000000 0.000000
0.699030 0.000000 0.000000
0.019979 0.040868 0.038835
0.035919 0.043945 0.041520
0.083766 0.054800 0.041285
0.199033 0.068778 0.026674
0.391705 0.071051 0.000000
0.568632 0.000000 0.000000
0.670468 0.000000 0.000000
0.714129 0.000000 0.000000
0.733197 0.000000 0.000000
0.000000 0.076706 0.052671
0.004192 0.079943 0.053047
0.089948 0.093921 0.052083
0.229358 0.116107 0.028249
0.446009 0.137280 0.000000
0.631695 0.132893 0.000000
0.726237 0.118448 0.000000
0.767072 0.125140 0.000000
0.786993 0.143825 0.000000
0.000000 0.158565 0.066475
0.000000 0.166046 0.066608
0.053236 0.187840 0.055973
0.266791 0.231103 0.000000
0.518451 0.276102 0.000000
0.718581 0.294241 0.000000
0.815041 0.296808 0.000000
0.854519 0.308908 0.000000
0.875127 0.332285 0.000000
0.000000 0.282492 0.061071
0.000000 0.297450 0.055692
0.000000 0.339341 0.000000
0.287997 0.416186 0.000000
0.591614 0.489649 0.000000
0.813449 0.526513 0.000000
0.915467 0.534347 0.000000
0.954676 0.547413 0.000000
0.972907 0.569692 0.000000
0.000000 0.394097 0.000000
0.000000 0.420387 0.000000
0.000000 0.483232 0.000000
0.276367 0.584354 0.000000
0.636274 0.685801 0.000000
0.881283 0.742219 0.000000
0.992160 0.758344 0.000000
1.000000 0.757636 0.000000
1.000000 0.764618 0.000000
0.000000 0.451771 0.000000
0.000000 0.487219 0.000000
0.000000 0.556836 0.000000
0.256788 0.668152 0.000000
0.653193 0.783729 0.000000
0.909395 0.852192 0.000000
1.000000 0.868408 0.000000
1.000000 0.864953 0.000000
1.000000 0.866664 0.000000
0.000000 0.476737 0.000000
0.000000 0.524578 0.000000
0.000000 0.594843 0.000000
0.283787 0.704122 0.000000
0.664898 0.818878 0.000000
0.918367 0.889680 0.000000
1.000000 0.906990 0.000000
1.000000 0.904306 0.000000
1.000000 0.904480 0.000000
0.000000 0.509223 0.000000
0.000000 0.572812 0.000000
0.000000 0.637721 0.000000
0.354223 0.734885 0.000000
0.685333 0.835222 0.000000
0.920290 0.900430 0.000000
1.000000 0.917965 0.000000
1.000000 0.915136 0.000000
1.000000 0.913392 0.000000
0.025125 0.029739 0.045919
0.035800 0.032542 0.049872
0.078344 0.041543 0.051587
0.183746 0.053945 0.046136
0.357974 0.000000 0.000000
0.535463 0.000000 0.000000
0.638909 0.000000 0.000000
0.687546 0.000000 0.000000
0.709572 0.000000 0.000000
0.019027 0.043049 0.052774
0.035164 0.046454 0.055385
0.086744 0.057486 0.057263
0.207081 0.071273 0.050251
0.398892 0.054300 0.000000
0.581233 0.000002 0.000000
0.682572 0.000000 0.000000
0.725503 0.000000 0.000000
0.743950 0.000000 0.000000
0.000000 0.081428 0.067957
0.000811 0.085168 0.068748
0.093243 0.099533 0.069219
0.238986 0.122839 0.057742
0.454326 0.133468 0.000068
0.641421 0.124942 0.000000
0.735543 0.104216 0.000000
0.775672 0.111006 0.000000
0.795533 0.135325 0.000000
0.000000 0.169389 0.087515
0.000000 0.177323 0.088017
0.034067 0.200039 0.079278
0.273799 0.241390 0.041167
0.529443 0.283817 0.000000
0.731130 0.301111 0.000000
0.827084 0.302741 0.000000
0.865801 0.315495 0.000000
0.886149 0.340033 0.000000
0.000000 0.299260 0.092146
0.000000 0.315446 0.089215
0.000000 0.356134 0.054341
0.290228 0.432817 0.000000
0.603687 0.507855 0.000000
0.827709 0.544368 0.000000
0.929297 0.552002 0.000000
0.967945 0.565590 0.000000
0.986186 0.587949 0.000000
0.000000 0.411347 0.075790
0.000000 0.436406 0.052805
0.000000 0.499008 0.000061
0.269642 0.602324 0.000000
0.646722 0.706125 0.000000
0.894577 0.762821 0.000000
1.000000 0.777613 0.000000
1.000000 0.772822 0.000000
1.000000 0.780365 0.000000
0.000000 0.464258 0.066218
0.000000 0.497432 0.000000
0.000000 0.568809 0.000000
0.242030 0.681239 0.000000
0.659600 0.798184 0.000000
0.919060 0.866740 0.000000
1.000000 0.880322 0.000000
1.000000 0.876446 0.000000
1.000000 0.877690 0.000000
0.000000 0.490409 0.106146
0.000000 0.532699 0.066938
0.000000 0.600565 0.000000
0.253573 0.709802 0.000000
0.662521 0.825259 0.000000
0.920972 0.896253 0.000000
1.000000 0.912066 0.000000
1.000000 0.909116 0.000000
1.000000 0.908356 0.000000
0.000000 0.533803 0.198669
0.000000 0.589535 0.184899
0.000000 0.644829 0.154111
0.303288 0.726031 0.007510
0.659437 0.825473 0.000000
0.900416 0.889944 0.000000
1.000000 0.911885 0.000000
1.000000 0.908604 0.000000
1.000000 0.904503 0.000000
0.014430 0.029566 0.086701
0.034082 0.032665 0.090059
0.078132 0.041926 0.094816
0.186844 0.053238 0.098216
0.365126 0.000000 0.094233
0.543576 0.000000 0.095405
0.647195 0.000000 0.092826
0.695812 0.000000 0.095121
0.717797 0.000000 0.102437
0.000044 0.044592 0.096217
0.028361 0.050000 0.098774
0.085372 0.059569 0.104107
0.210332 0.073452 0.107186
0.402977 0.030925 0.098584
0.588290 0.000000 0.095671
0.689942 0.000000 0.091029
0.732447 0.000000 0.092719
0.750254 0.000000 0.099568
0.000000 0.089362 0.120210
0.000007 0.093038 0.121223
0.085898 0.106825 0.123433
0.241193 0.129840 0.125481
0.457453 0.132803 0.113369
0.636605 0.083766 0.085225
0.730049 0.000000 0.061299
0.769226 0.000000 0.057484
0.786448 0.058408 0.063693
0.000000 0.184903 0.150457
0.000000 0.192446 0.152401
0.000000 0.215101 0.149546
0.271662 0.255818 0.143879
0.525979 0.285031 0.120333
0.721728 0.287349 0.066680
0.814676 0.280719 0.030911
0.852331 0.291846 0.004497
0.871456 0.317382 0.025089
0.000000 0.322571 0.174583
0.000000 0.338188 0.175515
0.000000 0.379252 0.167927
0.268089 0.443650 0.137807
0.587031 0.502875 0.043080
0.814592 0.536410 0.000000
0.917677 0.543247 0.000337
0.955453 0.555519 0.000270
0.971155 0.576782 0.000359
0.000000 0.438090 0.186529
0.000000 0.463171 0.184885
0.000000 0.519129 0.168481
0.187787 0.603782 0.083148
0.623700 0.701998 0.000000
0.878844 0.758525 0.000000
0.991817 0.774618 0.000000
1.000000 0.772009 0.000000
1.000000 0.778671 0.000000
0.000000 0.491996 0.205564
0.000000 0.524872 0.202530
0.000000 0.586038 0.183161
0.128946 0.677975 0.088374
0.628895 0.789241 0.000000
0.896702 0.857760 0.000000
1.000000 0.877076 0.000000
1.000000 0.872156 0.000000
1.000000 0.872303 0.000000
0.000000 0.521015 0.252439
0.000000 0.563129 0.251113
0.000000 0.623294 0.238175
0.123210 0.710769 0.184535
0.618865 0.807219 0.053679
0.885027 0.876052 0.000000
1.000000 0.901898 0.000000
1.000000 0.897492 0.000076
1.000000 0.895266 0.000000
0.000000 0.564393 0.345069
0.000000 0.620425 0.351323
0.000000 0.675405 0.346191
0.171025 0.751186 0.321819
0.625275 0.833078 0.294311
0.866456 0.883634 0.259911
0.984912 0.904425 0.233628
1.000000 0.901436 0.209512
1.000000 0.900098 0.222523
0.000000 0.000000 0.182923
0.016682 0.000000 0.185255
0.078408 0.006627 0.197351
0.191685 0.010297 0.211434
0.379769 0.000000 0.225523
0.559384 0.000000 0.239938
0.662638 0.000000 0.246764
0.710703 0.000000 0.253799
0.732794 0.000000 0.264226
0.000000 0.008780 0.197137
0.000000 0.035459 0.201545
0.081287 0.051043 0.214622
0.214228 0.062605 0.229996
0.414422 0.001410 0.239551
0.603035 0.000000 0.253050
0.704989 0.000000 0.260204
0.746653 0.000000 0.266991
0.764498 0.000000 0.275664
0.000000 0.083933 0.233700
0.000000 0.091519 0.238985
0.054961 0.115309 0.248281
0.241144 0.136924 0.264979
0.465405 0.139159 0.272760
0.647943 0.090243 0.270453
0.740795 0.000000 0.269935
0.778892 0.000000 0.273380
0.796777 0.072018 0.283806
0.000000 0.206561 0.288795
0.000000 0.211915 0.292455
0.000026 0.239282 0.302292
0.257946 0.277932 0.308541
0.528679 0.306398 0.313883
0.729287 0.308197 0.309372
0.822318 0.299851 0.304978
0.859292 0.310771 0.308152
0.877994 0.338184 0.318585
0.000000 0.357364 0.334327
0.000000 0.372184 0.339912
0.000000 0.414799 0.348773
0.206916 0.476278 0.344264
0.577533 0.533807 0.343132
0.805437 0.555966 0.332230
0.906562 0.556645 0.325135
0.943350 0.566959 0.326599
0.958732 0.590292 0.335504
0.000000 0.478583 0.363604
0.000000 0.504966 0.372632
0.000000 0.560504 0.378162
0.047197 0.642220 0.365278
0.592748 0.725531 0.352636
0.849902 0.766941 0.333088
0.962004 0.776701 0.321776
0.998713 0.782934 0.320802
0.999990 0.790631 0.326284
0.000000 0.534154 0.392598
0.000000 0.567472 0.400841
0.000000 0.628113 0.406492
0.000000 0.718008 0.392435
0.588144 0.811746 0.375204
0.860537 0.864163 0.352347
0.980573 0.881392 0.337988
1.000000 0.879997 0.328511
1.000000 0.881060 0.334287
0.000000 0.560652 0.440192
0.000000 0.603828 0.452987
0.000000 0.664502 0.460297
0.000000 0.750246 0.448245
0.582269 0.842373 0.437640
0.855793 0.897255 0.421347
0.979329 0.917463 0.408919
1.000000 0.916317 0.398469
1.000000 0.914929 0.402776
0.000000 0.599130 0.516477
0.000000 0.654443 0.531907
0.000000 0.710001 0.538117
0.003078 0.783758 0.528694
0.591820 0.864214 0.528738
0.847036 0.914533 0.523110
0.969800 0.935053 0.516063
1.000000 0.937235 0.509699
1.000000 0.935408 0.511933
0.000000 0.000000 0.311588
0.000000 0.000000 0.316573
0.063616 0.000000 0.328136
0.204925 0.000000 0.353040
0.398739 0.000000 0.376472
0.577800 0.000000 0.396904
0.681351 0.000000 0.408579
0.729093 0.000000 0.417988
0.748943 0.000000 0.426139
0.000000 0.000000 0.333311
0.000000 0.000000 0.338679
0.071426 0.000052 0.351982
0.222706 0.000114 0.378617
0.433552 0.000000 0.402519
0.621207 0.000000 0.421807
0.722044 0.000000 0.432052
0.763445 0.000000 0.440806
0.780286 0.000000 0.450232
0.000000 0.000000 0.367430
0.000000 0.032735 0.376699
0.000508 0.108337 0.398924
0.241385 0.132993 0.427634
0.473203 0.131865 0.448256
0.658388 0.068248 0.455379
0.753890 0.000000 0.460453
0.791247 0.000000 0.465977
0.807165 0.066487 0.476198
0.000000 0.209011 0.447796
0.000000 0.216775 0.456544
0.000000 0.253654 0.478055
0.238121 0.297325 0.491859
0.528869 0.324765 0.512530
0.733910 0.326135 0.518490
0.828368 0.317996 0.518518
0.865179 0.329064 0.523182
0.883444 0.358205 0.535047
0.000000 0.384334 0.515448
0.000000 0.400298 0.526740
0.000000 0.446160 0.547015
0.099997 0.507607 0.550384
0.562939 0.564052 0.568242
0.799943 0.585484 0.572042
0.903908 0.585595 0.570796
0.941251 0.595943 0.573880
0.956067 0.619144 0.582499
0.000000 0.514204 0.557069
0.000000 0.539633 0.569573
0.000000 0.597979 0.589532
0.000000 0.680318 0.593348
0.561665 0.760408 0.600688
0.833726 0.801202 0.602255
0.950220 0.810580 0.600129
0.989496 0.817243 0.601389
0.999772 0.828199 0.607284
0.000000 0.571094 0.587233
0.000000 0.603194 0.599860
0.000000 0.665379 0.618203
0.000000 0.756602 0.622837
0.548646 0.846367 0.625452
0.839565 0.898560 0.626299
0.964161 0.915732 0.623056
1.000000 0.919591 0.621835
1.000000 0.920312 0.622725
0.000000 0.594695 0.623615
0.000000 0.636373 0.642205
0.000000 0.697646 0.658789
0.000000 0.785138 0.662609
0.542930 0.873965 0.667273
0.833894 0.928334 0.669704
0.962232 0.948608 0.667084
0.999998 0.953098 0.664559
1.000000 0.951101 0.664626
0.000000 0.624707 0.674215
0.000000 0.681857 0.697812
0.000000 0.738250 0.710464
0.000000 0.813134 0.711633
0.558666 0.890543 0.720443
0.827987 0.940384 0.726462
0.954936 0.961166 0.725819
1.000000 0.967564 0.724367
1.000000 0.964682 0.722716
0.000000 0.000000 0.423233
0.000000 0.000000 0.430220
0.000000 0.000000 0.442277
0.207907 0.000000 0.473654
0.413222 0.000000 0.505023
0.594035 0.000000 0.528939
0.697462 0.000000 0.543303
0.745230 0.000000 0.553031
0.766906 0.000000 0.563426
0.000000 0.000000 0.453273
0.000000 0.000000 0.460885
0.000000 0.000000 0.473999
0.228092 0.000000 0.509341
0.449166 0.000000 0.542261
0.638521 0.000000 0.565992
0.738839 0.000000 0.577003
0.779627 0.000000 0.585796
0.797589 0.000000 0.597524
0.000000 0.000000 0.496873
0.000000 0.000000 0.505408
0.000000 0.061678 0.524804
0.240168 0.114765 0.563267
0.477762 0.099208 0.593736
0.668008 0.000351 0.609075
0.768707 0.000000 0.619291
0.805777 0.000000 0.625366
0.817788 0.004381 0.633182
0.000000 0.176758 0.572323
0.000000 0.195572 0.586466
0.000000 0.244342 0.616300
0.214361 0.305903 0.639793
0.525637 0.332301 0.672221
0.735702 0.332715 0.685701
0.832380 0.323985 0.688466
0.869963 0.335451 0.693840
0.888089 0.366636 0.705304
0.000000 0.391438 0.661368
0.000000 0.409902 0.676204
0.000000 0.457406 0.701828
0.000000 0.525204 0.714567
0.546293 0.580424 0.742273
0.792776 0.601437 0.755076
0.900523 0.601476 0.757356
0.938953 0.611277 0.760621
0.953987 0.635186 0.768396
0.000000 0.534513 0.713059
0.000000 0.559497 0.727614
0.000000 0.617040 0.753463
0.000000 0.702893 0.768932
0.530386 0.781165 0.784820
0.818208 0.821945 0.797529
0.939501 0.831120 0.799305
0.980897 0.837801 0.801278
0.993064 0.849253 0.805466
0.000000 0.590171 0.737108
0.000000 0.624787 0.754788
0.000000 0.688713 0.782363
0.000000 0.779982 0.795167
0.510008 0.868601 0.807151
0.820342 0.921075 0.820131
0.950490 0.938396 0.822275
0.994647 0.944241 0.823349
1.000000 0.946620 0.823656
0.000000 0.610063 0.760962
0.000000 0.656082 0.785067
0.000000 0.717878 0.808012
0.000000 0.806587 0.820311
0.504900 0.894158 0.832355
0.815241 0.949045 0.845925
0.948887 0.969941 0.848742
0.995857 0.976774 0.849505
1.000000 0.976279 0.848322
0.000000 0.640613 0.794833
0.000000 0.698484 0.820968
0.000000 0.755344 0.838191
0.000000 0.831034 0.845892
0.528329 0.907515 0.860351
0.811720 0.957592 0.874203
0.943343 0.978856 0.878030
0.992898 0.986227 0.878383
1.000000 0.985610 0.877114
0.000000 0.000000 0.495063
0.000000 0.000000 0.502751
0.000000 0.000000 0.518955
0.207212 0.000000 0.550691
0.422602 0.000000 0.587473
0.607922 0.000000 0.617031
0.711391 0.000000 0.631584
0.759770 0.000000 0.642805
0.779943 0.000000 0.651657
0.000000 0.000000 0.532623
0.000000 0.000000 0.541729
0.000052 0.000000 0.559215
0.228260 0.000000 0.594427
0.459454 0.000000 0.634027
0.651472 0.000000 0.660424
0.753525 0.000000 0.674326
0.795094 0.000000 0.683264
0.811945 0.000000 0.693218
0.000000 0.000000 0.578447
0.000000 0.000000 0.588202
0.000020 0.000000 0.606572
0.238348 0.100679 0.648710
0.482200 0.078880 0.686112
0.677501 0.000000 0.707730
0.779091 0.000000 0.719061
0.816993 0.000000 0.726152
0.828789 0.000000 0.733835
0.000000 0.149488 0.645821
0.000000 0.171683 0.662665
0.000000 0.231862 0.697142
0.190503 0.311211 0.728352
0.522366 0.336888 0.768371
0.736435 0.336914 0.787261
0.835717 0.327523 0.792541
0.874220 0.338309 0.798161
0.892389 0.371644 0.808973
0.000000 0.386496 0.743981
0.000000 0.409748 0.763266
0.000000 0.458684 0.791445
0.000000 0.530785 0.810806
0.533587 0.586289 0.843200
0.787001 0.607593 0.862561
0.898031 0.606938 0.867257
0.937819 0.615956 0.870709
0.953066 0.640509 0.877500
0.000000 0.538177 0.799360
0.000000 0.563880 0.817164
0.000000 0.625718 0.847256
0.000000 0.710552 0.868120
0.508259 0.788759 0.889280
0.806963 0.829826 0.909081
0.932672 0.838984 0.914099
0.976095 0.845369 0.916388
0.988431 0.856448 0.918620
0.000000 0.598422 0.820792
0.000000 0.631602 0.840549
0.000000 0.695838 0.868817
0.000000 0.790309 0.892109
0.482512 0.877922 0.908130
0.806665 0.930997 0.928517
0.941741 0.948584 0.934562
0.988360 0.954645 0.936203
1.000000 0.958399 0.936825
0.000000 0.621985 0.838137
0.000000 0.660991 0.859039
0.000000 0.725753 0.886199
0.000000 0.815537 0.905512
0.477120 0.902476 0.920524
0.801851 0.958311 0.940954
0.940659 0.979815 0.947591
0.989811 0.986981 0.949121
1.000000 0.988005 0.948652
0.000000 0.650216 0.859592
0.000000 0.705175 0.884327
0.000000 0.761219 0.903521
0.000000 0.838189 0.915538
0.506646 0.914395 0.932580
0.799941 0.965118 0.951373
0.935901 0.987035 0.958284
0.987975 0.994747 0.960317
1.000000 0.995748 0.959792
0.000000 0.000000 0.536735
0.000000 0.000000 0.545298
0.000000 0.000000 0.562812
0.214309 0.000000 0.596076
0.438291 0.000000 0.635991
0.627740 0.000000 0.666776
0.730912 0.000000 0.681740
0.777360 0.000000 0.693701
0.795267 0.000000 0.700358
0.000000 0.000000 0.579542
0.000000 0.000000 0.590280
0.000000 0.000000 0.608811
0.232838 0.000000 0.645386
0.469420 0.000000 0.686869
0.665834 0.000000 0.715304
0.767902 0.000000 0.728573
0.809258 0.000000 0.737555
0.824900 0.000000 0.747017
0.000000 0.000000 0.619908
0.000000 0.000000 0.630986
0.000000 0.029676 0.651332
0.235364 0.141993 0.696274
0.490131 0.137549 0.736652
0.685693 0.076603 0.758376
0.784995 0.000000 0.768035
0.823366 0.000000 0.774935
0.840489 0.097473 0.785371
0.000000 0.153571 0.682494
0.000000 0.176523 0.700021
0.000000 0.247276 0.738152
0.145510 0.330577 0.769266
0.521828 0.357718 0.812497
0.739792 0.358948 0.833967
0.841649 0.350188 0.840587
0.881231 0.360183 0.846577
0.899328 0.392355 0.856421
0.000000 0.396460 0.781657
0.000000 0.416668 0.798515
0.000000 0.465091 0.826669
0.000000 0.538781 0.849638
0.526325 0.594543 0.883086
0.783636 0.615952 0.905321
0.897160 0.615175 0.911701
0.938544 0.624007 0.915798
0.954062 0.646949 0.921574
0.000000 0.539140 0.833357
0.000000 0.568093 0.853041
0.000000 0.628333 0.882308
0.000000 0.713520 0.905551
0.496299 0.790861 0.927614
0.800088 0.831911 0.950826
0.928446 0.840915 0.957851
0.973890 0.847175 0.960915
0.987527 0.859063 0.963105
0.000000 0.603681 0.856540
0.000000 0.637086 0.876521
0.000000 0.700545 0.903931
0.000000 0.792677 0.927514
0.468421 0.879625 0.944764
0.798645 0.932978 0.968533
0.936984 0.950908 0.976661
0.985373 0.956981 0.979061
0.999104 0.961605 0.979970
0.000000 0.623265 0.864969
0.000000 0.669674 0.890196
0.000000 0.727868 0.914300
0.000000 0.818312 0.935241
0.463321 0.904479 0.951898
0.793952 0.960576 0.975337
0.935657 0.982590 0.983917
0.986884 0.989818 0.986264
1.000000 0.991744 0.986246
0.000000 0.652620 0.880488
0.000000 0.707156 0.906848
0.000000 0.763705 0.926230
0.000000 0.839581 0.939972
0.492398 0.915422 0.957822
0.792011 0.966947 0.979034
0.931101 0.989345 0.987689
0.985340 0.997325 0.990521
1.000000 0.999189 0.990436
0.000000 0.000000 0.585910
0.000000 0.000000 0.596894
0.000000 0.000000 0.614972
0.234554 0.000000 0.652796
0.464886 0.000000 0.693986
0.658712 0.000000 0.723358
0.763350 0.000000 0.738430
0.805341 0.000000 0.747467
0.821463 0.000000 0.757395
0.000000 0.000000 0.621495
0.000000 0.000000 0.634007
0.000000 0.035447 0.653080
0.238221 0.132923 0.697569
0.484627 0.129338 0.738293
0.676819 0.054835 0.760550
0.779714 0.000179 0.772637
0.820064 0.000000 0.780861
0.834914 0.084139 0.789621
0.000000 0.000000 0.650538
0.000000 0.037405 0.664118
0.000000 0.158491 0.701915
0.221952 0.243938 0.742627
0.506006 0.260551 0.784740
0.710652 0.250954 0.807262
0.810524 0.233446 0.815237
0.851145 0.242453 0.822553
0.870623 0.281233 0.833704
0.000000 0.228243 0.721303
0.000000 0.258326 0.742939
0.000000 0.311866 0.775079
0.104160 0.388971 0.801049
0.524212 0.424574 0.843953
0.750597 0.432400 0.866733
0.856707 0.426312 0.874006
0.898076 0.435862 0.879763
0.915708 0.466337 0.888398
0.000000 0.420034 0.800289
0.000000 0.439632 0.817031
0.000000 0.493426 0.847024
0.000000 0.566765 0.869214
0.519929 0.623983 0.901043
0.782816 0.648157 0.924500
0.900157 0.648547 0.931846
0.943367 0.655853 0.935749
0.958926 0.677379 0.940769
0.000000 0.548289 0.846045
0.000000 0.578813 0.864579
0.000000 0.636892 0.893466
0.000000 0.722342 0.917670
0.489773 0.797787 0.939642
0.794494 0.839042 0.963642
0.925728 0.849031 0.971826
0.972925 0.854253 0.974802
0.987605 0.865821 0.977182
0.000000 0.602714 0.861742
0.000000 0.644321 0.887297
0.000000 0.703517 0.912201
0.000000 0.795216 0.937277
0.462690 0.880396 0.955259
0.792281 0.933113 0.979754
0.932917 0.951512 0.988720
0.983560 0.957448 0.991713
0.997584 0.961530 0.991896
0.000000 0.627805 0.875903
0.000000 0.673148 0.898345
0.000000 0.733679 0.925068
0.000000 0.819547 0.943123
0.456542 0.904527 0.960695
0.787086 0.960319 0.984877
0.931701 0.982821 0.994574
0.984988 0.990416 0.997482
0.999156 0.991648 0.996729
0.000000 0.657377 0.890810
0.000000 0.711443 0.914115
0.000000 0.768980 0.935002
0.000000 0.840877 0.947042
0.483949 0.915042 0.964995
0.784918 0.966519 0.986960
0.926305 0.989420 0.996236
0.982551 0.997291 0.999157
1.000000 0.999993 0.999964
