Film Looks/Rec709 Kodak 2383 D60.cube
# Resolve Film Look LUT
#   Input: Cineon Log 
#        : floating point data (range 0.0 - 1.0)
#  Output: Kodak 2383 film stock 'look' with D60 White Point
#        : floating point data (range 0.0 - 1.0)
# Display: ITU-Rec.709, Gamma 2.4
LUT_3D_SIZE 5
LUT_3D_INPUT_RANGE 0.0 1.0
0.026979 0.027936 0.031946
0.074886 0.039616 0.035529
0.347437 0.046906 0.000000
0.620885 0.000000 0.000000
0.691894 0.000000 0.000000
0.000000 0.075220 0.049257
0.089879 0.092014 0.048607
0.442115 0.135305 0.000000
0.719546 0.118135 0.000000
0.779731 0.143035 0.000000
0.000000 0.276347 0.051279
0.000000 0.333400 0.000000
0.588801 0.480423 0.000000
0.907844 0.524151 0.000000
0.964862 0.558795 0.000000
0.000000 0.443665 0.000000
0.000000 0.546352 0.000000
0.654923 0.768204 0.000000
0.999987 0.852287 0.000000
1.000000 0.850393 0.000000
0.000000 0.500289 0.000000
0.000000 0.625900 0.000000
0.687890 0.819200 0.000000
1.000000 0.900930 0.000000
1.000000 0.895525 0.000000
0.018241 0.029587 0.082455
0.077757 0.041517 0.090076
0.361322 0.000000 0.088052
0.639725 0.000000 0.080982
0.709603 0.000000 0.090077
0.000000 0.087414 0.113572
0.086562 0.104791 0.117024
0.452404 0.128987 0.104680
0.722856 0.000000 0.047055
0.778046 0.049887 0.046705
0.000000 0.314974 0.162529
0.000000 0.371150 0.156190
0.585085 0.493227 0.003404
0.911951 0.534437 0.000000
0.965171 0.567510 0.000000
0.000000 0.481337 0.189767
0.000000 0.573246 0.165546
0.633976 0.776015 0.000419
1.000000 0.862395 0.000000
1.000000 0.857630 0.000000
0.000000 0.552869 0.325644
0.000000 0.660743 0.322878
0.630463 0.815583 0.267209
0.981271 0.884931 0.191560
1.000000 0.881633 0.176824
0.000000 0.000000 0.294706
0.071444 0.000000 0.311788
0.395276 0.000000 0.358565
0.673131 0.000000 0.388372
0.741425 0.000000 0.406341
0.000000 0.011290 0.347955
0.001828 0.110546 0.378378
0.468595 0.129411 0.425224
0.746075 0.000000 0.436806
0.798347 0.060812 0.451028
0.000000 0.376157 0.487244
0.000000 0.435998 0.516107
0.562835 0.552377 0.537553
0.897050 0.572931 0.538882
0.948766 0.605712 0.549630
0.000000 0.558827 0.554721
0.000000 0.651267 0.583413
0.558886 0.828863 0.589802
0.961997 0.896408 0.585643
1.000000 0.901718 0.585879
0.000000 0.611935 0.638505
0.000000 0.722477 0.670399
0.570527 0.872210 0.680372
0.954356 0.940998 0.683926
1.000000 0.944756 0.681047
0.000000 0.000000 0.468780
0.000000 0.000000 0.490254
0.421398 0.000000 0.560539
0.704821 0.000000 0.601405
0.770977 0.000000 0.619239
0.000000 0.000000 0.547032
0.000000 0.033530 0.574536
0.478473 0.079617 0.651273
0.771255 0.000000 0.682850
0.820204 0.000000 0.696332
0.000000 0.385905 0.706770
0.000000 0.451454 0.749254
0.536642 0.574693 0.799496
0.892448 0.594490 0.821768
0.946959 0.627136 0.831234
0.000000 0.586319 0.778482
0.000000 0.683516 0.825170
0.499916 0.860151 0.859819
0.941864 0.928950 0.883902
0.999734 0.938820 0.886238
0.000000 0.636991 0.812915
0.000000 0.748060 0.855971
0.524582 0.895844 0.882861
0.937183 0.966632 0.906295
1.000000 0.975169 0.907593
0.000000 0.000000 0.554386
0.000000 0.000000 0.580394
0.461790 0.000000 0.659239
0.755453 0.000000 0.701544
0.813237 0.000000 0.719749
0.000000 0.000000 0.614316
0.000000 0.166888 0.666551
0.503615 0.256778 0.744860
0.802908 0.229258 0.773427
0.862419 0.275721 0.790806
0.000000 0.414521 0.759967
0.000000 0.486149 0.802668
0.525161 0.611748 0.854408
0.895496 0.635277 0.883087
0.953427 0.663475 0.891370
0.000000 0.594850 0.817020
0.000000 0.693489 0.866017
0.481950 0.862627 0.904739
0.933570 0.931884 0.935593
0.996701 0.941686 0.938478
0.000000 0.646937 0.843633
0.000000 0.752038 0.884003
0.503869 0.896539 0.913789
0.928142 0.969062 0.942556
0.999974 0.979295 0.945876
