VFX IO/ARRI LogC to Linear.cube
# DaVinci Resolve Cube (1D shaper LUT).

LUT_1D_SIZE 4096
LUT_1D_INPUT_RANGE 0.0000000000 1.0000000000

-0.0172904187 -0.0172904187 -0.0172904187
-0.0172449240 -0.0172449240 -0.0172449240
-0.0171994292 -0.0171994292 -0.0171994292
-0.0171539344 -0.0171539344 -0.0171539344
-0.0171084396 -0.0171084396 -0.0171084396
-0.0170629449 -0.0170629449 -0.0170629449
-0.0170174501 -0.0170174501 -0.0170174501
-0.0169719553 -0.0169719553 -0.0169719553
-0.0169264605 -0.0169264605 -0.0169264605
-0.0168809658 -0.0168809658 -0.0168809658
-0.0168354710 -0.0168354710 -0.0168354710
-0.0167899762 -0.0167899762 -0.0167899762
-0.0167444814 -0.0167444814 -0.0167444814
-0.0166989867 -0.0166989867 -0.0166989867
-0.0166534919 -0.0166534919 -0.0166534919
-0.0166079971 -0.0166079971 -0.0166079971
-0.0165625023 -0.0165625023 -0.0165625023
-0.0165170076 -0.0165170076 -0.0165170076
-0.0164715128 -0.0164715128 -0.0164715128
-0.0164260180 -0.0164260180 -0.0164260180
-0.0163805232 -0.0163805232 -0.0163805232
-0.0163350285 -0.0163350285 -0.0163350285
-0.0162895337 -0.0162895337 -0.0162895337
-0.0162440389 -0.0162440389 -0.0162440389
-0.0161985441 -0.0161985441 -0.0161985441
-0.0161530494 -0.0161530494 -0.0161530494
-0.0161075546 -0.0161075546 -0.0161075546
-0.0160620598 -0.0160620598 -0.0160620598
-0.0160165651 -0.0160165651 -0.0160165651
-0.0159710703 -0.0159710703 -0.0159710703
-0.0159255755 -0.0159255755 -0.0159255755
-0.0158800807 -0.0158800807 -0.0158800807
-0.0158345860 -0.0158345860 -0.0158345860
-0.0157890912 -0.0157890912 -0.0157890912
-0.0157435964 -0.0157435964 -0.0157435964
-0.0156981016 -0.0156981016 -0.0156981016
-0.0156526069 -0.0156526069 -0.0156526069
-0.0156071121 -0.0156071121 -0.0156071121
-0.0155616173 -0.0155616173 -0.0155616173
-0.0155161225 -0.0155161225 -0.0155161225
-0.0154706278 -0.0154706278 -0.0154706278
-0.0154251330 -0.0154251330 -0.0154251330
-0.0153796382 -0.0153796382 -0.0153796382
-0.0153341434 -0.0153341434 -0.0153341434
-0.0152886487 -0.0152886487 -0.0152886487
-0.0152431539 -0.0152431539 -0.0152431539
-0.0151976591 -0.0151976591 -0.0151976591
-0.0151521643 -0.0151521643 -0.0151521643
-0.0151066696 -0.0151066696 -0.0151066696
-0.0150611748 -0.0150611748 -0.0150611748
-0.0150156800 -0.0150156800 -0.0150156800
-0.0149701852 -0.0149701852 -0.0149701852
-0.0149246905 -0.0149246905 -0.0149246905
-0.0148791957 -0.0148791957 -0.0148791957
-0.0148337009 -0.0148337009 -0.0148337009
-0.0147882061 -0.0147882061 -0.0147882061
-0.0147427114 -0.0147427114 -0.0147427114
-0.0146972166 -0.0146972166 -0.0146972166
-0.0146517218 -0.0146517218 -0.0146517218
-0.0146062270 -0.0146062270 -0.0146062270
-0.0145607323 -0.0145607323 -0.0145607323
-0.0145152375 -0.0145152375 -0.0145152375
-0.0144697427 -0.0144697427 -0.0144697427
-0.0144242479 -0.0144242479 -0.0144242479
-0.0143787532 -0.0143787532 -0.0143787532
-0.0143332584 -0.0143332584 -0.0143332584
-0.0142877636 -0.0142877636 -0.0142877636
-0.0142422688 -0.0142422688 -0.0142422688
-0.0141967741 -0.0141967741 -0.0141967741
-0.0141512793 -0.0141512793 -0.0141512793
-0.0141057845 -0.0141057845 -0.0141057845
-0.0140602898 -0.0140602898 -0.0140602898
-0.0140147950 -0.0140147950 -0.0140147950
-0.0139693002 -0.0139693002 -0.0139693002
-0.0139238054 -0.0139238054 -0.0139238054
-0.0138783107 -0.0138783107 -0.0138783107
-0.0138328159 -0.0138328159 -0.0138328159
-0.0137873211 -0.0137873211 -0.0137873211
-0.0137418263 -0.0137418263 -0.0137418263
-0.0136963316 -0.0136963316 -0.0136963316
-0.0136508368 -0.0136508368 -0.0136508368
-0.0136053420 -0.0136053420 -0.0136053420
-0.0135598472 -0.0135598472 -0.0135598472
-0.0135143525 -0.0135143525 -0.0135143525
-0.0134688577 -0.0134688577 -0.0134688577
-0.0134233629 -0.0134233629 -0.0134233629
-0.0133778681 -0.0133778681 -0.0133778681
-0.0133323734 -0.0133323734 -0.0133323734
-0.0132868786 -0.0132868786 -0.0132868786
-0.0132413838 -0.0132413838 -0.0132413838
-0.0131958890 -0.0131958890 -0.0131958890
-0.0131503943 -0.0131503943 -0.0131503943
-0.0131048995 -0.0131048995 -0.0131048995
-0.0130594047 -0.0130594047 -0.0130594047
-0.0130139099 -0.0130139099 -0.0130139099
-0.0129684152 -0.0129684152 -0.0129684152
-0.0129229204 -0.0129229204 -0.0129229204
-0.0128774256 -0.0128774256 -0.0128774256
-0.0128319308 -0.0128319308 -0.0128319308
-0.0127864361 -0.0127864361 -0.0127864361
-0.0127409413 -0.0127409413 -0.0127409413
-0.0126954465 -0.0126954465 -0.0126954465
-0.0126499517 -0.0126499517 -0.0126499517
-0.0126044570 -0.0126044570 -0.0126044570
-0.0125589622 -0.0125589622 -0.0125589622
-0.0125134674 -0.0125134674 -0.0125134674
-0.0124679726 -0.0124679726 -0.0124679726
-0.0124224779 -0.0124224779 -0.0124224779
-0.0123769831 -0.0123769831 -0.0123769831
-0.0123314883 -0.0123314883 -0.0123314883
-0.0122859936 -0.0122859936 -0.0122859936
-0.0122404988 -0.0122404988 -0.0122404988
-0.0121950040 -0.0121950040 -0.0121950040
-0.0121495092 -0.0121495092 -0.0121495092
-0.0121040145 -0.0121040145 -0.0121040145
-0.0120585197 -0.0120585197 -0.0120585197
-0.0120130249 -0.0120130249 -0.0120130249
-0.0119675301 -0.0119675301 -0.0119675301
-0.0119220354 -0.0119220354 -0.0119220354
-0.0118765406 -0.0118765406 -0.0118765406
-0.0118310458 -0.0118310458 -0.0118310458
-0.0117855510 -0.0117855510 -0.0117855510
-0.0117400563 -0.0117400563 -0.0117400563
-0.0116945615 -0.0116945615 -0.0116945615
-0.0116490667 -0.0116490667 -0.0116490667
-0.0116035719 -0.0116035719 -0.0116035719
-0.0115580772 -0.0115580772 -0.0115580772
-0.0115125824 -0.0115125824 -0.0115125824
-0.0114670876 -0.0114670876 -0.0114670876
-0.0114215928 -0.0114215928 -0.0114215928
-0.0113760981 -0.0113760981 -0.0113760981
-0.0113306033 -0.0113306033 -0.0113306033
-0.0112851085 -0.0112851085 -0.0112851085
-0.0112396137 -0.0112396137 -0.0112396137
-0.0111941190 -0.0111941190 -0.0111941190
-0.0111486242 -0.0111486242 -0.0111486242
-0.0111031294 -0.0111031294 -0.0111031294
-0.0110576346 -0.0110576346 -0.0110576346
-0.0110121399 -0.0110121399 -0.0110121399
-0.0109666451 -0.0109666451 -0.0109666451
-0.0109211503 -0.0109211503 -0.0109211503
-0.0108756555 -0.0108756555 -0.0108756555
-0.0108301608 -0.0108301608 -0.0108301608
-0.0107846660 -0.0107846660 -0.0107846660
-0.0107391712 -0.0107391712 -0.0107391712
-0.0106936764 -0.0106936764 -0.0106936764
-0.0106481817 -0.0106481817 -0.0106481817
-0.0106026869 -0.0106026869 -0.0106026869
-0.0105571921 -0.0105571921 -0.0105571921
-0.0105116973 -0.0105116973 -0.0105116973
-0.0104662026 -0.0104662026 -0.0104662026
-0.0104207078 -0.0104207078 -0.0104207078
-0.0103752130 -0.0103752130 -0.0103752130
-0.0103297183 -0.0103297183 -0.0103297183
-0.0102842235 -0.0102842235 -0.0102842235
-0.0102387287 -0.0102387287 -0.0102387287
-0.0101932339 -0.0101932339 -0.0101932339
-0.0101477392 -0.0101477392 -0.0101477392
-0.0101022444 -0.0101022444 -0.0101022444
-0.0100567496 -0.0100567496 -0.0100567496
-0.0100112548 -0.0100112548 -0.0100112548
-0.0099657601 -0.0099657601 -0.0099657601
-0.0099202653 -0.0099202653 -0.0099202653
-0.0098747705 -0.0098747705 -0.0098747705
-0.0098292757 -0.0098292757 -0.0098292757
-0.0097837810 -0.0097837810 -0.0097837810
-0.0097382862 -0.0097382862 -0.0097382862
-0.0096927914 -0.0096927914 -0.0096927914
-0.0096472966 -0.0096472966 -0.0096472966
-0.0096018019 -0.0096018019 -0.0096018019
-0.0095563071 -0.0095563071 -0.0095563071
-0.0095108123 -0.0095108123 -0.0095108123
-0.0094653175 -0.0094653175 -0.0094653175
-0.0094198228 -0.0094198228 -0.0094198228
-0.0093743280 -0.0093743280 -0.0093743280
-0.0093288332 -0.0093288332 -0.0093288332
-0.0092833384 -0.0092833384 -0.0092833384
-0.0092378437 -0.0092378437 -0.0092378437
-0.0091923489 -0.0091923489 -0.0091923489
-0.0091468541 -0.0091468541 -0.0091468541
-0.0091013593 -0.0091013593 -0.0091013593
-0.0090558646 -0.0090558646 -0.0090558646
-0.0090103698 -0.0090103698 -0.0090103698
-0.0089648750 -0.0089648750 -0.0089648750
-0.0089193802 -0.0089193802 -0.0089193802
-0.0088738855 -0.0088738855 -0.0088738855
-0.0088283907 -0.0088283907 -0.0088283907
-0.0087828959 -0.0087828959 -0.0087828959
-0.0087374011 -0.0087374011 -0.0087374011
-0.0086919064 -0.0086919064 -0.0086919064
-0.0086464116 -0.0086464116 -0.0086464116
-0.0086009168 -0.0086009168 -0.0086009168
-0.0085554220 -0.0085554220 -0.0085554220
-0.0085099273 -0.0085099273 -0.0085099273
-0.0084644325 -0.0084644325 -0.0084644325
-0.0084189377 -0.0084189377 -0.0084189377
-0.0083734430 -0.0083734430 -0.0083734430
-0.0083279482 -0.0083279482 -0.0083279482
-0.0082824534 -0.0082824534 -0.0082824534
-0.0082369586 -0.0082369586 -0.0082369586
-0.0081914639 -0.0081914639 -0.0081914639
-0.0081459691 -0.0081459691 -0.0081459691
-0.0081004743 -0.0081004743 -0.0081004743
-0.0080549795 -0.0080549795 -0.0080549795
-0.0080094848 -0.0080094848 -0.0080094848
-0.0079639900 -0.0079639900 -0.0079639900
-0.0079184952 -0.0079184952 -0.0079184952
-0.0078730004 -0.0078730004 -0.0078730004
-0.0078275057 -0.0078275057 -0.0078275057
-0.0077820109 -0.0077820109 -0.0077820109
-0.0077365161 -0.0077365161 -0.0077365161
-0.0076910213 -0.0076910213 -0.0076910213
-0.0076455266 -0.0076455266 -0.0076455266
-0.0076000318 -0.0076000318 -0.0076000318
-0.0075545370 -0.0075545370 -0.0075545370
-0.0075090422 -0.0075090422 -0.0075090422
-0.0074635475 -0.0074635475 -0.0074635475
-0.0074180527 -0.0074180527 -0.0074180527
-0.0073725579 -0.0073725579 -0.0073725579
-0.0073270631 -0.0073270631 -0.0073270631
-0.0072815684 -0.0072815684 -0.0072815684
-0.0072360736 -0.0072360736 -0.0072360736
-0.0071905788 -0.0071905788 -0.0071905788
-0.0071450840 -0.0071450840 -0.0071450840
-0.0070995893 -0.0070995893 -0.0070995893
-0.0070540945 -0.0070540945 -0.0070540945
-0.0070085997 -0.0070085997 -0.0070085997
-0.0069631049 -0.0069631049 -0.0069631049
-0.0069176102 -0.0069176102 -0.0069176102
-0.0068721154 -0.0068721154 -0.0068721154
-0.0068266206 -0.0068266206 -0.0068266206
-0.0067811258 -0.0067811258 -0.0067811258
-0.0067356311 -0.0067356311 -0.0067356311
-0.0066901363 -0.0066901363 -0.0066901363
-0.0066446415 -0.0066446415 -0.0066446415
-0.0065991468 -0.0065991468 -0.0065991468
-0.0065536520 -0.0065536520 -0.0065536520
-0.0065081572 -0.0065081572 -0.0065081572
-0.0064626624 -0.0064626624 -0.0064626624
-0.0064171677 -0.0064171677 -0.0064171677
-0.0063716729 -0.0063716729 -0.0063716729
-0.0063261781 -0.0063261781 -0.0063261781
-0.0062806833 -0.0062806833 -0.0062806833
-0.0062351886 -0.0062351886 -0.0062351886
-0.0061896938 -0.0061896938 -0.0061896938
-0.0061441990 -0.0061441990 -0.0061441990
-0.0060987042 -0.0060987042 -0.0060987042
-0.0060532095 -0.0060532095 -0.0060532095
-0.0060077147 -0.0060077147 -0.0060077147
-0.0059622199 -0.0059622199 -0.0059622199
-0.0059167251 -0.0059167251 -0.0059167251
-0.0058712304 -0.0058712304 -0.0058712304
-0.0058257356 -0.0058257356 -0.0058257356
-0.0057802408 -0.0057802408 -0.0057802408
-0.0057347460 -0.0057347460 -0.0057347460
-0.0056892513 -0.0056892513 -0.0056892513
-0.0056437565 -0.0056437565 -0.0056437565
-0.0055982617 -0.0055982617 -0.0055982617
-0.0055527669 -0.0055527669 -0.0055527669
-0.0055072722 -0.0055072722 -0.0055072722
-0.0054617774 -0.0054617774 -0.0054617774
-0.0054162826 -0.0054162826 -0.0054162826
-0.0053707878 -0.0053707878 -0.0053707878
-0.0053252931 -0.0053252931 -0.0053252931
-0.0052797983 -0.0052797983 -0.0052797983
-0.0052343035 -0.0052343035 -0.0052343035
-0.0051888087 -0.0051888087 -0.0051888087
-0.0051433140 -0.0051433140 -0.0051433140
-0.0050978192 -0.0050978192 -0.0050978192
-0.0050523244 -0.0050523244 -0.0050523244
-0.0050068296 -0.0050068296 -0.0050068296
-0.0049613349 -0.0049613349 -0.0049613349
-0.0049158401 -0.0049158401 -0.0049158401
-0.0048703453 -0.0048703453 -0.0048703453
-0.0048248505 -0.0048248505 -0.0048248505
-0.0047793558 -0.0047793558 -0.0047793558
-0.0047338610 -0.0047338610 -0.0047338610
-0.0046883662 -0.0046883662 -0.0046883662
-0.0046428715 -0.0046428715 -0.0046428715
-0.0045973767 -0.0045973767 -0.0045973767
-0.0045518819 -0.0045518819 -0.0045518819
-0.0045063871 -0.0045063871 -0.0045063871
-0.0044608924 -0.0044608924 -0.0044608924
-0.0044153976 -0.0044153976 -0.0044153976
-0.0043699028 -0.0043699028 -0.0043699028
-0.0043244080 -0.0043244080 -0.0043244080
-0.0042789133 -0.0042789133 -0.0042789133
-0.0042334185 -0.0042334185 -0.0042334185
-0.0041879237 -0.0041879237 -0.0041879237
-0.0041424289 -0.0041424289 -0.0041424289
-0.0040969342 -0.0040969342 -0.0040969342
-0.0040514394 -0.0040514394 -0.0040514394
-0.0040059446 -0.0040059446 -0.0040059446
-0.0039604498 -0.0039604498 -0.0039604498
-0.0039149551 -0.0039149551 -0.0039149551
-0.0038694603 -0.0038694603 -0.0038694603
-0.0038239655 -0.0038239655 -0.0038239655
-0.0037784707 -0.0037784707 -0.0037784707
-0.0037329760 -0.0037329760 -0.0037329760
-0.0036874812 -0.0036874812 -0.0036874812
-0.0036419864 -0.0036419864 -0.0036419864
-0.0035964916 -0.0035964916 -0.0035964916
-0.0035509969 -0.0035509969 -0.0035509969
-0.0035055021 -0.0035055021 -0.0035055021
-0.0034600073 -0.0034600073 -0.0034600073
-0.0034145125 -0.0034145125 -0.0034145125
-0.0033690178 -0.0033690178 -0.0033690178
-0.0033235230 -0.0033235230 -0.0033235230
-0.0032780282 -0.0032780282 -0.0032780282
-0.0032325334 -0.0032325334 -0.0032325334
-0.0031870387 -0.0031870387 -0.0031870387
-0.0031415439 -0.0031415439 -0.0031415439
-0.0030960491 -0.0030960491 -0.0030960491
-0.0030505543 -0.0030505543 -0.0030505543
-0.0030050596 -0.0030050596 -0.0030050596
-0.0029595648 -0.0029595648 -0.0029595648
-0.0029140700 -0.0029140700 -0.0029140700
-0.0028685752 -0.0028685752 -0.0028685752
-0.0028230805 -0.0028230805 -0.0028230805
-0.0027775857 -0.0027775857 -0.0027775857
-0.0027320909 -0.0027320909 -0.0027320909
-0.0026865962 -0.0026865962 -0.0026865962
-0.0026411014 -0.0026411014 -0.0026411014
-0.0025956066 -0.0025956066 -0.0025956066
-0.0025501118 -0.0025501118 -0.0025501118
-0.0025046171 -0.0025046171 -0.0025046171
-0.0024591223 -0.0024591223 -0.0024591223
-0.0024136275 -0.0024136275 -0.0024136275
-0.0023681327 -0.0023681327 -0.0023681327
-0.0023226380 -0.0023226380 -0.0023226380
-0.0022771432 -0.0022771432 -0.0022771432
-0.0022316484 -0.0022316484 -0.0022316484
-0.0021861536 -0.0021861536 -0.0021861536
-0.0021406589 -0.0021406589 -0.0021406589
-0.0020951641 -0.0020951641 -0.0020951641
-0.0020496693 -0.0020496693 -0.0020496693
-0.0020041745 -0.0020041745 -0.0020041745
-0.0019586798 -0.0019586798 -0.0019586798
-0.0019131850 -0.0019131850 -0.0019131850
-0.0018676902 -0.0018676902 -0.0018676902
-0.0018221954 -0.0018221954 -0.0018221954
-0.0017767007 -0.0017767007 -0.0017767007
-0.0017312059 -0.0017312059 -0.0017312059
-0.0016857111 -0.0016857111 -0.0016857111
-0.0016402163 -0.0016402163 -0.0016402163
-0.0015947216 -0.0015947216 -0.0015947216
-0.0015492268 -0.0015492268 -0.0015492268
-0.0015037320 -0.0015037320 -0.0015037320
-0.0014582372 -0.0014582372 -0.0014582372
-0.0014127425 -0.0014127425 -0.0014127425
-0.0013672477 -0.0013672477 -0.0013672477
-0.0013217529 -0.0013217529 -0.0013217529
-0.0012762581 -0.0012762581 -0.0012762581
-0.0012307634 -0.0012307634 -0.0012307634
-0.0011852686 -0.0011852686 -0.0011852686
-0.0011397738 -0.0011397738 -0.0011397738
-0.0010942790 -0.0010942790 -0.0010942790
-0.0010487843 -0.0010487843 -0.0010487843
-0.0010032895 -0.0010032895 -0.0010032895
-0.0009577947 -0.0009577947 -0.0009577947
-0.0009123000 -0.0009123000 -0.0009123000
-0.0008668052 -0.0008668052 -0.0008668052
-0.0008213104 -0.0008213104 -0.0008213104
-0.0007758156 -0.0007758156 -0.0007758156
-0.0007303209 -0.0007303209 -0.0007303209
-0.0006848261 -0.0006848261 -0.0006848261
-0.0006393313 -0.0006393313 -0.0006393313
-0.0005938365 -0.0005938365 -0.0005938365
-0.0005483418 -0.0005483418 -0.0005483418
-0.0005028470 -0.0005028470 -0.0005028470
-0.0004573522 -0.0004573522 -0.0004573522
-0.0004118574 -0.0004118574 -0.0004118574
-0.0003663627 -0.0003663627 -0.0003663627
-0.0003208679 -0.0003208679 -0.0003208679
-0.0002753731 -0.0002753731 -0.0002753731
-0.0002298783 -0.0002298783 -0.0002298783
-0.0001843836 -0.0001843836 -0.0001843836
-0.0001388888 -0.0001388888 -0.0001388888
-0.0000933940 -0.0000933940 -0.0000933940
-0.0000478992 -0.0000478992 -0.0000478992
-0.0000024045 -0.0000024045 -0.0000024045
0.0000430903 0.0000430903 0.0000430903
0.0000885851 0.0000885851 0.0000885851
0.0001340799 0.0001340799 0.0001340799
0.0001795746 0.0001795746 0.0001795746
0.0002250694 0.0002250694 0.0002250694
0.0002705642 0.0002705642 0.0002705642
0.0003160590 0.0003160590 0.0003160590
0.0003615537 0.0003615537 0.0003615537
0.0004070485 0.0004070485 0.0004070485
0.0004525433 0.0004525433 0.0004525433
0.0004980381 0.0004980381 0.0004980381
0.0005435328 0.0005435328 0.0005435328
0.0005890276 0.0005890276 0.0005890276
0.0006345224 0.0006345224 0.0006345224
0.0006800172 0.0006800172 0.0006800172
0.0007255119 0.0007255119 0.0007255119
0.0007710067 0.0007710067 0.0007710067
0.0008165015 0.0008165015 0.0008165015
0.0008619963 0.0008619963 0.0008619963
0.0009074910 0.0009074910 0.0009074910
0.0009529858 0.0009529858 0.0009529858
0.0009984806 0.0009984806 0.0009984806
0.0010439753 0.0010439753 0.0010439753
0.0010894701 0.0010894701 0.0010894701
0.0011349649 0.0011349649 0.0011349649
0.0011804597 0.0011804597 0.0011804597
0.0012259544 0.0012259544 0.0012259544
0.0012714492 0.0012714492 0.0012714492
0.0013169440 0.0013169440 0.0013169440
0.0013624388 0.0013624388 0.0013624388
0.0014079335 0.0014079335 0.0014079335
0.0014534283 0.0014534283 0.0014534283
0.0014989231 0.0014989231 0.0014989231
0.0015444179 0.0015444179 0.0015444179
0.0015899126 0.0015899126 0.0015899126
0.0016354074 0.0016354074 0.0016354074
0.0016809022 0.0016809022 0.0016809022
0.0017263970 0.0017263970 0.0017263970
0.0017718917 0.0017718917 0.0017718917
0.0018173865 0.0018173865 0.0018173865
0.0018628813 0.0018628813 0.0018628813
0.0019083761 0.0019083761 0.0019083761
0.0019538708 0.0019538708 0.0019538708
0.0019993656 0.0019993656 0.0019993656
0.0020448604 0.0020448604 0.0020448604
0.0020903552 0.0020903552 0.0020903552
0.0021358499 0.0021358499 0.0021358499
0.0021813447 0.0021813447 0.0021813447
0.0022268395 0.0022268395 0.0022268395
0.0022723343 0.0022723343 0.0022723343
0.0023178290 0.0023178290 0.0023178290
0.0023633238 0.0023633238 0.0023633238
0.0024088186 0.0024088186 0.0024088186
0.0024543134 0.0024543134 0.0024543134
0.0024998081 0.0024998081 0.0024998081
0.0025453029 0.0025453029 0.0025453029
0.0025907977 0.0025907977 0.0025907977
0.0026362925 0.0026362925 0.0026362925
0.0026817872 0.0026817872 0.0026817872
0.0027272820 0.0027272820 0.0027272820
0.0027727768 0.0027727768 0.0027727768
0.0028182716 0.0028182716 0.0028182716
0.0028637663 0.0028637663 0.0028637663
0.0029092611 0.0029092611 0.0029092611
0.0029547559 0.0029547559 0.0029547559
0.0030002506 0.0030002506 0.0030002506
0.0030457454 0.0030457454 0.0030457454
0.0030912402 0.0030912402 0.0030912402
0.0031367350 0.0031367350 0.0031367350
0.0031822297 0.0031822297 0.0031822297
0.0032277245 0.0032277245 0.0032277245
0.0032732193 0.0032732193 0.0032732193
0.0033187141 0.0033187141 0.0033187141
0.0033642088 0.0033642088 0.0033642088
0.0034097036 0.0034097036 0.0034097036
0.0034551984 0.0034551984 0.0034551984
0.0035006932 0.0035006932 0.0035006932
0.0035461879 0.0035461879 0.0035461879
0.0035916827 0.0035916827 0.0035916827
0.0036371775 0.0036371775 0.0036371775
0.0036826723 0.0036826723 0.0036826723
0.0037281670 0.0037281670 0.0037281670
0.0037736618 0.0037736618 0.0037736618
0.0038191566 0.0038191566 0.0038191566
0.0038646514 0.0038646514 0.0038646514
0.0039101461 0.0039101461 0.0039101461
0.0039556409 0.0039556409 0.0039556409
0.0040011357 0.0040011357 0.0040011357
0.0040466305 0.0040466305 0.0040466305
0.0040921252 0.0040921252 0.0040921252
0.0041376200 0.0041376200 0.0041376200
0.0041831148 0.0041831148 0.0041831148
0.0042286096 0.0042286096 0.0042286096
0.0042741043 0.0042741043 0.0042741043
0.0043195991 0.0043195991 0.0043195991
0.0043650939 0.0043650939 0.0043650939
0.0044105887 0.0044105887 0.0044105887
0.0044560834 0.0044560834 0.0044560834
0.0045015782 0.0045015782 0.0045015782
0.0045470730 0.0045470730 0.0045470730
0.0045925678 0.0045925678 0.0045925678
0.0046380625 0.0046380625 0.0046380625
0.0046835573 0.0046835573 0.0046835573
0.0047290521 0.0047290521 0.0047290521
0.0047745468 0.0047745468 0.0047745468
0.0048200416 0.0048200416 0.0048200416
0.0048655364 0.0048655364 0.0048655364
0.0049110312 0.0049110312 0.0049110312
0.0049565259 0.0049565259 0.0049565259
0.0050020207 0.0050020207 0.0050020207
0.0050475155 0.0050475155 0.0050475155
0.0050930103 0.0050930103 0.0050930103
0.0051385050 0.0051385050 0.0051385050
0.0051839998 0.0051839998 0.0051839998
0.0052294946 0.0052294946 0.0052294946
0.0052749894 0.0052749894 0.0052749894
0.0053204841 0.0053204841 0.0053204841
0.0053659789 0.0053659789 0.0053659789
0.0054114737 0.0054114737 0.0054114737
0.0054569685 0.0054569685 0.0054569685
0.0055024632 0.0055024632 0.0055024632
0.0055479580 0.0055479580 0.0055479580
0.0055934528 0.0055934528 0.0055934528
0.0056389476 0.0056389476 0.0056389476
0.0056844423 0.0056844423 0.0056844423
0.0057299371 0.0057299371 0.0057299371
0.0057754319 0.0057754319 0.0057754319
0.0058209267 0.0058209267 0.0058209267
0.0058664214 0.0058664214 0.0058664214
0.0059119162 0.0059119162 0.0059119162
0.0059574110 0.0059574110 0.0059574110
0.0060029058 0.0060029058 0.0060029058
0.0060484005 0.0060484005 0.0060484005
0.0060938953 0.0060938953 0.0060938953
0.0061393901 0.0061393901 0.0061393901
0.0061848849 0.0061848849 0.0061848849
0.0062303796 0.0062303796 0.0062303796
0.0062758744 0.0062758744 0.0062758744
0.0063213692 0.0063213692 0.0063213692
0.0063668640 0.0063668640 0.0063668640
0.0064123587 0.0064123587 0.0064123587
0.0064578535 0.0064578535 0.0064578535
0.0065033483 0.0065033483 0.0065033483
0.0065488431 0.0065488431 0.0065488431
0.0065943378 0.0065943378 0.0065943378
0.0066398326 0.0066398326 0.0066398326
0.0066853274 0.0066853274 0.0066853274
0.0067308221 0.0067308221 0.0067308221
0.0067763169 0.0067763169 0.0067763169
0.0068218117 0.0068218117 0.0068218117
0.0068673065 0.0068673065 0.0068673065
0.0069128012 0.0069128012 0.0069128012
0.0069582960 0.0069582960 0.0069582960
0.0070037908 0.0070037908 0.0070037908
0.0070492856 0.0070492856 0.0070492856
0.0070947803 0.0070947803 0.0070947803
0.0071402751 0.0071402751 0.0071402751
0.0071857699 0.0071857699 0.0071857699
0.0072312647 0.0072312647 0.0072312647
0.0072767594 0.0072767594 0.0072767594
0.0073222542 0.0073222542 0.0073222542
0.0073677490 0.0073677490 0.0073677490
0.0074132438 0.0074132438 0.0074132438
0.0074587385 0.0074587385 0.0074587385
0.0075042333 0.0075042333 0.0075042333
0.0075497281 0.0075497281 0.0075497281
0.0075952229 0.0075952229 0.0075952229
0.0076407176 0.0076407176 0.0076407176
0.0076862124 0.0076862124 0.0076862124
0.0077317072 0.0077317072 0.0077317072
0.0077772020 0.0077772020 0.0077772020
0.0078226967 0.0078226967 0.0078226967
0.0078681915 0.0078681915 0.0078681915
0.0079136863 0.0079136863 0.0079136863
0.0079591811 0.0079591811 0.0079591811
0.0080046758 0.0080046758 0.0080046758
0.0080501706 0.0080501706 0.0080501706
0.0080956654 0.0080956654 0.0080956654
0.0081411602 0.0081411602 0.0081411602
0.0081866549 0.0081866549 0.0081866549
0.0082321497 0.0082321497 0.0082321497
0.0082776445 0.0082776445 0.0082776445
0.0083231393 0.0083231393 0.0083231393
0.0083686340 0.0083686340 0.0083686340
0.0084141288 0.0084141288 0.0084141288
0.0084596236 0.0084596236 0.0084596236
0.0085051184 0.0085051184 0.0085051184
0.0085506131 0.0085506131 0.0085506131
0.0085961079 0.0085961079 0.0085961079
0.0086416027 0.0086416027 0.0086416027
0.0086870974 0.0086870974 0.0086870974
0.0087325922 0.0087325922 0.0087325922
0.0087780870 0.0087780870 0.0087780870
0.0088235818 0.0088235818 0.0088235818
0.0088690765 0.0088690765 0.0088690765
0.0089145713 0.0089145713 0.0089145713
0.0089600661 0.0089600661 0.0089600661
0.0090055609 0.0090055609 0.0090055609
0.0090510556 0.0090510556 0.0090510556
0.0090965504 0.0090965504 0.0090965504
0.0091420452 0.0091420452 0.0091420452
0.0091875400 0.0091875400 0.0091875400
