VFX IO/BMDFilm 4.6K to Linear.cube
# DaVinci Resolve Cube (1D shaper LUT).

LUT_1D_SIZE 4096
LUT_1D_INPUT_RANGE 0.0000000000 1.0000000000

-0.0128462102 -0.0128462102 -0.0128462102
-0.0128032723 -0.0128032723 -0.0128032723
-0.0127603345 -0.0127603345 -0.0127603345
-0.0127173967 -0.0127173967 -0.0127173967
-0.0126744588 -0.0126744588 -0.0126744588
-0.0126315210 -0.0126315210 -0.0126315210
-0.0125885831 -0.0125885831 -0.0125885831
-0.0125456453 -0.0125456453 -0.0125456453
-0.0125027075 -0.0125027075 -0.0125027075
-0.0124597696 -0.0124597696 -0.0124597696
-0.0124168318 -0.0124168318 -0.0124168318
-0.0123738940 -0.0123738940 -0.0123738940
-0.0123309561 -0.0123309561 -0.0123309561
-0.0122880183 -0.0122880183 -0.0122880183
-0.0122450805 -0.0122450805 -0.0122450805
-0.0122021426 -0.0122021426 -0.0122021426
-0.0121592048 -0.0121592048 -0.0121592048
-0.0121162669 -0.0121162669 -0.0121162669
-0.0120733291 -0.0120733291 -0.0120733291
-0.0120303913 -0.0120303913 -0.0120303913
-0.0119874534 -0.0119874534 -0.0119874534
-0.0119445156 -0.0119445156 -0.0119445156
-0.0119015778 -0.0119015778 -0.0119015778
-0.0118586399 -0.0118586399 -0.0118586399
-0.0118157021 -0.0118157021 -0.0118157021
-0.0117727642 -0.0117727642 -0.0117727642
-0.0117298264 -0.0117298264 -0.0117298264
-0.0116868886 -0.0116868886 -0.0116868886
-0.0116439507 -0.0116439507 -0.0116439507
-0.0116010129 -0.0116010129 -0.0116010129
-0.0115580751 -0.0115580751 -0.0115580751
-0.0115151372 -0.0115151372 -0.0115151372
-0.0114721994 -0.0114721994 -0.0114721994
-0.0114292615 -0.0114292615 -0.0114292615
-0.0113863237 -0.0113863237 -0.0113863237
-0.0113433859 -0.0113433859 -0.0113433859
-0.0113004480 -0.0113004480 -0.0113004480
-0.0112575102 -0.0112575102 -0.0112575102
-0.0112145724 -0.0112145724 -0.0112145724
-0.0111716345 -0.0111716345 -0.0111716345
-0.0111286967 -0.0111286967 -0.0111286967
-0.0110857589 -0.0110857589 -0.0110857589
-0.0110428210 -0.0110428210 -0.0110428210
-0.0109998832 -0.0109998832 -0.0109998832
-0.0109569453 -0.0109569453 -0.0109569453
-0.0109140075 -0.0109140075 -0.0109140075
-0.0108710697 -0.0108710697 -0.0108710697
-0.0108281318 -0.0108281318 -0.0108281318
-0.0107851940 -0.0107851940 -0.0107851940
-0.0107422562 -0.0107422562 -0.0107422562
-0.0106993183 -0.0106993183 -0.0106993183
-0.0106563805 -0.0106563805 -0.0106563805
-0.0106134426 -0.0106134426 -0.0106134426
-0.0105705048 -0.0105705048 -0.0105705048
-0.0105275670 -0.0105275670 -0.0105275670
-0.0104846291 -0.0104846291 -0.0104846291
-0.0104416913 -0.0104416913 -0.0104416913
-0.0103987535 -0.0103987535 -0.0103987535
-0.0103558156 -0.0103558156 -0.0103558156
-0.0103128778 -0.0103128778 -0.0103128778
-0.0102699399 -0.0102699399 -0.0102699399
-0.0102270021 -0.0102270021 -0.0102270021
-0.0101840643 -0.0101840643 -0.0101840643
-0.0101411264 -0.0101411264 -0.0101411264
-0.0100981886 -0.0100981886 -0.0100981886
-0.0100552508 -0.0100552508 -0.0100552508
-0.0100123129 -0.0100123129 -0.0100123129
-0.0099693751 -0.0099693751 -0.0099693751
-0.0099264372 -0.0099264372 -0.0099264372
-0.0098834994 -0.0098834994 -0.0098834994
-0.0098405616 -0.0098405616 -0.0098405616
-0.0097976237 -0.0097976237 -0.0097976237
-0.0097546859 -0.0097546859 -0.0097546859
-0.0097117481 -0.0097117481 -0.0097117481
-0.0096688102 -0.0096688102 -0.0096688102
-0.0096258724 -0.0096258724 -0.0096258724
-0.0095829346 -0.0095829346 -0.0095829346
-0.0095399967 -0.0095399967 -0.0095399967
-0.0094970589 -0.0094970589 -0.0094970589
-0.0094541210 -0.0094541210 -0.0094541210
-0.0094111832 -0.0094111832 -0.0094111832
-0.0093682454 -0.0093682454 -0.0093682454
-0.0093253075 -0.0093253075 -0.0093253075
-0.0092823697 -0.0092823697 -0.0092823697
-0.0092394319 -0.0092394319 -0.0092394319
-0.0091964940 -0.0091964940 -0.0091964940
-0.0091535562 -0.0091535562 -0.0091535562
-0.0091106183 -0.0091106183 -0.0091106183
-0.0090676805 -0.0090676805 -0.0090676805
-0.0090247427 -0.0090247427 -0.0090247427
-0.0089818048 -0.0089818048 -0.0089818048
-0.0089388670 -0.0089388670 -0.0089388670
-0.0088959292 -0.0088959292 -0.0088959292
-0.0088529913 -0.0088529913 -0.0088529913
-0.0088100535 -0.0088100535 -0.0088100535
-0.0087671156 -0.0087671156 -0.0087671156
-0.0087241778 -0.0087241778 -0.0087241778
-0.0086812400 -0.0086812400 -0.0086812400
-0.0086383021 -0.0086383021 -0.0086383021
-0.0085953643 -0.0085953643 -0.0085953643
-0.0085524265 -0.0085524265 -0.0085524265
-0.0085094886 -0.0085094886 -0.0085094886
-0.0084665508 -0.0084665508 -0.0084665508
-0.0084236130 -0.0084236130 -0.0084236130
-0.0083806751 -0.0083806751 -0.0083806751
-0.0083377373 -0.0083377373 -0.0083377373
-0.0082947994 -0.0082947994 -0.0082947994
-0.0082518616 -0.0082518616 -0.0082518616
-0.0082089238 -0.0082089238 -0.0082089238
-0.0081659859 -0.0081659859 -0.0081659859
-0.0081230481 -0.0081230481 -0.0081230481
-0.0080801103 -0.0080801103 -0.0080801103
-0.0080371724 -0.0080371724 -0.0080371724
-0.0079942346 -0.0079942346 -0.0079942346
-0.0079512967 -0.0079512967 -0.0079512967
-0.0079083589 -0.0079083589 -0.0079083589
-0.0078654211 -0.0078654211 -0.0078654211
-0.0078224832 -0.0078224832 -0.0078224832
-0.0077795454 -0.0077795454 -0.0077795454
-0.0077366076 -0.0077366076 -0.0077366076
-0.0076936697 -0.0076936697 -0.0076936697
-0.0076507319 -0.0076507319 -0.0076507319
-0.0076077940 -0.0076077940 -0.0076077940
-0.0075648562 -0.0075648562 -0.0075648562
-0.0075219184 -0.0075219184 -0.0075219184
-0.0074789805 -0.0074789805 -0.0074789805
-0.0074360427 -0.0074360427 -0.0074360427
-0.0073931049 -0.0073931049 -0.0073931049
-0.0073501670 -0.0073501670 -0.0073501670
-0.0073072292 -0.0073072292 -0.0073072292
-0.0072642914 -0.0072642914 -0.0072642914
-0.0072213535 -0.0072213535 -0.0072213535
-0.0071784157 -0.0071784157 -0.0071784157
-0.0071354778 -0.0071354778 -0.0071354778
-0.0070925400 -0.0070925400 -0.0070925400
-0.0070496022 -0.0070496022 -0.0070496022
-0.0070066643 -0.0070066643 -0.0070066643
-0.0069637265 -0.0069637265 -0.0069637265
-0.0069207887 -0.0069207887 -0.0069207887
-0.0068778508 -0.0068778508 -0.0068778508
-0.0068349130 -0.0068349130 -0.0068349130
-0.0067919751 -0.0067919751 -0.0067919751
-0.0067490373 -0.0067490373 -0.0067490373
-0.0067060995 -0.0067060995 -0.0067060995
-0.0066631616 -0.0066631616 -0.0066631616
-0.0066202238 -0.0066202238 -0.0066202238
-0.0065772860 -0.0065772860 -0.0065772860
-0.0065343481 -0.0065343481 -0.0065343481
-0.0064914103 -0.0064914103 -0.0064914103
-0.0064484724 -0.0064484724 -0.0064484724
-0.0064055346 -0.0064055346 -0.0064055346
-0.0063625968 -0.0063625968 -0.0063625968
-0.0063196589 -0.0063196589 -0.0063196589
-0.0062767211 -0.0062767211 -0.0062767211
-0.0062337833 -0.0062337833 -0.0062337833
-0.0061908454 -0.0061908454 -0.0061908454
-0.0061479076 -0.0061479076 -0.0061479076
-0.0061049697 -0.0061049697 -0.0061049697
-0.0060620319 -0.0060620319 -0.0060620319
-0.0060190941 -0.0060190941 -0.0060190941
-0.0059761562 -0.0059761562 -0.0059761562
-0.0059332184 -0.0059332184 -0.0059332184
-0.0058902806 -0.0058902806 -0.0058902806
-0.0058473427 -0.0058473427 -0.0058473427
-0.0058044049 -0.0058044049 -0.0058044049
-0.0057614671 -0.0057614671 -0.0057614671
-0.0057185292 -0.0057185292 -0.0057185292
-0.0056755914 -0.0056755914 -0.0056755914
-0.0056326535 -0.0056326535 -0.0056326535
-0.0055897157 -0.0055897157 -0.0055897157
-0.0055467779 -0.0055467779 -0.0055467779
-0.0055038400 -0.0055038400 -0.0055038400
-0.0054609022 -0.0054609022 -0.0054609022
-0.0054179644 -0.0054179644 -0.0054179644
-0.0053750265 -0.0053750265 -0.0053750265
-0.0053320887 -0.0053320887 -0.0053320887
-0.0052891508 -0.0052891508 -0.0052891508
-0.0052462130 -0.0052462130 -0.0052462130
-0.0052032752 -0.0052032752 -0.0052032752
-0.0051603373 -0.0051603373 -0.0051603373
-0.0051173995 -0.0051173995 -0.0051173995
-0.0050744617 -0.0050744617 -0.0050744617
-0.0050315238 -0.0050315238 -0.0050315238
-0.0049885860 -0.0049885860 -0.0049885860
-0.0049456481 -0.0049456481 -0.0049456481
-0.0049027103 -0.0049027103 -0.0049027103
-0.0048597725 -0.0048597725 -0.0048597725
-0.0048168346 -0.0048168346 -0.0048168346
-0.0047738968 -0.0047738968 -0.0047738968
-0.0047309590 -0.0047309590 -0.0047309590
-0.0046880211 -0.0046880211 -0.0046880211
-0.0046450833 -0.0046450833 -0.0046450833
-0.0046021455 -0.0046021455 -0.0046021455
-0.0045592076 -0.0045592076 -0.0045592076
-0.0045162698 -0.0045162698 -0.0045162698
-0.0044733319 -0.0044733319 -0.0044733319
-0.0044303941 -0.0044303941 -0.0044303941
-0.0043874563 -0.0043874563 -0.0043874563
-0.0043445184 -0.0043445184 -0.0043445184
-0.0043015806 -0.0043015806 -0.0043015806
-0.0042586428 -0.0042586428 -0.0042586428
-0.0042157049 -0.0042157049 -0.0042157049
-0.0041727671 -0.0041727671 -0.0041727671
-0.0041298292 -0.0041298292 -0.0041298292
-0.0040868914 -0.0040868914 -0.0040868914
-0.0040439536 -0.0040439536 -0.0040439536
-0.0040010157 -0.0040010157 -0.0040010157
-0.0039580779 -0.0039580779 -0.0039580779
-0.0039151401 -0.0039151401 -0.0039151401
-0.0038722022 -0.0038722022 -0.0038722022
-0.0038292644 -0.0038292644 -0.0038292644
-0.0037863265 -0.0037863265 -0.0037863265
-0.0037433887 -0.0037433887 -0.0037433887
-0.0037004509 -0.0037004509 -0.0037004509
-0.0036575130 -0.0036575130 -0.0036575130
-0.0036145752 -0.0036145752 -0.0036145752
-0.0035716374 -0.0035716374 -0.0035716374
-0.0035286995 -0.0035286995 -0.0035286995
-0.0034857617 -0.0034857617 -0.0034857617
-0.0034428238 -0.0034428238 -0.0034428238
-0.0033998860 -0.0033998860 -0.0033998860
-0.0033569482 -0.0033569482 -0.0033569482
-0.0033140103 -0.0033140103 -0.0033140103
-0.0032710725 -0.0032710725 -0.0032710725
-0.0032281347 -0.0032281347 -0.0032281347
-0.0031851968 -0.0031851968 -0.0031851968
-0.0031422590 -0.0031422590 -0.0031422590
-0.0030993212 -0.0030993212 -0.0030993212
-0.0030563833 -0.0030563833 -0.0030563833
-0.0030134455 -0.0030134455 -0.0030134455
-0.0029705076 -0.0029705076 -0.0029705076
-0.0029275698 -0.0029275698 -0.0029275698
-0.0028846320 -0.0028846320 -0.0028846320
-0.0028416941 -0.0028416941 -0.0028416941
-0.0027987563 -0.0027987563 -0.0027987563
-0.0027558185 -0.0027558185 -0.0027558185
-0.0027128806 -0.0027128806 -0.0027128806
-0.0026699428 -0.0026699428 -0.0026699428
-0.0026270049 -0.0026270049 -0.0026270049
-0.0025840671 -0.0025840671 -0.0025840671
-0.0025411293 -0.0025411293 -0.0025411293
-0.0024981914 -0.0024981914 -0.0024981914
-0.0024552536 -0.0024552536 -0.0024552536
-0.0024123158 -0.0024123158 -0.0024123158
-0.0023693779 -0.0023693779 -0.0023693779
-0.0023264401 -0.0023264401 -0.0023264401
-0.0022835022 -0.0022835022 -0.0022835022
-0.0022405644 -0.0022405644 -0.0022405644
-0.0021976266 -0.0021976266 -0.0021976266
-0.0021546887 -0.0021546887 -0.0021546887
-0.0021117509 -0.0021117509 -0.0021117509
-0.0020688131 -0.0020688131 -0.0020688131
-0.0020258752 -0.0020258752 -0.0020258752
-0.0019829374 -0.0019829374 -0.0019829374
-0.0019399996 -0.0019399996 -0.0019399996
-0.0018970617 -0.0018970617 -0.0018970617
-0.0018541239 -0.0018541239 -0.0018541239
-0.0018111860 -0.0018111860 -0.0018111860
-0.0017682482 -0.0017682482 -0.0017682482
-0.0017253104 -0.0017253104 -0.0017253104
-0.0016823725 -0.0016823725 -0.0016823725
-0.0016394347 -0.0016394347 -0.0016394347
-0.0015964969 -0.0015964969 -0.0015964969
-0.0015535590 -0.0015535590 -0.0015535590
-0.0015106212 -0.0015106212 -0.0015106212
-0.0014676833 -0.0014676833 -0.0014676833
-0.0014247455 -0.0014247455 -0.0014247455
-0.0013818077 -0.0013818077 -0.0013818077
-0.0013388698 -0.0013388698 -0.0013388698
-0.0012959320 -0.0012959320 -0.0012959320
-0.0012529942 -0.0012529942 -0.0012529942
-0.0012100563 -0.0012100563 -0.0012100563
-0.0011671185 -0.0011671185 -0.0011671185
-0.0011241806 -0.0011241806 -0.0011241806
-0.0010812428 -0.0010812428 -0.0010812428
-0.0010383050 -0.0010383050 -0.0010383050
-0.0009953671 -0.0009953671 -0.0009953671
-0.0009524293 -0.0009524293 -0.0009524293
-0.0009094915 -0.0009094915 -0.0009094915
-0.0008665536 -0.0008665536 -0.0008665536
-0.0008236158 -0.0008236158 -0.0008236158
-0.0007806780 -0.0007806780 -0.0007806780
-0.0007377401 -0.0007377401 -0.0007377401
-0.0006948023 -0.0006948023 -0.0006948023
-0.0006518644 -0.0006518644 -0.0006518644
-0.0006089266 -0.0006089266 -0.0006089266
-0.0005659888 -0.0005659888 -0.0005659888
-0.0005230509 -0.0005230509 -0.0005230509
-0.0004801131 -0.0004801131 -0.0004801131
-0.0004371753 -0.0004371753 -0.0004371753
-0.0003942374 -0.0003942374 -0.0003942374
-0.0003512996 -0.0003512996 -0.0003512996
-0.0003083617 -0.0003083617 -0.0003083617
-0.0002654239 -0.0002654239 -0.0002654239
-0.0002224861 -0.0002224861 -0.0002224861
-0.0001795482 -0.0001795482 -0.0001795482
-0.0001366104 -0.0001366104 -0.0001366104
-0.0000936726 -0.0000936726 -0.0000936726
-0.0000507347 -0.0000507347 -0.0000507347
-0.0000077969 -0.0000077969 -0.0000077969
0.0000351410 0.0000351410 0.0000351410
0.0000780788 0.0000780788 0.0000780788
0.0001210166 0.0001210166 0.0001210166
0.0001639545 0.0001639545 0.0001639545
0.0002068923 0.0002068923 0.0002068923
0.0002498301 0.0002498301 0.0002498301
0.0002927680 0.0002927680 0.0002927680
0.0003357058 0.0003357058 0.0003357058
0.0003786437 0.0003786437 0.0003786437
0.0004215815 0.0004215815 0.0004215815
0.0004645193 0.0004645193 0.0004645193
0.0005074572 0.0005074572 0.0005074572
0.0005503950 0.0005503950 0.0005503950
0.0005933328 0.0005933328 0.0005933328
0.0006362707 0.0006362707 0.0006362707
0.0006792085 0.0006792085 0.0006792085
0.0007221463 0.0007221463 0.0007221463
0.0007650842 0.0007650842 0.0007650842
0.0008080220 0.0008080220 0.0008080220
0.0008509599 0.0008509599 0.0008509599
0.0008938977 0.0008938977 0.0008938977
0.0009368355 0.0009368355 0.0009368355
0.0009797734 0.0009797734 0.0009797734
0.0010227112 0.0010227112 0.0010227112
0.0010656490 0.0010656490 0.0010656490
0.0011085869 0.0011085869 0.0011085869
0.0011515247 0.0011515247 0.0011515247
0.0011944626 0.0011944626 0.0011944626
0.0012374004 0.0012374004 0.0012374004
0.0012803382 0.0012803382 0.0012803382
0.0013232761 0.0013232761 0.0013232761
0.0013662139 0.0013662139 0.0013662139
0.0014091517 0.0014091517 0.0014091517
0.0014520896 0.0014520896 0.0014520896
0.0014950274 0.0014950274 0.0014950274
0.0015379653 0.0015379653 0.0015379653
0.0015809031 0.0015809031 0.0015809031
0.0016238409 0.0016238409 0.0016238409
0.0016667788 0.0016667788 0.0016667788
0.0017097166 0.0017097166 0.0017097166
0.0017526544 0.0017526544 0.0017526544
0.0017955923 0.0017955923 0.0017955923
0.0018385301 0.0018385301 0.0018385301
0.0018814679 0.0018814679 0.0018814679
0.0019244058 0.0019244058 0.0019244058
0.0019673436 0.0019673436 0.0019673436
0.0020102815 0.0020102815 0.0020102815
0.0020532193 0.0020532193 0.0020532193
0.0020961571 0.0020961571 0.0020961571
0.0021390950 0.0021390950 0.0021390950
0.0021820328 0.0021820328 0.0021820328
0.0022249706 0.0022249706 0.0022249706
0.0022679085 0.0022679085 0.0022679085
0.0023108463 0.0023108463 0.0023108463
0.0023537842 0.0023537842 0.0023537842
0.0023967220 0.0023967220 0.0023967220
0.0024396598 0.0024396598 0.0024396598
0.0024825977 0.0024825977 0.0024825977
0.0025255355 0.0025255355 0.0025255355
0.0025684733 0.0025684733 0.0025684733
0.0026114112 0.0026114112 0.0026114112
0.0026543490 0.0026543490 0.0026543490
0.0026972869 0.0026972869 0.0026972869
0.0027402247 0.0027402247 0.0027402247
0.0027831625 0.0027831625 0.0027831625
0.0028261004 0.0028261004 0.0028261004
0.0028690382 0.0028690382 0.0028690382
0.0029119760 0.0029119760 0.0029119760
0.0029549139 0.0029549139 0.0029549139
0.0029978517 0.0029978517 0.0029978517
0.0030407896 0.0030407896 0.0030407896
0.0030837274 0.0030837274 0.0030837274
0.0031266652 0.0031266652 0.0031266652
0.0031696031 0.0031696031 0.0031696031
0.0032125409 0.0032125409 0.0032125409
0.0032554787 0.0032554787 0.0032554787
0.0032984166 0.0032984166 0.0032984166
0.0033413544 0.0033413544 0.0033413544
0.0033842922 0.0033842922 0.0033842922
0.0034272301 0.0034272301 0.0034272301
0.0034701679 0.0034701679 0.0034701679
0.0035131058 0.0035131058 0.0035131058
0.0035560436 0.0035560436 0.0035560436
0.0035989814 0.0035989814 0.0035989814
0.0036419193 0.0036419193 0.0036419193
0.0036848571 0.0036848571 0.0036848571
0.0037277949 0.0037277949 0.0037277949
0.0037707328 0.0037707328 0.0037707328
0.0038136706 0.0038136706 0.0038136706
0.0038566085 0.0038566085 0.0038566085
0.0038995463 0.0038995463 0.0038995463
0.0039424841 0.0039424841 0.0039424841
0.0039854220 0.0039854220 0.0039854220
0.0040283598 0.0040283598 0.0040283598
0.0040712976 0.0040712976 0.0040712976
0.0041142366 0.0041142366 0.0041142366
0.0041572199 0.0041572199 0.0041572199
0.0042002700 0.0042002700 0.0042002700
0.0042433868 0.0042433868 0.0042433868
0.0042865705 0.0042865705 0.0042865705
0.0043298211 0.0043298211 0.0043298211
0.0043731389 0.0043731389 0.0043731389
0.0044165239 0.0044165239 0.0044165239
0.0044599762 0.0044599762 0.0044599762
0.0045034958 0.0045034958 0.0045034958
0.0045470830 0.0045470830 0.0045470830
0.0045907379 0.0045907379 0.0045907379
0.0046344604 0.0046344604 0.0046344604
0.0046782507 0.0046782507 0.0046782507
0.0047221090 0.0047221090 0.0047221090
0.0047660354 0.0047660354 0.0047660354
0.0048100298 0.0048100298 0.0048100298
0.0048540926 0.0048540926 0.0048540926
0.0048982236 0.0048982236 0.0048982236
0.0049424232 0.0049424232 0.0049424232
0.0049866913 0.0049866913 0.0049866913
0.0050310280 0.0050310280 0.0050310280
0.0050754336 0.0050754336 0.0050754336
0.0051199080 0.0051199080 0.0051199080
0.0051644515 0.0051644515 0.0051644515
0.0052090640 0.0052090640 0.0052090640
0.0052537457 0.0052537457 0.0052537457
0.0052984968 0.0052984968 0.0052984968
0.0053433172 0.0053433172 0.0053433172
0.0053882072 0.0053882072 0.0053882072
0.0054331669 0.0054331669 0.0054331669
0.0054781963 0.0054781963 0.0054781963
0.0055232955 0.0055232955 0.0055232955
0.0055684647 0.0055684647 0.0055684647
0.0056137040 0.0056137040 0.0056137040
0.0056590134 0.0056590134 0.0056590134
0.0057043932 0.0057043932 0.0057043932
0.0057498433 0.0057498433 0.0057498433
0.0057953639 0.0057953639 0.0057953639
0.0058409552 0.0058409552 0.0058409552
0.0058866172 0.0058866172 0.0058866172
0.0059323500 0.0059323500 0.0059323500
0.0059781538 0.0059781538 0.0059781538
0.0060240286 0.0060240286 0.0060240286
0.0060699746 0.0060699746 0.0060699746
0.0061159918 0.0061159918 0.0061159918
0.0061620805 0.0061620805 0.0061620805
0.0062082406 0.0062082406 0.0062082406
0.0062544724 0.0062544724 0.0062544724
0.0063007758 0.0063007758 0.0063007758
0.0063471511 0.0063471511 0.0063471511
0.0063935984 0.0063935984 0.0063935984
0.0064401176 0.0064401176 0.0064401176
0.0064867091 0.0064867091 0.0064867091
0.0065333728 0.0065333728 0.0065333728
0.0065801090 0.0065801090 0.0065801090
0.0066269176 0.0066269176 0.0066269176
0.0066737988 0.0066737988 0.0066737988
0.0067207528 0.0067207528 0.0067207528
0.0067677796 0.0067677796 0.0067677796
0.0068148793 0.0068148793 0.0068148793
0.0068620522 0.0068620522 0.0068620522
0.0069092982 0.0069092982 0.0069092982
0.0069566175 0.0069566175 0.0069566175
0.0070040102 0.0070040102 0.0070040102
0.0070514764 0.0070514764 0.0070514764
0.0070990162 0.0070990162 0.0070990162
0.0071466298 0.0071466298 0.0071466298
0.0071943173 0.0071943173 0.0071943173
0.0072420787 0.0072420787 0.0072420787
0.0072899143 0.0072899143 0.0072899143
0.0073378240 0.0073378240 0.0073378240
0.0073858081 0.0073858081 0.0073858081
0.0074338666 0.0074338666 0.0074338666
0.0074819996 0.0074819996 0.0074819996
0.0075302073 0.0075302073 0.0075302073
0.0075784898 0.0075784898 0.0075784898
0.0076268472 0.0076268472 0.0076268472
0.0076752796 0.0076752796 0.0076752796
0.0077237872 0.0077237872 0.0077237872
0.0077723700 0.0077723700 0.0077723700
0.0078210282 0.0078210282 0.0078210282
0.0078697618 0.0078697618 0.0078697618
0.0079185711 0.0079185711 0.0079185711
0.0079674560 0.0079674560 0.0079674560
0.0080164168 0.0080164168 0.0080164168
0.0080654536 0.0080654536 0.0080654536
0.0081145664 0.0081145664 0.0081145664
0.0081637554 0.0081637554 0.0081637554
0.0082130207 0.0082130207 0.0082130207
0.0082623625 0.0082623625 0.0082623625
0.0083117808 0.0083117808 0.0083117808
0.0083612757 0.0083612757 0.0083612757
0.0084108474 0.0084108474 0.0084108474
0.0084604961 0.0084604961 0.0084604961
0.0085102217 0.0085102217 0.0085102217
0.0085600245 0.0085600245 0.0085600245
0.0086099046 0.0086099046 0.0086099046
0.0086598620 0.0086598620 0.0086598620
0.0087098969 0.0087098969 0.0087098969
0.0087600094 0.0087600094 0.0087600094
0.0088101997 0.0088101997 0.0088101997
0.0088604679 0.0088604679 0.0088604679
0.0089108140 0.0089108140 0.0089108140
0.0089612382 0.0089612382 0.0089612382
0.0090117407 0.0090117407 0.0090117407
0.0090623214 0.0090623214 0.0090623214
0.0091129807 0.0091129807 0.0091129807
0.0091637185 0.0091637185 0.0091637185
0.0092145351 0.0092145351 0.0092145351
0.0092654305 0.0092654305 0.0092654305
0.0093164048 0.0093164048 0.0093164048
0.0093674582 0.0093674582 0.0093674582
0.0094185908 0.0094185908 0.0094185908
0.0094698028 0.0094698028 0.0094698028
0.0095210941 0.0095210941 0.0095210941
0.0095724651 0.0095724651 0.0095724651
0.0096239157 0.0096239157 0.0096239157
0.0096754462 0.0096754462 0.0096754462
0.0097270566 0.0097270566 0.0097270566
0.0097787470 0.0097787470 0.0097787470
0.0098305176 0.0098305176 0.0098305176
0.0098823686 0.0098823686 0.0098823686
0.0099343000 0.0099343000 0.0099343000
0.0099863119 0.0099863119 0.0099863119
0.0100384046 0.0100384046 0.0100384046
0.0100905780 0.0100905780 0.0100905780
0.0101428324 0.0101428324 0.0101428324
0.0101951678 0.0101951678 0.0101951678
0.0102475844 0.0102475844 0.0102475844
0.0103000824 0.0103000824 0.0103000824
0.0103526618 0.0103526618 0.0103526618
0.0104053227 0.0104053227 0.0104053227
0.0104580654 0.0104580654 0.0104580654
0.0105108898 0.0105108898 0.0105108898
0.0105637962 0.0105637962 0.0105637962
0.0106167847 0.0106167847 0.0106167847
0.0106698554 0.0106698554 0.0106698554
0.0107230084 0.0107230084 0.0107230084
0.0107762438 0.0107762438 0.0107762438
0.0108295619 0.0108295619 0.0108295619
0.0108829626 0.0108829626 0.0108829626
0.0109364462 0.0109364462 0.0109364462
0.0109900128 0.0109900128 0.0109900128
0.0110436625 0.0110436625 0.0110436625
0.0110973954 0.0110973954 0.0110973954
0.0111512116 0.0111512116 0.0111512116
0.0112051113 0.0112051113 0.0112051113
0.0112590947 0.0112590947 0.0112590947
0.0113131618 0.0113131618 0.0113131618
0.0113673127 0.0113673127 0.0113673127
0.0114215477 0.0114215477 0.0114215477
0.0114758668 0.0114758668 0.0114758668
0.0115302701 0.0115302701 0.0115302701
0.0115847579 0.0115847579 0.0115847579
0.0116393302 0.0116393302 0.0116393302
0.0116939871 0.0116939871 0.0116939871
0.0117487289 0.0117487289 0.0117487289
0.0118035555 0.0118035555 0.0118035555
0.0118584672 0.0118584672 0.0118584672
0.0119134641 0.0119134641 0.0119134641
0.0119685463 0.0119685463 0.0119685463
0.0120237139 0.0120237139 0.0120237139
0.0120789672 0.0120789672 0.0120789672
0.0121343061 0.0121343061 0.0121343061
0.0121897309 0.0121897309 0.0121897309
0.0122452417 0.0122452417 0.0122452417
0.0123008386 0.0123008386 0.0123008386
0.0123565217 0.0123565217 0.0123565217
0.0124122912 0.0124122912 0.0124122912
0.0124681472 0.0124681472 0.0124681472
0.0125240899 0.0125240899 0.0125240899
0.0125801194 0.0125801194 0.0125801194
0.0126362358 0.0126362358 0.0126362358
0.0126924392 0.0126924392 0.0126924392
0.0127487298 0.0127487298 0.0127487298
0.0128051078 0.0128051078 0.0128051078
0.0128615732 0.0128615732 0.0128615732
0.0129181261 0.0129181261 0.0129181261
0.0129747669 0.0129747669 0.0129747669
0.0130314955 0.0130314955 0.0130314955
0.0130883121 0.0130883121 0.0130883121
0.0131452168 0.0131452168 0.0131452168
0.0132022098 0.0132022098 0.0132022098
0.0132592912 0.0132592912 0.0132592912
0.0133164612 0.0133164612 0.0133164612
0.0133737198 0.0133737198 0.0133737198
0.0134310673 0.0134310673 0.0134310673
0.0134885038 0.0134885038 0.0134885038
0.0135460293 0.0135460293 0.0135460293
0.0136036441 0.0136036441 0.0136036441
0.0136613483 0.0136613483 0.0136613483
0.0137191419 0.0137191419 0.0137191419
0.0137770253 0.0137770253 0.0137770253
