VFX IO/Cineon Log to Linear.cube
# DaVinci Resolve Cube (1D shaper LUT).

LUT_1D_SIZE 4096
LUT_1D_INPUT_RANGE 0.0000000000 1.0000000000

-0.0056508194 -0.0056508194 -0.0056508194
-0.0056407150 -0.0056407150 -0.0056407150
-0.0056305911 -0.0056305911 -0.0056305911
-0.0056204478 -0.0056204478 -0.0056204478
-0.0056102850 -0.0056102850 -0.0056102850
-0.0056001027 -0.0056001027 -0.0056001027
-0.0055899009 -0.0055899009 -0.0055899009
-0.0055796795 -0.0055796795 -0.0055796795
-0.0055694385 -0.0055694385 -0.0055694385
-0.0055591778 -0.0055591778 -0.0055591778
-0.0055488974 -0.0055488974 -0.0055488974
-0.0055385973 -0.0055385973 -0.0055385973
-0.0055282775 -0.0055282775 -0.0055282775
-0.0055179378 -0.0055179378 -0.0055179378
-0.0055075783 -0.0055075783 -0.0055075783
-0.0054971989 -0.0054971989 -0.0054971989
-0.0054867995 -0.0054867995 -0.0054867995
-0.0054763803 -0.0054763803 -0.0054763803
-0.0054659410 -0.0054659410 -0.0054659410
-0.0054554817 -0.0054554817 -0.0054554817
-0.0054450023 -0.0054450023 -0.0054450023
-0.0054345028 -0.0054345028 -0.0054345028
-0.0054239831 -0.0054239831 -0.0054239831
-0.0054134433 -0.0054134433 -0.0054134433
-0.0054028832 -0.0054028832 -0.0054028832
-0.0053923029 -0.0053923029 -0.0053923029
-0.0053817022 -0.0053817022 -0.0053817022
-0.0053710813 -0.0053710813 -0.0053710813
-0.0053604399 -0.0053604399 -0.0053604399
-0.0053497781 -0.0053497781 -0.0053497781
-0.0053390958 -0.0053390958 -0.0053390958
-0.0053283931 -0.0053283931 -0.0053283931
-0.0053176698 -0.0053176698 -0.0053176698
-0.0053069259 -0.0053069259 -0.0053069259
-0.0052961614 -0.0052961614 -0.0052961614
-0.0052853762 -0.0052853762 -0.0052853762
-0.0052745703 -0.0052745703 -0.0052745703
-0.0052637437 -0.0052637437 -0.0052637437
-0.0052528964 -0.0052528964 -0.0052528964
-0.0052420282 -0.0052420282 -0.0052420282
-0.0052311391 -0.0052311391 -0.0052311391
-0.0052202291 -0.0052202291 -0.0052202291
-0.0052092982 -0.0052092982 -0.0052092982
-0.0051983464 -0.0051983464 -0.0051983464
-0.0051873735 -0.0051873735 -0.0051873735
-0.0051763795 -0.0051763795 -0.0051763795
-0.0051653645 -0.0051653645 -0.0051653645
-0.0051543283 -0.0051543283 -0.0051543283
-0.0051432709 -0.0051432709 -0.0051432709
-0.0051321923 -0.0051321923 -0.0051321923
-0.0051210924 -0.0051210924 -0.0051210924
-0.0051099713 -0.0051099713 -0.0051099713
-0.0050988288 -0.0050988288 -0.0050988288
-0.0050876649 -0.0050876649 -0.0050876649
-0.0050764795 -0.0050764795 -0.0050764795
-0.0050652728 -0.0050652728 -0.0050652728
-0.0050540445 -0.0050540445 -0.0050540445
-0.0050427946 -0.0050427946 -0.0050427946
-0.0050315232 -0.0050315232 -0.0050315232
-0.0050202301 -0.0050202301 -0.0050202301
-0.0050089153 -0.0050089153 -0.0050089153
-0.0049975789 -0.0049975789 -0.0049975789
-0.0049862207 -0.0049862207 -0.0049862207
-0.0049748406 -0.0049748406 -0.0049748406
-0.0049634388 -0.0049634388 -0.0049634388
-0.0049520150 -0.0049520150 -0.0049520150
-0.0049405694 -0.0049405694 -0.0049405694
-0.0049291017 -0.0049291017 -0.0049291017
-0.0049176121 -0.0049176121 -0.0049176121
-0.0049061004 -0.0049061004 -0.0049061004
-0.0048945666 -0.0048945666 -0.0048945666
-0.0048830107 -0.0048830107 -0.0048830107
-0.0048714326 -0.0048714326 -0.0048714326
-0.0048598323 -0.0048598323 -0.0048598323
-0.0048482097 -0.0048482097 -0.0048482097
-0.0048365648 -0.0048365648 -0.0048365648
-0.0048248975 -0.0048248975 -0.0048248975
-0.0048132079 -0.0048132079 -0.0048132079
-0.0048014958 -0.0048014958 -0.0048014958
-0.0047897613 -0.0047897613 -0.0047897613
-0.0047780042 -0.0047780042 -0.0047780042
-0.0047662245 -0.0047662245 -0.0047662245
-0.0047544223 -0.0047544223 -0.0047544223
-0.0047425974 -0.0047425974 -0.0047425974
-0.0047307498 -0.0047307498 -0.0047307498
-0.0047188795 -0.0047188795 -0.0047188795
-0.0047069864 -0.0047069864 -0.0047069864
-0.0046950704 -0.0046950704 -0.0046950704
-0.0046831316 -0.0046831316 -0.0046831316
-0.0046711699 -0.0046711699 -0.0046711699
-0.0046591852 -0.0046591852 -0.0046591852
-0.0046471775 -0.0046471775 -0.0046471775
-0.0046351468 -0.0046351468 -0.0046351468
-0.0046230930 -0.0046230930 -0.0046230930
-0.0046110160 -0.0046110160 -0.0046110160
-0.0045989159 -0.0045989159 -0.0045989159
-0.0045867925 -0.0045867925 -0.0045867925
-0.0045746459 -0.0045746459 -0.0045746459
-0.0045624760 -0.0045624760 -0.0045624760
-0.0045502827 -0.0045502827 -0.0045502827
-0.0045380660 -0.0045380660 -0.0045380660
-0.0045258258 -0.0045258258 -0.0045258258
-0.0045135622 -0.0045135622 -0.0045135622
-0.0045012750 -0.0045012750 -0.0045012750
-0.0044889643 -0.0044889643 -0.0044889643
-0.0044766299 -0.0044766299 -0.0044766299
-0.0044642718 -0.0044642718 -0.0044642718
-0.0044518901 -0.0044518901 -0.0044518901
-0.0044394845 -0.0044394845 -0.0044394845
-0.0044270552 -0.0044270552 -0.0044270552
-0.0044146020 -0.0044146020 -0.0044146020
-0.0044021249 -0.0044021249 -0.0044021249
-0.0043896239 -0.0043896239 -0.0043896239
-0.0043770988 -0.0043770988 -0.0043770988
-0.0043645497 -0.0043645497 -0.0043645497
-0.0043519766 -0.0043519766 -0.0043519766
-0.0043393793 -0.0043393793 -0.0043393793
-0.0043267578 -0.0043267578 -0.0043267578
-0.0043141121 -0.0043141121 -0.0043141121
-0.0043014421 -0.0043014421 -0.0043014421
-0.0042887479 -0.0042887479 -0.0042887479
-0.0042760292 -0.0042760292 -0.0042760292
-0.0042632862 -0.0042632862 -0.0042632862
-0.0042505186 -0.0042505186 -0.0042505186
-0.0042377266 -0.0042377266 -0.0042377266
-0.0042249101 -0.0042249101 -0.0042249101
-0.0042120689 -0.0042120689 -0.0042120689
-0.0041992031 -0.0041992031 -0.0041992031
-0.0041863126 -0.0041863126 -0.0041863126
-0.0041733973 -0.0041733973 -0.0041733973
-0.0041604573 -0.0041604573 -0.0041604573
-0.0041474924 -0.0041474924 -0.0041474924
-0.0041345027 -0.0041345027 -0.0041345027
-0.0041214880 -0.0041214880 -0.0041214880
-0.0041084483 -0.0041084483 -0.0041084483
-0.0040953836 -0.0040953836 -0.0040953836
-0.0040822939 -0.0040822939 -0.0040822939
-0.0040691790 -0.0040691790 -0.0040691790
-0.0040560389 -0.0040560389 -0.0040560389
-0.0040428737 -0.0040428737 -0.0040428737
-0.0040296831 -0.0040296831 -0.0040296831
-0.0040164673 -0.0040164673 -0.0040164673
-0.0040032260 -0.0040032260 -0.0040032260
-0.0039899594 -0.0039899594 -0.0039899594
-0.0039766673 -0.0039766673 -0.0039766673
-0.0039633497 -0.0039633497 -0.0039633497
-0.0039500065 -0.0039500065 -0.0039500065
-0.0039366377 -0.0039366377 -0.0039366377
-0.0039232433 -0.0039232433 -0.0039232433
-0.0039098232 -0.0039098232 -0.0039098232
-0.0038963773 -0.0038963773 -0.0038963773
-0.0038829056 -0.0038829056 -0.0038829056
-0.0038694080 -0.0038694080 -0.0038694080
-0.0038558845 -0.0038558845 -0.0038558845
-0.0038423351 -0.0038423351 -0.0038423351
-0.0038287597 -0.0038287597 -0.0038287597
-0.0038151582 -0.0038151582 -0.0038151582
-0.0038015306 -0.0038015306 -0.0038015306
-0.0037878769 -0.0037878769 -0.0037878769
-0.0037741969 -0.0037741969 -0.0037741969
-0.0037604907 -0.0037604907 -0.0037604907
-0.0037467582 -0.0037467582 -0.0037467582
-0.0037329994 -0.0037329994 -0.0037329994
-0.0037192141 -0.0037192141 -0.0037192141
-0.0037054024 -0.0037054024 -0.0037054024
-0.0036915641 -0.0036915641 -0.0036915641
-0.0036776993 -0.0036776993 -0.0036776993
-0.0036638079 -0.0036638079 -0.0036638079
-0.0036498899 -0.0036498899 -0.0036498899
-0.0036359451 -0.0036359451 -0.0036359451
-0.0036219735 -0.0036219735 -0.0036219735
-0.0036079752 -0.0036079752 -0.0036079752
-0.0035939500 -0.0035939500 -0.0035939500
-0.0035798978 -0.0035798978 -0.0035798978
-0.0035658187 -0.0035658187 -0.0035658187
-0.0035517126 -0.0035517126 -0.0035517126
-0.0035375794 -0.0035375794 -0.0035375794
-0.0035234191 -0.0035234191 -0.0035234191
-0.0035092315 -0.0035092315 -0.0035092315
-0.0034950168 -0.0034950168 -0.0034950168
-0.0034807748 -0.0034807748 -0.0034807748
-0.0034665054 -0.0034665054 -0.0034665054
-0.0034522087 -0.0034522087 -0.0034522087
-0.0034378845 -0.0034378845 -0.0034378845
-0.0034235329 -0.0034235329 -0.0034235329
-0.0034091536 -0.0034091536 -0.0034091536
-0.0033947468 -0.0033947468 -0.0033947468
-0.0033803124 -0.0033803124 -0.0033803124
-0.0033658502 -0.0033658502 -0.0033658502
-0.0033513603 -0.0033513603 -0.0033513603
-0.0033368425 -0.0033368425 -0.0033368425
-0.0033222969 -0.0033222969 -0.0033222969
-0.0033077234 -0.0033077234 -0.0033077234
-0.0032931220 -0.0032931220 -0.0032931220
-0.0032784924 -0.0032784924 -0.0032784924
-0.0032638349 -0.0032638349 -0.0032638349
-0.0032491491 -0.0032491491 -0.0032491491
-0.0032344352 -0.0032344352 -0.0032344352
-0.0032196931 -0.0032196931 -0.0032196931
-0.0032049227 -0.0032049227 -0.0032049227
-0.0031901239 -0.0031901239 -0.0031901239
-0.0031752967 -0.0031752967 -0.0031752967
-0.0031604411 -0.0031604411 -0.0031604411
-0.0031455569 -0.0031455569 -0.0031455569
-0.0031306442 -0.0031306442 -0.0031306442
-0.0031157028 -0.0031157028 -0.0031157028
-0.0031007328 -0.0031007328 -0.0031007328
-0.0030857341 -0.0030857341 -0.0030857341
-0.0030707065 -0.0030707065 -0.0030707065
-0.0030556502 -0.0030556502 -0.0030556502
-0.0030405649 -0.0030405649 -0.0030405649
-0.0030254507 -0.0030254507 -0.0030254507
-0.0030103074 -0.0030103074 -0.0030103074
-0.0029951351 -0.0029951351 -0.0029951351
-0.0029799337 -0.0029799337 -0.0029799337
-0.0029647031 -0.0029647031 -0.0029647031
-0.0029494433 -0.0029494433 -0.0029494433
-0.0029341542 -0.0029341542 -0.0029341542
-0.0029188357 -0.0029188357 -0.0029188357
-0.0029034879 -0.0029034879 -0.0029034879
-0.0028881105 -0.0028881105 -0.0028881105
-0.0028727037 -0.0028727037 -0.0028727037
-0.0028572673 -0.0028572673 -0.0028572673
-0.0028418013 -0.0028418013 -0.0028418013
-0.0028263056 -0.0028263056 -0.0028263056
-0.0028107801 -0.0028107801 -0.0028107801
-0.0027952249 -0.0027952249 -0.0027952249
-0.0027796398 -0.0027796398 -0.0027796398
-0.0027640248 -0.0027640248 -0.0027640248
-0.0027483798 -0.0027483798 -0.0027483798
-0.0027327048 -0.0027327048 -0.0027327048
-0.0027169997 -0.0027169997 -0.0027169997
-0.0027012645 -0.0027012645 -0.0027012645
-0.0026854991 -0.0026854991 -0.0026854991
-0.0026697034 -0.0026697034 -0.0026697034
-0.0026538774 -0.0026538774 -0.0026538774
-0.0026380210 -0.0026380210 -0.0026380210
-0.0026221342 -0.0026221342 -0.0026221342
-0.0026062169 -0.0026062169 -0.0026062169
-0.0025902690 -0.0025902690 -0.0025902690
-0.0025742906 -0.0025742906 -0.0025742906
-0.0025582814 -0.0025582814 -0.0025582814
-0.0025422416 -0.0025422416 -0.0025422416
-0.0025261709 -0.0025261709 -0.0025261709
-0.0025100695 -0.0025100695 -0.0025100695
-0.0024939371 -0.0024939371 -0.0024939371
-0.0024777737 -0.0024777737 -0.0024777737
-0.0024615794 -0.0024615794 -0.0024615794
-0.0024453539 -0.0024453539 -0.0024453539
-0.0024290973 -0.0024290973 -0.0024290973
-0.0024128095 -0.0024128095 -0.0024128095
-0.0023964905 -0.0023964905 -0.0023964905
-0.0023801401 -0.0023801401 -0.0023801401
-0.0023637584 -0.0023637584 -0.0023637584
-0.0023473452 -0.0023473452 -0.0023473452
-0.0023309005 -0.0023309005 -0.0023309005
-0.0023144242 -0.0023144242 -0.0023144242
-0.0022979164 -0.0022979164 -0.0022979164
-0.0022813768 -0.0022813768 -0.0022813768
-0.0022648055 -0.0022648055 -0.0022648055
-0.0022482024 -0.0022482024 -0.0022482024
-0.0022315674 -0.0022315674 -0.0022315674
-0.0022149005 -0.0022149005 -0.0022149005
-0.0021982016 -0.0021982016 -0.0021982016
-0.0021814707 -0.0021814707 -0.0021814707
-0.0021647076 -0.0021647076 -0.0021647076
-0.0021479124 -0.0021479124 -0.0021479124
-0.0021310850 -0.0021310850 -0.0021310850
-0.0021142252 -0.0021142252 -0.0021142252
-0.0020973331 -0.0020973331 -0.0020973331
-0.0020804086 -0.0020804086 -0.0020804086
-0.0020634516 -0.0020634516 -0.0020634516
-0.0020464620 -0.0020464620 -0.0020464620
-0.0020294398 -0.0020294398 -0.0020294398
-0.0020123850 -0.0020123850 -0.0020123850
-0.0019952974 -0.0019952974 -0.0019952974
-0.0019781771 -0.0019781771 -0.0019781771
-0.0019610239 -0.0019610239 -0.0019610239
-0.0019438377 -0.0019438377 -0.0019438377
-0.0019266186 -0.0019266186 -0.0019266186
-0.0019093664 -0.0019093664 -0.0019093664
-0.0018920811 -0.0018920811 -0.0018920811
-0.0018747627 -0.0018747627 -0.0018747627
-0.0018574110 -0.0018574110 -0.0018574110
-0.0018400260 -0.0018400260 -0.0018400260
-0.0018226076 -0.0018226076 -0.0018226076
-0.0018051558 -0.0018051558 -0.0018051558
-0.0017876705 -0.0017876705 -0.0017876705
-0.0017701517 -0.0017701517 -0.0017701517
-0.0017525992 -0.0017525992 -0.0017525992
-0.0017350130 -0.0017350130 -0.0017350130
-0.0017173931 -0.0017173931 -0.0017173931
-0.0016997394 -0.0016997394 -0.0016997394
-0.0016820518 -0.0016820518 -0.0016820518
-0.0016643302 -0.0016643302 -0.0016643302
-0.0016465746 -0.0016465746 -0.0016465746
-0.0016287850 -0.0016287850 -0.0016287850
-0.0016109612 -0.0016109612 -0.0016109612
-0.0015931032 -0.0015931032 -0.0015931032
-0.0015752109 -0.0015752109 -0.0015752109
-0.0015572843 -0.0015572843 -0.0015572843
-0.0015393233 -0.0015393233 -0.0015393233
-0.0015213278 -0.0015213278 -0.0015213278
-0.0015032978 -0.0015032978 -0.0015032978
-0.0014852331 -0.0014852331 -0.0014852331
-0.0014671338 -0.0014671338 -0.0014671338
-0.0014489998 -0.0014489998 -0.0014489998
-0.0014308309 -0.0014308309 -0.0014308309
-0.0014126272 -0.0014126272 -0.0014126272
-0.0013943886 -0.0013943886 -0.0013943886
-0.0013761149 -0.0013761149 -0.0013761149
-0.0013578062 -0.0013578062 -0.0013578062
-0.0013394623 -0.0013394623 -0.0013394623
-0.0013210832 -0.0013210832 -0.0013210832
-0.0013026689 -0.0013026689 -0.0013026689
-0.0012842192 -0.0012842192 -0.0012842192
-0.0012657341 -0.0012657341 -0.0012657341
-0.0012472135 -0.0012472135 -0.0012472135
-0.0012286574 -0.0012286574 -0.0012286574
-0.0012100656 -0.0012100656 -0.0012100656
-0.0011914382 -0.0011914382 -0.0011914382
-0.0011727750 -0.0011727750 -0.0011727750
-0.0011540761 -0.0011540761 -0.0011540761
-0.0011353412 -0.0011353412 -0.0011353412
-0.0011165703 -0.0011165703 -0.0011165703
-0.0010977635 -0.0010977635 -0.0010977635
-0.0010789205 -0.0010789205 -0.0010789205
-0.0010600414 -0.0010600414 -0.0010600414
-0.0010411260 -0.0010411260 -0.0010411260
-0.0010221744 -0.0010221744 -0.0010221744
-0.0010031863 -0.0010031863 -0.0010031863
-0.0009841619 -0.0009841619 -0.0009841619
-0.0009651009 -0.0009651009 -0.0009651009
-0.0009460033 -0.0009460033 -0.0009460033
-0.0009268691 -0.0009268691 -0.0009268691
-0.0009076981 -0.0009076981 -0.0009076981
-0.0008884904 -0.0008884904 -0.0008884904
-0.0008692458 -0.0008692458 -0.0008692458
-0.0008499642 -0.0008499642 -0.0008499642
-0.0008306457 -0.0008306457 -0.0008306457
-0.0008112901 -0.0008112901 -0.0008112901
-0.0007918973 -0.0007918973 -0.0007918973
-0.0007724673 -0.0007724673 -0.0007724673
-0.0007530000 -0.0007530000 -0.0007530000
-0.0007334954 -0.0007334954 -0.0007334954
-0.0007139533 -0.0007139533 -0.0007139533
-0.0006943737 -0.0006943737 -0.0006943737
-0.0006747565 -0.0006747565 -0.0006747565
-0.0006551017 -0.0006551017 -0.0006551017
-0.0006354092 -0.0006354092 -0.0006354092
-0.0006156788 -0.0006156788 -0.0006156788
-0.0005959106 -0.0005959106 -0.0005959106
-0.0005761045 -0.0005761045 -0.0005761045
-0.0005562604 -0.0005562604 -0.0005562604
-0.0005363781 -0.0005363781 -0.0005363781
-0.0005164577 -0.0005164577 -0.0005164577
-0.0004964991 -0.0004964991 -0.0004964991
-0.0004765021 -0.0004765021 -0.0004765021
-0.0004564668 -0.0004564668 -0.0004564668
-0.0004363931 -0.0004363931 -0.0004363931
-0.0004162808 -0.0004162808 -0.0004162808
-0.0003961299 -0.0003961299 -0.0003961299
-0.0003759403 -0.0003759403 -0.0003759403
-0.0003557120 -0.0003557120 -0.0003557120
-0.0003354448 -0.0003354448 -0.0003354448
-0.0003151388 -0.0003151388 -0.0003151388
-0.0002947938 -0.0002947938 -0.0002947938
-0.0002744097 -0.0002744097 -0.0002744097
-0.0002539865 -0.0002539865 -0.0002539865
-0.0002335241 -0.0002335241 -0.0002335241
-0.0002130225 -0.0002130225 -0.0002130225
-0.0001924815 -0.0001924815 -0.0001924815
-0.0001719011 -0.0001719011 -0.0001719011
-0.0001512811 -0.0001512811 -0.0001512811
-0.0001306216 -0.0001306216 -0.0001306216
-0.0001099225 -0.0001099225 -0.0001099225
-0.0000891836 -0.0000891836 -0.0000891836
-0.0000684049 -0.0000684049 -0.0000684049
-0.0000475864 -0.0000475864 -0.0000475864
-0.0000267279 -0.0000267279 -0.0000267279
-0.0000058293 -0.0000058293 -0.0000058293
0.0000151093 0.0000151093 0.0000151093
0.0000360882 0.0000360882 0.0000360882
0.0000571073 0.0000571073 0.0000571073
0.0000781667 0.0000781667 0.0000781667
0.0000992666 0.0000992666 0.0000992666
0.0001204070 0.0001204070 0.0001204070
0.0001415879 0.0001415879 0.0001415879
0.0001628095 0.0001628095 0.0001628095
0.0001840718 0.0001840718 0.0001840718
0.0002053749 0.0002053749 0.0002053749
0.0002267190 0.0002267190 0.0002267190
0.0002481039 0.0002481039 0.0002481039
0.0002695300 0.0002695300 0.0002695300
0.0002909971 0.0002909971 0.0002909971
0.0003125054 0.0003125054 0.0003125054
0.0003340551 0.0003340551 0.0003340551
0.0003556460 0.0003556460 0.0003556460
0.0003772785 0.0003772785 0.0003772785
0.0003989524 0.0003989524 0.0003989524
0.0004206679 0.0004206679 0.0004206679
0.0004424252 0.0004424252 0.0004424252
0.0004642241 0.0004642241 0.0004642241
0.0004860649 0.0004860649 0.0004860649
0.0005079477 0.0005079477 0.0005079477
0.0005298724 0.0005298724 0.0005298724
0.0005518392 0.0005518392 0.0005518392
0.0005738482 0.0005738482 0.0005738482
0.0005958994 0.0005958994 0.0005958994
0.0006179929 0.0006179929 0.0006179929
0.0006401288 0.0006401288 0.0006401288
0.0006623072 0.0006623072 0.0006623072
0.0006845282 0.0006845282 0.0006845282
0.0007067919 0.0007067919 0.0007067919
0.0007290982 0.0007290982 0.0007290982
0.0007514474 0.0007514474 0.0007514474
0.0007738395 0.0007738395 0.0007738395
0.0007962745 0.0007962745 0.0007962745
0.0008187526 0.0008187526 0.0008187526
0.0008412738 0.0008412738 0.0008412738
0.0008638383 0.0008638383 0.0008638383
0.0008864461 0.0008864461 0.0008864461
0.0009090972 0.0009090972 0.0009090972
0.0009317919 0.0009317919 0.0009317919
0.0009545301 0.0009545301 0.0009545301
0.0009773119 0.0009773119 0.0009773119
0.0010001374 0.0010001374 0.0010001374
0.0010230068 0.0010230068 0.0010230068
0.0010459201 0.0010459201 0.0010459201
0.0010688773 0.0010688773 0.0010688773
0.0010918786 0.0010918786 0.0010918786
0.0011149240 0.0011149240 0.0011149240
0.0011380137 0.0011380137 0.0011380137
0.0011611477 0.0011611477 0.0011611477
0.0011843261 0.0011843261 0.0011843261
0.0012075489 0.0012075489 0.0012075489
0.0012308164 0.0012308164 0.0012308164
0.0012541285 0.0012541285 0.0012541285
0.0012774853 0.0012774853 0.0012774853
0.0013008870 0.0013008870 0.0013008870
0.0013243336 0.0013243336 0.0013243336
0.0013478251 0.0013478251 0.0013478251
0.0013713618 0.0013713618 0.0013713618
0.0013949436 0.0013949436 0.0013949436
0.0014185707 0.0014185707 0.0014185707
0.0014422432 0.0014422432 0.0014422432
0.0014659611 0.0014659611 0.0014659611
0.0014897245 0.0014897245 0.0014897245
0.0015135335 0.0015135335 0.0015135335
0.0015373882 0.0015373882 0.0015373882
0.0015612886 0.0015612886 0.0015612886
0.0015852350 0.0015852350 0.0015852350
0.0016092273 0.0016092273 0.0016092273
0.0016332657 0.0016332657 0.0016332657
0.0016573502 0.0016573502 0.0016573502
0.0016814809 0.0016814809 0.0016814809
0.0017056579 0.0017056579 0.0017056579
0.0017298814 0.0017298814 0.0017298814
0.0017541513 0.0017541513 0.0017541513
0.0017784678 0.0017784678 0.0017784678
0.0018028310 0.0018028310 0.0018028310
0.0018272409 0.0018272409 0.0018272409
0.0018516977 0.0018516977 0.0018516977
0.0018762014 0.0018762014 0.0018762014
0.0019007522 0.0019007522 0.0019007522
0.0019253501 0.0019253501 0.0019253501
0.0019499951 0.0019499951 0.0019499951
0.0019746875 0.0019746875 0.0019746875
0.0019994273 0.0019994273 0.0019994273
0.0020242146 0.0020242146 0.0020242146
0.0020490494 0.0020490494 0.0020490494
0.0020739319 0.0020739319 0.0020739319
0.0020988621 0.0020988621 0.0020988621
0.0021238402 0.0021238402 0.0021238402
0.0021488663 0.0021488663 0.0021488663
0.0021739403 0.0021739403 0.0021739403
0.0021990625 0.0021990625 0.0021990625
0.0022242329 0.0022242329 0.0022242329
0.0022494516 0.0022494516 0.0022494516
0.0022747188 0.0022747188 0.0022747188
0.0023000344 0.0023000344 0.0023000344
0.0023253986 0.0023253986 0.0023253986
0.0023508114 0.0023508114 0.0023508114
0.0023762731 0.0023762731 0.0023762731
0.0024017836 0.0024017836 0.0024017836
0.0024273431 0.0024273431 0.0024273431
0.0024529516 0.0024529516 0.0024529516
0.0024786093 0.0024786093 0.0024786093
0.0025043162 0.0025043162 0.0025043162
0.0025300725 0.0025300725 0.0025300725
0.0025558782 0.0025558782 0.0025558782
0.0025817334 0.0025817334 0.0025817334
0.0026076383 0.0026076383 0.0026076383
0.0026335928 0.0026335928 0.0026335928
0.0026595972 0.0026595972 0.0026595972
0.0026856515 0.0026856515 0.0026856515
0.0027117558 0.0027117558 0.0027117558
0.0027379102 0.0027379102 0.0027379102
0.0027641148 0.0027641148 0.0027641148
0.0027903697 0.0027903697 0.0027903697
0.0028166750 0.0028166750 0.0028166750
0.0028430307 0.0028430307 0.0028430307
0.0028694371 0.0028694371 0.0028694371
0.0028958941 0.0028958941 0.0028958941
0.0029224019 0.0029224019 0.0029224019
0.0029489606 0.0029489606 0.0029489606
0.0029755702 0.0029755702 0.0029755702
0.0030022310 0.0030022310 0.0030022310
0.0030289428 0.0030289428 0.0030289428
0.0030557060 0.0030557060 0.0030557060
0.0030825205 0.0030825205 0.0030825205
0.0031093865 0.0031093865 0.0031093865
0.0031363041 0.0031363041 0.0031363041
0.0031632733 0.0031632733 0.0031632733
0.0031902942 0.0031902942 0.0031902942
0.0032173671 0.0032173671 0.0032173671
0.0032444919 0.0032444919 0.0032444919
0.0032716687 0.0032716687 0.0032716687
0.0032988977 0.0032988977 0.0032988977
0.0033261790 0.0033261790 0.0033261790
0.0033535126 0.0033535126 0.0033535126
0.0033808987 0.0033808987 0.0033808987
0.0034083374 0.0034083374 0.0034083374
0.0034358287 0.0034358287 0.0034358287
0.0034633728 0.0034633728 0.0034633728
0.0034909697 0.0034909697 0.0034909697
0.0035186196 0.0035186196 0.0035186196
0.0035463226 0.0035463226 0.0035463226
0.0035740787 0.0035740787 0.0035740787
0.0036018881 0.0036018881 0.0036018881
0.0036297509 0.0036297509 0.0036297509
0.0036576672 0.0036576672 0.0036576672
0.0036856370 0.0036856370 0.0036856370
0.0037136605 0.0037136605 0.0037136605
0.0037417379 0.0037417379 0.0037417379
0.0037698690 0.0037698690 0.0037698690
0.0037980542 0.0037980542 0.0037980542
0.0038262935 0.0038262935 0.0038262935
0.0038545870 0.0038545870 0.0038545870
0.0038829348 0.0038829348 0.0038829348
0.0039113369 0.0039113369 0.0039113369
0.0039397936 0.0039397936 0.0039397936
0.0039683050 0.0039683050 0.0039683050
0.0039968710 0.0039968710 0.0039968710
0.0040254919 0.0040254919 0.0040254919
0.0040541676 0.0040541676 0.0040541676
0.0040828985 0.0040828985 0.0040828985
0.0041116844 0.0041116844 0.0041116844
0.0041405256 0.0041405256 0.0041405256
0.0041694222 0.0041694222 0.0041694222
0.0041983742 0.0041983742 0.0041983742
0.0042273818 0.0042273818 0.0042273818
0.0042564451 0.0042564451 0.0042564451
0.0042855642 0.0042855642 0.0042855642
0.0043147391 0.0043147391 0.0043147391
0.0043439700 0.0043439700 0.0043439700
0.0043732570 0.0043732570 0.0043732570
0.0044026003 0.0044026003 0.0044026003
0.0044319998 0.0044319998 0.0044319998
0.0044614558 0.0044614558 0.0044614558
0.0044909683 0.0044909683 0.0044909683
0.0045205375 0.0045205375 0.0045205375
0.0045501634 0.0045501634 0.0045501634
0.0045798462 0.0045798462 0.0045798462
0.0046095859 0.0046095859 0.0046095859
0.0046393827 0.0046393827 0.0046393827
0.0046692367 0.0046692367 0.0046692367
0.0046991480 0.0046991480 0.0046991480
0.0047291167 0.0047291167 0.0047291167
0.0047591430 0.0047591430 0.0047591430
0.0047892268 0.0047892268 0.0047892268
0.0048193684 0.0048193684 0.0048193684
0.0048495678 0.0048495678 0.0048495678
0.0048798252 0.0048798252 0.0048798252
0.0049101407 0.0049101407 0.0049101407
0.0049405144 0.0049405144 0.0049405144
0.0049709463 0.0049709463 0.0049709463
0.0050014367 0.0050014367 0.0050014367
0.0050319856 0.0050319856 0.0050319856
0.0050625931 0.0050625931 0.0050625931
0.0050932593 0.0050932593 0.0050932593
0.0051239844 0.0051239844 0.0051239844
0.0051547685 0.0051547685 0.0051547685
