VFX IO/DCI to Linear.cube
# DaVinci Resolve Cube (1D shaper LUT).

LUT_1D_SIZE 4096
LUT_1D_INPUT_RANGE 0.0000000000 1.0000000000

0.0000000000 0.0000000000 0.0000000000
0.0000000004 0.0000000004 0.0000000004
0.0000000025 0.0000000025 0.0000000025
0.0000000071 0.0000000071 0.0000000071
0.0000000149 0.0000000149 0.0000000149
0.0000000266 0.0000000266 0.0000000266
0.0000000428 0.0000000428 0.0000000428
0.0000000639 0.0000000639 0.0000000639
0.0000000904 0.0000000904 0.0000000904
0.0000001228 0.0000001228 0.0000001228
0.0000001615 0.0000001615 0.0000001615
0.0000002069 0.0000002069 0.0000002069
0.0000002594 0.0000002594 0.0000002594
0.0000003194 0.0000003194 0.0000003194
0.0000003873 0.0000003873 0.0000003873
0.0000004634 0.0000004634 0.0000004634
0.0000005481 0.0000005481 0.0000005481
0.0000006417 0.0000006417 0.0000006417
0.0000007445 0.0000007445 0.0000007445
0.0000008568 0.0000008568 0.0000008568
0.0000009791 0.0000009791 0.0000009791
0.0000011115 0.0000011115 0.0000011115
0.0000012544 0.0000012544 0.0000012544
0.0000014081 0.0000014081 0.0000014081
0.0000015729 0.0000015729 0.0000015729
0.0000017490 0.0000017490 0.0000017490
0.0000019367 0.0000019367 0.0000019367
0.0000021364 0.0000021364 0.0000021364
0.0000023483 0.0000023483 0.0000023483
0.0000025726 0.0000025726 0.0000025726
0.0000028097 0.0000028097 0.0000028097
0.0000030597 0.0000030597 0.0000030597
0.0000033230 0.0000033230 0.0000033230
0.0000035998 0.0000035998 0.0000035998
0.0000038903 0.0000038903 0.0000038903
0.0000041949 0.0000041949 0.0000041949
0.0000045136 0.0000045136 0.0000045136
0.0000048469 0.0000048469 0.0000048469
0.0000051949 0.0000051949 0.0000051949
0.0000055579 0.0000055579 0.0000055579
0.0000059360 0.0000059360 0.0000059360
0.0000063296 0.0000063296 0.0000063296
0.0000067389 0.0000067389 0.0000067389
0.0000071640 0.0000071640 0.0000071640
0.0000076053 0.0000076053 0.0000076053
0.0000080629 0.0000080629 0.0000080629
0.0000085371 0.0000085371 0.0000085371
0.0000090281 0.0000090281 0.0000090281
0.0000095360 0.0000095360 0.0000095360
0.0000100612 0.0000100612 0.0000100612
0.0000106038 0.0000106038 0.0000106038
0.0000111641 0.0000111641 0.0000111641
0.0000117422 0.0000117422 0.0000117422
0.0000123384 0.0000123384 0.0000123384
0.0000129528 0.0000129528 0.0000129528
0.0000135857 0.0000135857 0.0000135857
0.0000142373 0.0000142373 0.0000142373
0.0000149078 0.0000149078 0.0000149078
0.0000155974 0.0000155974 0.0000155974
0.0000163063 0.0000163063 0.0000163063
0.0000170346 0.0000170346 0.0000170346
0.0000177827 0.0000177827 0.0000177827
0.0000185506 0.0000185506 0.0000185506
0.0000193386 0.0000193386 0.0000193386
0.0000201469 0.0000201469 0.0000201469
0.0000209756 0.0000209756 0.0000209756
0.0000218250 0.0000218250 0.0000218250
0.0000226952 0.0000226952 0.0000226952
0.0000235865 0.0000235865 0.0000235865
0.0000244990 0.0000244990 0.0000244990
0.0000254328 0.0000254328 0.0000254328
0.0000263883 0.0000263883 0.0000263883
0.0000273656 0.0000273656 0.0000273656
0.0000283648 0.0000283648 0.0000283648
0.0000293861 0.0000293861 0.0000293861
0.0000304298 0.0000304298 0.0000304298
0.0000314960 0.0000314960 0.0000314960
0.0000325849 0.0000325849 0.0000325849
0.0000336966 0.0000336966 0.0000336966
0.0000348313 0.0000348313 0.0000348313
0.0000359893 0.0000359893 0.0000359893
0.0000371707 0.0000371707 0.0000371707
0.0000383757 0.0000383757 0.0000383757
0.0000396043 0.0000396043 0.0000396043
0.0000408570 0.0000408570 0.0000408570
0.0000421336 0.0000421336 0.0000421336
0.0000434346 0.0000434346 0.0000434346
0.0000447600 0.0000447600 0.0000447600
0.0000461100 0.0000461100 0.0000461100
0.0000474847 0.0000474847 0.0000474847
0.0000488844 0.0000488844 0.0000488844
0.0000503092 0.0000503092 0.0000503092
0.0000517593 0.0000517593 0.0000517593
0.0000532348 0.0000532348 0.0000532348
0.0000547359 0.0000547359 0.0000547359
0.0000562628 0.0000562628 0.0000562628
0.0000578156 0.0000578156 0.0000578156
0.0000593945 0.0000593945 0.0000593945
0.0000609997 0.0000609997 0.0000609997
0.0000626313 0.0000626313 0.0000626313
0.0000642895 0.0000642895 0.0000642895
0.0000659744 0.0000659744 0.0000659744
0.0000676862 0.0000676862 0.0000676862
0.0000694251 0.0000694251 0.0000694251
0.0000711912 0.0000711912 0.0000711912
0.0000729847 0.0000729847 0.0000729847
0.0000748058 0.0000748058 0.0000748058
0.0000766545 0.0000766545 0.0000766545
0.0000785311 0.0000785311 0.0000785311
0.0000804357 0.0000804357 0.0000804357
0.0000823684 0.0000823684 0.0000823684
0.0000843295 0.0000843295 0.0000843295
0.0000863191 0.0000863191 0.0000863191
0.0000883372 0.0000883372 0.0000883372
0.0000903842 0.0000903842 0.0000903842
0.0000924601 0.0000924601 0.0000924601
0.0000945650 0.0000945650 0.0000945650
0.0000966992 0.0000966992 0.0000966992
0.0000988628 0.0000988628 0.0000988628
0.0001010560 0.0001010560 0.0001010560
0.0001032788 0.0001032788 0.0001032788
0.0001055314 0.0001055314 0.0001055314
0.0001078141 0.0001078141 0.0001078141
0.0001101268 0.0001101268 0.0001101268
0.0001124699 0.0001124699 0.0001124699
0.0001148434 0.0001148434 0.0001148434
0.0001172474 0.0001172474 0.0001172474
0.0001196822 0.0001196822 0.0001196822
0.0001221478 0.0001221478 0.0001221478
0.0001246445 0.0001246445 0.0001246445
0.0001271723 0.0001271723 0.0001271723
0.0001297314 0.0001297314 0.0001297314
0.0001323220 0.0001323220 0.0001323220
0.0001349442 0.0001349442 0.0001349442
0.0001375981 0.0001375981 0.0001375981
0.0001402838 0.0001402838 0.0001402838
0.0001430016 0.0001430016 0.0001430016
0.0001457516 0.0001457516 0.0001457516
0.0001485339 0.0001485339 0.0001485339
0.0001513486 0.0001513486 0.0001513486
0.0001541959 0.0001541959 0.0001541959
0.0001570759 0.0001570759 0.0001570759
0.0001599888 0.0001599888 0.0001599888
0.0001629347 0.0001629347 0.0001629347
0.0001659137 0.0001659137 0.0001659137
0.0001689261 0.0001689261 0.0001689261
0.0001719718 0.0001719718 0.0001719718
0.0001750511 0.0001750511 0.0001750511
0.0001781641 0.0001781641 0.0001781641
0.0001813110 0.0001813110 0.0001813110
0.0001844918 0.0001844918 0.0001844918
0.0001877068 0.0001877068 0.0001877068
0.0001909559 0.0001909559 0.0001909559
0.0001942395 0.0001942395 0.0001942395
0.0001975576 0.0001975576 0.0001975576
0.0002009103 0.0002009103 0.0002009103
0.0002042979 0.0002042979 0.0002042979
0.0002077203 0.0002077203 0.0002077203
0.0002111778 0.0002111778 0.0002111778
0.0002146705 0.0002146705 0.0002146705
0.0002181985 0.0002181985 0.0002181985
0.0002217620 0.0002217620 0.0002217620
0.0002253611 0.0002253611 0.0002253611
0.0002289959 0.0002289959 0.0002289959
0.0002326665 0.0002326665 0.0002326665
0.0002363731 0.0002363731 0.0002363731
0.0002401159 0.0002401159 0.0002401159
0.0002438949 0.0002438949 0.0002438949
0.0002477102 0.0002477102 0.0002477102
0.0002515621 0.0002515621 0.0002515621
0.0002554507 0.0002554507 0.0002554507
0.0002593760 0.0002593760 0.0002593760
0.0002633382 0.0002633382 0.0002633382
0.0002673374 0.0002673374 0.0002673374
0.0002713738 0.0002713738 0.0002713738
0.0002754475 0.0002754475 0.0002754475
0.0002795586 0.0002795586 0.0002795586
0.0002837072 0.0002837072 0.0002837072
0.0002878935 0.0002878935 0.0002878935
0.0002921176 0.0002921176 0.0002921176
0.0002963796 0.0002963796 0.0002963796
0.0003006797 0.0003006797 0.0003006797
0.0003050180 0.0003050180 0.0003050180
0.0003093946 0.0003093946 0.0003093946
0.0003138096 0.0003138096 0.0003138096
0.0003182631 0.0003182631 0.0003182631
0.0003227554 0.0003227554 0.0003227554
0.0003272864 0.0003272864 0.0003272864
0.0003318564 0.0003318564 0.0003318564
0.0003364655 0.0003364655 0.0003364655
0.0003411137 0.0003411137 0.0003411137
0.0003458013 0.0003458013 0.0003458013
0.0003505283 0.0003505283 0.0003505283
0.0003552948 0.0003552948 0.0003552948
0.0003601010 0.0003601010 0.0003601010
0.0003649470 0.0003649470 0.0003649470
0.0003698330 0.0003698330 0.0003698330
0.0003747590 0.0003747590 0.0003747590
0.0003797251 0.0003797251 0.0003797251
0.0003847316 0.0003847316 0.0003847316
0.0003897785 0.0003897785 0.0003897785
0.0003948659 0.0003948659 0.0003948659
0.0003999939 0.0003999939 0.0003999939
0.0004051628 0.0004051628 0.0004051628
0.0004103725 0.0004103725 0.0004103725
0.0004156233 0.0004156233 0.0004156233
0.0004209152 0.0004209152 0.0004209152
0.0004262484 0.0004262484 0.0004262484
0.0004316229 0.0004316229 0.0004316229
0.0004370390 0.0004370390 0.0004370390
0.0004424967 0.0004424967 0.0004424967
0.0004479961 0.0004479961 0.0004479961
0.0004535374 0.0004535374 0.0004535374
0.0004591206 0.0004591206 0.0004591206
0.0004647460 0.0004647460 0.0004647460
0.0004704136 0.0004704136 0.0004704136
0.0004761235 0.0004761235 0.0004761235
0.0004818758 0.0004818758 0.0004818758
0.0004876708 0.0004876708 0.0004876708
0.0004935084 0.0004935084 0.0004935084
0.0004993888 0.0004993888 0.0004993888
0.0005053122 0.0005053122 0.0005053122
0.0005112786 0.0005112786 0.0005112786
0.0005172881 0.0005172881 0.0005172881
0.0005233409 0.0005233409 0.0005233409
0.0005294371 0.0005294371 0.0005294371
0.0005355768 0.0005355768 0.0005355768
0.0005417602 0.0005417602 0.0005417602
0.0005479872 0.0005479872 0.0005479872
0.0005542582 0.0005542582 0.0005542582
0.0005605731 0.0005605731 0.0005605731
0.0005669320 0.0005669320 0.0005669320
0.0005733352 0.0005733352 0.0005733352
0.0005797827 0.0005797827 0.0005797827
0.0005862746 0.0005862746 0.0005862746
0.0005928110 0.0005928110 0.0005928110
0.0005993922 0.0005993922 0.0005993922
0.0006060180 0.0006060180 0.0006060180
0.0006126888 0.0006126888 0.0006126888
0.0006194045 0.0006194045 0.0006194045
0.0006261654 0.0006261654 0.0006261654
0.0006329715 0.0006329715 0.0006329715
0.0006398229 0.0006398229 0.0006398229
0.0006467198 0.0006467198 0.0006467198
0.0006536622 0.0006536622 0.0006536622
0.0006606503 0.0006606503 0.0006606503
0.0006676842 0.0006676842 0.0006676842
0.0006747640 0.0006747640 0.0006747640
0.0006818898 0.0006818898 0.0006818898
0.0006890618 0.0006890618 0.0006890618
0.0006962799 0.0006962799 0.0006962799
0.0007035444 0.0007035444 0.0007035444
0.0007108554 0.0007108554 0.0007108554
0.0007182129 0.0007182129 0.0007182129
0.0007256171 0.0007256171 0.0007256171
0.0007330681 0.0007330681 0.0007330681
0.0007405660 0.0007405660 0.0007405660
0.0007481109 0.0007481109 0.0007481109
0.0007557029 0.0007557029 0.0007557029
0.0007633421 0.0007633421 0.0007633421
0.0007710287 0.0007710287 0.0007710287
0.0007787627 0.0007787627 0.0007787627
0.0007865443 0.0007865443 0.0007865443
0.0007943736 0.0007943736 0.0007943736
0.0008022506 0.0008022506 0.0008022506
0.0008101755 0.0008101755 0.0008101755
0.0008181484 0.0008181484 0.0008181484
0.0008261694 0.0008261694 0.0008261694
0.0008342387 0.0008342387 0.0008342387
0.0008423562 0.0008423562 0.0008423562
0.0008505222 0.0008505222 0.0008505222
0.0008587367 0.0008587367 0.0008587367
0.0008669998 0.0008669998 0.0008669998
0.0008753117 0.0008753117 0.0008753117
0.0008836724 0.0008836724 0.0008836724
0.0008920821 0.0008920821 0.0008920821
0.0009005409 0.0009005409 0.0009005409
0.0009090489 0.0009090489 0.0009090489
0.0009176061 0.0009176061 0.0009176061
0.0009262128 0.0009262128 0.0009262128
0.0009348689 0.0009348689 0.0009348689
0.0009435747 0.0009435747 0.0009435747
0.0009523301 0.0009523301 0.0009523301
0.0009611354 0.0009611354 0.0009611354
0.0009699906 0.0009699906 0.0009699906
0.0009788958 0.0009788958 0.0009788958
0.0009878512 0.0009878512 0.0009878512
0.0009968568 0.0009968568 0.0009968568
0.0010059127 0.0010059127 0.0010059127
0.0010150191 0.0010150191 0.0010150191
0.0010241761 0.0010241761 0.0010241761
0.0010333837 0.0010333837 0.0010333837
0.0010426421 0.0010426421 0.0010426421
0.0010519514 0.0010519514 0.0010519514
0.0010613116 0.0010613116 0.0010613116
0.0010707229 0.0010707229 0.0010707229
0.0010801854 0.0010801854 0.0010801854
0.0010896992 0.0010896992 0.0010896992
0.0010992643 0.0010992643 0.0010992643
0.0011088810 0.0011088810 0.0011088810
0.0011185492 0.0011185492 0.0011185492
0.0011282692 0.0011282692 0.0011282692
0.0011380410 0.0011380410 0.0011380410
0.0011478646 0.0011478646 0.0011478646
0.0011577403 0.0011577403 0.0011577403
0.0011676681 0.0011676681 0.0011676681
0.0011776481 0.0011776481 0.0011776481
0.0011876805 0.0011876805 0.0011876805
0.0011977652 0.0011977652 0.0011977652
0.0012079025 0.0012079025 0.0012079025
0.0012180924 0.0012180924 0.0012180924
0.0012283351 0.0012283351 0.0012283351
0.0012386306 0.0012386306 0.0012386306
0.0012489790 0.0012489790 0.0012489790
0.0012593804 0.0012593804 0.0012593804
0.0012698350 0.0012698350 0.0012698350
0.0012803428 0.0012803428 0.0012803428
0.0012909039 0.0012909039 0.0012909039
0.0013015185 0.0013015185 0.0013015185
0.0013121867 0.0013121867 0.0013121867
0.0013229084 0.0013229084 0.0013229084
0.0013336840 0.0013336840 0.0013336840
0.0013445133 0.0013445133 0.0013445133
0.0013553966 0.0013553966 0.0013553966
0.0013663340 0.0013663340 0.0013663340
0.0013773255 0.0013773255 0.0013773255
0.0013883712 0.0013883712 0.0013883712
0.0013994713 0.0013994713 0.0013994713
0.0014106258 0.0014106258 0.0014106258
0.0014218349 0.0014218349 0.0014218349
0.0014330987 0.0014330987 0.0014330987
0.0014444171 0.0014444171 0.0014444171
0.0014557904 0.0014557904 0.0014557904
0.0014672187 0.0014672187 0.0014672187
0.0014787020 0.0014787020 0.0014787020
0.0014902404 0.0014902404 0.0014902404
0.0015018341 0.0015018341 0.0015018341
0.0015134831 0.0015134831 0.0015134831
0.0015251876 0.0015251876 0.0015251876
0.0015369476 0.0015369476 0.0015369476
0.0015487632 0.0015487632 0.0015487632
0.0015606346 0.0015606346 0.0015606346
0.0015725618 0.0015725618 0.0015725618
0.0015845449 0.0015845449 0.0015845449
0.0015965841 0.0015965841 0.0015965841
0.0016086794 0.0016086794 0.0016086794
0.0016208309 0.0016208309 0.0016208309
0.0016330387 0.0016330387 0.0016330387
0.0016453030 0.0016453030 0.0016453030
0.0016576237 0.0016576237 0.0016576237
0.0016700011 0.0016700011 0.0016700011
0.0016824352 0.0016824352 0.0016824352
0.0016949261 0.0016949261 0.0016949261
0.0017074739 0.0017074739 0.0017074739
0.0017200787 0.0017200787 0.0017200787
0.0017327406 0.0017327406 0.0017327406
0.0017454598 0.0017454598 0.0017454598
0.0017582362 0.0017582362 0.0017582362
0.0017710699 0.0017710699 0.0017710699
0.0017839612 0.0017839612 0.0017839612
0.0017969101 0.0017969101 0.0017969101
0.0018099166 0.0018099166 0.0018099166
0.0018229809 0.0018229809 0.0018229809
0.0018361031 0.0018361031 0.0018361031
0.0018492833 0.0018492833 0.0018492833
0.0018625215 0.0018625215 0.0018625215
0.0018758179 0.0018758179 0.0018758179
0.0018891725 0.0018891725 0.0018891725
0.0019025855 0.0019025855 0.0019025855
0.0019160569 0.0019160569 0.0019160569
0.0019295868 0.0019295868 0.0019295868
0.0019431754 0.0019431754 0.0019431754
0.0019568227 0.0019568227 0.0019568227
0.0019705289 0.0019705289 0.0019705289
0.0019842940 0.0019842940 0.0019842940
0.0019981180 0.0019981180 0.0019981180
0.0020120012 0.0020120012 0.0020120012
0.0020259436 0.0020259436 0.0020259436
0.0020399453 0.0020399453 0.0020399453
0.0020540064 0.0020540064 0.0020540064
0.0020681270 0.0020681270 0.0020681270
0.0020823071 0.0020823071 0.0020823071
0.0020965469 0.0020965469 0.0020965469
0.0021108465 0.0021108465 0.0021108465
0.0021252060 0.0021252060 0.0021252060
0.0021396254 0.0021396254 0.0021396254
0.0021541048 0.0021541048 0.0021541048
0.0021686444 0.0021686444 0.0021686444
0.0021832443 0.0021832443 0.0021832443
0.0021979044 0.0021979044 0.0021979044
0.0022126250 0.0022126250 0.0022126250
0.0022274061 0.0022274061 0.0022274061
0.0022422479 0.0022422479 0.0022422479
0.0022571503 0.0022571503 0.0022571503
0.0022721135 0.0022721135 0.0022721135
0.0022871376 0.0022871376 0.0022871376
0.0023022227 0.0023022227 0.0023022227
0.0023173688 0.0023173688 0.0023173688
0.0023325762 0.0023325762 0.0023325762
0.0023478447 0.0023478447 0.0023478447
0.0023631747 0.0023631747 0.0023631747
0.0023785660 0.0023785660 0.0023785660
0.0023940189 0.0023940189 0.0023940189
0.0024095335 0.0024095335 0.0024095335
0.0024251097 0.0024251097 0.0024251097
0.0024407478 0.0024407478 0.0024407478
0.0024564478 0.0024564478 0.0024564478
0.0024722097 0.0024722097 0.0024722097
0.0024880338 0.0024880338 0.0024880338
0.0025039200 0.0025039200 0.0025039200
0.0025198685 0.0025198685 0.0025198685
0.0025358793 0.0025358793 0.0025358793
0.0025519526 0.0025519526 0.0025519526
0.0025680885 0.0025680885 0.0025680885
0.0025842869 0.0025842869 0.0025842869
0.0026005481 0.0026005481 0.0026005481
0.0026168721 0.0026168721 0.0026168721
0.0026332591 0.0026332591 0.0026332591
0.0026497090 0.0026497090 0.0026497090
0.0026662220 0.0026662220 0.0026662220
0.0026827982 0.0026827982 0.0026827982
0.0026994376 0.0026994376 0.0026994376
0.0027161404 0.0027161404 0.0027161404
0.0027329067 0.0027329067 0.0027329067
0.0027497365 0.0027497365 0.0027497365
0.0027666299 0.0027666299 0.0027666299
0.0027835870 0.0027835870 0.0027835870
0.0028006080 0.0028006080 0.0028006080
0.0028176928 0.0028176928 0.0028176928
0.0028348416 0.0028348416 0.0028348416
0.0028520546 0.0028520546 0.0028520546
0.0028693316 0.0028693316 0.0028693316
0.0028866730 0.0028866730 0.0028866730
0.0029040787 0.0029040787 0.0029040787
0.0029215488 0.0029215488 0.0029215488
0.0029390834 0.0029390834 0.0029390834
0.0029566827 0.0029566827 0.0029566827
0.0029743466 0.0029743466 0.0029743466
0.0029920754 0.0029920754 0.0029920754
0.0030098690 0.0030098690 0.0030098690
0.0030277276 0.0030277276 0.0030277276
0.0030456513 0.0030456513 0.0030456513
0.0030636401 0.0030636401 0.0030636401
0.0030816941 0.0030816941 0.0030816941
0.0030998135 0.0030998135 0.0030998135
0.0031179983 0.0031179983 0.0031179983
0.0031362486 0.0031362486 0.0031362486
0.0031545644 0.0031545644 0.0031545644
0.0031729460 0.0031729460 0.0031729460
0.0031913933 0.0031913933 0.0031913933
0.0032099065 0.0032099065 0.0032099065
0.0032284856 0.0032284856 0.0032284856
0.0032471307 0.0032471307 0.0032471307
0.0032658420 0.0032658420 0.0032658420
0.0032846195 0.0032846195 0.0032846195
0.0033034632 0.0033034632 0.0033034632
0.0033223734 0.0033223734 0.0033223734
0.0033413500 0.0033413500 0.0033413500
0.0033603931 0.0033603931 0.0033603931
0.0033795029 0.0033795029 0.0033795029
0.0033986795 0.0033986795 0.0033986795
0.0034179228 0.0034179228 0.0034179228
0.0034372331 0.0034372331 0.0034372331
0.0034566103 0.0034566103 0.0034566103
0.0034760546 0.0034760546 0.0034760546
0.0034955661 0.0034955661 0.0034955661
0.0035151449 0.0035151449 0.0035151449
0.0035347909 0.0035347909 0.0035347909
0.0035545044 0.0035545044 0.0035545044
0.0035742855 0.0035742855 0.0035742855
0.0035941341 0.0035941341 0.0035941341
0.0036140504 0.0036140504 0.0036140504
0.0036340345 0.0036340345 0.0036340345
0.0036540864 0.0036540864 0.0036540864
0.0036742063 0.0036742063 0.0036742063
0.0036943942 0.0036943942 0.0036943942
0.0037146502 0.0037146502 0.0037146502
0.0037349744 0.0037349744 0.0037349744
0.0037553669 0.0037553669 0.0037553669
0.0037758278 0.0037758278 0.0037758278
0.0037963571 0.0037963571 0.0037963571
0.0038169550 0.0038169550 0.0038169550
0.0038376215 0.0038376215 0.0038376215
0.0038583568 0.0038583568 0.0038583568
0.0038791608 0.0038791608 0.0038791608
0.0039000337 0.0039000337 0.0039000337
0.0039209756 0.0039209756 0.0039209756
0.0039419866 0.0039419866 0.0039419866
0.0039630667 0.0039630667 0.0039630667
0.0039842160 0.0039842160 0.0039842160
0.0040054347 0.0040054347 0.0040054347
0.0040267227 0.0040267227 0.0040267227
0.0040480802 0.0040480802 0.0040480802
0.0040695073 0.0040695073 0.0040695073
0.0040910041 0.0040910041 0.0040910041
0.0041125706 0.0041125706 0.0041125706
0.0041342069 0.0041342069 0.0041342069
0.0041559131 0.0041559131 0.0041559131
0.0041776893 0.0041776893 0.0041776893
0.0041995356 0.0041995356 0.0041995356
0.0042214520 0.0042214520 0.0042214520
0.0042434387 0.0042434387 0.0042434387
0.0042654957 0.0042654957 0.0042654957
0.0042876231 0.0042876231 0.0042876231
0.0043098211 0.0043098211 0.0043098211
0.0043320896 0.0043320896 0.0043320896
0.0043544287 0.0043544287 0.0043544287
0.0043768387 0.0043768387 0.0043768387
0.0043993194 0.0043993194 0.0043993194
0.0044218711 0.0044218711 0.0044218711
0.0044444938 0.0044444938 0.0044444938
0.0044671875 0.0044671875 0.0044671875
0.0044899525 0.0044899525 0.0044899525
0.0045127886 0.0045127886 0.0045127886
0.0045356962 0.0045356962 0.0045356962
0.0045586751 0.0045586751 0.0045586751
0.0045817255 0.0045817255 0.0045817255
0.0046048475 0.0046048475 0.0046048475
0.0046280412 0.0046280412 0.0046280412
0.0046513067 0.0046513067 0.0046513067
0.0046746439 0.0046746439 0.0046746439
0.0046980531 0.0046980531 0.0046980531
0.0047215343 0.0047215343 0.0047215343
0.0047450876 0.0047450876 0.0047450876
0.0047687131 0.0047687131 0.0047687131
0.0047924107 0.0047924107 0.0047924107
0.0048161808 0.0048161808 0.0048161808
0.0048400232 0.0048400232 0.0048400232
0.0048639381 0.0048639381 0.0048639381
0.0048879257 0.0048879257 0.0048879257
0.0049119858 0.0049119858 0.0049119858
0.0049361187 0.0049361187 0.0049361187
0.0049603245 0.0049603245 0.0049603245
0.0049846032 0.0049846032 0.0049846032
0.0050089548 0.0050089548 0.0050089548
0.0050333795 0.0050333795 0.0050333795
0.0050578774 0.0050578774 0.0050578774
0.0050824485 0.0050824485 0.0050824485
0.0051070929 0.0051070929 0.0051070929
0.0051318108 0.0051318108 0.0051318108
0.0051566021 0.0051566021 0.0051566021
0.0051814670 0.0051814670 0.0051814670
0.0052064055 0.0052064055 0.0052064055
0.0052314177 0.0052314177 0.0052314177
0.0052565038 0.0052565038 0.0052565038
0.0052816638 0.0052816638 0.0052816638
0.0053068977 0.0053068977 0.0053068977
0.0053322057 0.0053322057 0.0053322057
0.0053575878 0.0053575878 0.0053575878
0.0053830441 0.0053830441 0.0053830441
0.0054085748 0.0054085748 0.0054085748
0.0054341798 0.0054341798 0.0054341798
0.0054598592 0.0054598592 0.0054598592
0.0054856133 0.0054856133 0.0054856133
0.0055114419 0.0055114419 0.0055114419
0.0055373452 0.0055373452 0.0055373452
0.0055633233 0.0055633233 0.0055633233
0.0055893763 0.0055893763 0.0055893763
0.0056155043 0.0056155043 0.0056155043
0.0056417072 0.0056417072 0.0056417072
0.0056679853 0.0056679853 0.0056679853
0.0056943385 0.0056943385 0.0056943385
0.0057207671 0.0057207671 0.0057207671
0.0057472709 0.0057472709 0.0057472709
0.0057738502 0.0057738502 0.0057738502
0.0058005050 0.0058005050 0.0058005050
0.0058272354 0.0058272354 0.0058272354
0.0058540415 0.0058540415 0.0058540415
0.0058809233 0.0058809233 0.0058809233
0.0059078810 0.0059078810 0.0059078810
0.0059349145 0.0059349145 0.0059349145
0.0059620241 0.0059620241 0.0059620241
0.0059892097 0.0059892097 0.0059892097
0.0060164715 0.0060164715 0.0060164715
0.0060438095 0.0060438095 0.0060438095
0.0060712238 0.0060712238 0.0060712238
0.0060987145 0.0060987145 0.0060987145
0.0061262816 0.0061262816 0.0061262816
0.0061539254 0.0061539254 0.0061539254
0.0061816457 0.0061816457 0.0061816457
0.0062094428 0.0062094428 0.0062094428
0.0062373166 0.0062373166 0.0062373166
0.0062652673 0.0062652673 0.0062652673
0.0062932950 0.0062932950 0.0062932950
0.0063213996 0.0063213996 0.0063213996
0.0063495814 0.0063495814 0.0063495814
0.0063778404 0.0063778404 0.0063778404
0.0064061766 0.0064061766 0.0064061766
0.0064345902 0.0064345902 0.0064345902
0.0064630812 0.0064630812 0.0064630812
0.0064916497 0.0064916497 0.0064916497
0.0065202957 0.0065202957 0.0065202957
0.0065490195 0.0065490195 0.0065490195
0.0065778209 0.0065778209 0.0065778209
0.0066067002 0.0066067002 0.0066067002
0.0066356574 0.0066356574 0.0066356574
0.0066646925 0.0066646925 0.0066646925
0.0066938057 0.0066938057 0.0066938057
0.0067229971 0.0067229971 0.0067229971
0.0067522666 0.0067522666 0.0067522666
0.0067816144 0.0067816144 0.0067816144
0.0068110406 0.0068110406 0.0068110406
0.0068405453 0.0068405453 0.0068405453
0.0068701284 0.0068701284 0.0068701284
0.0068997902 0.0068997902 0.0068997902
0.0069295306 0.0069295306 0.0069295306
0.0069593498 0.0069593498 0.0069593498
0.0069892478 0.0069892478 0.0069892478
0.0070192248 0.0070192248 0.0070192248
0.0070492807 0.0070492807 0.0070492807
0.0070794157 0.0070794157 0.0070794157
0.0071096299 0.0071096299 0.0071096299
