VFX IO/Gamma 2.2 to Linear.cube
# DaVinci Resolve Cube (1D shaper LUT).

LUT_1D_SIZE 4096
LUT_1D_INPUT_RANGE 0.0000000000 1.0000000000

0.0000000000 0.0000000000 0.0000000000
0.0000000113 0.0000000113 0.0000000113
0.0000000519 0.0000000519 0.0000000519
0.0000001267 0.0000001267 0.0000001267
0.0000002385 0.0000002385 0.0000002385
0.0000003897 0.0000003897 0.0000003897
0.0000005821 0.0000005821 0.0000005821
0.0000008171 0.0000008171 0.0000008171
0.0000010961 0.0000010961 0.0000010961
0.0000014203 0.0000014203 0.0000014203
0.0000017908 0.0000017908 0.0000017908
0.0000022085 0.0000022085 0.0000022085
0.0000026745 0.0000026745 0.0000026745
0.0000031895 0.0000031895 0.0000031895
0.0000037542 0.0000037542 0.0000037542
0.0000043696 0.0000043696 0.0000043696
0.0000050362 0.0000050362 0.0000050362
0.0000057548 0.0000057548 0.0000057548
0.0000065259 0.0000065259 0.0000065259
0.0000073502 0.0000073502 0.0000073502
0.0000082282 0.0000082282 0.0000082282
0.0000091606 0.0000091606 0.0000091606
0.0000101478 0.0000101478 0.0000101478
0.0000111903 0.0000111903 0.0000111903
0.0000122887 0.0000122887 0.0000122887
0.0000134434 0.0000134434 0.0000134434
0.0000146549 0.0000146549 0.0000146549
0.0000159236 0.0000159236 0.0000159236
0.0000172500 0.0000172500 0.0000172500
0.0000186345 0.0000186345 0.0000186345
0.0000200774 0.0000200774 0.0000200774
0.0000215793 0.0000215793 0.0000215793
0.0000231404 0.0000231404 0.0000231404
0.0000247612 0.0000247612 0.0000247612
0.0000264420 0.0000264420 0.0000264420
0.0000281833 0.0000281833 0.0000281833
0.0000299852 0.0000299852 0.0000299852
0.0000318482 0.0000318482 0.0000318482
0.0000337727 0.0000337727 0.0000337727
0.0000357588 0.0000357588 0.0000357588
0.0000378071 0.0000378071 0.0000378071
0.0000399177 0.0000399177 0.0000399177
0.0000420911 0.0000420911 0.0000420911
0.0000443274 0.0000443274 0.0000443274
0.0000466270 0.0000466270 0.0000466270
0.0000489902 0.0000489902 0.0000489902
0.0000514172 0.0000514172 0.0000514172
0.0000539084 0.0000539084 0.0000539084
0.0000564641 0.0000564641 0.0000564641
0.0000590844 0.0000590844 0.0000590844
0.0000617697 0.0000617697 0.0000617697
0.0000645202 0.0000645202 0.0000645202
0.0000673362 0.0000673362 0.0000673362
0.0000702180 0.0000702180 0.0000702180
0.0000731657 0.0000731657 0.0000731657
0.0000761797 0.0000761797 0.0000761797
0.0000792602 0.0000792602 0.0000792602
0.0000824074 0.0000824074 0.0000824074
0.0000856215 0.0000856215 0.0000856215
0.0000889029 0.0000889029 0.0000889029
0.0000922517 0.0000922517 0.0000922517
0.0000956681 0.0000956681 0.0000956681
0.0000991524 0.0000991524 0.0000991524
0.0001027048 0.0001027048 0.0001027048
0.0001063255 0.0001063255 0.0001063255
0.0001100147 0.0001100147 0.0001100147
0.0001137727 0.0001137727 0.0001137727
0.0001175996 0.0001175996 0.0001175996
0.0001214957 0.0001214957 0.0001214957
0.0001254612 0.0001254612 0.0001254612
0.0001294962 0.0001294962 0.0001294962
0.0001336010 0.0001336010 0.0001336010
0.0001377758 0.0001377758 0.0001377758
0.0001420207 0.0001420207 0.0001420207
0.0001463360 0.0001463360 0.0001463360
0.0001507218 0.0001507218 0.0001507218
0.0001551784 0.0001551784 0.0001551784
0.0001597059 0.0001597059 0.0001597059
0.0001643045 0.0001643045 0.0001643045
0.0001689744 0.0001689744 0.0001689744
0.0001737158 0.0001737158 0.0001737158
0.0001785289 0.0001785289 0.0001785289
0.0001834137 0.0001834137 0.0001834137
0.0001883706 0.0001883706 0.0001883706
0.0001933997 0.0001933997 0.0001933997
0.0001985012 0.0001985012 0.0001985012
0.0002036751 0.0002036751 0.0002036751
0.0002089218 0.0002089218 0.0002089218
0.0002142413 0.0002142413 0.0002142413
0.0002196339 0.0002196339 0.0002196339
0.0002250997 0.0002250997 0.0002250997
0.0002306389 0.0002306389 0.0002306389
0.0002362515 0.0002362515 0.0002362515
0.0002419379 0.0002419379 0.0002419379
0.0002476981 0.0002476981 0.0002476981
0.0002535323 0.0002535323 0.0002535323
0.0002594407 0.0002594407 0.0002594407
0.0002654234 0.0002654234 0.0002654234
0.0002714806 0.0002714806 0.0002714806
0.0002776124 0.0002776124 0.0002776124
0.0002838190 0.0002838190 0.0002838190
0.0002901005 0.0002901005 0.0002901005
0.0002964571 0.0002964571 0.0002964571
0.0003028889 0.0003028889 0.0003028889
0.0003093960 0.0003093960 0.0003093960
0.0003159787 0.0003159787 0.0003159787
0.0003226371 0.0003226371 0.0003226371
0.0003293713 0.0003293713 0.0003293713
0.0003361814 0.0003361814 0.0003361814
0.0003430676 0.0003430676 0.0003430676
0.0003500300 0.0003500300 0.0003500300
0.0003570688 0.0003570688 0.0003570688
0.0003641842 0.0003641842 0.0003641842
0.0003713761 0.0003713761 0.0003713761
0.0003786449 0.0003786449 0.0003786449
0.0003859905 0.0003859905 0.0003859905
0.0003934133 0.0003934133 0.0003934133
0.0004009132 0.0004009132 0.0004009132
0.0004084904 0.0004084904 0.0004084904
0.0004161450 0.0004161450 0.0004161450
0.0004238773 0.0004238773 0.0004238773
0.0004316872 0.0004316872 0.0004316872
0.0004395750 0.0004395750 0.0004395750
0.0004475408 0.0004475408 0.0004475408
0.0004555847 0.0004555847 0.0004555847
0.0004637068 0.0004637068 0.0004637068
0.0004719072 0.0004719072 0.0004719072
0.0004801861 0.0004801861 0.0004801861
0.0004885436 0.0004885436 0.0004885436
0.0004969798 0.0004969798 0.0004969798
0.0005054949 0.0005054949 0.0005054949
0.0005140889 0.0005140889 0.0005140889
0.0005227621 0.0005227621 0.0005227621
0.0005315144 0.0005315144 0.0005315144
0.0005403460 0.0005403460 0.0005403460
0.0005492571 0.0005492571 0.0005492571
0.0005582478 0.0005582478 0.0005582478
0.0005673181 0.0005673181 0.0005673181
0.0005764683 0.0005764683 0.0005764683
0.0005856983 0.0005856983 0.0005856983
0.0005950084 0.0005950084 0.0005950084
0.0006043986 0.0006043986 0.0006043986
0.0006138691 0.0006138691 0.0006138691
0.0006234199 0.0006234199 0.0006234199
0.0006330513 0.0006330513 0.0006330513
0.0006427632 0.0006427632 0.0006427632
0.0006525559 0.0006525559 0.0006525559
0.0006624293 0.0006624293 0.0006624293
0.0006723837 0.0006723837 0.0006723837
0.0006824191 0.0006824191 0.0006824191
0.0006925357 0.0006925357 0.0006925357
0.0007027336 0.0007027336 0.0007027336
0.0007130128 0.0007130128 0.0007130128
0.0007233734 0.0007233734 0.0007233734
0.0007338157 0.0007338157 0.0007338157
0.0007443396 0.0007443396 0.0007443396
0.0007549454 0.0007549454 0.0007549454
0.0007656330 0.0007656330 0.0007656330
0.0007764026 0.0007764026 0.0007764026
0.0007872544 0.0007872544 0.0007872544
0.0007981883 0.0007981883 0.0007981883
0.0008092046 0.0008092046 0.0008092046
0.0008203033 0.0008203033 0.0008203033
0.0008314845 0.0008314845 0.0008314845
0.0008427483 0.0008427483 0.0008427483
0.0008540948 0.0008540948 0.0008540948
0.0008655242 0.0008655242 0.0008655242
0.0008770364 0.0008770364 0.0008770364
0.0008886318 0.0008886318 0.0008886318
0.0009003102 0.0009003102 0.0009003102
0.0009120718 0.0009120718 0.0009120718
0.0009239168 0.0009239168 0.0009239168
0.0009358451 0.0009358451 0.0009358451
0.0009478570 0.0009478570 0.0009478570
0.0009599525 0.0009599525 0.0009599525
0.0009721317 0.0009721317 0.0009721317
0.0009843947 0.0009843947 0.0009843947
0.0009967416 0.0009967416 0.0009967416
0.0010091725 0.0010091725 0.0010091725
0.0010216875 0.0010216875 0.0010216875
0.0010342866 0.0010342866 0.0010342866
0.0010469701 0.0010469701 0.0010469701
0.0010597379 0.0010597379 0.0010597379
0.0010725901 0.0010725901 0.0010725901
0.0010855270 0.0010855270 0.0010855270
0.0010985484 0.0010985484 0.0010985484
0.0011116546 0.0011116546 0.0011116546
0.0011248457 0.0011248457 0.0011248457
0.0011381216 0.0011381216 0.0011381216
0.0011514826 0.0011514826 0.0011514826
0.0011649287 0.0011649287 0.0011649287
0.0011784599 0.0011784599 0.0011784599
0.0011920765 0.0011920765 0.0011920765
0.0012057784 0.0012057784 0.0012057784
0.0012195657 0.0012195657 0.0012195657
0.0012334386 0.0012334386 0.0012334386
0.0012473972 0.0012473972 0.0012473972
0.0012614415 0.0012614415 0.0012614415
0.0012755716 0.0012755716 0.0012755716
0.0012897875 0.0012897875 0.0012897875
0.0013040895 0.0013040895 0.0013040895
0.0013184775 0.0013184775 0.0013184775
0.0013329517 0.0013329517 0.0013329517
0.0013475122 0.0013475122 0.0013475122
0.0013621589 0.0013621589 0.0013621589
0.0013768921 0.0013768921 0.0013768921
0.0013917117 0.0013917117 0.0013917117
0.0014066180 0.0014066180 0.0014066180
0.0014216109 0.0014216109 0.0014216109
0.0014366906 0.0014366906 0.0014366906
0.0014518570 0.0014518570 0.0014518570
0.0014671104 0.0014671104 0.0014671104
0.0014824508 0.0014824508 0.0014824508
0.0014978783 0.0014978783 0.0014978783
0.0015133930 0.0015133930 0.0015133930
0.0015289948 0.0015289948 0.0015289948
0.0015446840 0.0015446840 0.0015446840
0.0015604606 0.0015604606 0.0015604606
0.0015763247 0.0015763247 0.0015763247
0.0015922764 0.0015922764 0.0015922764
0.0016083157 0.0016083157 0.0016083157
0.0016244427 0.0016244427 0.0016244427
0.0016406576 0.0016406576 0.0016406576
0.0016569603 0.0016569603 0.0016569603
0.0016733510 0.0016733510 0.0016733510
0.0016898297 0.0016898297 0.0016898297
0.0017063966 0.0017063966 0.0017063966
0.0017230516 0.0017230516 0.0017230516
0.0017397950 0.0017397950 0.0017397950
0.0017566267 0.0017566267 0.0017566267
0.0017735468 0.0017735468 0.0017735468
0.0017905554 0.0017905554 0.0017905554
0.0018076526 0.0018076526 0.0018076526
0.0018248385 0.0018248385 0.0018248385
0.0018421131 0.0018421131 0.0018421131
0.0018594765 0.0018594765 0.0018594765
0.0018769289 0.0018769289 0.0018769289
0.0018944702 0.0018944702 0.0018944702
0.0019121005 0.0019121005 0.0019121005
0.0019298199 0.0019298199 0.0019298199
0.0019476286 0.0019476286 0.0019476286
0.0019655265 0.0019655265 0.0019655265
0.0019835137 0.0019835137 0.0019835137
0.0020015904 0.0020015904 0.0020015904
0.0020197565 0.0020197565 0.0020197565
0.0020380123 0.0020380123 0.0020380123
0.0020563576 0.0020563576 0.0020563576
0.0020747927 0.0020747927 0.0020747927
0.0020933175 0.0020933175 0.0020933175
0.0021119322 0.0021119322 0.0021119322
0.0021306368 0.0021306368 0.0021306368
0.0021494314 0.0021494314 0.0021494314
0.0021683161 0.0021683161 0.0021683161
0.0021872909 0.0021872909 0.0021872909
0.0022063560 0.0022063560 0.0022063560
0.0022255113 0.0022255113 0.0022255113
0.0022447570 0.0022447570 0.0022447570
0.0022640931 0.0022640931 0.0022640931
0.0022835197 0.0022835197 0.0022835197
0.0023030369 0.0023030369 0.0023030369
0.0023226447 0.0023226447 0.0023226447
0.0023423432 0.0023423432 0.0023423432
0.0023621325 0.0023621325 0.0023621325
0.0023820126 0.0023820126 0.0023820126
0.0024019836 0.0024019836 0.0024019836
0.0024220457 0.0024220457 0.0024220457
0.0024421988 0.0024421988 0.0024421988
0.0024624430 0.0024624430 0.0024624430
0.0024827784 0.0024827784 0.0024827784
0.0025032050 0.0025032050 0.0025032050
0.0025237230 0.0025237230 0.0025237230
0.0025443324 0.0025443324 0.0025443324
0.0025650332 0.0025650332 0.0025650332
0.0025858256 0.0025858256 0.0025858256
0.0026067096 0.0026067096 0.0026067096
0.0026276852 0.0026276852 0.0026276852
0.0026487525 0.0026487525 0.0026487525
0.0026699117 0.0026699117 0.0026699117
0.0026911627 0.0026911627 0.0026911627
0.0027125057 0.0027125057 0.0027125057
0.0027339406 0.0027339406 0.0027339406
0.0027554676 0.0027554676 0.0027554676
0.0027770867 0.0027770867 0.0027770867
0.0027987981 0.0027987981 0.0027987981
0.0028206016 0.0028206016 0.0028206016
0.0028424975 0.0028424975 0.0028424975
0.0028644858 0.0028644858 0.0028644858
0.0028865666 0.0028865666 0.0028865666
0.0029087398 0.0029087398 0.0029087398
0.0029310057 0.0029310057 0.0029310057
0.0029533642 0.0029533642 0.0029533642
0.0029758154 0.0029758154 0.0029758154
0.0029983593 0.0029983593 0.0029983593
0.0030209961 0.0030209961 0.0030209961
0.0030437259 0.0030437259 0.0030437259
0.0030665485 0.0030665485 0.0030665485
0.0030894642 0.0030894642 0.0030894642
0.0031124730 0.0031124730 0.0031124730
0.0031355750 0.0031355750 0.0031355750
0.0031587701 0.0031587701 0.0031587701
0.0031820586 0.0031820586 0.0031820586
0.0032054403 0.0032054403 0.0032054403
0.0032289155 0.0032289155 0.0032289155
0.0032524842 0.0032524842 0.0032524842
0.0032761463 0.0032761463 0.0032761463
0.0032999021 0.0032999021 0.0032999021
0.0033237515 0.0033237515 0.0033237515
0.0033476946 0.0033476946 0.0033476946
0.0033717315 0.0033717315 0.0033717315
0.0033958622 0.0033958622 0.0033958622
0.0034200868 0.0034200868 0.0034200868
0.0034444054 0.0034444054 0.0034444054
0.0034688180 0.0034688180 0.0034688180
0.0034933247 0.0034933247 0.0034933247
0.0035179255 0.0035179255 0.0035179255
0.0035426204 0.0035426204 0.0035426204
0.0035674097 0.0035674097 0.0035674097
0.0035922933 0.0035922933 0.0035922933
0.0036172712 0.0036172712 0.0036172712
0.0036423436 0.0036423436 0.0036423436
0.0036675104 0.0036675104 0.0036675104
0.0036927719 0.0036927719 0.0036927719
0.0037181279 0.0037181279 0.0037181279
0.0037435786 0.0037435786 0.0037435786
0.0037691240 0.0037691240 0.0037691240
0.0037947643 0.0037947643 0.0037947643
0.0038204993 0.0038204993 0.0038204993
0.0038463293 0.0038463293 0.0038463293
0.0038722542 0.0038722542 0.0038722542
0.0038982742 0.0038982742 0.0038982742
0.0039243892 0.0039243892 0.0039243892
0.0039505994 0.0039505994 0.0039505994
0.0039769048 0.0039769048 0.0039769048
0.0040033054 0.0040033054 0.0040033054
0.0040298013 0.0040298013 0.0040298013
0.0040563926 0.0040563926 0.0040563926
0.0040830793 0.0040830793 0.0040830793
0.0041098615 0.0041098615 0.0041098615
0.0041367393 0.0041367393 0.0041367393
0.0041637126 0.0041637126 0.0041637126
0.0041907816 0.0041907816 0.0041907816
0.0042179462 0.0042179462 0.0042179462
0.0042452067 0.0042452067 0.0042452067
0.0042725630 0.0042725630 0.0042725630
0.0043000151 0.0043000151 0.0043000151
0.0043275632 0.0043275632 0.0043275632
0.0043552072 0.0043552072 0.0043552072
0.0043829473 0.0043829473 0.0043829473
0.0044107835 0.0044107835 0.0044107835
0.0044387159 0.0044387159 0.0044387159
0.0044667444 0.0044667444 0.0044667444
0.0044948692 0.0044948692 0.0044948692
0.0045230904 0.0045230904 0.0045230904
0.0045514079 0.0045514079 0.0045514079
0.0045798218 0.0045798218 0.0045798218
0.0046083323 0.0046083323 0.0046083323
0.0046369392 0.0046369392 0.0046369392
0.0046656428 0.0046656428 0.0046656428
0.0046944429 0.0046944429 0.0046944429
0.0047233398 0.0047233398 0.0047233398
0.0047523335 0.0047523335 0.0047523335
0.0047814239 0.0047814239 0.0047814239
0.0048106112 0.0048106112 0.0048106112
0.0048398955 0.0048398955 0.0048398955
0.0048692767 0.0048692767 0.0048692767
0.0048987549 0.0048987549 0.0048987549
0.0049283302 0.0049283302 0.0049283302
0.0049580026 0.0049580026 0.0049580026
0.0049877722 0.0049877722 0.0049877722
0.0050176390 0.0050176390 0.0050176390
0.0050476031 0.0050476031 0.0050476031
0.0050776646 0.0050776646 0.0050776646
0.0051078234 0.0051078234 0.0051078234
0.0051380797 0.0051380797 0.0051380797
0.0051684335 0.0051684335 0.0051684335
0.0051988848 0.0051988848 0.0051988848
0.0052294337 0.0052294337 0.0052294337
0.0052600803 0.0052600803 0.0052600803
0.0052908246 0.0052908246 0.0052908246
0.0053216667 0.0053216667 0.0053216667
0.0053526065 0.0053526065 0.0053526065
0.0053836442 0.0053836442 0.0053836442
0.0054147799 0.0054147799 0.0054147799
0.0054460134 0.0054460134 0.0054460134
0.0054773450 0.0054773450 0.0054773450
0.0055087747 0.0055087747 0.0055087747
0.0055403025 0.0055403025 0.0055403025
0.0055719284 0.0055719284 0.0055719284
0.0056036526 0.0056036526 0.0056036526
0.0056354750 0.0056354750 0.0056354750
0.0056673958 0.0056673958 0.0056673958
0.0056994149 0.0056994149 0.0056994149
0.0057315324 0.0057315324 0.0057315324
0.0057637484 0.0057637484 0.0057637484
0.0057960630 0.0057960630 0.0057960630
0.0058284761 0.0058284761 0.0058284761
0.0058609878 0.0058609878 0.0058609878
0.0058935982 0.0058935982 0.0058935982
0.0059263073 0.0059263073 0.0059263073
0.0059591151 0.0059591151 0.0059591151
0.0059920218 0.0059920218 0.0059920218
0.0060250274 0.0060250274 0.0060250274
0.0060581319 0.0060581319 0.0060581319
0.0060913353 0.0060913353 0.0060913353
0.0061246378 0.0061246378 0.0061246378
0.0061580393 0.0061580393 0.0061580393
0.0061915400 0.0061915400 0.0061915400
0.0062251398 0.0062251398 0.0062251398
0.0062588388 0.0062588388 0.0062588388
0.0062926371 0.0062926371 0.0062926371
0.0063265347 0.0063265347 0.0063265347
0.0063605316 0.0063605316 0.0063605316
0.0063946280 0.0063946280 0.0063946280
0.0064288238 0.0064288238 0.0064288238
0.0064631191 0.0064631191 0.0064631191
0.0064975139 0.0064975139 0.0064975139
0.0065320084 0.0065320084 0.0065320084
0.0065666025 0.0065666025 0.0065666025
0.0066012963 0.0066012963 0.0066012963
0.0066360898 0.0066360898 0.0066360898
0.0066709832 0.0066709832 0.0066709832
0.0067059763 0.0067059763 0.0067059763
0.0067410694 0.0067410694 0.0067410694
0.0067762624 0.0067762624 0.0067762624
0.0068115554 0.0068115554 0.0068115554
0.0068469484 0.0068469484 0.0068469484
0.0068824414 0.0068824414 0.0068824414
0.0069180346 0.0069180346 0.0069180346
0.0069537280 0.0069537280 0.0069537280
0.0069895216 0.0069895216 0.0069895216
0.0070254154 0.0070254154 0.0070254154
0.0070614096 0.0070614096 0.0070614096
0.0070975041 0.0070975041 0.0070975041
0.0071336990 0.0071336990 0.0071336990
0.0071699943 0.0071699943 0.0071699943
0.0072063902 0.0072063902 0.0072063902
0.0072428866 0.0072428866 0.0072428866
0.0072794835 0.0072794835 0.0072794835
0.0073161811 0.0073161811 0.0073161811
0.0073529794 0.0073529794 0.0073529794
0.0073898784 0.0073898784 0.0073898784
0.0074268782 0.0074268782 0.0074268782
0.0074639788 0.0074639788 0.0074639788
0.0075011803 0.0075011803 0.0075011803
0.0075384827 0.0075384827 0.0075384827
0.0075758860 0.0075758860 0.0075758860
0.0076133903 0.0076133903 0.0076133903
0.0076509957 0.0076509957 0.0076509957
0.0076887022 0.0076887022 0.0076887022
0.0077265097 0.0077265097 0.0077265097
0.0077644185 0.0077644185 0.0077644185
0.0078024285 0.0078024285 0.0078024285
0.0078405398 0.0078405398 0.0078405398
0.0078787524 0.0078787524 0.0078787524
0.0079170663 0.0079170663 0.0079170663
0.0079554817 0.0079554817 0.0079554817
0.0079939985 0.0079939985 0.0079939985
0.0080326168 0.0080326168 0.0080326168
0.0080713366 0.0080713366 0.0080713366
0.0081101580 0.0081101580 0.0081101580
0.0081490810 0.0081490810 0.0081490810
0.0081881057 0.0081881057 0.0081881057
0.0082272322 0.0082272322 0.0082272322
0.0082664603 0.0082664603 0.0082664603
0.0083057903 0.0083057903 0.0083057903
0.0083452222 0.0083452222 0.0083452222
0.0083847559 0.0083847559 0.0083847559
0.0084243915 0.0084243915 0.0084243915
0.0084641292 0.0084641292 0.0084641292
0.0085039688 0.0085039688 0.0085039688
0.0085439106 0.0085439106 0.0085439106
0.0085839544 0.0085839544 0.0085839544
0.0086241004 0.0086241004 0.0086241004
0.0086643486 0.0086643486 0.0086643486
0.0087046990 0.0087046990 0.0087046990
0.0087451517 0.0087451517 0.0087451517
0.0087857067 0.0087857067 0.0087857067
0.0088263641 0.0088263641 0.0088263641
0.0088671239 0.0088671239 0.0088671239
0.0089079862 0.0089079862 0.0089079862
0.0089489510 0.0089489510 0.0089489510
0.0089900183 0.0089900183 0.0089900183
0.0090311882 0.0090311882 0.0090311882
0.0090724607 0.0090724607 0.0090724607
0.0091138359 0.0091138359 0.0091138359
0.0091553137 0.0091553137 0.0091553137
0.0091968944 0.0091968944 0.0091968944
0.0092385778 0.0092385778 0.0092385778
0.0092803641 0.0092803641 0.0092803641
0.0093222532 0.0093222532 0.0093222532
0.0093642453 0.0093642453 0.0093642453
0.0094063404 0.0094063404 0.0094063404
0.0094485384 0.0094485384 0.0094485384
0.0094908395 0.0094908395 0.0094908395
0.0095332437 0.0095332437 0.0095332437
0.0095757510 0.0095757510 0.0095757510
0.0096183615 0.0096183615 0.0096183615
0.0096610752 0.0096610752 0.0096610752
0.0097038921 0.0097038921 0.0097038921
0.0097468124 0.0097468124 0.0097468124
0.0097898360 0.0097898360 0.0097898360
0.0098329630 0.0098329630 0.0098329630
0.0098761934 0.0098761934 0.0098761934
0.0099195272 0.0099195272 0.0099195272
0.0099629646 0.0099629646 0.0099629646
0.0100065055 0.0100065055 0.0100065055
0.0100501500 0.0100501500 0.0100501500
0.0100938981 0.0100938981 0.0100938981
0.0101377499 0.0101377499 0.0101377499
0.0101817054 0.0101817054 0.0101817054
0.0102257647 0.0102257647 0.0102257647
0.0102699277 0.0102699277 0.0102699277
0.0103141946 0.0103141946 0.0103141946
0.0103585653 0.0103585653 0.0103585653
0.0104030400 0.0104030400 0.0104030400
0.0104476186 0.0104476186 0.0104476186
0.0104923012 0.0104923012 0.0104923012
0.0105370879 0.0105370879 0.0105370879
0.0105819786 0.0105819786 0.0105819786
0.0106269734 0.0106269734 0.0106269734
0.0106720724 0.0106720724 0.0106720724
0.0107172756 0.0107172756 0.0107172756
0.0107625830 0.0107625830 0.0107625830
0.0108079947 0.0108079947 0.0108079947
0.0108535107 0.0108535107 0.0108535107
0.0108991310 0.0108991310 0.0108991310
0.0109448558 0.0109448558 0.0109448558
0.0109906850 0.0109906850 0.0109906850
0.0110366186 0.0110366186 0.0110366186
0.0110826568 0.0110826568 0.0110826568
0.0111287995 0.0111287995 0.0111287995
0.0111750469 0.0111750469 0.0111750469
0.0112213988 0.0112213988 0.0112213988
0.0112678554 0.0112678554 0.0112678554
0.0113144168 0.0113144168 0.0113144168
0.0113610829 0.0113610829 0.0113610829
0.0114078537 0.0114078537 0.0114078537
0.0114547294 0.0114547294 0.0114547294
0.0115017100 0.0115017100 0.0115017100
0.0115487955 0.0115487955 0.0115487955
0.0115959859 0.0115959859 0.0115959859
0.0116432813 0.0116432813 0.0116432813
0.0116906817 0.0116906817 0.0116906817
0.0117381872 0.0117381872 0.0117381872
0.0117857978 0.0117857978 0.0117857978
0.0118335135 0.0118335135 0.0118335135
0.0118813344 0.0118813344 0.0118813344
0.0119292606 0.0119292606 0.0119292606
0.0119772919 0.0119772919 0.0119772919
0.0120254286 0.0120254286 0.0120254286
0.0120736706 0.0120736706 0.0120736706
0.0121220180 0.0121220180 0.0121220180
0.0121704708 0.0121704708 0.0121704708
0.0122190290 0.0122190290 0.0122190290
0.0122676927 0.0122676927 0.0122676927
0.0123164619 0.0123164619 0.0123164619
0.0123653367 0.0123653367 0.0123653367
0.0124143171 0.0124143171 0.0124143171
0.0124634032 0.0124634032 0.0124634032
0.0125125949 0.0125125949 0.0125125949
0.0125618923 0.0125618923 0.0125618923
0.0126112955 0.0126112955 0.0126112955
0.0126608044 0.0126608044 0.0126608044
0.0127104192 0.0127104192 0.0127104192
0.0127601399 0.0127601399 0.0127601399
0.0128099664 0.0128099664 0.0128099664
0.0128598989 0.0128598989 0.0128598989
0.0129099374 0.0129099374 0.0129099374
0.0129600819 0.0129600819 0.0129600819
0.0130103324 0.0130103324 0.0130103324
0.0130606890 0.0130606890 0.0130606890
0.0131111518 0.0131111518 0.0131111518
0.0131617207 0.0131617207 0.0131617207
0.0132123958 0.0132123958 0.0132123958
0.0132631771 0.0132631771 0.0132631771
0.0133140648 0.0133140648 0.0133140648
0.0133650587 0.0133650587 0.0133650587
0.0134161590 0.0134161590 0.0134161590
0.0134673656 0.0134673656 0.0134673656
0.0135186787 0.0135186787 0.0135186787
0.0135700983 0.0135700983 0.0135700983
0.0136216243 0.0136216243 0.0136216243
0.0136732569 0.0136732569 0.0136732569
0.0137249960 0.0137249960 0.0137249960
0.0137768418 0.0137768418 0.0137768418
0.0138287942 0.0138287942 0.0138287942
0.0138808532 0.0138808532 0.0138808532
0.0139330190 0.0139330190 0.0139330190
0.0139852915 0.0139852915 0.0139852915
0.0140376709 0.0140376709 0.0140376709
0.0140901570 0.0140901570 0.0140901570
0.0141427500 0.0141427500 0.0141427500
0.0141954499 0.0141954499 0.0141954499
0.0142482567 0.0142482567 0.0142482567
0.0143011705 0.0143011705 0.0143011705
0.0143541913 0.0143541913 0.0143541913
0.0144073192 0.0144073192 0.0144073192
0.0144605541 0.0144605541 0.0144605541
0.0145138962 0.0145138962 0.0145138962
0.0145673453 0.0145673453 0.0145673453
0.0146209017 0.0146209017 0.0146209017
0.0146745653 0.0146745653 0.0146745653
0.0147283361 0.0147283361 0.0147283361
0.0147822143 0.0147822143 0.0147822143
0.0148361997 0.0148361997 0.0148361997
0.0148902926 0.0148902926 0.0148902926
0.0149444928 0.0149444928 0.0149444928
0.0149988004 0.0149988004 0.0149988004
0.0150532156 0.0150532156 0.0150532156
0.0151077382 0.0151077382 0.0151077382
0.0151623684 0.0151623684 0.0151623684
0.0152171061 0.0152171061 0.0152171061
