VFX IO/Gamma 2.4 to Linear.cube
# DaVinci Resolve Cube (1D shaper LUT).

LUT_1D_SIZE 4096
LUT_1D_INPUT_RANGE 0.0000000000 1.0000000000

0.0000000000 0.0000000000 0.0000000000
0.0000000021 0.0000000021 0.0000000021
0.0000000113 0.0000000113 0.0000000113
0.0000000299 0.0000000299 0.0000000299
0.0000000596 0.0000000596 0.0000000596
0.0000001019 0.0000001019 0.0000001019
0.0000001578 0.0000001578 0.0000001578
0.0000002285 0.0000002285 0.0000002285
0.0000003148 0.0000003148 0.0000003148
0.0000004176 0.0000004176 0.0000004176
0.0000005378 0.0000005378 0.0000005378
0.0000006760 0.0000006760 0.0000006760
0.0000008330 0.0000008330 0.0000008330
0.0000010094 0.0000010094 0.0000010094
0.0000012059 0.0000012059 0.0000012059
0.0000014230 0.0000014230 0.0000014230
0.0000016614 0.0000016614 0.0000016614
0.0000019216 0.0000019216 0.0000019216
0.0000022042 0.0000022042 0.0000022042
0.0000025096 0.0000025096 0.0000025096
0.0000028383 0.0000028383 0.0000028383
0.0000031909 0.0000031909 0.0000031909
0.0000035678 0.0000035678 0.0000035678
0.0000039695 0.0000039695 0.0000039695
0.0000043964 0.0000043964 0.0000043964
0.0000048489 0.0000048489 0.0000048489
0.0000053275 0.0000053275 0.0000053275
0.0000058326 0.0000058326 0.0000058326
0.0000063646 0.0000063646 0.0000063646
0.0000069238 0.0000069238 0.0000069238
0.0000075107 0.0000075107 0.0000075107
0.0000081257 0.0000081257 0.0000081257
0.0000087690 0.0000087690 0.0000087690
0.0000094411 0.0000094411 0.0000094411
0.0000101424 0.0000101424 0.0000101424
0.0000108731 0.0000108731 0.0000108731
0.0000116337 0.0000116337 0.0000116337
0.0000124244 0.0000124244 0.0000124244
0.0000132456 0.0000132456 0.0000132456
0.0000140976 0.0000140976 0.0000140976
0.0000149808 0.0000149808 0.0000149808
0.0000158954 0.0000158954 0.0000158954
0.0000168418 0.0000168418 0.0000168418
0.0000178203 0.0000178203 0.0000178203
0.0000188312 0.0000188312 0.0000188312
0.0000198747 0.0000198747 0.0000198747
0.0000209512 0.0000209512 0.0000209512
0.0000220610 0.0000220610 0.0000220610
0.0000232044 0.0000232044 0.0000232044
0.0000243815 0.0000243815 0.0000243815
0.0000255928 0.0000255928 0.0000255928
0.0000268385 0.0000268385 0.0000268385
0.0000281189 0.0000281189 0.0000281189
0.0000294342 0.0000294342 0.0000294342
0.0000307848 0.0000307848 0.0000307848
0.0000321707 0.0000321707 0.0000321707
0.0000335925 0.0000335925 0.0000335925
0.0000350502 0.0000350502 0.0000350502
0.0000365441 0.0000365441 0.0000365441
0.0000380746 0.0000380746 0.0000380746
0.0000396418 0.0000396418 0.0000396418
0.0000412460 0.0000412460 0.0000412460
0.0000428875 0.0000428875 0.0000428875
0.0000445664 0.0000445664 0.0000445664
0.0000462831 0.0000462831 0.0000462831
0.0000480378 0.0000480378 0.0000480378
0.0000498306 0.0000498306 0.0000498306
0.0000516619 0.0000516619 0.0000516619
0.0000535318 0.0000535318 0.0000535318
0.0000554407 0.0000554407 0.0000554407
0.0000573886 0.0000573886 0.0000573886
0.0000593760 0.0000593760 0.0000593760
0.0000614029 0.0000614029 0.0000614029
0.0000634696 0.0000634696 0.0000634696
0.0000655763 0.0000655763 0.0000655763
0.0000677232 0.0000677232 0.0000677232
0.0000699106 0.0000699106 0.0000699106
0.0000721387 0.0000721387 0.0000721387
0.0000744077 0.0000744077 0.0000744077
0.0000767177 0.0000767177 0.0000767177
0.0000790691 0.0000790691 0.0000790691
0.0000814619 0.0000814619 0.0000814619
0.0000838965 0.0000838965 0.0000838965
0.0000863730 0.0000863730 0.0000863730
0.0000888916 0.0000888916 0.0000888916
0.0000914526 0.0000914526 0.0000914526
0.0000940561 0.0000940561 0.0000940561
0.0000967023 0.0000967023 0.0000967023
0.0000993915 0.0000993915 0.0000993915
0.0001021237 0.0001021237 0.0001021237
0.0001048993 0.0001048993 0.0001048993
0.0001077184 0.0001077184 0.0001077184
0.0001105812 0.0001105812 0.0001105812
0.0001134879 0.0001134879 0.0001134879
0.0001164387 0.0001164387 0.0001164387
0.0001194338 0.0001194338 0.0001194338
0.0001224733 0.0001224733 0.0001224733
0.0001255575 0.0001255575 0.0001255575
0.0001286866 0.0001286866 0.0001286866
0.0001318606 0.0001318606 0.0001318606
0.0001350799 0.0001350799 0.0001350799
0.0001383445 0.0001383445 0.0001383445
0.0001416547 0.0001416547 0.0001416547
0.0001450107 0.0001450107 0.0001450107
0.0001484126 0.0001484126 0.0001484126
0.0001518605 0.0001518605 0.0001518605
0.0001553548 0.0001553548 0.0001553548
0.0001588955 0.0001588955 0.0001588955
0.0001624829 0.0001624829 0.0001624829
0.0001661171 0.0001661171 0.0001661171
0.0001697982 0.0001697982 0.0001697982
0.0001735265 0.0001735265 0.0001735265
0.0001773021 0.0001773021 0.0001773021
0.0001811252 0.0001811252 0.0001811252
0.0001849960 0.0001849960 0.0001849960
0.0001889146 0.0001889146 0.0001889146
0.0001928812 0.0001928812 0.0001928812
0.0001968959 0.0001968959 0.0001968959
0.0002009590 0.0002009590 0.0002009590
0.0002050706 0.0002050706 0.0002050706
0.0002092308 0.0002092308 0.0002092308
0.0002134399 0.0002134399 0.0002134399
0.0002176979 0.0002176979 0.0002176979
0.0002220051 0.0002220051 0.0002220051
0.0002263616 0.0002263616 0.0002263616
0.0002307675 0.0002307675 0.0002307675
0.0002352231 0.0002352231 0.0002352231
0.0002397284 0.0002397284 0.0002397284
0.0002442837 0.0002442837 0.0002442837
0.0002488891 0.0002488891 0.0002488891
0.0002535448 0.0002535448 0.0002535448
0.0002582508 0.0002582508 0.0002582508
0.0002630075 0.0002630075 0.0002630075
0.0002678148 0.0002678148 0.0002678148
0.0002726730 0.0002726730 0.0002726730
0.0002775822 0.0002775822 0.0002775822
0.0002825426 0.0002825426 0.0002825426
0.0002875544 0.0002875544 0.0002875544
0.0002926176 0.0002926176 0.0002926176
0.0002977324 0.0002977324 0.0002977324
0.0003028990 0.0003028990 0.0003028990
0.0003081176 0.0003081176 0.0003081176
0.0003133882 0.0003133882 0.0003133882
0.0003187110 0.0003187110 0.0003187110
0.0003240863 0.0003240863 0.0003240863
0.0003295140 0.0003295140 0.0003295140
0.0003349943 0.0003349943 0.0003349943
0.0003405275 0.0003405275 0.0003405275
0.0003461137 0.0003461137 0.0003461137
0.0003517529 0.0003517529 0.0003517529
0.0003574453 0.0003574453 0.0003574453
0.0003631912 0.0003631912 0.0003631912
0.0003689905 0.0003689905 0.0003689905
0.0003748436 0.0003748436 0.0003748436
0.0003807504 0.0003807504 0.0003807504
0.0003867112 0.0003867112 0.0003867112
0.0003927260 0.0003927260 0.0003927260
0.0003987951 0.0003987951 0.0003987951
0.0004049185 0.0004049185 0.0004049185
0.0004110964 0.0004110964 0.0004110964
0.0004173290 0.0004173290 0.0004173290
0.0004236164 0.0004236164 0.0004236164
0.0004299586 0.0004299586 0.0004299586
0.0004363559 0.0004363559 0.0004363559
0.0004428084 0.0004428084 0.0004428084
0.0004493162 0.0004493162 0.0004493162
0.0004558795 0.0004558795 0.0004558795
0.0004624983 0.0004624983 0.0004624983
0.0004691729 0.0004691729 0.0004691729
0.0004759033 0.0004759033 0.0004759033
0.0004826897 0.0004826897 0.0004826897
0.0004895322 0.0004895322 0.0004895322
0.0004964310 0.0004964310 0.0004964310
0.0005033862 0.0005033862 0.0005033862
0.0005103978 0.0005103978 0.0005103978
0.0005174661 0.0005174661 0.0005174661
0.0005245912 0.0005245912 0.0005245912
0.0005317732 0.0005317732 0.0005317732
0.0005390122 0.0005390122 0.0005390122
0.0005463084 0.0005463084 0.0005463084
0.0005536619 0.0005536619 0.0005536619
0.0005610728 0.0005610728 0.0005610728
0.0005685412 0.0005685412 0.0005685412
0.0005760673 0.0005760673 0.0005760673
0.0005836512 0.0005836512 0.0005836512
0.0005912930 0.0005912930 0.0005912930
0.0005989929 0.0005989929 0.0005989929
0.0006067510 0.0006067510 0.0006067510
0.0006145673 0.0006145673 0.0006145673
0.0006224421 0.0006224421 0.0006224421
0.0006303754 0.0006303754 0.0006303754
0.0006383674 0.0006383674 0.0006383674
0.0006464182 0.0006464182 0.0006464182
0.0006545279 0.0006545279 0.0006545279
0.0006626967 0.0006626967 0.0006626967
0.0006709246 0.0006709246 0.0006709246
0.0006792118 0.0006792118 0.0006792118
0.0006875584 0.0006875584 0.0006875584
0.0006959645 0.0006959645 0.0006959645
0.0007044303 0.0007044303 0.0007044303
0.0007129558 0.0007129558 0.0007129558
0.0007215412 0.0007215412 0.0007215412
0.0007301867 0.0007301867 0.0007301867
0.0007388923 0.0007388923 0.0007388923
0.0007476581 0.0007476581 0.0007476581
0.0007564843 0.0007564843 0.0007564843
0.0007653709 0.0007653709 0.0007653709
0.0007743182 0.0007743182 0.0007743182
0.0007833262 0.0007833262 0.0007833262
0.0007923950 0.0007923950 0.0007923950
0.0008015247 0.0008015247 0.0008015247
0.0008107156 0.0008107156 0.0008107156
0.0008199676 0.0008199676 0.0008199676
0.0008292809 0.0008292809 0.0008292809
0.0008386557 0.0008386557 0.0008386557
0.0008480919 0.0008480919 0.0008480919
0.0008575898 0.0008575898 0.0008575898
0.0008671495 0.0008671495 0.0008671495
0.0008767711 0.0008767711 0.0008767711
0.0008864546 0.0008864546 0.0008864546
0.0008962002 0.0008962002 0.0008962002
0.0009060081 0.0009060081 0.0009060081
0.0009158783 0.0009158783 0.0009158783
0.0009258109 0.0009258109 0.0009258109
0.0009358061 0.0009358061 0.0009358061
0.0009458639 0.0009458639 0.0009458639
0.0009559846 0.0009559846 0.0009559846
0.0009661681 0.0009661681 0.0009661681
0.0009764146 0.0009764146 0.0009764146
0.0009867242 0.0009867242 0.0009867242
0.0009970971 0.0009970971 0.0009970971
0.0010075332 0.0010075332 0.0010075332
0.0010180328 0.0010180328 0.0010180328
0.0010285960 0.0010285960 0.0010285960
0.0010392228 0.0010392228 0.0010392228
0.0010499134 0.0010499134 0.0010499134
0.0010606679 0.0010606679 0.0010606679
0.0010714864 0.0010714864 0.0010714864
0.0010823689 0.0010823689 0.0010823689
0.0010933157 0.0010933157 0.0010933157
0.0011043268 0.0011043268 0.0011043268
0.0011154023 0.0011154023 0.0011154023
0.0011265423 0.0011265423 0.0011265423
0.0011377470 0.0011377470 0.0011377470
0.0011490164 0.0011490164 0.0011490164
0.0011603506 0.0011603506 0.0011603506
0.0011717498 0.0011717498 0.0011717498
0.0011832140 0.0011832140 0.0011832140
0.0011947435 0.0011947435 0.0011947435
0.0012063381 0.0012063381 0.0012063381
0.0012179982 0.0012179982 0.0012179982
0.0012297237 0.0012297237 0.0012297237
0.0012415149 0.0012415149 0.0012415149
0.0012533717 0.0012533717 0.0012533717
0.0012652943 0.0012652943 0.0012652943
0.0012772828 0.0012772828 0.0012772828
0.0012893373 0.0012893373 0.0012893373
0.0013014579 0.0013014579 0.0013014579
0.0013136447 0.0013136447 0.0013136447
0.0013258978 0.0013258978 0.0013258978
0.0013382174 0.0013382174 0.0013382174
0.0013506034 0.0013506034 0.0013506034
0.0013630561 0.0013630561 0.0013630561
0.0013755755 0.0013755755 0.0013755755
0.0013881617 0.0013881617 0.0013881617
0.0014008148 0.0014008148 0.0014008148
0.0014135350 0.0014135350 0.0014135350
0.0014263222 0.0014263222 0.0014263222
0.0014391767 0.0014391767 0.0014391767
0.0014520986 0.0014520986 0.0014520986
0.0014650878 0.0014650878 0.0014650878
0.0014781446 0.0014781446 0.0014781446
0.0014912690 0.0014912690 0.0014912690
0.0015044612 0.0015044612 0.0015044612
0.0015177211 0.0015177211 0.0015177211
0.0015310490 0.0015310490 0.0015310490
0.0015444449 0.0015444449 0.0015444449
0.0015579089 0.0015579089 0.0015579089
0.0015714412 0.0015714412 0.0015714412
0.0015850418 0.0015850418 0.0015850418
0.0015987108 0.0015987108 0.0015987108
0.0016124483 0.0016124483 0.0016124483
0.0016262544 0.0016262544 0.0016262544
0.0016401292 0.0016401292 0.0016401292
0.0016540729 0.0016540729 0.0016540729
0.0016680854 0.0016680854 0.0016680854
0.0016821670 0.0016821670 0.0016821670
0.0016963176 0.0016963176 0.0016963176
0.0017105375 0.0017105375 0.0017105375
0.0017248266 0.0017248266 0.0017248266
0.0017391852 0.0017391852 0.0017391852
0.0017536132 0.0017536132 0.0017536132
0.0017681108 0.0017681108 0.0017681108
0.0017826780 0.0017826780 0.0017826780
0.0017973151 0.0017973151 0.0017973151
0.0018120220 0.0018120220 0.0018120220
0.0018267989 0.0018267989 0.0018267989
0.0018416458 0.0018416458 0.0018416458
0.0018565629 0.0018565629 0.0018565629
0.0018715502 0.0018715502 0.0018715502
0.0018866078 0.0018866078 0.0018866078
0.0019017359 0.0019017359 0.0019017359
0.0019169346 0.0019169346 0.0019169346
0.0019322038 0.0019322038 0.0019322038
0.0019475438 0.0019475438 0.0019475438
0.0019629545 0.0019629545 0.0019629545
0.0019784362 0.0019784362 0.0019784362
0.0019939889 0.0019939889 0.0019939889
0.0020096126 0.0020096126 0.0020096126
0.0020253075 0.0020253075 0.0020253075
0.0020410737 0.0020410737 0.0020410737
0.0020569113 0.0020569113 0.0020569113
0.0020728203 0.0020728203 0.0020728203
0.0020888008 0.0020888008 0.0020888008
0.0021048530 0.0021048530 0.0021048530
0.0021209770 0.0021209770 0.0021209770
0.0021371727 0.0021371727 0.0021371727
0.0021534404 0.0021534404 0.0021534404
0.0021697801 0.0021697801 0.0021697801
0.0021861918 0.0021861918 0.0021861918
0.0022026758 0.0022026758 0.0022026758
0.0022192320 0.0022192320 0.0022192320
0.0022358606 0.0022358606 0.0022358606
0.0022525616 0.0022525616 0.0022525616
0.0022693352 0.0022693352 0.0022693352
0.0022861814 0.0022861814 0.0022861814
0.0023031004 0.0023031004 0.0023031004
0.0023200921 0.0023200921 0.0023200921
0.0023371568 0.0023371568 0.0023371568
0.0023542945 0.0023542945 0.0023542945
0.0023715052 0.0023715052 0.0023715052
0.0023887891 0.0023887891 0.0023887891
0.0024061463 0.0024061463 0.0024061463
0.0024235768 0.0024235768 0.0024235768
0.0024410807 0.0024410807 0.0024410807
0.0024586582 0.0024586582 0.0024586582
0.0024763093 0.0024763093 0.0024763093
0.0024940341 0.0024940341 0.0024940341
0.0025118327 0.0025118327 0.0025118327
0.0025297051 0.0025297051 0.0025297051
0.0025476515 0.0025476515 0.0025476515
0.0025656720 0.0025656720 0.0025656720
0.0025837666 0.0025837666 0.0025837666
0.0026019354 0.0026019354 0.0026019354
0.0026201786 0.0026201786 0.0026201786
0.0026384961 0.0026384961 0.0026384961
0.0026568881 0.0026568881 0.0026568881
0.0026753547 0.0026753547 0.0026753547
0.0026938959 0.0026938959 0.0026938959
0.0027125119 0.0027125119 0.0027125119
0.0027312027 0.0027312027 0.0027312027
0.0027499684 0.0027499684 0.0027499684
0.0027688091 0.0027688091 0.0027688091
0.0027877249 0.0027877249 0.0027877249
0.0028067159 0.0028067159 0.0028067159
0.0028257821 0.0028257821 0.0028257821
0.0028449237 0.0028449237 0.0028449237
0.0028641407 0.0028641407 0.0028641407
0.0028834332 0.0028834332 0.0028834332
0.0029028013 0.0029028013 0.0029028013
0.0029222450 0.0029222450 0.0029222450
0.0029417645 0.0029417645 0.0029417645
0.0029613599 0.0029613599 0.0029613599
0.0029810312 0.0029810312 0.0029810312
0.0030007785 0.0030007785 0.0030007785
0.0030206020 0.0030206020 0.0030206020
0.0030405016 0.0030405016 0.0030405016
0.0030604774 0.0030604774 0.0030604774
0.0030805296 0.0030805296 0.0030805296
0.0031006583 0.0031006583 0.0031006583
0.0031208634 0.0031208634 0.0031208634
0.0031411452 0.0031411452 0.0031411452
0.0031615036 0.0031615036 0.0031615036
0.0031819388 0.0031819388 0.0031819388
0.0032024508 0.0032024508 0.0032024508
0.0032230398 0.0032230398 0.0032230398
0.0032437058 0.0032437058 0.0032437058
0.0032644488 0.0032644488 0.0032644488
0.0032852691 0.0032852691 0.0032852691
0.0033061666 0.0033061666 0.0033061666
0.0033271414 0.0033271414 0.0033271414
0.0033481936 0.0033481936 0.0033481936
0.0033693234 0.0033693234 0.0033693234
0.0033905307 0.0033905307 0.0033905307
0.0034118157 0.0034118157 0.0034118157
0.0034331784 0.0034331784 0.0034331784
0.0034546190 0.0034546190 0.0034546190
0.0034761375 0.0034761375 0.0034761375
0.0034977339 0.0034977339 0.0034977339
0.0035194084 0.0035194084 0.0035194084
0.0035411611 0.0035411611 0.0035411611
0.0035629920 0.0035629920 0.0035629920
0.0035849012 0.0035849012 0.0035849012
0.0036068887 0.0036068887 0.0036068887
0.0036289548 0.0036289548 0.0036289548
0.0036510994 0.0036510994 0.0036510994
0.0036733226 0.0036733226 0.0036733226
0.0036956245 0.0036956245 0.0036956245
0.0037180052 0.0037180052 0.0037180052
0.0037404648 0.0037404648 0.0037404648
0.0037630033 0.0037630033 0.0037630033
0.0037856209 0.0037856209 0.0037856209
0.0038083175 0.0038083175 0.0038083175
0.0038310934 0.0038310934 0.0038310934
0.0038539485 0.0038539485 0.0038539485
0.0038768829 0.0038768829 0.0038768829
0.0038998967 0.0038998967 0.0038998967
0.0039229901 0.0039229901 0.0039229901
0.0039461630 0.0039461630 0.0039461630
0.0039694155 0.0039694155 0.0039694155
0.0039927478 0.0039927478 0.0039927478
0.0040161599 0.0040161599 0.0040161599
0.0040396519 0.0040396519 0.0040396519
0.0040632239 0.0040632239 0.0040632239
0.0040868758 0.0040868758 0.0040868758
0.0041106079 0.0041106079 0.0041106079
0.0041344202 0.0041344202 0.0041344202
0.0041583128 0.0041583128 0.0041583128
0.0041822857 0.0041822857 0.0041822857
0.0042063391 0.0042063391 0.0042063391
0.0042304729 0.0042304729 0.0042304729
0.0042546874 0.0042546874 0.0042546874
0.0042789825 0.0042789825 0.0042789825
0.0043033583 0.0043033583 0.0043033583
0.0043278149 0.0043278149 0.0043278149
0.0043523525 0.0043523525 0.0043523525
0.0043769709 0.0043769709 0.0043769709
0.0044016705 0.0044016705 0.0044016705
0.0044264511 0.0044264511 0.0044264511
0.0044513129 0.0044513129 0.0044513129
0.0044762560 0.0044762560 0.0044762560
0.0045012805 0.0045012805 0.0045012805
0.0045263863 0.0045263863 0.0045263863
0.0045515737 0.0045515737 0.0045515737
0.0045768426 0.0045768426 0.0045768426
0.0046021932 0.0046021932 0.0046021932
0.0046276254 0.0046276254 0.0046276254
0.0046531395 0.0046531395 0.0046531395
0.0046787355 0.0046787355 0.0046787355
0.0047044134 0.0047044134 0.0047044134
0.0047301733 0.0047301733 0.0047301733
0.0047560153 0.0047560153 0.0047560153
0.0047819394 0.0047819394 0.0047819394
0.0048079459 0.0048079459 0.0048079459
0.0048340346 0.0048340346 0.0048340346
0.0048602057 0.0048602057 0.0048602057
0.0048864593 0.0048864593 0.0048864593
0.0049127954 0.0049127954 0.0049127954
0.0049392142 0.0049392142 0.0049392142
0.0049657156 0.0049657156 0.0049657156
0.0049922998 0.0049922998 0.0049922998
0.0050189668 0.0050189668 0.0050189668
0.0050457168 0.0050457168 0.0050457168
0.0050725497 0.0050725497 0.0050725497
0.0050994657 0.0050994657 0.0050994657
0.0051264648 0.0051264648 0.0051264648
0.0051535471 0.0051535471 0.0051535471
0.0051807127 0.0051807127 0.0051807127
0.0052079616 0.0052079616 0.0052079616
0.0052352939 0.0052352939 0.0052352939
0.0052627098 0.0052627098 0.0052627098
0.0052902092 0.0052902092 0.0052902092
0.0053177922 0.0053177922 0.0053177922
0.0053454590 0.0053454590 0.0053454590
0.0053732096 0.0053732096 0.0053732096
0.0054010440 0.0054010440 0.0054010440
0.0054289623 0.0054289623 0.0054289623
0.0054569646 0.0054569646 0.0054569646
0.0054850510 0.0054850510 0.0054850510
0.0055132216 0.0055132216 0.0055132216
0.0055414764 0.0055414764 0.0055414764
0.0055698154 0.0055698154 0.0055698154
0.0055982388 0.0055982388 0.0055982388
0.0056267467 0.0056267467 0.0056267467
0.0056553390 0.0056553390 0.0056553390
0.0056840160 0.0056840160 0.0056840160
0.0057127775 0.0057127775 0.0057127775
0.0057416238 0.0057416238 0.0057416238
0.0057705549 0.0057705549 0.0057705549
0.0057995708 0.0057995708 0.0057995708
0.0058286717 0.0058286717 0.0058286717
0.0058578576 0.0058578576 0.0058578576
0.0058871285 0.0058871285 0.0058871285
0.0059164846 0.0059164846 0.0059164846
0.0059459259 0.0059459259 0.0059459259
0.0059754525 0.0059754525 0.0059754525
0.0060050644 0.0060050644 0.0060050644
0.0060347618 0.0060347618 0.0060347618
0.0060645447 0.0060645447 0.0060645447
0.0060944131 0.0060944131 0.0060944131
0.0061243671 0.0061243671 0.0061243671
0.0061544069 0.0061544069 0.0061544069
0.0061845324 0.0061845324 0.0061845324
0.0062147438 0.0062147438 0.0062147438
0.0062450411 0.0062450411 0.0062450411
0.0062754244 0.0062754244 0.0062754244
0.0063058938 0.0063058938 0.0063058938
0.0063364492 0.0063364492 0.0063364492
0.0063670909 0.0063670909 0.0063670909
0.0063978188 0.0063978188 0.0063978188
0.0064286330 0.0064286330 0.0064286330
0.0064595337 0.0064595337 0.0064595337
0.0064905208 0.0064905208 0.0064905208
0.0065215945 0.0065215945 0.0065215945
0.0065527547 0.0065527547 0.0065527547
0.0065840017 0.0065840017 0.0065840017
0.0066153354 0.0066153354 0.0066153354
0.0066467559 0.0066467559 0.0066467559
0.0066782633 0.0066782633 0.0066782633
0.0067098576 0.0067098576 0.0067098576
0.0067415389 0.0067415389 0.0067415389
0.0067733074 0.0067733074 0.0067733074
0.0068051630 0.0068051630 0.0068051630
0.0068371058 0.0068371058 0.0068371058
0.0068691359 0.0068691359 0.0068691359
0.0069012534 0.0069012534 0.0069012534
0.0069334583 0.0069334583 0.0069334583
0.0069657507 0.0069657507 0.0069657507
0.0069981307 0.0069981307 0.0069981307
0.0070305983 0.0070305983 0.0070305983
0.0070631536 0.0070631536 0.0070631536
0.0070957967 0.0070957967 0.0070957967
0.0071285276 0.0071285276 0.0071285276
0.0071613464 0.0071613464 0.0071613464
0.0071942531 0.0071942531 0.0071942531
0.0072272479 0.0072272479 0.0072272479
0.0072603308 0.0072603308 0.0072603308
0.0072935019 0.0072935019 0.0072935019
0.0073267612 0.0073267612 0.0073267612
0.0073601089 0.0073601089 0.0073601089
0.0073935449 0.0073935449 0.0073935449
0.0074270693 0.0074270693 0.0074270693
0.0074606822 0.0074606822 0.0074606822
0.0074943837 0.0074943837 0.0074943837
0.0075281739 0.0075281739 0.0075281739
0.0075620527 0.0075620527 0.0075620527
0.0075960204 0.0075960204 0.0075960204
0.0076300768 0.0076300768 0.0076300768
0.0076642222 0.0076642222 0.0076642222
0.0076984565 0.0076984565 0.0076984565
0.0077327799 0.0077327799 0.0077327799
0.0077671924 0.0077671924 0.0077671924
0.0078016940 0.0078016940 0.0078016940
0.0078362849 0.0078362849 0.0078362849
0.0078709651 0.0078709651 0.0078709651
0.0079057346 0.0079057346 0.0079057346
0.0079405936 0.0079405936 0.0079405936
0.0079755420 0.0079755420 0.0079755420
0.0080105801 0.0080105801 0.0080105801
0.0080457077 0.0080457077 0.0080457077
0.0080809251 0.0080809251 0.0080809251
0.0081162322 0.0081162322 0.0081162322
0.0081516291 0.0081516291 0.0081516291
0.0081871159 0.0081871159 0.0081871159
0.0082226927 0.0082226927 0.0082226927
0.0082583595 0.0082583595 0.0082583595
0.0082941164 0.0082941164 0.0082941164
0.0083299634 0.0083299634 0.0083299634
0.0083659007 0.0083659007 0.0083659007
0.0084019282 0.0084019282 0.0084019282
0.0084380460 0.0084380460 0.0084380460
0.0084742543 0.0084742543 0.0084742543
0.0085105530 0.0085105530 0.0085105530
0.0085469423 0.0085469423 0.0085469423
0.0085834222 0.0085834222 0.0085834222
0.0086199927 0.0086199927 0.0086199927
0.0086566540 0.0086566540 0.0086566540
0.0086934061 0.0086934061 0.0086934061
0.0087302490 0.0087302490 0.0087302490
0.0087671829 0.0087671829 0.0087671829
0.0088042077 0.0088042077 0.0088042077
0.0088413236 0.0088413236 0.0088413236
0.0088785306 0.0088785306 0.0088785306
0.0089158287 0.0089158287 0.0089158287
0.0089532182 0.0089532182 0.0089532182
0.0089906989 0.0089906989 0.0089906989
0.0090282710 0.0090282710 0.0090282710
0.0090659345 0.0090659345 0.0090659345
0.0091036895 0.0091036895 0.0091036895
0.0091415361 0.0091415361 0.0091415361
0.0091794743 0.0091794743 0.0091794743
0.0092175042 0.0092175042 0.0092175042
0.0092556258 0.0092556258 0.0092556258
0.0092938393 0.0092938393 0.0092938393
0.0093321446 0.0093321446 0.0093321446
0.0093705418 0.0093705418 0.0093705418
0.0094090311 0.0094090311 0.0094090311
0.0094476124 0.0094476124 0.0094476124
0.0094862859 0.0094862859 0.0094862859
0.0095250515 0.0095250515 0.0095250515
0.0095639094 0.0095639094 0.0095639094
0.0096028596 0.0096028596 0.0096028596
0.0096419022 0.0096419022 0.0096419022
0.0096810372 0.0096810372 0.0096810372
0.0097202647 0.0097202647 0.0097202647
0.0097595848 0.0097595848 0.0097595848
0.0097989975 0.0097989975 0.0097989975
0.0098385029 0.0098385029 0.0098385029
0.0098781011 0.0098781011 0.0098781011
0.0099177921 0.0099177921 0.0099177921
0.0099575759 0.0099575759 0.0099575759
0.0099974527 0.0099974527 0.0099974527
0.0100374225 0.0100374225 0.0100374225
0.0100774853 0.0100774853 0.0100774853
0.0101176413 0.0101176413 0.0101176413
0.0101578904 0.0101578904 0.0101578904
0.0101982328 0.0101982328 0.0101982328
0.0102386685 0.0102386685 0.0102386685
0.0102791976 0.0102791976 0.0102791976
0.0103198201 0.0103198201 0.0103198201
0.0103605361 0.0103605361 0.0103605361
0.0104013457 0.0104013457 0.0104013457
