VFX IO/Linear to Gamma 2.2.cube
# DaVinci Resolve Cube (1D shaper LUT).

LUT_1D_SIZE 4096
LUT_1D_INPUT_RANGE 0.0000000000 1.0000000000

0.0000000000 0.0000000000 0.0000000000
0.0228069078 0.0228069078 0.0228069078
0.0312534685 0.0312534685 0.0312534685
0.0375785228 0.0375785228 0.0375785228
0.0428282214 0.0428282214 0.0428282214
0.0474001859 0.0474001859 0.0474001859
0.0514957657 0.0514957657 0.0514957657
0.0552334129 0.0552334129 0.0552334129
0.0586896953 0.0586896953 0.0586896953
0.0619174414 0.0619174414 0.0619174414
0.0649548914 0.0649548914 0.0649548914
0.0678307654 0.0678307654 0.0678307654
0.0705672732 0.0705672732 0.0705672732
0.0731820033 0.0731820033 0.0731820033
0.0756891617 0.0756891617 0.0756891617
0.0781004151 0.0781004151 0.0781004151
0.0804254818 0.0804254818 0.0804254818
0.0826725571 0.0826725571 0.0826725571
0.0848486267 0.0848486267 0.0848486267
0.0869597021 0.0869597021 0.0869597021
0.0890109994 0.0890109994 0.0890109994
0.0910070793 0.0910070793 0.0910070793
0.0929519562 0.0929519562 0.0929519562
0.0948491852 0.0948491852 0.0948491852
0.0967019324 0.0967019324 0.0967019324
0.0985130314 0.0985130314 0.0985130314
0.1002850303 0.1002850303 0.1002850303
0.1020202302 0.1020202302 0.1020202302
0.1037207173 0.1037207173 0.1037207173
0.1053883898 0.1053883898 0.1053883898
0.1070249808 0.1070249808 0.1070249808
0.1086320775 0.1086320775 0.1086320775
0.1102111382 0.1102111382 0.1102111382
0.1117635056 0.1117635056 0.1117635056
0.1132904200 0.1132904200 0.1132904200
0.1147930295 0.1147930295 0.1147930295
0.1162723992 0.1162723992 0.1162723992
0.1177295196 0.1177295196 0.1177295196
0.1191653134 0.1191653134 0.1191653134
0.1205806419 0.1205806419 0.1205806419
0.1219763106 0.1219763106 0.1219763106
0.1233530742 0.1233530742 0.1233530742
0.1247116407 0.1247116407 0.1247116407
0.1260526754 0.1260526754 0.1260526754
0.1273768047 0.1273768047 0.1273768047
0.1286846186 0.1286846186 0.1286846186
0.1299766744 0.1299766744 0.1299766744
0.1312534982 0.1312534982 0.1312534982
0.1325155882 0.1325155882 0.1325155882
0.1337634162 0.1337634162 0.1337634162
0.1349974295 0.1349974295 0.1349974295
0.1362180529 0.1362180529 0.1362180529
0.1374256900 0.1374256900 0.1374256900
0.1386207248 0.1386207248 0.1386207248
0.1398035229 0.1398035229 0.1398035229
0.1409744329 0.1409744329 0.1409744329
0.1421337871 0.1421337871 0.1421337871
0.1432819029 0.1432819029 0.1432819029
0.1444190837 0.1444190837 0.1444190837
0.1455456195 0.1455456195 0.1455456195
0.1466617878 0.1466617878 0.1466617878
0.1477678545 0.1477678545 0.1477678545
0.1488640744 0.1488640744 0.1488640744
0.1499506920 0.1499506920 0.1499506920
0.1510279417 0.1510279417 0.1510279417
0.1520960488 0.1520960488 0.1520960488
0.1531552299 0.1531552299 0.1531552299
0.1542056931 0.1542056931 0.1542056931
0.1552476386 0.1552476386 0.1552476386
0.1562812593 0.1562812593 0.1562812593
0.1573067410 0.1573067410 0.1573067410
0.1583242626 0.1583242626 0.1583242626
0.1593339967 0.1593339967 0.1593339967
0.1603361100 0.1603361100 0.1603361100
0.1613307631 0.1613307631 0.1613307631
0.1623181113 0.1623181113 0.1623181113
0.1632983045 0.1632983045 0.1632983045
0.1642714878 0.1642714878 0.1642714878
0.1652378013 0.1652378013 0.1652378013
0.1661973808 0.1661973808 0.1661973808
0.1671503574 0.1671503574 0.1671503574
0.1680968583 0.1680968583 0.1680968583
0.1690370067 0.1690370067 0.1690370067
0.1699709220 0.1699709220 0.1699709220
0.1708987197 0.1708987197 0.1708987197
0.1718205120 0.1718205120 0.1718205120
0.1727364079 0.1727364079 0.1727364079
0.1736465130 0.1736465130 0.1736465130
0.1745509297 0.1745509297 0.1745509297
0.1754497578 0.1754497578 0.1754497578
0.1763430939 0.1763430939 0.1763430939
0.1772310320 0.1772310320 0.1772310320
0.1781136637 0.1781136637 0.1781136637
0.1789910777 0.1789910777 0.1789910777
0.1798633605 0.1798633605 0.1798633605
0.1807305963 0.1807305963 0.1807305963
0.1815928668 0.1815928668 0.1815928668
0.1824502519 0.1824502519 0.1824502519
0.1833028291 0.1833028291 0.1833028291
0.1841506741 0.1841506741 0.1841506741
0.1849938605 0.1849938605 0.1849938605
0.1858324601 0.1858324601 0.1858324601
0.1866665429 0.1866665429 0.1866665429
0.1874961772 0.1874961772 0.1874961772
0.1883214296 0.1883214296 0.1883214296
0.1891423650 0.1891423650 0.1891423650
0.1899590467 0.1899590467 0.1899590467
0.1907715367 0.1907715367 0.1907715367
0.1915798953 0.1915798953 0.1915798953
0.1923841815 0.1923841815 0.1923841815
0.1931844529 0.1931844529 0.1931844529
0.1939807658 0.1939807658 0.1939807658
0.1947731751 0.1947731751 0.1947731751
0.1955617346 0.1955617346 0.1955617346
0.1963464968 0.1963464968 0.1963464968
0.1971275130 0.1971275130 0.1971275130
0.1979048336 0.1979048336 0.1979048336
0.1986785075 0.1986785075 0.1986785075
0.1994485830 0.1994485830 0.1994485830
0.2002151069 0.2002151069 0.2002151069
0.2009781253 0.2009781253 0.2009781253
0.2017376833 0.2017376833 0.2017376833
0.2024938249 0.2024938249 0.2024938249
0.2032465934 0.2032465934 0.2032465934
0.2039960310 0.2039960310 0.2039960310
0.2047421791 0.2047421791 0.2047421791
0.2054850784 0.2054850784 0.2054850784
0.2062247686 0.2062247686 0.2062247686
0.2069612886 0.2069612886 0.2069612886
0.2076946767 0.2076946767 0.2076946767
0.2084249703 0.2084249703 0.2084249703
0.2091522061 0.2091522061 0.2091522061
0.2098764201 0.2098764201 0.2098764201
0.2105976476 0.2105976476 0.2105976476
0.2113159233 0.2113159233 0.2113159233
0.2120312811 0.2120312811 0.2120312811
0.2127437544 0.2127437544 0.2127437544
0.2134533759 0.2134533759 0.2134533759
0.2141601776 0.2141601776 0.2141601776
0.2148641911 0.2148641911 0.2148641911
0.2155654474 0.2155654474 0.2155654474
0.2162639768 0.2162639768 0.2162639768
0.2169598091 0.2169598091 0.2169598091
0.2176529737 0.2176529737 0.2176529737
0.2183434993 0.2183434993 0.2183434993
0.2190314142 0.2190314142 0.2190314142
0.2197167462 0.2197167462 0.2197167462
0.2203995226 0.2203995226 0.2203995226
0.2210797701 0.2210797701 0.2210797701
0.2217575151 0.2217575151 0.2217575151
0.2224327836 0.2224327836 0.2224327836
0.2231056010 0.2231056010 0.2231056010
0.2237759924 0.2237759924 0.2237759924
0.2244439823 0.2244439823 0.2244439823
0.2251095950 0.2251095950 0.2251095950
0.2257728544 0.2257728544 0.2257728544
0.2264337837 0.2264337837 0.2264337837
0.2270924062 0.2270924062 0.2270924062
0.2277487444 0.2277487444 0.2277487444
0.2284028206 0.2284028206 0.2284028206
0.2290546568 0.2290546568 0.2290546568
0.2297042747 0.2297042747 0.2297042747
0.2303516953 0.2303516953 0.2303516953
0.2309969398 0.2309969398 0.2309969398
0.2316400287 0.2316400287 0.2316400287
0.2322809822 0.2322809822 0.2322809822
0.2329198203 0.2329198203 0.2329198203
0.2335565627 0.2335565627 0.2335565627
0.2341912288 0.2341912288 0.2341912288
0.2348238376 0.2348238376 0.2348238376
0.2354544079 0.2354544079 0.2354544079
0.2360829582 0.2360829582 0.2360829582
0.2367095067 0.2367095067 0.2367095067
0.2373340714 0.2373340714 0.2373340714
0.2379566701 0.2379566701 0.2379566701
0.2385773200 0.2385773200 0.2385773200
0.2391960384 0.2391960384 0.2391960384
0.2398128423 0.2398128423 0.2398128423
0.2404277483 0.2404277483 0.2404277483
0.2410407729 0.2410407729 0.2410407729
0.2416519323 0.2416519323 0.2416519323
0.2422612425 0.2422612425 0.2422612425
0.2428687193 0.2428687193 0.2428687193
0.2434743781 0.2434743781 0.2434743781
0.2440782344 0.2440782344 0.2440782344
0.2446803033 0.2446803033 0.2446803033
0.2452805996 0.2452805996 0.2452805996
0.2458791381 0.2458791381 0.2458791381
0.2464759332 0.2464759332 0.2464759332
0.2470709993 0.2470709993 0.2470709993
0.2476643506 0.2476643506 0.2476643506
0.2482560008 0.2482560008 0.2482560008
0.2488459639 0.2488459639 0.2488459639
0.2494342533 0.2494342533 0.2494342533
0.2500208824 0.2500208824 0.2500208824
0.2506058644 0.2506058644 0.2506058644
0.2511892124 0.2511892124 0.2511892124
0.2517709392 0.2517709392 0.2517709392
0.2523510576 0.2523510576 0.2523510576
0.2529295800 0.2529295800 0.2529295800
0.2535065189 0.2535065189 0.2535065189
0.2540818864 0.2540818864 0.2540818864
0.2546556947 0.2546556947 0.2546556947
0.2552279556 0.2552279556 0.2552279556
0.2557986809 0.2557986809 0.2557986809
0.2563678823 0.2563678823 0.2563678823
0.2569355711 0.2569355711 0.2569355711
0.2575017588 0.2575017588 0.2575017588
0.2580664565 0.2580664565 0.2580664565
0.2586296753 0.2586296753 0.2586296753
0.2591914261 0.2591914261 0.2591914261
0.2597517197 0.2597517197 0.2597517197
0.2603105667 0.2603105667 0.2603105667
0.2608679777 0.2608679777 0.2608679777
0.2614239631 0.2614239631 0.2614239631
0.2619785332 0.2619785332 0.2619785332
0.2625316982 0.2625316982 0.2625316982
0.2630834680 0.2630834680 0.2630834680
0.2636338525 0.2636338525 0.2636338525
0.2641828617 0.2641828617 0.2641828617
0.2647305052 0.2647305052 0.2647305052
0.2652767926 0.2652767926 0.2652767926
0.2658217334 0.2658217334 0.2658217334
0.2663653368 0.2663653368 0.2663653368
0.2669076122 0.2669076122 0.2669076122
0.2674485688 0.2674485688 0.2674485688
0.2679882155 0.2679882155 0.2679882155
0.2685265614 0.2685265614 0.2685265614
0.2690636152 0.2690636152 0.2690636152
0.2695993857 0.2695993857 0.2695993857
0.2701338816 0.2701338816 0.2701338816
0.2706671114 0.2706671114 0.2706671114
0.2711990836 0.2711990836 0.2711990836
0.2717298065 0.2717298065 0.2717298065
0.2722592884 0.2722592884 0.2722592884
0.2727875376 0.2727875376 0.2727875376
0.2733145621 0.2733145621 0.2733145621
0.2738403698 0.2738403698 0.2738403698
0.2743649689 0.2743649689 0.2743649689
0.2748883670 0.2748883670 0.2748883670
0.2754105719 0.2754105719 0.2754105719
0.2759315914 0.2759315914 0.2759315914
0.2764514330 0.2764514330 0.2764514330
0.2769701041 0.2769701041 0.2769701041
0.2774876124 0.2774876124 0.2774876124
0.2780039651 0.2780039651 0.2780039651
0.2785191694 0.2785191694 0.2785191694
0.2790332327 0.2790332327 0.2790332327
0.2795461620 0.2795461620 0.2795461620
0.2800579643 0.2800579643 0.2800579643
0.2805686468 0.2805686468 0.2805686468
0.2810782163 0.2810782163 0.2810782163
0.2815866796 0.2815866796 0.2815866796
0.2820940435 0.2820940435 0.2820940435
0.2826003147 0.2826003147 0.2826003147
0.2831054999 0.2831054999 0.2831054999
0.2836096057 0.2836096057 0.2836096057
0.2841126385 0.2841126385 0.2841126385
0.2846146047 0.2846146047 0.2846146047
0.2851155109 0.2851155109 0.2851155109
0.2856153633 0.2856153633 0.2856153633
0.2861141681 0.2861141681 0.2861141681
0.2866119316 0.2866119316 0.2866119316
0.2871086598 0.2871086598 0.2871086598
0.2876043590 0.2876043590 0.2876043590
0.2880990350 0.2880990350 0.2880990350
0.2885926938 0.2885926938 0.2885926938
0.2890853414 0.2890853414 0.2890853414
0.2895769836 0.2895769836 0.2895769836
0.2900676262 0.2900676262 0.2900676262
0.2905572749 0.2905572749 0.2905572749
0.2910459354 0.2910459354 0.2910459354
0.2915336133 0.2915336133 0.2915336133
0.2920203143 0.2920203143 0.2920203143
0.2925060438 0.2925060438 0.2925060438
0.2929908073 0.2929908073 0.2929908073
0.2934746103 0.2934746103 0.2934746103
0.2939574580 0.2939574580 0.2939574580
0.2944393559 0.2944393559 0.2944393559
0.2949203092 0.2949203092 0.2949203092
0.2954003231 0.2954003231 0.2954003231
0.2958794029 0.2958794029 0.2958794029
0.2963575536 0.2963575536 0.2963575536
0.2968347803 0.2968347803 0.2968347803
0.2973110881 0.2973110881 0.2973110881
0.2977864820 0.2977864820 0.2977864820
0.2982609669 0.2982609669 0.2982609669
0.2987345477 0.2987345477 0.2987345477
0.2992072293 0.2992072293 0.2992072293
0.2996790166 0.2996790166 0.2996790166
0.3001499142 0.3001499142 0.3001499142
0.3006199270 0.3006199270 0.3006199270
0.3010890595 0.3010890595 0.3010890595
0.3015573166 0.3015573166 0.3015573166
0.3020247028 0.3020247028 0.3020247028
0.3024912226 0.3024912226 0.3024912226
0.3029568806 0.3029568806 0.3029568806
0.3034216813 0.3034216813 0.3034216813
0.3038856292 0.3038856292 0.3038856292
0.3043487286 0.3043487286 0.3043487286
0.3048109840 0.3048109840 0.3048109840
0.3052723997 0.3052723997 0.3052723997
0.3057329800 0.3057329800 0.3057329800
0.3061927292 0.3061927292 0.3061927292
0.3066516515 0.3066516515 0.3066516515
0.3071097511 0.3071097511 0.3071097511
0.3075670322 0.3075670322 0.3075670322
0.3080234988 0.3080234988 0.3080234988
0.3084791552 0.3084791552 0.3084791552
0.3089340054 0.3089340054 0.3089340054
0.3093880533 0.3093880533 0.3093880533
0.3098413030 0.3098413030 0.3098413030
0.3102937585 0.3102937585 0.3102937585
0.3107454237 0.3107454237 0.3107454237
0.3111963024 0.3111963024 0.3111963024
0.3116463986 0.3116463986 0.3116463986
0.3120957161 0.3120957161 0.3120957161
0.3125442587 0.3125442587 0.3125442587
0.3129920301 0.3129920301 0.3129920301
0.3134390342 0.3134390342 0.3134390342
0.3138852746 0.3138852746 0.3138852746
0.3143307549 0.3143307549 0.3143307549
0.3147754790 0.3147754790 0.3147754790
0.3152194503 0.3152194503 0.3152194503
0.3156626726 0.3156626726 0.3156626726
0.3161051492 0.3161051492 0.3161051492
0.3165468839 0.3165468839 0.3165468839
0.3169878801 0.3169878801 0.3169878801
0.3174281414 0.3174281414 0.3174281414
0.3178676710 0.3178676710 0.3178676710
0.3183064726 0.3183064726 0.3183064726
0.3187445495 0.3187445495 0.3187445495
0.3191819051 0.3191819051 0.3191819051
0.3196185427 0.3196185427 0.3196185427
0.3200544657 0.3200544657 0.3200544657
0.3204896773 0.3204896773 0.3204896773
0.3209241810 0.3209241810 0.3209241810
0.3213579798 0.3213579798 0.3213579798
0.3217910770 0.3217910770 0.3217910770
0.3222234759 0.3222234759 0.3222234759
0.3226551797 0.3226551797 0.3226551797
0.3230861914 0.3230861914 0.3230861914
0.3235165142 0.3235165142 0.3235165142
0.3239461512 0.3239461512 0.3239461512
0.3243751056 0.3243751056 0.3243751056
0.3248033803 0.3248033803 0.3248033803
0.3252309785 0.3252309785 0.3252309785
0.3256579031 0.3256579031 0.3256579031
0.3260841571 0.3260841571 0.3260841571
0.3265097436 0.3265097436 0.3265097436
0.3269346654 0.3269346654 0.3269346654
0.3273589255 0.3273589255 0.3273589255
0.3277825268 0.3277825268 0.3277825268
0.3282054722 0.3282054722 0.3282054722
0.3286277646 0.3286277646 0.3286277646
0.3290494068 0.3290494068 0.3290494068
0.3294704017 0.3294704017 0.3294704017
0.3298907520 0.3298907520 0.3298907520
0.3303104606 0.3303104606 0.3303104606
0.3307295301 0.3307295301 0.3307295301
0.3311479634 0.3311479634 0.3311479634
0.3315657633 0.3315657633 0.3315657633
0.3319829323 0.3319829323 0.3319829323
0.3323994732 0.3323994732 0.3323994732
0.3328153886 0.3328153886 0.3328153886
0.3332306813 0.3332306813 0.3332306813
0.3336453539 0.3336453539 0.3336453539
0.3340594088 0.3340594088 0.3340594088
0.3344728489 0.3344728489 0.3344728489
0.3348856766 0.3348856766 0.3348856766
0.3352978945 0.3352978945 0.3352978945
0.3357095052 0.3357095052 0.3357095052
0.3361205112 0.3361205112 0.3361205112
0.3365309149 0.3365309149 0.3365309149
0.3369407190 0.3369407190 0.3369407190
0.3373499258 0.3373499258 0.3373499258
0.3377585378 0.3377585378 0.3377585378
0.3381665575 0.3381665575 0.3381665575
0.3385739872 0.3385739872 0.3385739872
0.3389808295 0.3389808295 0.3389808295
0.3393870867 0.3393870867 0.3393870867
0.3397927611 0.3397927611 0.3397927611
0.3401978552 0.3401978552 0.3401978552
0.3406023713 0.3406023713 0.3406023713
0.3410063117 0.3410063117 0.3410063117
0.3414096787 0.3414096787 0.3414096787
0.3418124746 0.3418124746 0.3418124746
0.3422147017 0.3422147017 0.3422147017
0.3426163624 0.3426163624 0.3426163624
0.3430174587 0.3430174587 0.3430174587
0.3434179931 0.3434179931 0.3434179931
0.3438179676 0.3438179676 0.3438179676
0.3442173846 0.3442173846 0.3442173846
0.3446162461 0.3446162461 0.3446162461
0.3450145545 0.3450145545 0.3450145545
0.3454123118 0.3454123118 0.3454123118
0.3458095203 0.3458095203 0.3458095203
0.3462061819 0.3462061819 0.3462061819
0.3466022990 0.3466022990 0.3466022990
0.3469978736 0.3469978736 0.3469978736
0.3473929078 0.3473929078 0.3473929078
0.3477874036 0.3477874036 0.3477874036
0.3481813632 0.3481813632 0.3481813632
0.3485747887 0.3485747887 0.3485747887
0.3489676820 0.3489676820 0.3489676820
0.3493600452 0.3493600452 0.3493600452
0.3497518803 0.3497518803 0.3497518803
0.3501431893 0.3501431893 0.3501431893
0.3505339743 0.3505339743 0.3505339743
0.3509242372 0.3509242372 0.3509242372
0.3513139799 0.3513139799 0.3513139799
0.3517032045 0.3517032045 0.3517032045
0.3520919129 0.3520919129 0.3520919129
0.3524801070 0.3524801070 0.3524801070
0.3528677887 0.3528677887 0.3528677887
0.3532549600 0.3532549600 0.3532549600
0.3536416228 0.3536416228 0.3536416228
0.3540277789 0.3540277789 0.3540277789
0.3544134302 0.3544134302 0.3544134302
0.3547985786 0.3547985786 0.3547985786
0.3551832260 0.3551832260 0.3551832260
0.3555673741 0.3555673741 0.3555673741
0.3559510248 0.3559510248 0.3559510248
0.3563341800 0.3563341800 0.3563341800
0.3567168414 0.3567168414 0.3567168414
0.3570990109 0.3570990109 0.3570990109
0.3574806902 0.3574806902 0.3574806902
0.3578618811 0.3578618811 0.3578618811
0.3582425853 0.3582425853 0.3582425853
0.3586228047 0.3586228047 0.3586228047
0.3590025410 0.3590025410 0.3590025410
0.3593817959 0.3593817959 0.3593817959
0.3597605711 0.3597605711 0.3597605711
0.3601388684 0.3601388684 0.3601388684
0.3605166894 0.3605166894 0.3605166894
0.3608940358 0.3608940358 0.3608940358
0.3612709094 0.3612709094 0.3612709094
0.3616473119 0.3616473119 0.3616473119
0.3620232447 0.3620232447 0.3620232447
0.3623987098 0.3623987098 0.3623987098
0.3627737085 0.3627737085 0.3627737085
0.3631482428 0.3631482428 0.3631482428
0.3635223140 0.3635223140 0.3635223140
0.3638959239 0.3638959239 0.3638959239
0.3642690741 0.3642690741 0.3642690741
0.3646417661 0.3646417661 0.3646417661
0.3650140016 0.3650140016 0.3650140016
0.3653857821 0.3653857821 0.3653857821
0.3657571093 0.3657571093 0.3657571093
0.3661279846 0.3661279846 0.3661279846
0.3664984096 0.3664984096 0.3664984096
0.3668683859 0.3668683859 0.3668683859
0.3672379150 0.3672379150 0.3672379150
0.3676069985 0.3676069985 0.3676069985
0.3679756378 0.3679756378 0.3679756378
0.3683438345 0.3683438345 0.3683438345
0.3687115900 0.3687115900 0.3687115900
0.3690789059 0.3690789059 0.3690789059
0.3694457837 0.3694457837 0.3694457837
0.3698122248 0.3698122248 0.3698122248
0.3701782306 0.3701782306 0.3701782306
0.3705438028 0.3705438028 0.3705438028
0.3709089426 0.3709089426 0.3709089426
0.3712736516 0.3712736516 0.3712736516
0.3716379312 0.3716379312 0.3716379312
0.3720017828 0.3720017828 0.3720017828
0.3723652079 0.3723652079 0.3723652079
0.3727282078 0.3727282078 0.3727282078
0.3730907840 0.3730907840 0.3730907840
0.3734529379 0.3734529379 0.3734529379
0.3738146708 0.3738146708 0.3738146708
0.3741759841 0.3741759841 0.3741759841
0.3745368793 0.3745368793 0.3745368793
0.3748973576 0.3748973576 0.3748973576
0.3752574205 0.3752574205 0.3752574205
0.3756170693 0.3756170693 0.3756170693
0.3759763053 0.3759763053 0.3759763053
0.3763351299 0.3763351299 0.3763351299
0.3766935444 0.3766935444 0.3766935444
0.3770515501 0.3770515501 0.3770515501
0.3774091484 0.3774091484 0.3774091484
0.3777663406 0.3777663406 0.3777663406
0.3781231280 0.3781231280 0.3781231280
0.3784795118 0.3784795118 0.3784795118
0.3788354934 0.3788354934 0.3788354934
0.3791910740 0.3791910740 0.3791910740
0.3795462550 0.3795462550 0.3795462550
0.3799010375 0.3799010375 0.3799010375
0.3802554229 0.3802554229 0.3802554229
0.3806094124 0.3806094124 0.3806094124
0.3809630073 0.3809630073 0.3809630073
0.3813162087 0.3813162087 0.3813162087
0.3816690181 0.3816690181 0.3816690181
0.3820214365 0.3820214365 0.3820214365
0.3823734652 0.3823734652 0.3823734652
0.3827251054 0.3827251054 0.3827251054
0.3830763583 0.3830763583 0.3830763583
0.3834272252 0.3834272252 0.3834272252
0.3837777072 0.3837777072 0.3837777072
0.3841278056 0.3841278056 0.3841278056
0.3844775214 0.3844775214 0.3844775214
0.3848268560 0.3848268560 0.3848268560
0.3851758104 0.3851758104 0.3851758104
0.3855243859 0.3855243859 0.3855243859
0.3858725836 0.3858725836 0.3858725836
0.3862204047 0.3862204047 0.3862204047
0.3865678503 0.3865678503 0.3865678503
0.3869149215 0.3869149215 0.3869149215
0.3872616195 0.3872616195 0.3872616195
0.3876079455 0.3876079455 0.3876079455
0.3879539006 0.3879539006 0.3879539006
0.3882994858 0.3882994858 0.3882994858
0.3886447024 0.3886447024 0.3886447024
0.3889895514 0.3889895514 0.3889895514
0.3893340339 0.3893340339 0.3893340339
0.3896781510 0.3896781510 0.3896781510
0.3900219039 0.3900219039 0.3900219039
0.3903652936 0.3903652936 0.3903652936
0.3907083211 0.3907083211 0.3907083211
0.3910509877 0.3910509877 0.3910509877
0.3913932943 0.3913932943 0.3913932943
0.3917352421 0.3917352421 0.3917352421
0.3920768320 0.3920768320 0.3920768320
0.3924180652 0.3924180652 0.3924180652
0.3927589427 0.3927589427 0.3927589427
0.3930994655 0.3930994655 0.3930994655
0.3934396347 0.3934396347 0.3934396347
0.3937794514 0.3937794514 0.3937794514
0.3941189165 0.3941189165 0.3941189165
0.3944580311 0.3944580311 0.3944580311
0.3947967963 0.3947967963 0.3947967963
0.3951352130 0.3951352130 0.3951352130
0.3954732822 0.3954732822 0.3954732822
0.3958110050 0.3958110050 0.3958110050
0.3961483823 0.3961483823 0.3961483823
0.3964854152 0.3964854152 0.3964854152
0.3968221047 0.3968221047 0.3968221047
0.3971584517 0.3971584517 0.3971584517
0.3974944572 0.3974944572 0.3974944572
0.3978301222 0.3978301222 0.3978301222
0.3981654478 0.3981654478 0.3981654478
0.3985004348 0.3985004348 0.3985004348
0.3988350842 0.3988350842 0.3988350842
0.3991693970 0.3991693970 0.3991693970
0.3995033741 0.3995033741 0.3995033741
0.3998370166 0.3998370166 0.3998370166
0.4001703253 0.4001703253 0.4001703253
0.4005033011 0.4005033011 0.4005033011
0.4008359452 0.4008359452 0.4008359452
0.4011682582 0.4011682582 0.4011682582
0.4015002413 0.4015002413 0.4015002413
0.4018318953 0.4018318953 0.4018318953
0.4021632212 0.4021632212 0.4021632212
0.4024942198 0.4024942198 0.4024942198
0.4028248920 0.4028248920 0.4028248920
0.4031552389 0.4031552389 0.4031552389
0.4034852613 0.4034852613 0.4034852613
0.4038149601 0.4038149601 0.4038149601
0.4041443361 0.4041443361 0.4041443361
0.4044733904 0.4044733904 0.4044733904
0.4048021237 0.4048021237 0.4048021237
0.4051305370 0.4051305370 0.4051305370
0.4054586311 0.4054586311 0.4054586311
0.4057864069 0.4057864069 0.4057864069
0.4061138653 0.4061138653 0.4061138653
0.4064410072 0.4064410072 0.4064410072
0.4067678335 0.4067678335 0.4067678335
0.4070943449 0.4070943449 0.4070943449
0.4074205423 0.4074205423 0.4074205423
0.4077464267 0.4077464267 0.4077464267
0.4080719988 0.4080719988 0.4080719988
0.4083972595 0.4083972595 0.4083972595
0.4087222097 0.4087222097 0.4087222097
0.4090468501 0.4090468501 0.4090468501
0.4093711816 0.4093711816 0.4093711816
0.4096952051 0.4096952051 0.4096952051
0.4100189213 0.4100189213 0.4100189213
0.4103423312 0.4103423312 0.4103423312
0.4106654355 0.4106654355 0.4106654355
0.4109882349 0.4109882349 0.4109882349
0.4113107305 0.4113107305 0.4113107305
0.4116329229 0.4116329229 0.4116329229
0.4119548129 0.4119548129 0.4119548129
0.4122764015 0.4122764015 0.4122764015
0.4125976892 0.4125976892 0.4125976892
0.4129186771 0.4129186771 0.4129186771
0.4132393658 0.4132393658 0.4132393658
0.4135597561 0.4135597561 0.4135597561
0.4138798488 0.4138798488 0.4138798488
0.4141996448 0.4141996448 0.4141996448
0.4145191447 0.4145191447 0.4145191447
0.4148383494 0.4148383494 0.4148383494
0.4151572597 0.4151572597 0.4151572597
0.4154758762 0.4154758762 0.4154758762
0.4157941998 0.4157941998 0.4157941998
0.4161122312 0.4161122312 0.4161122312
0.4164299712 0.4164299712 0.4164299712
0.4167474206 0.4167474206 0.4167474206
0.4170645800 0.4170645800 0.4170645800
0.4173814503 0.4173814503 0.4173814503
0.4176980321 0.4176980321 0.4176980321
0.4180143263 0.4180143263 0.4180143263
0.4183303336 0.4183303336 0.4183303336
0.4186460547 0.4186460547 0.4186460547
0.4189614903 0.4189614903 0.4189614903
0.4192766411 0.4192766411 0.4192766411
0.4195915080 0.4195915080 0.4195915080
0.4199060916 0.4199060916 0.4199060916
0.4202203926 0.4202203926 0.4202203926
0.4205344118 0.4205344118 0.4205344118
0.4208481498 0.4208481498 0.4208481498
0.4211616075 0.4211616075 0.4211616075
