VFX IO/Linear to DCI.cube
# DaVinci Resolve Cube (1D shaper LUT).

LUT_1D_SIZE 4096
LUT_1D_INPUT_RANGE 0.0000000000 1.0000000000

0.0000000000 0.0000000000 0.0000000000
0.0408010721 0.0408010721 0.0408010721
0.0532662769 0.0532662769 0.0532662769
0.0622557901 0.0622557901 0.0622557901
0.0695397475 0.0695397475 0.0695397475
0.0757715535 0.0757715535 0.0757715535
0.0812756623 0.0812756623 0.0812756623
0.0862401061 0.0862401061 0.0862401061
0.0907849539 0.0907849539 0.0907849539
0.0949921953 0.0949921953 0.0949921953
0.0989206495 0.0989206495 0.0989206495
0.1026141431 0.1026141431 0.1026141431
0.1061063278 0.1061063278 0.1061063278
0.1094236823 0.1094236823 0.1094236823
0.1125874674 0.1125874674 0.1125874674
0.1156150487 0.1156150487 0.1156150487
0.1185208193 0.1185208193 0.1185208193
0.1213168596 0.1213168596 0.1213168596
0.1240134221 0.1240134221 0.1240134221
0.1266192925 0.1266192925 0.1266192925
0.1291420651 0.1291420651 0.1291420651
0.1315883548 0.1315883548 0.1315883548
0.1339639641 0.1339639641 0.1339639641
0.1362740145 0.1362740145 0.1362740145
0.1385230522 0.1385230522 0.1385230522
0.1407151340 0.1407151340 0.1407151340
0.1428538972 0.1428538972 0.1428538972
0.1449426173 0.1449426173 0.1449426173
0.1469842557 0.1469842557 0.1469842557
0.1489815001 0.1489815001 0.1489815001
0.1509367985 0.1509367985 0.1509367985
0.1528523873 0.1528523873 0.1528523873
0.1547303160 0.1547303160 0.1547303160
0.1565724681 0.1565724681 0.1565724681
0.1583805794 0.1583805794 0.1583805794
0.1601562529 0.1601562529 0.1601562529
0.1619009733 0.1619009733 0.1619009733
0.1636161178 0.1636161178 0.1636161178
0.1653029676 0.1653029676 0.1653029676
0.1669627158 0.1669627158 0.1669627158
0.1685964766 0.1685964766 0.1685964766
0.1702052916 0.1702052916 0.1702052916
0.1717901365 0.1717901365 0.1717901365
0.1733519267 0.1733519267 0.1733519267
0.1748915222 0.1748915222 0.1748915222
0.1764097325 0.1764097325 0.1764097325
0.1779073200 0.1779073200 0.1779073200
0.1793850043 0.1793850043 0.1793850043
0.1808434650 0.1808434650 0.1808434650
0.1822833452 0.1822833452 0.1822833452
0.1837052535 0.1837052535 0.1837052535
0.1851097672 0.1851097672 0.1851097672
0.1864974339 0.1864974339 0.1864974339
0.1878687740 0.1878687740 0.1878687740
0.1892242824 0.1892242824 0.1892242824
0.1905644298 0.1905644298 0.1905644298
0.1918896651 0.1918896651 0.1918896651
0.1932004161 0.1932004161 0.1932004161
0.1944970912 0.1944970912 0.1944970912
0.1957800802 0.1957800802 0.1957800802
0.1970497561 0.1970497561 0.1970497561
0.1983064754 0.1983064754 0.1983064754
0.1995505796 0.1995505796 0.1995505796
0.2007823958 0.2007823958 0.2007823958
0.2020022375 0.2020022375 0.2020022375
0.2032104055 0.2032104055 0.2032104055
0.2044071887 0.2044071887 0.2044071887
0.2055928643 0.2055928643 0.2055928643
0.2067676990 0.2067676990 0.2067676990
0.2079319492 0.2079319492 0.2079319492
0.2090858616 0.2090858616 0.2090858616
0.2102296738 0.2102296738 0.2102296738
0.2113636145 0.2113636145 0.2113636145
0.2124879042 0.2124879042 0.2124879042
0.2136027558 0.2136027558 0.2136027558
0.2147083743 0.2147083743 0.2147083743
0.2158049578 0.2158049578 0.2158049578
0.2168926976 0.2168926976 0.2168926976
0.2179717786 0.2179717786 0.2179717786
0.2190423793 0.2190423793 0.2190423793
0.2201046724 0.2201046724 0.2201046724
0.2211588251 0.2211588251 0.2211588251
0.2222049992 0.2222049992 0.2222049992
0.2232433512 0.2232433512 0.2232433512
0.2242740327 0.2242740327 0.2242740327
0.2252971909 0.2252971909 0.2252971909
0.2263129681 0.2263129681 0.2263129681
0.2273215025 0.2273215025 0.2273215025
0.2283229281 0.2283229281 0.2283229281
0.2293173750 0.2293173750 0.2293173750
0.2303049694 0.2303049694 0.2303049694
0.2312858338 0.2312858338 0.2312858338
0.2322600874 0.2322600874 0.2322600874
0.2332278458 0.2332278458 0.2332278458
0.2341892215 0.2341892215 0.2341892215
0.2351443238 0.2351443238 0.2351443238
0.2360932591 0.2360932591 0.2360932591
0.2370361307 0.2370361307 0.2370361307
0.2379730394 0.2379730394 0.2379730394
0.2389040832 0.2389040832 0.2389040832
0.2398293574 0.2398293574 0.2398293574
0.2407489550 0.2407489550 0.2407489550
0.2416629664 0.2416629664 0.2416629664
0.2425714800 0.2425714800 0.2425714800
0.2434745816 0.2434745816 0.2434745816
0.2443723551 0.2443723551 0.2443723551
0.2452648821 0.2452648821 0.2452648821
0.2461522426 0.2461522426 0.2461522426
0.2470345141 0.2470345141 0.2470345141
0.2479117726 0.2479117726 0.2479117726
0.2487840923 0.2487840923 0.2487840923
0.2496515454 0.2496515454 0.2496515454
0.2505142025 0.2505142025 0.2505142025
0.2513721327 0.2513721327 0.2513721327
0.2522254033 0.2522254033 0.2522254033
0.2530740802 0.2530740802 0.2530740802
0.2539182277 0.2539182277 0.2539182277
0.2547579088 0.2547579088 0.2547579088
0.2555931849 0.2555931849 0.2555931849
0.2564241163 0.2564241163 0.2564241163
0.2572507616 0.2572507616 0.2572507616
0.2580731786 0.2580731786 0.2580731786
0.2588914234 0.2588914234 0.2588914234
0.2597055512 0.2597055512 0.2597055512
0.2605156160 0.2605156160 0.2605156160
0.2613216705 0.2613216705 0.2613216705
0.2621237664 0.2621237664 0.2621237664
0.2629219544 0.2629219544 0.2629219544
0.2637162840 0.2637162840 0.2637162840
0.2645068038 0.2645068038 0.2645068038
0.2652935615 0.2652935615 0.2652935615
0.2660766036 0.2660766036 0.2660766036
0.2668559759 0.2668559759 0.2668559759
0.2676317232 0.2676317232 0.2676317232
0.2684038893 0.2684038893 0.2684038893
0.2691725175 0.2691725175 0.2691725175
0.2699376498 0.2699376498 0.2699376498
0.2706993278 0.2706993278 0.2706993278
0.2714575921 0.2714575921 0.2714575921
0.2722124825 0.2722124825 0.2722124825
0.2729640382 0.2729640382 0.2729640382
0.2737122976 0.2737122976 0.2737122976
0.2744572983 0.2744572983 0.2744572983
0.2751990774 0.2751990774 0.2751990774
0.2759376711 0.2759376711 0.2759376711
0.2766731152 0.2766731152 0.2766731152
0.2774054446 0.2774054446 0.2774054446
0.2781346937 0.2781346937 0.2781346937
0.2788608963 0.2788608963 0.2788608963
0.2795840856 0.2795840856 0.2795840856
0.2803042942 0.2803042942 0.2803042942
0.2810215541 0.2810215541 0.2810215541
0.2817358968 0.2817358968 0.2817358968
0.2824473533 0.2824473533 0.2824473533
0.2831559539 0.2831559539 0.2831559539
0.2838617286 0.2838617286 0.2838617286
0.2845647067 0.2845647067 0.2845647067
0.2852649172 0.2852649172 0.2852649172
0.2859623884 0.2859623884 0.2859623884
0.2866571484 0.2866571484 0.2866571484
0.2873492245 0.2873492245 0.2873492245
0.2880386440 0.2880386440 0.2880386440
0.2887254333 0.2887254333 0.2887254333
0.2894096186 0.2894096186 0.2894096186
0.2900912257 0.2900912257 0.2900912257
0.2907702800 0.2907702800 0.2907702800
0.2914468064 0.2914468064 0.2914468064
0.2921208294 0.2921208294 0.2921208294
0.2927923732 0.2927923732 0.2927923732
0.2934614617 0.2934614617 0.2934614617
0.2941281182 0.2941281182 0.2941281182
0.2947923658 0.2947923658 0.2947923658
0.2954542272 0.2954542272 0.2954542272
0.2961137248 0.2961137248 0.2961137248
0.2967708807 0.2967708807 0.2967708807
0.2974257164 0.2974257164 0.2974257164
0.2980782535 0.2980782535 0.2980782535
0.2987285130 0.2987285130 0.2987285130
0.2993765155 0.2993765155 0.2993765155
0.3000222817 0.3000222817 0.3000222817
0.3006658315 0.3006658315 0.3006658315
0.3013071850 0.3013071850 0.3013071850
0.3019463615 0.3019463615 0.3019463615
0.3025833805 0.3025833805 0.3025833805
0.3032182610 0.3032182610 0.3032182610
0.3038510216 0.3038510216 0.3038510216
0.3044816809 0.3044816809 0.3044816809
0.3051102571 0.3051102571 0.3051102571
0.3057367681 0.3057367681 0.3057367681
0.3063612317 0.3063612317 0.3063612317
0.3069836654 0.3069836654 0.3069836654
0.3076040863 0.3076040863 0.3076040863
0.3082225115 0.3082225115 0.3082225115
0.3088389577 0.3088389577 0.3088389577
0.3094534414 0.3094534414 0.3094534414
0.3100659791 0.3100659791 0.3100659791
0.3106765867 0.3106765867 0.3106765867
0.3112852802 0.3112852802 0.3112852802
0.3118920752 0.3118920752 0.3118920752
0.3124969873 0.3124969873 0.3124969873
0.3131000315 0.3131000315 0.3131000315
0.3137012231 0.3137012231 0.3137012231
0.3143005769 0.3143005769 0.3143005769
0.3148981076 0.3148981076 0.3148981076
0.3154938296 0.3154938296 0.3154938296
0.3160877572 0.3160877572 0.3160877572
0.3166799046 0.3166799046 0.3166799046
0.3172702858 0.3172702858 0.3172702858
0.3178589143 0.3178589143 0.3178589143
0.3184458040 0.3184458040 0.3184458040
0.3190309681 0.3190309681 0.3190309681
0.3196144200 0.3196144200 0.3196144200
0.3201961727 0.3201961727 0.3201961727
0.3207762391 0.3207762391 0.3207762391
0.3213546321 0.3213546321 0.3213546321
0.3219313642 0.3219313642 0.3219313642
0.3225064479 0.3225064479 0.3225064479
0.3230798955 0.3230798955 0.3230798955
0.3236517192 0.3236517192 0.3236517192
0.3242219310 0.3242219310 0.3242219310
0.3247905427 0.3247905427 0.3247905427
0.3253575661 0.3253575661 0.3253575661
0.3259230128 0.3259230128 0.3259230128
0.3264868943 0.3264868943 0.3264868943
0.3270492218 0.3270492218 0.3270492218
0.3276100066 0.3276100066 0.3276100066
0.3281692597 0.3281692597 0.3281692597
0.3287269920 0.3287269920 0.3287269920
0.3292832144 0.3292832144 0.3292832144
0.3298379376 0.3298379376 0.3298379376
0.3303911720 0.3303911720 0.3303911720
0.3309429282 0.3309429282 0.3309429282
0.3314932165 0.3314932165 0.3314932165
0.3320420471 0.3320420471 0.3320420471
0.3325894300 0.3325894300 0.3325894300
0.3331353753 0.3331353753 0.3331353753
0.3336798928 0.3336798928 0.3336798928
0.3342229922 0.3342229922 0.3342229922
0.3347646833 0.3347646833 0.3347646833
0.3353049756 0.3353049756 0.3353049756
0.3358438785 0.3358438785 0.3358438785
0.3363814014 0.3363814014 0.3363814014
0.3369175535 0.3369175535 0.3369175535
0.3374523439 0.3374523439 0.3374523439
0.3379857817 0.3379857817 0.3379857817
0.3385178758 0.3385178758 0.3385178758
0.3390486351 0.3390486351 0.3390486351
0.3395780683 0.3395780683 0.3395780683
0.3401061841 0.3401061841 0.3401061841
0.3406329911 0.3406329911 0.3406329911
0.3411584977 0.3411584977 0.3411584977
0.3416827123 0.3416827123 0.3416827123
0.3422056433 0.3422056433 0.3422056433
0.3427272988 0.3427272988 0.3427272988
0.3432476870 0.3432476870 0.3432476870
0.3437668160 0.3437668160 0.3437668160
0.3442846936 0.3442846936 0.3442846936
0.3448013279 0.3448013279 0.3448013279
0.3453167265 0.3453167265 0.3453167265
0.3458308973 0.3458308973 0.3458308973
0.3463438479 0.3463438479 0.3463438479
0.3468555858 0.3468555858 0.3468555858
0.3473661185 0.3473661185 0.3473661185
0.3478754535 0.3478754535 0.3478754535
0.3483835982 0.3483835982 0.3483835982
0.3488905597 0.3488905597 0.3488905597
0.3493963453 0.3493963453 0.3493963453
0.3499009621 0.3499009621 0.3499009621
0.3504044172 0.3504044172 0.3504044172
0.3509067176 0.3509067176 0.3509067176
0.3514078702 0.3514078702 0.3514078702
0.3519078819 0.3519078819 0.3519078819
0.3524067595 0.3524067595 0.3524067595
0.3529045096 0.3529045096 0.3529045096
0.3534011390 0.3534011390 0.3534011390
0.3538966542 0.3538966542 0.3538966542
0.3543910619 0.3543910619 0.3543910619
0.3548843684 0.3548843684 0.3548843684
0.3553765802 0.3553765802 0.3553765802
0.3558677036 0.3558677036 0.3558677036
0.3563577449 0.3563577449 0.3563577449
0.3568467105 0.3568467105 0.3568467105
0.3573346063 0.3573346063 0.3573346063
0.3578214386 0.3578214386 0.3578214386
0.3583072135 0.3583072135 0.3583072135
0.3587919369 0.3587919369 0.3587919369
0.3592756147 0.3592756147 0.3592756147
0.3597582530 0.3597582530 0.3597582530
0.3602398575 0.3602398575 0.3602398575
0.3607204340 0.3607204340 0.3607204340
0.3611999883 0.3611999883 0.3611999883
0.3616785261 0.3616785261 0.3616785261
0.3621560529 0.3621560529 0.3621560529
0.3626325744 0.3626325744 0.3626325744
0.3631080962 0.3631080962 0.3631080962
0.3635826236 0.3635826236 0.3635826236
0.3640561622 0.3640561622 0.3640561622
0.3645287173 0.3645287173 0.3645287173
0.3650002943 0.3650002943 0.3650002943
0.3654708984 0.3654708984 0.3654708984
0.3659405350 0.3659405350 0.3659405350
0.3664092092 0.3664092092 0.3664092092
0.3668769262 0.3668769262 0.3668769262
0.3673436911 0.3673436911 0.3673436911
0.3678095090 0.3678095090 0.3678095090
0.3682743849 0.3682743849 0.3682743849
0.3687383237 0.3687383237 0.3687383237
0.3692013305 0.3692013305 0.3692013305
0.3696634101 0.3696634101 0.3696634101
0.3701245674 0.3701245674 0.3701245674
0.3705848072 0.3705848072 0.3705848072
0.3710441343 0.3710441343 0.3710441343
0.3715025534 0.3715025534 0.3715025534
0.3719600692 0.3719600692 0.3719600692
0.3724166863 0.3724166863 0.3724166863
0.3728724095 0.3728724095 0.3728724095
0.3733272432 0.3733272432 0.3733272432
0.3737811920 0.3737811920 0.3737811920
0.3742342604 0.3742342604 0.3742342604
0.3746864529 0.3746864529 0.3746864529
0.3751377740 0.3751377740 0.3751377740
0.3755882279 0.3755882279 0.3755882279
0.3760378191 0.3760378191 0.3760378191
0.3764865519 0.3764865519 0.3764865519
0.3769344305 0.3769344305 0.3769344305
0.3773814593 0.3773814593 0.3773814593
0.3778276425 0.3778276425 0.3778276425
0.3782729842 0.3782729842 0.3782729842
0.3787174886 0.3787174886 0.3787174886
0.3791611598 0.3791611598 0.3791611598
0.3796040019 0.3796040019 0.3796040019
0.3800460189 0.3800460189 0.3800460189
0.3804872150 0.3804872150 0.3804872150
0.3809275940 0.3809275940 0.3809275940
0.3813671599 0.3813671599 0.3813671599
0.3818059167 0.3818059167 0.3818059167
0.3822438682 0.3822438682 0.3822438682
0.3826810184 0.3826810184 0.3826810184
0.3831173710 0.3831173710 0.3831173710
0.3835529299 0.3835529299 0.3835529299
0.3839876989 0.3839876989 0.3839876989
0.3844216816 0.3844216816 0.3844216816
0.3848548819 0.3848548819 0.3848548819
0.3852873034 0.3852873034 0.3852873034
0.3857189497 0.3857189497 0.3857189497
0.3861498246 0.3861498246 0.3861498246
0.3865799316 0.3865799316 0.3865799316
0.3870092743 0.3870092743 0.3870092743
0.3874378562 0.3874378562 0.3874378562
0.3878656810 0.3878656810 0.3878656810
0.3882927520 0.3882927520 0.3882927520
0.3887190728 0.3887190728 0.3887190728
0.3891446468 0.3891446468 0.3891446468
0.3895694774 0.3895694774 0.3895694774
0.3899935681 0.3899935681 0.3899935681
0.3904169222 0.3904169222 0.3904169222
0.3908395431 0.3908395431 0.3908395431
0.3912614340 0.3912614340 0.3912614340
0.3916825983 0.3916825983 0.3916825983
0.3921030393 0.3921030393 0.3921030393
0.3925227602 0.3925227602 0.3925227602
0.3929417642 0.3929417642 0.3929417642
0.3933600546 0.3933600546 0.3933600546
0.3937776345 0.3937776345 0.3937776345
0.3941945071 0.3941945071 0.3941945071
0.3946106755 0.3946106755 0.3946106755
0.3950261428 0.3950261428 0.3950261428
0.3954409122 0.3954409122 0.3954409122
0.3958549867 0.3958549867 0.3958549867
0.3962683693 0.3962683693 0.3962683693
0.3966810631 0.3966810631 0.3966810631
0.3970930710 0.3970930710 0.3970930710
0.3975043962 0.3975043962 0.3975043962
0.3979150414 0.3979150414 0.3979150414
0.3983250097 0.3983250097 0.3983250097
0.3987343040 0.3987343040 0.3987343040
0.3991429272 0.3991429272 0.3991429272
0.3995508822 0.3995508822 0.3995508822
0.3999581718 0.3999581718 0.3999581718
0.4003647988 0.4003647988 0.4003647988
0.4007707662 0.4007707662 0.4007707662
0.4011760766 0.4011760766 0.4011760766
0.4015807329 0.4015807329 0.4015807329
0.4019847379 0.4019847379 0.4019847379
0.4023880942 0.4023880942 0.4023880942
0.4027908047 0.4027908047 0.4027908047
0.4031928719 0.4031928719 0.4031928719
0.4035942987 0.4035942987 0.4035942987
0.4039950877 0.4039950877 0.4039950877
0.4043952415 0.4043952415 0.4043952415
0.4047947628 0.4047947628 0.4047947628
0.4051936541 0.4051936541 0.4051936541
0.4055919182 0.4055919182 0.4055919182
0.4059895575 0.4059895575 0.4059895575
0.4063865747 0.4063865747 0.4063865747
0.4067829722 0.4067829722 0.4067829722
0.4071787527 0.4071787527 0.4071787527
0.4075739185 0.4075739185 0.4075739185
0.4079684724 0.4079684724 0.4079684724
0.4083624166 0.4083624166 0.4083624166
0.4087557537 0.4087557537 0.4087557537
0.4091484862 0.4091484862 0.4091484862
0.4095406164 0.4095406164 0.4095406164
0.4099321468 0.4099321468 0.4099321468
0.4103230798 0.4103230798 0.4103230798
0.4107134177 0.4107134177 0.4107134177
0.4111031630 0.4111031630 0.4111031630
0.4114923180 0.4114923180 0.4114923180
0.4118808851 0.4118808851 0.4118808851
0.4122688665 0.4122688665 0.4122688665
0.4126562646 0.4126562646 0.4126562646
0.4130430816 0.4130430816 0.4130430816
0.4134293199 0.4134293199 0.4134293199
0.4138149818 0.4138149818 0.4138149818
0.4142000694 0.4142000694 0.4142000694
0.4145845850 0.4145845850 0.4145845850
0.4149685309 0.4149685309 0.4149685309
0.4153519092 0.4153519092 0.4153519092
0.4157347222 0.4157347222 0.4157347222
0.4161169720 0.4161169720 0.4161169720
0.4164986608 0.4164986608 0.4164986608
0.4168797908 0.4168797908 0.4168797908
0.4172603641 0.4172603641 0.4172603641
0.4176403828 0.4176403828 0.4176403828
0.4180198490 0.4180198490 0.4180198490
0.4183987649 0.4183987649 0.4183987649
0.4187771325 0.4187771325 0.4187771325
0.4191549540 0.4191549540 0.4191549540
0.4195322313 0.4195322313 0.4195322313
0.4199089666 0.4199089666 0.4199089666
0.4202851618 0.4202851618 0.4202851618
0.4206608191 0.4206608191 0.4206608191
0.4210359403 0.4210359403 0.4210359403
0.4214105276 0.4214105276 0.4214105276
0.4217845829 0.4217845829 0.4217845829
0.4221581082 0.4221581082 0.4221581082
0.4225311054 0.4225311054 0.4225311054
0.4229035765 0.4229035765 0.4229035765
0.4232755235 0.4232755235 0.4232755235
0.4236469483 0.4236469483 0.4236469483
0.4240178528 0.4240178528 0.4240178528
0.4243882389 0.4243882389 0.4243882389
0.4247581085 0.4247581085 0.4247581085
0.4251274635 0.4251274635 0.4251274635
0.4254963058 0.4254963058 0.4254963058
0.4258646372 0.4258646372 0.4258646372
0.4262324596 0.4262324596 0.4262324596
0.4265997749 0.4265997749 0.4265997749
0.4269665848 0.4269665848 0.4269665848
0.4273328912 0.4273328912 0.4273328912
0.4276986959 0.4276986959 0.4276986959
0.4280640007 0.4280640007 0.4280640007
0.4284288073 0.4284288073 0.4284288073
0.4287931177 0.4287931177 0.4287931177
0.4291569334 0.4291569334 0.4291569334
0.4295202564 0.4295202564 0.4295202564
0.4298830883 0.4298830883 0.4298830883
0.4302454309 0.4302454309 0.4302454309
0.4306072859 0.4306072859 0.4306072859
0.4309686550 0.4309686550 0.4309686550
0.4313295399 0.4313295399 0.4313295399
0.4316899424 0.4316899424 0.4316899424
0.4320498641 0.4320498641 0.4320498641
0.4324093067 0.4324093067 0.4324093067
0.4327682719 0.4327682719 0.4327682719
0.4331267613 0.4331267613 0.4331267613
0.4334847766 0.4334847766 0.4334847766
0.4338423194 0.4338423194 0.4338423194
0.4341993914 0.4341993914 0.4341993914
0.4345559942 0.4345559942 0.4345559942
0.4349121293 0.4349121293 0.4349121293
0.4352677985 0.4352677985 0.4352677985
0.4356230033 0.4356230033 0.4356230033
0.4359777453 0.4359777453 0.4359777453
0.4363320260 0.4363320260 0.4363320260
0.4366858471 0.4366858471 0.4366858471
0.4370392101 0.4370392101 0.4370392101
0.4373921165 0.4373921165 0.4373921165
0.4377445680 0.4377445680 0.4377445680
0.4380965660 0.4380965660 0.4380965660
0.4384481120 0.4384481120 0.4384481120
0.4387992077 0.4387992077 0.4387992077
0.4391498544 0.4391498544 0.4391498544
0.4395000538 0.4395000538 0.4395000538
0.4398498072 0.4398498072 0.4398498072
0.4401991163 0.4401991163 0.4401991163
0.4405479824 0.4405479824 0.4405479824
0.4408964070 0.4408964070 0.4408964070
0.4412443917 0.4412443917 0.4412443917
0.4415919378 0.4415919378 0.4415919378
0.4419390468 0.4419390468 0.4419390468
0.4422857201 0.4422857201 0.4422857201
0.4426319592 0.4426319592 0.4426319592
0.4429777655 0.4429777655 0.4429777655
0.4433231405 0.4433231405 0.4433231405
0.4436680854 0.4436680854 0.4436680854
0.4440126018 0.4440126018 0.4440126018
0.4443566911 0.4443566911 0.4443566911
0.4447003545 0.4447003545 0.4447003545
0.4450435935 0.4450435935 0.4450435935
0.4453864095 0.4453864095 0.4453864095
0.4457288038 0.4457288038 0.4457288038
0.4460707778 0.4460707778 0.4460707778
0.4464123329 0.4464123329 0.4464123329
0.4467534703 0.4467534703 0.4467534703
0.4470941915 0.4470941915 0.4470941915
0.4474344977 0.4474344977 0.4474344977
0.4477743903 0.4477743903 0.4477743903
0.4481138706 0.4481138706 0.4481138706
0.4484529399 0.4484529399 0.4484529399
0.4487915996 0.4487915996 0.4487915996
0.4491298508 0.4491298508 0.4491298508
0.4494676949 0.4494676949 0.4494676949
0.4498051332 0.4498051332 0.4498051332
0.4501421670 0.4501421670 0.4501421670
0.4504787974 0.4504787974 0.4504787974
0.4508150259 0.4508150259 0.4508150259
0.4511508537 0.4511508537 0.4511508537
0.4514862819 0.4514862819 0.4514862819
0.4518213119 0.4518213119 0.4518213119
0.4521559448 0.4521559448 0.4521559448
0.4524901820 0.4524901820 0.4524901820
0.4528240246 0.4528240246 0.4528240246
0.4531574739 0.4531574739 0.4531574739
0.4534905311 0.4534905311 0.4534905311
0.4538231974 0.4538231974 0.4538231974
0.4541554739 0.4541554739 0.4541554739
0.4544873620 0.4544873620 0.4544873620
0.4548188627 0.4548188627 0.4548188627
0.4551499773 0.4551499773 0.4551499773
0.4554807069 0.4554807069 0.4554807069
0.4558110527 0.4558110527 0.4558110527
0.4561410159 0.4561410159 0.4561410159
0.4564705976 0.4564705976 0.4564705976
0.4567997991 0.4567997991 0.4567997991
0.4571286213 0.4571286213 0.4571286213
0.4574570656 0.4574570656 0.4574570656
0.4577851330 0.4577851330 0.4577851330
0.4581128247 0.4581128247 0.4581128247
0.4584401417 0.4584401417 0.4584401417
0.4587670853 0.4587670853 0.4587670853
0.4590936565 0.4590936565 0.4590936565
0.4594198564 0.4594198564 0.4594198564
0.4597456861 0.4597456861 0.4597456861
0.4600711468 0.4600711468 0.4600711468
0.4603962396 0.4603962396 0.4603962396
0.4607209655 0.4607209655 0.4607209655
0.4610453256 0.4610453256 0.4610453256
0.4613693210 0.4613693210 0.4613693210
0.4616929527 0.4616929527 0.4616929527
0.4620162219 0.4620162219 0.4620162219
0.4623391296 0.4623391296 0.4623391296
0.4626616769 0.4626616769 0.4626616769
0.4629838647 0.4629838647 0.4629838647
0.4633056943 0.4633056943 0.4633056943
0.4636271665 0.4636271665 0.4636271665
0.4639482825 0.4639482825 0.4639482825
0.4642690433 0.4642690433 0.4642690433
0.4645894499 0.4645894499 0.4645894499
0.4649095033 0.4649095033 0.4649095033
0.4652292046 0.4652292046 0.4652292046
0.4655485547 0.4655485547 0.4655485547
0.4658675548 0.4658675548 0.4658675548
0.4661862057 0.4661862057 0.4661862057
0.4665045085 0.4665045085 0.4665045085
0.4668224642 0.4668224642 0.4668224642
0.4671400738 0.4671400738 0.4671400738
0.4674573383 0.4674573383 0.4674573383
0.4677742586 0.4677742586 0.4677742586
0.4680908357 0.4680908357 0.4680908357
0.4684070706 0.4684070706 0.4684070706
0.4687229643 0.4687229643 0.4687229643
0.4690385178 0.4690385178 0.4690385178
0.4693537319 0.4693537319 0.4693537319
0.4696686077 0.4696686077 0.4696686077
0.4699831460 0.4699831460 0.4699831460
0.4702973480 0.4702973480 0.4702973480
0.4706112144 0.4706112144 0.4706112144
0.4709247462 0.4709247462 0.4709247462
0.4712379445 0.4712379445 0.4712379445
0.4715508100 0.4715508100 0.4715508100
0.4718633437 0.4718633437 0.4718633437
0.4721755466 0.4721755466 0.4721755466
0.4724874196 0.4724874196 0.4724874196
0.4727989635 0.4727989635 0.4727989635
0.4731101793 0.4731101793 0.4731101793
0.4734210679 0.4734210679 0.4734210679
0.4737316302 0.4737316302 0.4737316302
0.4740418671 0.4740418671 0.4740418671
0.4743517795 0.4743517795 0.4743517795
0.4746613682 0.4746613682 0.4746613682
0.4749706342 0.4749706342 0.4749706342
0.4752795784 0.4752795784 0.4752795784
0.4755882015 0.4755882015 0.4755882015
0.4758965046 0.4758965046 0.4758965046
0.4762044884 0.4762044884 0.4762044884
0.4765121539 0.4765121539 0.4765121539
0.4768195018 0.4768195018 0.4768195018
0.4771265331 0.4771265331 0.4771265331
0.4774332486 0.4774332486 0.4774332486
0.4777396491 0.4777396491 0.4777396491
0.4780457356 0.4780457356 0.4780457356
0.4783515088 0.4783515088 0.4783515088
0.4786569696 0.4786569696 0.4786569696
0.4789621188 0.4789621188 0.4789621188
0.4792669573 0.4792669573 0.4792669573
0.4795714858 0.4795714858 0.4795714858
0.4798757053 0.4798757053 0.4798757053
0.4801796165 0.4801796165 0.4801796165
0.4804832203 0.4804832203 0.4804832203
0.4807865174 0.4807865174 0.4807865174
0.4810895087 0.4810895087 0.4810895087
