VFX IO/Linear to BMDFilm 4.6K.cube
# DaVinci Resolve Cube (1D shaper LUT).

LUT_1D_SIZE 4096
LUT_1D_INPUT_RANGE -0.0128462102 8.5552144109

0.0000000000 0.0000000000 0.0000000000
0.0118996603 0.0118996603 0.0118996603
0.0237993207 0.0237993207 0.0237993207
0.0356989801 0.0356989801 0.0356989801
0.0475986414 0.0475986414 0.0475986414
0.0594982989 0.0594982989 0.0594982989
0.0713979602 0.0713979602 0.0713979602
0.0832976177 0.0832976177 0.0832976177
0.0951972827 0.0951972827 0.0951972827
0.1067503318 0.1067503318 0.1067503318
0.1175178364 0.1175178364 0.1175178364
0.1275962442 0.1275962442 0.1275962442
0.1370684952 0.1370684952 0.1370684952
0.1460033655 0.1460033655 0.1460033655
0.1544585675 0.1544585675 0.1544585675
0.1624830067 0.1624830067 0.1624830067
0.1701184511 0.1701184511 0.1701184511
0.1774008721 0.1774008721 0.1774008721
0.1843614727 0.1843614727 0.1843614727
0.1910275072 0.1910275072 0.1910275072
0.1974228770 0.1974228770 0.1974228770
0.2035687417 0.2035687417 0.2035687417
0.2094838172 0.2094838172 0.2094838172
0.2151848078 0.2151848078 0.2151848078
0.2206866741 0.2206866741 0.2206866741
0.2260028720 0.2260028720 0.2260028720
0.2311455160 0.2311455160 0.2311455160
0.2361255735 0.2361255735 0.2361255735
0.2409530133 0.2409530133 0.2409530133
0.2456369251 0.2456369251 0.2456369251
0.2501855791 0.2501855791 0.2501855791
0.2546065748 0.2546065748 0.2546065748
0.2589069009 0.2589069009 0.2589069009
0.2630929351 0.2630929351 0.2630929351
0.2671706080 0.2671706080 0.2671706080
0.2711454034 0.2711454034 0.2711454034
0.2750223875 0.2750223875 0.2750223875
0.2788062394 0.2788062394 0.2788062394
0.2825013399 0.2825013399 0.2825013399
0.2861117423 0.2861117423 0.2861117423
0.2896412611 0.2896412611 0.2896412611
0.2930934429 0.2930934429 0.2930934429
0.2964715958 0.2964715958 0.2964715958
0.2997788191 0.2997788191 0.2997788191
0.3030180335 0.3030180335 0.3030180335
0.3061920106 0.3061920106 0.3061920106
0.3093032837 0.3093032837 0.3093032837
0.3123542964 0.3123542964 0.3123542964
0.3153473437 0.3153473437 0.3153473437
0.3182846010 0.3182846010 0.3182846010
0.3211680651 0.3211680651 0.3211680651
0.3239997327 0.3239997327 0.3239997327
0.3267813921 0.3267813921 0.3267813921
0.3295147717 0.3295147717 0.3295147717
0.3322015405 0.3322015405 0.3322015405
0.3348432481 0.3348432481 0.3348432481
0.3374414146 0.3374414146 0.3374414146
0.3399974108 0.3399974108 0.3399974108
0.3425125778 0.3425125778 0.3425125778
0.3449882567 0.3449882567 0.3449882567
0.3474256098 0.3474256098 0.3474256098
0.3498258293 0.3498258293 0.3498258293
0.3521900177 0.3521900177 0.3521900177
0.3545192778 0.3545192778 0.3545192778
0.3568145633 0.3568145633 0.3568145633
0.3590769172 0.3590769172 0.3590769172
0.3613072336 0.3613072336 0.3613072336
0.3635064065 0.3635064065 0.3635064065
0.3656753302 0.3656753302 0.3656753302
0.3678147793 0.3678147793 0.3678147793
0.3699255586 0.3699255586 0.3699255586
0.3720084429 0.3720084429 0.3720084429
0.3740641177 0.3740641177 0.3740641177
0.3760933578 0.3760933578 0.3760933578
0.3780967593 0.3780967593 0.3780967593
0.3800750077 0.3800750077 0.3800750077
0.3820287287 0.3820287287 0.3820287287
0.3839585185 0.3839585185 0.3839585185
0.3858649433 0.3858649433 0.3858649433
0.3877485991 0.3877485991 0.3877485991
0.3896099925 0.3896099925 0.3896099925
0.3914496303 0.3914496303 0.3914496303
0.3932680488 0.3932680488 0.3932680488
0.3950656950 0.3950656950 0.3950656950
0.3968430758 0.3968430758 0.3968430758
0.3986006379 0.3986006379 0.3986006379
0.4003387988 0.4003387988 0.4003387988
0.4020580053 0.4020580053 0.4020580053
0.4037586451 0.4037586451 0.4037586451
0.4054411054 0.4054411054 0.4054411054
0.4071058035 0.4071058035 0.4071058035
0.4087530673 0.4087530673 0.4087530673
0.4103833139 0.4103833139 0.4103833139
0.4119968712 0.4119968712 0.4119968712
0.4135940373 0.4135940373 0.4135940373
0.4151751995 0.4151751995 0.4151751995
0.4167406559 0.4167406559 0.4167406559
0.4182906747 0.4182906747 0.4182906747
0.4198256135 0.4198256135 0.4198256135
0.4213457406 0.4213457406 0.4213457406
0.4228513539 0.4228513539 0.4228513539
0.4243426919 0.4243426919 0.4243426919
0.4258200526 0.4258200526 0.4258200526
0.4272836745 0.4272836745 0.4272836745
0.4287338555 0.4287338555 0.4287338555
0.4301707745 0.4301707745 0.4301707745
0.4315947294 0.4315947294 0.4315947294
0.4330058992 0.4330058992 0.4330058992
0.4344045818 0.4344045818 0.4344045818
0.4357909262 0.4357909262 0.4357909262
0.4371652007 0.4371652007 0.4371652007
0.4385275543 0.4385275543 0.4385275543
0.4398782551 0.4398782551 0.4398782551
0.4412174821 0.4412174821 0.4412174821
0.4425453842 0.4425453842 0.4425453842
0.4438622296 0.4438622296 0.4438622296
0.4451681376 0.4451681376 0.4451681376
0.4464632869 0.4464632869 0.4464632869
0.4477479160 0.4477479160 0.4477479160
0.4490221441 0.4490221441 0.4490221441
0.4502861202 0.4502861202 0.4502861202
0.4515400529 0.4515400529 0.4515400529
0.4527840912 0.4527840912 0.4527840912
0.4540183842 0.4540183842 0.4540183842
0.4552430809 0.4552430809 0.4552430809
0.4564583302 0.4564583302 0.4564583302
0.4576642811 0.4576642811 0.4576642811
0.4588610530 0.4588610530 0.4588610530
0.4600487947 0.4600487947 0.4600487947
0.4612276852 0.4612276852 0.4612276852
0.4623977840 0.4623977840 0.4623977840
0.4635592699 0.4635592699 0.4635592699
0.4647122622 0.4647122622 0.4647122622
0.4658568799 0.4658568799 0.4658568799
0.4669932425 0.4669932425 0.4669932425
0.4681214392 0.4681214392 0.4681214392
0.4692416489 0.4692416489 0.4692416489
0.4703539312 0.4703539312 0.4703539312
0.4714584053 0.4714584053 0.4714584053
0.4725551903 0.4725551903 0.4725551903
0.4736444056 0.4736444056 0.4736444056
0.4747261405 0.4747261405 0.4747261405
0.4758005142 0.4758005142 0.4758005142
0.4768675864 0.4768675864 0.4768675864
0.4779275060 0.4779275060 0.4779275060
0.4789803028 0.4789803028 0.4789803028
0.4800261259 0.4800261259 0.4800261259
0.4810650647 0.4810650647 0.4810650647
0.4820972085 0.4820972085 0.4820972085
0.4831226170 0.4831226170 0.4831226170
0.4841413796 0.4841413796 0.4841413796
0.4851536155 0.4851536155 0.4851536155
0.4861593843 0.4861593843 0.4861593843
0.4871587753 0.4871587753 0.4871587753
0.4881518483 0.4881518483 0.4881518483
0.4891387224 0.4891387224 0.4891387224
0.4901194274 0.4901194274 0.4901194274
0.4910940826 0.4910940826 0.4910940826
0.4920627475 0.4920627475 0.4920627475
0.4930255115 0.4930255115 0.4930255115
0.4939824045 0.4939824045 0.4939824045
0.4949335158 0.4949335158 0.4949335158
0.4958789349 0.4958789349 0.4958789349
0.4968186915 0.4968186915 0.4968186915
0.4977529049 0.4977529049 0.4977529049
0.4986815751 0.4986815751 0.4986815751
0.4996048212 0.4996048212 0.4996048212
0.5005227327 0.5005227327 0.5005227327
0.5014352798 0.5014352798 0.5014352798
0.5023425817 0.5023425817 0.5023425817
0.5032446384 0.5032446384 0.5032446384
0.5041416287 0.5041416287 0.5041416287
0.5050334930 0.5050334930 0.5050334930
0.5059203506 0.5059203506 0.5059203506
0.5068022609 0.5068022609 0.5068022609
0.5076792836 0.5076792836 0.5076792836
0.5085514188 0.5085514188 0.5085514188
0.5094187260 0.5094187260 0.5094187260
0.5102813244 0.5102813244 0.5102813244
0.5111392140 0.5111392140 0.5111392140
0.5119924545 0.5119924545 0.5119924545
0.5128411055 0.5128411055 0.5128411055
0.5136852264 0.5136852264 0.5136852264
0.5145248175 0.5145248175 0.5145248175
0.5153599381 0.5153599381 0.5153599381
0.5161907077 0.5161907077 0.5161907077
0.5170170665 0.5170170665 0.5170170665
0.5178391933 0.5178391933 0.5178391933
0.5186569691 0.5186569691 0.5186569691
0.5194705725 0.5194705725 0.5194705725
0.5202799439 0.5202799439 0.5202799439
0.5210852623 0.5210852623 0.5210852623
0.5218864083 0.5218864083 0.5218864083
0.5226835012 0.5226835012 0.5226835012
0.5234766603 0.5234766603 0.5234766603
0.5242657661 0.5242657661 0.5242657661
0.5250509381 0.5250509381 0.5250509381
0.5258322954 0.5258322954 0.5258322954
0.5266097188 0.5266097188 0.5266097188
0.5273833275 0.5273833275 0.5273833275
0.5281531811 0.5281531811 0.5281531811
0.5289193392 0.5289193392 0.5289193392
0.5296817422 0.5296817422 0.5296817422
0.5304404497 0.5304404497 0.5304404497
0.5311955214 0.5311955214 0.5311955214
0.5319470167 0.5319470167 0.5319470167
0.5326949358 0.5326949358 0.5326949358
0.5334393382 0.5334393382 0.5334393382
0.5341802239 0.5341802239 0.5341802239
0.5349176526 0.5349176526 0.5349176526
0.5356516242 0.5356516242 0.5356516242
0.5363821983 0.5363821983 0.5363821983
0.5371094346 0.5371094346 0.5371094346
0.5378332734 0.5378332734 0.5378332734
0.5385538340 0.5385538340 0.5385538340
0.5392711163 0.5392711163 0.5392711163
0.5399851203 0.5399851203 0.5399851203
0.5406959653 0.5406959653 0.5406959653
0.5414035320 0.5414035320 0.5414035320
0.5421079993 0.5421079993 0.5421079993
0.5428093076 0.5428093076 0.5428093076
0.5435075164 0.5435075164 0.5435075164
0.5442026258 0.5442026258 0.5442026258
0.5448946953 0.5448946953 0.5448946953
0.5455837250 0.5455837250 0.5455837250
0.5462697744 0.5462697744 0.5462697744
0.5469528437 0.5469528437 0.5469528437
0.5476329327 0.5476329327 0.5476329327
0.5483101606 0.5483101606 0.5483101606
0.5489844680 0.5489844680 0.5489844680
0.5496558547 0.5496558547 0.5496558547
0.5503244400 0.5503244400 0.5503244400
0.5509901643 0.5509901643 0.5509901643
0.5516531467 0.5516531467 0.5516531467
0.5523132682 0.5523132682 0.5523132682
0.5529707074 0.5529707074 0.5529707074
0.5536254048 0.5536254048 0.5536254048
0.5542773604 0.5542773604 0.5542773604
0.5549266338 0.5549266338 0.5549266338
0.5555732250 0.5555732250 0.5555732250
0.5562172532 0.5562172532 0.5562172532
0.5568585992 0.5568585992 0.5568585992
0.5574973226 0.5574973226 0.5574973226
0.5581334829 0.5581334829 0.5581334829
0.5587671399 0.5587671399 0.5587671399
0.5593981743 0.5593981743 0.5593981743
0.5600267649 0.5600267649 0.5600267649
0.5606527925 0.5606527925 0.5606527925
0.5612763762 0.5612763762 0.5612763762
0.5618975163 0.5618975163 0.5618975163
0.5625162125 0.5625162125 0.5625162125
0.5631324649 0.5631324649 0.5631324649
0.5637463331 0.5637463331 0.5637463331
0.5643578172 0.5643578172 0.5643578172
0.5649669170 0.5649669170 0.5649669170
0.5655736923 0.5655736923 0.5655736923
0.5661781430 0.5661781430 0.5661781430
0.5667802691 0.5667802691 0.5667802691
0.5673801303 0.5673801303 0.5673801303
0.5679776669 0.5679776669 0.5679776669
0.5685729980 0.5685729980 0.5685729980
0.5691660643 0.5691660643 0.5691660643
0.5697568655 0.5697568655 0.5697568655
0.5703455210 0.5703455210 0.5703455210
0.5709319711 0.5709319711 0.5709319711
0.5715162158 0.5715162158 0.5715162158
0.5720983148 0.5720983148 0.5720983148
0.5726783276 0.5726783276 0.5726783276
0.5732561350 0.5732561350 0.5732561350
0.5738318563 0.5738318563 0.5738318563
0.5744054914 0.5744054914 0.5744054914
0.5749770403 0.5749770403 0.5749770403
0.5755465031 0.5755465031 0.5755465031
0.5761139393 0.5761139393 0.5761139393
0.5766793489 0.5766793489 0.5766793489
0.5772427320 0.5772427320 0.5772427320
0.5778040886 0.5778040886 0.5778040886
0.5783634782 0.5783634782 0.5783634782
0.5789208412 0.5789208412 0.5789208412
0.5794762969 0.5794762969 0.5794762969
0.5800297856 0.5800297856 0.5800297856
0.5805813074 0.5805813074 0.5805813074
0.5811309218 0.5811309218 0.5811309218
0.5816786289 0.5816786289 0.5816786289
0.5822244287 0.5822244287 0.5822244287
0.5827683806 0.5827683806 0.5827683806
0.5833104253 0.5833104253 0.5833104253
0.5838506222 0.5838506222 0.5838506222
0.5843889117 0.5843889117 0.5843889117
0.5849254727 0.5849254727 0.5849254727
0.5854601264 0.5854601264 0.5854601264
0.5859930515 0.5859930515 0.5859930515
0.5865241289 0.5865241289 0.5865241289
0.5870534182 0.5870534182 0.5870534182
0.5875809193 0.5875809193 0.5875809193
0.5881066918 0.5881066918 0.5881066918
0.5886307359 0.5886307359 0.5886307359
0.5891529918 0.5891529918 0.5891529918
0.5896735787 0.5896735787 0.5896735787
0.5901924372 0.5901924372 0.5901924372
0.5907095671 0.5907095671 0.5907095671
0.5912250280 0.5912250280 0.5912250280
0.5917387605 0.5917387605 0.5917387605
0.5922508836 0.5922508836 0.5922508836
0.5927612782 0.5927612782 0.5927612782
0.5932701230 0.5932701230 0.5932701230
0.5937772393 0.5937772393 0.5937772393
0.5942827463 0.5942827463 0.5942827463
0.5947867036 0.5947867036 0.5947867036
0.5952889919 0.5952889919 0.5952889919
0.5957896709 0.5957896709 0.5957896709
0.5962888002 0.5962888002 0.5962888002
0.5967863202 0.5967863202 0.5967863202
0.5972822905 0.5972822905 0.5972822905
0.5977767110 0.5977767110 0.5977767110
0.5982695818 0.5982695818 0.5982695818
0.5987609625 0.5987609625 0.5987609625
0.5992507339 0.5992507339 0.5992507339
0.5997390151 0.5997390151 0.5997390151
0.6002258062 0.6002258062 0.6002258062
0.6007111073 0.6007111073 0.6007111073
0.6011948586 0.6011948586 0.6011948586
0.6016771793 0.6016771793 0.6016771793
0.6021580100 0.6021580100 0.6021580100
0.6026374102 0.6026374102 0.6026374102
0.6031153202 0.6031153202 0.6031153202
0.6035917997 0.6035917997 0.6035917997
0.6040668488 0.6040668488 0.6040668488
0.6045404673 0.6045404673 0.6045404673
0.6050126553 0.6050126553 0.6050126553
0.6054834127 0.6054834127 0.6054834127
0.6059527993 0.6059527993 0.6059527993
0.6064207554 0.6064207554 0.6064207554
0.6068873405 0.6068873405 0.6068873405
0.6073525548 0.6073525548 0.6073525548
0.6078163981 0.6078163981 0.6078163981
0.6082789302 0.6082789302 0.6082789302
0.6087400317 0.6087400317 0.6087400317
0.6091998219 0.6091998219 0.6091998219
0.6096583009 0.6096583009 0.6096583009
0.6101154089 0.6101154089 0.6101154089
0.6105712056 0.6105712056 0.6105712056
0.6110256910 0.6110256910 0.6110256910
0.6114788651 0.6114788651 0.6114788651
0.6119307280 0.6119307280 0.6119307280
0.6123812795 0.6123812795 0.6123812795
0.6128305793 0.6128305793 0.6128305793
0.6132786274 0.6132786274 0.6132786274
0.6137253642 0.6137253642 0.6137253642
0.6141708493 0.6141708493 0.6141708493
0.6146150827 0.6146150827 0.6146150827
0.6150580645 0.6150580645 0.6150580645
0.6154997945 0.6154997945 0.6154997945
0.6159402728 0.6159402728 0.6159402728
0.6163795590 0.6163795590 0.6163795590
0.6168176532 0.6168176532 0.6168176532
0.6172544360 0.6172544360 0.6172544360
0.6176900864 0.6176900864 0.6176900864
0.6181245446 0.6181245446 0.6181245446
0.6185577512 0.6185577512 0.6185577512
0.6189898252 0.6189898252 0.6189898252
0.6194206476 0.6194206476 0.6194206476
0.6198503375 0.6198503375 0.6198503375
0.6202788949 0.6202788949 0.6202788949
0.6207062602 0.6207062602 0.6207062602
0.6211324334 0.6211324334 0.6211324334
0.6215574741 0.6215574741 0.6215574741
0.6219813824 0.6219813824 0.6219813824
0.6224041581 0.6224041581 0.6224041581
0.6228258014 0.6228258014 0.6228258014
0.6232463121 0.6232463121 0.6232463121
0.6236656904 0.6236656904 0.6236656904
0.6240839958 0.6240839958 0.6240839958
0.6245011687 0.6245011687 0.6245011687
0.6249172091 0.6249172091 0.6249172091
0.6253322363 0.6253322363 0.6253322363
0.6257460713 0.6257460713 0.6257460713
0.6261588931 0.6261588931 0.6261588931
0.6265706420 0.6265706420 0.6265706420
0.6269812584 0.6269812584 0.6269812584
0.6273908615 0.6273908615 0.6273908615
0.6277993321 0.6277993321 0.6277993321
0.6282068491 0.6282068491 0.6282068491
0.6286132336 0.6286132336 0.6286132336
0.6290186048 0.6290186048 0.6290186048
0.6294229031 0.6294229031 0.6294229031
0.6298261881 0.6298261881 0.6298261881
0.6302284598 0.6302284598 0.6302284598
0.6306297183 0.6306297183 0.6306297183
0.6310299039 0.6310299039 0.6310299039
0.6314291358 0.6314291358 0.6314291358
0.6318272948 0.6318272948 0.6318272948
0.6322245002 0.6322245002 0.6322245002
0.6326206923 0.6326206923 0.6326206923
0.6330158710 0.6330158710 0.6330158710
0.6334100962 0.6334100962 0.6334100962
0.6338033080 0.6338033080 0.6338033080
0.6341955662 0.6341955662 0.6341955662
0.6345868111 0.6345868111 0.6345868111
0.6349771619 0.6349771619 0.6349771619
0.6353664994 0.6353664994 0.6353664994
0.6357548237 0.6357548237 0.6357548237
0.6361422539 0.6361422539 0.6361422539
0.6365287304 0.6365287304 0.6365287304
0.6369142532 0.6369142532 0.6369142532
0.6372988820 0.6372988820 0.6372988820
0.6376824975 0.6376824975 0.6376824975
0.6380652189 0.6380652189 0.6380652189
0.6384469867 0.6384469867 0.6384469867
0.6388278604 0.6388278604 0.6388278604
0.6392078400 0.6392078400 0.6392078400
0.6395868659 0.6395868659 0.6395868659
0.6399649978 0.6399649978 0.6399649978
0.6403421760 0.6403421760 0.6403421760
0.6407185197 0.6407185197 0.6407185197
0.6410939097 0.6410939097 0.6410939097
0.6414684653 0.6414684653 0.6414684653
0.6418420672 0.6418420672 0.6418420672
0.6422148347 0.6422148347 0.6422148347
0.6425867081 0.6425867081 0.6425867081
0.6429576874 0.6429576874 0.6429576874
0.6433278322 0.6433278322 0.6433278322
0.6436970830 0.6436970830 0.6436970830
0.6440654993 0.6440654993 0.6440654993
0.6444330215 0.6444330215 0.6444330215
0.6447997093 0.6447997093 0.6447997093
0.6451655626 0.6451655626 0.6451655626
0.6455305219 0.6455305219 0.6455305219
0.6458946466 0.6458946466 0.6458946466
0.6462579370 0.6462579370 0.6462579370
0.6466204524 0.6466204524 0.6466204524
0.6469820738 0.6469820738 0.6469820738
0.6473428607 0.6473428607 0.6473428607
0.6477028131 0.6477028131 0.6477028131
0.6480619907 0.6480619907 0.6480619907
0.6484203339 0.6484203339 0.6484203339
0.6487778425 0.6487778425 0.6487778425
0.6491345763 0.6491345763 0.6491345763
0.6494904757 0.6494904757 0.6494904757
0.6498456001 0.6498456001 0.6498456001
0.6501998901 0.6501998901 0.6501998901
0.6505534053 0.6505534053 0.6505534053
0.6509061456 0.6509061456 0.6509061456
0.6512581110 0.6512581110 0.6512581110
0.6516092420 0.6516092420 0.6516092420
0.6519595981 0.6519595981 0.6519595981
0.6523092389 0.6523092389 0.6523092389
0.6526580453 0.6526580453 0.6526580453
0.6530060768 0.6530060768 0.6530060768
0.6533533335 0.6533533335 0.6533533335
0.6536998749 0.6536998749 0.6536998749
0.6540456414 0.6540456414 0.6540456414
0.6543906331 0.6543906331 0.6543906331
0.6547349095 0.6547349095 0.6547349095
0.6550783515 0.6550783515 0.6550783515
0.6554211378 0.6554211378 0.6554211378
0.6557631493 0.6557631493 0.6557631493
0.6561043859 0.6561043859 0.6561043859
0.6564449072 0.6564449072 0.6564449072
0.6567847133 0.6567847133 0.6567847133
0.6571237445 0.6571237445 0.6571237445
0.6574621201 0.6574621201 0.6574621201
0.6577997208 0.6577997208 0.6577997208
0.6581366062 0.6581366062 0.6581366062
0.6584727764 0.6584727764 0.6584727764
0.6588082314 0.6588082314 0.6588082314
0.6591429710 0.6591429710 0.6591429710
0.6594769955 0.6594769955 0.6594769955
0.6598103046 0.6598103046 0.6598103046
0.6601428986 0.6601428986 0.6601428986
0.6604748368 0.6604748368 0.6604748368
0.6608060598 0.6608060598 0.6608060598
0.6611365676 0.6611365676 0.6611365676
0.6614664197 0.6614664197 0.6614664197
0.6617955565 0.6617955565 0.6617955565
0.6621239781 0.6621239781 0.6621239781
0.6624518037 0.6624518037 0.6624518037
0.6627788544 0.6627788544 0.6627788544
0.6631053090 0.6631053090 0.6631053090
0.6634310484 0.6634310484 0.6634310484
0.6637560725 0.6637560725 0.6637560725
0.6640805006 0.6640805006 0.6640805006
0.6644042134 0.6644042134 0.6644042134
0.6647272706 0.6647272706 0.6647272706
0.6650496721 0.6650496721 0.6650496721
0.6653714180 0.6653714180 0.6653714180
0.6656925082 0.6656925082 0.6656925082
0.6660129428 0.6660129428 0.6660129428
0.6663327813 0.6663327813 0.6663327813
0.6666519046 0.6666519046 0.6666519046
0.6669703722 0.6669703722 0.6669703722
0.6672882438 0.6672882438 0.6672882438
0.6676054597 0.6676054597 0.6676054597
0.6679220200 0.6679220200 0.6679220200
0.6682379842 0.6682379842 0.6682379842
0.6685532928 0.6685532928 0.6685532928
0.6688679457 0.6688679457 0.6688679457
0.6691820025 0.6691820025 0.6691820025
0.6694954634 0.6694954634 0.6694954634
0.6698082685 0.6698082685 0.6698082685
0.6701204181 0.6701204181 0.6701204181
0.6704319715 0.6704319715 0.6704319715
0.6707429290 0.6707429290 0.6707429290
0.6710532904 0.6710532904 0.6710532904
0.6713629961 0.6713629961 0.6713629961
0.6716721654 0.6716721654 0.6716721654
0.6719806790 0.6719806790 0.6719806790
0.6722885966 0.6722885966 0.6722885966
0.6725958586 0.6725958586 0.6725958586
0.6729025841 0.6729025841 0.6729025841
0.6732087135 0.6732087135 0.6732087135
0.6735142469 0.6735142469 0.6735142469
0.6738191843 0.6738191843 0.6738191843
0.6741235256 0.6741235256 0.6741235256
0.6744272709 0.6744272709 0.6744272709
0.6747304201 0.6747304201 0.6747304201
0.6750330329 0.6750330329 0.6750330329
0.6753350496 0.6753350496 0.6753350496
0.6756364703 0.6756364703 0.6756364703
0.6759373546 0.6759373546 0.6759373546
0.6762376428 0.6762376428 0.6762376428
0.6765373349 0.6765373349 0.6765373349
0.6768364906 0.6768364906 0.6768364906
0.6771350503 0.6771350503 0.6771350503
0.6774330735 0.6774330735 0.6774330735
0.6777305007 0.6777305007 0.6777305007
0.6780273914 0.6780273914 0.6780273914
0.6783237457 0.6783237457 0.6783237457
0.6786195040 0.6786195040 0.6786195040
0.6789147258 0.6789147258 0.6789147258
0.6792094111 0.6792094111 0.6792094111
0.6795035005 0.6795035005 0.6795035005
0.6797970533 0.6797970533 0.6797970533
0.6800900698 0.6800900698 0.6800900698
0.6803825498 0.6803825498 0.6803825498
0.6806744933 0.6806744933 0.6806744933
0.6809659004 0.6809659004 0.6809659004
0.6812567711 0.6812567711 0.6812567711
0.6815471053 0.6815471053 0.6815471053
0.6818369031 0.6818369031 0.6818369031
0.6821261644 0.6821261644 0.6821261644
0.6824148893 0.6824148893 0.6824148893
0.6827030778 0.6827030778 0.6827030778
0.6829907298 0.6829907298 0.6829907298
0.6832779050 0.6832779050 0.6832779050
0.6835644841 0.6835644841 0.6835644841
0.6838505864 0.6838505864 0.6838505864
0.6841362119 0.6841362119 0.6841362119
0.6844212413 0.6844212413 0.6844212413
0.6847057939 0.6847057939 0.6847057939
0.6849898696 0.6849898696 0.6849898696
0.6852734089 0.6852734089 0.6852734089
0.6855564117 0.6855564117 0.6855564117
0.6858389378 0.6858389378 0.6858389378
0.6861209273 0.6861209273 0.6861209273
0.6864024401 0.6864024401 0.6864024401
0.6866834164 0.6866834164 0.6866834164
0.6869639158 0.6869639158 0.6869639158
0.6872439384 0.6872439384 0.6872439384
0.6875234246 0.6875234246 0.6875234246
0.6878024340 0.6878024340 0.6878024340
0.6880809665 0.6880809665 0.6880809665
0.6883590221 0.6883590221 0.6883590221
0.6886365414 0.6886365414 0.6886365414
0.6889135838 0.6889135838 0.6889135838
0.6891901493 0.6891901493 0.6891901493
0.6894662380 0.6894662380 0.6894662380
0.6897417903 0.6897417903 0.6897417903
0.6900169253 0.6900169253 0.6900169253
0.6902915835 0.6902915835 0.6902915835
0.6905657053 0.6905657053 0.6905657053
0.6908394098 0.6908394098 0.6908394098
0.6911125779 0.6911125779 0.6911125779
0.6913853288 0.6913853288 0.6913853288
0.6916576028 0.6916576028 0.6916576028
0.6919294000 0.6919294000 0.6919294000
0.6922007203 0.6922007203 0.6922007203
0.6924715638 0.6924715638 0.6924715638
0.6927419305 0.6927419305 0.6927419305
0.6930118799 0.6930118799 0.6930118799
0.6932813525 0.6932813525 0.6932813525
0.6935503483 0.6935503483 0.6935503483
0.6938189268 0.6938189268 0.6938189268
0.6940869689 0.6940869689 0.6940869689
0.6943545938 0.6943545938 0.6943545938
0.6946218014 0.6946218014 0.6946218014
0.6948885322 0.6948885322 0.6948885322
0.6951547861 0.6951547861 0.6951547861
0.6954206228 0.6954206228 0.6954206228
0.6956860423 0.6956860423 0.6956860423
0.6959509254 0.6959509254 0.6959509254
0.6962154508 0.6962154508 0.6962154508
0.6964794993 0.6964794993 0.6964794993
0.6967430711 0.6967430711 0.6967430711
0.6970062852 0.6970062852 0.6970062852
0.6972689629 0.6972689629 0.6972689629
0.6975312829 0.6975312829 0.6975312829
0.6977931261 0.6977931261 0.6977931261
0.6980545521 0.6980545521 0.6980545521
0.6983155012 0.6983155012 0.6983155012
0.6985760927 0.6985760927 0.6985760927
0.6988362074 0.6988362074 0.6988362074
0.6990959048 0.6990959048 0.6990959048
0.6993551850 0.6993551850 0.6993551850
0.6996139884 0.6996139884 0.6996139884
0.6998724341 0.6998724341 0.6998724341
0.7001304030 0.7001304030 0.7001304030
0.7003879547 0.7003879547 0.7003879547
0.7006451488 0.7006451488 0.7006451488
0.7009018660 0.7009018660 0.7009018660
0.7011581659 0.7011581659 0.7011581659
0.7014140487 0.7014140487 0.7014140487
