VFX IO/Linear to Cineon Log.cube
# DaVinci Resolve Cube (1D shaper LUT).

LUT_1D_SIZE 4096
LUT_1D_INPUT_RANGE -0.0056508194 13.5216945686

0.0000000010 0.0000000010 0.0000000010
0.0620254771 0.0620254771 0.0620254771
0.1035560593 0.1035560593 0.1035560593
0.1348226967 0.1348226967 0.1348226967
0.1599064294 0.1599064294 0.1599064294
0.1808534403 0.1808534403 0.1808534403
0.1988369395 0.1988369395 0.1988369395
0.2145924686 0.2145924686 0.2145924686
0.2286117148 0.2286117148 0.2286117148
0.2412396562 0.2412396562 0.2412396562
0.2527276844 0.2527276844 0.2527276844
0.2632646660 0.2632646660 0.2632646660
0.2729960987 0.2729960987 0.2729960987
0.2820364512 0.2820364512 0.2820364512
0.2904774031 0.2904774031 0.2904774031
0.2983935201 0.2983935201 0.2983935201
0.3058462646 0.3058462646 0.3058462646
0.3128868974 0.3128868974 0.3128868974
0.3195586168 0.3195586168 0.3195586168
0.3258981661 0.3258981661 0.3258981661
0.3319370585 0.3319370585 0.3319370585
0.3377025251 0.3377025251 0.3377025251
0.3432182571 0.3432182571 0.3432182571
0.3485049942 0.3485049942 0.3485049942
0.3535809949 0.3535809949 0.3535809949
0.3584624178 0.3584624178 0.3584624178
0.3631636312 0.3631636312 0.3631636312
0.3676974684 0.3676974684 0.3676974684
0.3720754391 0.3720754391 0.3720754391
0.3763079048 0.3763079048 0.3763079048
0.3804042271 0.3804042271 0.3804042271
0.3843728924 0.3843728924 0.3843728924
0.3882216173 0.3882216173 0.3882216173
0.3919574393 0.3919574393 0.3919574393
0.3955867941 0.3955867941 0.3955867941
0.3991155822 0.3991155822 0.3991155822
0.4025492271 0.4025492271 0.4025492271
0.4058927249 0.4058927249 0.4058927249
0.4091506881 0.4091506881 0.4091506881
0.4123273841 0.4123273841 0.4123273841
0.4154267688 0.4154267688 0.4154267688
0.4184525160 0.4184525160 0.4184525160
0.4214080437 0.4214080437 0.4214080437
0.4242965373 0.4242965373 0.4242965373
0.4271209704 0.4271209704 0.4271209704
0.4298841227 0.4298841227 0.4298841227
0.4325885972 0.4325885972 0.4325885972
0.4352368342 0.4352368342 0.4352368342
0.4378311250 0.4378311250 0.4378311250
0.4403736236 0.4403736236 0.4403736236
0.4428663576 0.4428663576 0.4428663576
0.4453112377 0.4453112377 0.4453112377
0.4477100667 0.4477100667 0.4477100667
0.4500645474 0.4500645474 0.4500645474
0.4523762898 0.4523762898 0.4523762898
0.4546468179 0.4546468179 0.4546468179
0.4568775755 0.4568775755 0.4568775755
0.4590699320 0.4590699320 0.4590699320
0.4612251871 0.4612251871 0.4612251871
0.4633445756 0.4633445756 0.4633445756
0.4654292718 0.4654292718 0.4654292718
0.4674803932 0.4674803932 0.4674803932
0.4694990041 0.4694990041 0.4694990041
0.4714861190 0.4714861190 0.4714861190
0.4734427058 0.4734427058 0.4734427058
0.4753696883 0.4753696883 0.4753696883
0.4772679489 0.4772679489 0.4772679489
0.4791383314 0.4791383314 0.4791383314
0.4809816427 0.4809816427 0.4809816427
0.4827986553 0.4827986553 0.4827986553
0.4845901091 0.4845901091 0.4845901091
0.4863567131 0.4863567131 0.4863567131
0.4880991474 0.4880991474 0.4880991474
0.4898180643 0.4898180643 0.4898180643
0.4915140903 0.4915140903 0.4915140903
0.4931878270 0.4931878270 0.4931878270
0.4948398527 0.4948398527 0.4948398527
0.4964707234 0.4964707234 0.4964707234
0.4980809741 0.4980809741 0.4980809741
0.4996711197 0.4996711197 0.4996711197
0.5012416561 0.5012416561 0.5012416561
0.5027930610 0.5027930610 0.5027930610
0.5043257949 0.5043257949 0.5043257949
0.5058403018 0.5058403018 0.5058403018
0.5073370103 0.5073370103 0.5073370103
0.5088163338 0.5088163338 0.5088163338
0.5102786714 0.5102786714 0.5102786714
0.5117244089 0.5117244089 0.5117244089
0.5131539189 0.5131539189 0.5131539189
0.5145675617 0.5145675617 0.5145675617
0.5159656856 0.5159656856 0.5159656856
0.5173486277 0.5173486277 0.5173486277
0.5187167142 0.5187167142 0.5187167142
0.5200702607 0.5200702607 0.5200702607
0.5214095732 0.5214095732 0.5214095732
0.5227349479 0.5227349479 0.5227349479
0.5240466718 0.5240466718 0.5240466718
0.5253450234 0.5253450234 0.5253450234
0.5266302725 0.5266302725 0.5266302725
0.5279026810 0.5279026810 0.5279026810
0.5291625028 0.5291625028 0.5291625028
0.5304099845 0.5304099845 0.5304099845
0.5316453657 0.5316453657 0.5316453657
0.5328688786 0.5328688786 0.5328688786
0.5340807493 0.5340807493 0.5340807493
0.5352811972 0.5352811972 0.5352811972
0.5364704356 0.5364704356 0.5364704356
0.5376486719 0.5376486719 0.5376486719
0.5388161078 0.5388161078 0.5388161078
0.5399729396 0.5399729396 0.5399729396
0.5411193582 0.5411193582 0.5411193582
0.5422555493 0.5422555493 0.5422555493
0.5433816938 0.5433816938 0.5433816938
0.5444979678 0.5444979678 0.5444979678
0.5456045429 0.5456045429 0.5456045429
0.5467015861 0.5467015861 0.5467015861
0.5477892603 0.5477892603 0.5477892603
0.5488677241 0.5488677241 0.5488677241
0.5499371322 0.5499371322 0.5499371322
0.5509976354 0.5509976354 0.5509976354
0.5520493809 0.5520493809 0.5520493809
0.5530925120 0.5530925120 0.5530925120
0.5541271687 0.5541271687 0.5541271687
0.5551534876 0.5551534876 0.5551534876
0.5561716021 0.5561716021 0.5561716021
0.5571816422 0.5571816422 0.5571816422
0.5581837350 0.5581837350 0.5581837350
0.5591780046 0.5591780046 0.5591780046
0.5601645722 0.5601645722 0.5601645722
0.5611435562 0.5611435562 0.5611435562
0.5621150724 0.5621150724 0.5621150724
0.5630792337 0.5630792337 0.5630792337
0.5640361507 0.5640361507 0.5640361507
0.5649859315 0.5649859315 0.5649859315
0.5659286817 0.5659286817 0.5659286817
0.5668645046 0.5668645046 0.5668645046
0.5677935013 0.5677935013 0.5677935013
0.5687157706 0.5687157706 0.5687157706
0.5696314094 0.5696314094 0.5696314094
0.5705405121 0.5705405121 0.5705405121
0.5714431716 0.5714431716 0.5714431716
0.5723394785 0.5723394785 0.5723394785
0.5732295215 0.5732295215 0.5732295215
0.5741133876 0.5741133876 0.5741133876
0.5749911621 0.5749911621 0.5749911621
0.5758629281 0.5758629281 0.5758629281
0.5767287675 0.5767287675 0.5767287675
0.5775887604 0.5775887604 0.5775887604
0.5784429850 0.5784429850 0.5784429850
0.5792915183 0.5792915183 0.5792915183
0.5801344357 0.5801344357 0.5801344357
0.5809718109 0.5809718109 0.5809718109
0.5818037164 0.5818037164 0.5818037164
0.5826302231 0.5826302231 0.5826302231
0.5834514007 0.5834514007 0.5834514007
0.5842673175 0.5842673175 0.5842673175
0.5850780405 0.5850780405 0.5850780405
0.5858836353 0.5858836353 0.5858836353
0.5866841664 0.5866841664 0.5866841664
0.5874796971 0.5874796971 0.5874796971
0.5882702894 0.5882702894 0.5882702894
0.5890560044 0.5890560044 0.5890560044
0.5898369017 0.5898369017 0.5898369017
0.5906130402 0.5906130402 0.5906130402
0.5913844774 0.5913844774 0.5913844774
0.5921512701 0.5921512701 0.5921512701
0.5929134737 0.5929134737 0.5929134737
0.5936711429 0.5936711429 0.5936711429
0.5944243312 0.5944243312 0.5944243312
0.5951730915 0.5951730915 0.5951730915
0.5959174755 0.5959174755 0.5959174755
0.5966575339 0.5966575339 0.5966575339
0.5973933169 0.5973933169 0.5973933169
0.5981248735 0.5981248735 0.5981248735
0.5988522520 0.5988522520 0.5988522520
0.5995754998 0.5995754998 0.5995754998
0.6002946636 0.6002946636 0.6002946636
0.6010097893 0.6010097893 0.6010097893
0.6017209219 0.6017209219 0.6017209219
0.6024281058 0.6024281058 0.6024281058
0.6031313847 0.6031313847 0.6031313847
0.6038308013 0.6038308013 0.6038308013
0.6045263979 0.6045263979 0.6045263979
0.6052182161 0.6052182161 0.6052182161
0.6059062965 0.6059062965 0.6059062965
0.6065906794 0.6065906794 0.6065906794
0.6072714044 0.6072714044 0.6072714044
0.6079485102 0.6079485102 0.6079485102
0.6086220353 0.6086220353 0.6086220353
0.6092920172 0.6092920172 0.6092920172
0.6099584930 0.6099584930 0.6099584930
0.6106214993 0.6106214993 0.6106214993
0.6112810720 0.6112810720 0.6112810720
0.6119372465 0.6119372465 0.6119372465
0.6125900575 0.6125900575 0.6125900575
0.6132395395 0.6132395395 0.6132395395
0.6138857262 0.6138857262 0.6138857262
0.6145286508 0.6145286508 0.6145286508
0.6151683461 0.6151683461 0.6151683461
0.6158048445 0.6158048445 0.6158048445
0.6164381777 0.6164381777 0.6164381777
0.6170683770 0.6170683770 0.6170683770
0.6176954732 0.6176954732 0.6176954732
0.6183194969 0.6183194969 0.6183194969
0.6189404780 0.6189404780 0.6189404780
0.6195584459 0.6195584459 0.6195584459
0.6201734298 0.6201734298 0.6201734298
0.6207854584 0.6207854584 0.6207854584
0.6213945600 0.6213945600 0.6213945600
0.6220007623 0.6220007623 0.6220007623
0.6226040929 0.6226040929 0.6226040929
0.6232045788 0.6232045788 0.6232045788
0.6238022468 0.6238022468 0.6238022468
0.6243971232 0.6243971232 0.6243971232
0.6249892339 0.6249892339 0.6249892339
0.6255786045 0.6255786045 0.6255786045
0.6261652603 0.6261652603 0.6261652603
0.6267492261 0.6267492261 0.6267492261
0.6273305266 0.6273305266 0.6273305266
0.6279091859 0.6279091859 0.6279091859
0.6284852280 0.6284852280 0.6284852280
0.6290586763 0.6290586763 0.6290586763
0.6296295542 0.6296295542 0.6296295542
0.6301978846 0.6301978846 0.6301978846
0.6307636902 0.6307636902 0.6307636902
0.6313269932 0.6313269932 0.6313269932
0.6318878157 0.6318878157 0.6318878157
0.6324461794 0.6324461794 0.6324461794
0.6330021059 0.6330021059 0.6330021059
0.6335556163 0.6335556163 0.6335556163
0.6341067315 0.6341067315 0.6341067315
0.6346554722 0.6346554722 0.6346554722
0.6352018587 0.6352018587 0.6352018587
0.6357459111 0.6357459111 0.6357459111
0.6362876493 0.6362876493 0.6362876493
0.6368270929 0.6368270929 0.6368270929
0.6373642613 0.6373642613 0.6373642613
0.6378991736 0.6378991736 0.6378991736
0.6384318486 0.6384318486 0.6384318486
0.6389623050 0.6389623050 0.6389623050
0.6394905612 0.6394905612 0.6394905612
0.6400166353 0.6400166353 0.6400166353
0.6405405454 0.6405405454 0.6405405454
0.6410623091 0.6410623091 0.6410623091
0.6415819440 0.6415819440 0.6415819440
0.6420994673 0.6420994673 0.6420994673
0.6426148962 0.6426148962 0.6426148962
0.6431282475 0.6431282475 0.6431282475
0.6436395379 0.6436395379 0.6436395379
0.6441487839 0.6441487839 0.6441487839
0.6446560019 0.6446560019 0.6446560019
0.6451612077 0.6451612077 0.6451612077
0.6456644175 0.6456644175 0.6456644175
0.6461656469 0.6461656469 0.6461656469
0.6466649113 0.6466649113 0.6466649113
0.6471622262 0.6471622262 0.6471622262
0.6476576068 0.6476576068 0.6476576068
0.6481510679 0.6481510679 0.6481510679
0.6486426245 0.6486426245 0.6486426245
0.6491322912 0.6491322912 0.6491322912
0.6496200824 0.6496200824 0.6496200824
0.6501060125 0.6501060125 0.6501060125
0.6505900956 0.6505900956 0.6505900956
0.6510723456 0.6510723456 0.6510723456
0.6515527765 0.6515527765 0.6515527765
0.6520314020 0.6520314020 0.6520314020
0.6525082354 0.6525082354 0.6525082354
0.6529832902 0.6529832902 0.6529832902
0.6534565796 0.6534565796 0.6534565796
0.6539281168 0.6539281168 0.6539281168
0.6543979145 0.6543979145 0.6543979145
0.6548659856 0.6548659856 0.6548659856
0.6553323427 0.6553323427 0.6553323427
0.6557969984 0.6557969984 0.6557969984
0.6562599650 0.6562599650 0.6562599650
0.6567212548 0.6567212548 0.6567212548
0.6571808798 0.6571808798 0.6571808798
0.6576388521 0.6576388521 0.6576388521
0.6580951834 0.6580951834 0.6580951834
0.6585498855 0.6585498855 0.6585498855
0.6590029700 0.6590029700 0.6590029700
0.6594544483 0.6594544483 0.6594544483
0.6599043318 0.6599043318 0.6599043318
0.6603526318 0.6603526318 0.6603526318
0.6607993592 0.6607993592 0.6607993592
0.6612445252 0.6612445252 0.6612445252
0.6616881406 0.6616881406 0.6616881406
0.6621302162 0.6621302162 0.6621302162
0.6625707626 0.6625707626 0.6625707626
0.6630097904 0.6630097904 0.6630097904
0.6634473099 0.6634473099 0.6634473099
0.6638833316 0.6638833316 0.6638833316
0.6643178656 0.6643178656 0.6643178656
0.6647509221 0.6647509221 0.6647509221
0.6651825110 0.6651825110 0.6651825110
0.6656126424 0.6656126424 0.6656126424
0.6660413259 0.6660413259 0.6660413259
0.6664685714 0.6664685714 0.6664685714
0.6668943884 0.6668943884 0.6668943884
0.6673187864 0.6673187864 0.6673187864
0.6677417749 0.6677417749 0.6677417749
0.6681633632 0.6681633632 0.6681633632
0.6685835606 0.6685835606 0.6685835606
0.6690023762 0.6690023762 0.6690023762
0.6694198190 0.6694198190 0.6694198190
0.6698358980 0.6698358980 0.6698358980
0.6702506222 0.6702506222 0.6702506222
0.6706640002 0.6706640002 0.6706640002
0.6710760409 0.6710760409 0.6710760409
0.6714867528 0.6714867528 0.6714867528
0.6718961445 0.6718961445 0.6718961445
0.6723042244 0.6723042244 0.6723042244
0.6727110009 0.6727110009 0.6727110009
0.6731164824 0.6731164824 0.6731164824
0.6735206770 0.6735206770 0.6735206770
0.6739235928 0.6739235928 0.6739235928
0.6743252380 0.6743252380 0.6743252380
0.6747256206 0.6747256206 0.6747256206
0.6751247484 0.6751247484 0.6751247484
0.6755226293 0.6755226293 0.6755226293
0.6759192710 0.6759192710 0.6759192710
0.6763146813 0.6763146813 0.6763146813
0.6767088678 0.6767088678 0.6767088678
0.6771018380 0.6771018380 0.6771018380
0.6774935994 0.6774935994 0.6774935994
0.6778841594 0.6778841594 0.6778841594
0.6782735254 0.6782735254 0.6782735254
0.6786617046 0.6786617046 0.6786617046
0.6790487043 0.6790487043 0.6790487043
0.6794345316 0.6794345316 0.6794345316
0.6798191936 0.6798191936 0.6798191936
0.6802026973 0.6802026973 0.6802026973
0.6805850496 0.6805850496 0.6805850496
0.6809662575 0.6809662575 0.6809662575
0.6813463278 0.6813463278 0.6813463278
0.6817252672 0.6817252672 0.6817252672
0.6821030825 0.6821030825 0.6821030825
0.6824797803 0.6824797803 0.6824797803
0.6828553672 0.6828553672 0.6828553672
0.6832298498 0.6832298498 0.6832298498
0.6836032344 0.6836032344 0.6836032344
0.6839755276 0.6839755276 0.6839755276
0.6843467357 0.6843467357 0.6843467357
0.6847168650 0.6847168650 0.6847168650
0.6850859217 0.6850859217 0.6850859217
0.6854539121 0.6854539121 0.6854539121
0.6858208423 0.6858208423 0.6858208423
0.6861867183 0.6861867183 0.6861867183
0.6865515463 0.6865515463 0.6865515463
0.6869153322 0.6869153322 0.6869153322
0.6872780820 0.6872780820 0.6872780820
0.6876398014 0.6876398014 0.6876398014
0.6880004965 0.6880004965 0.6880004965
0.6883601729 0.6883601729 0.6883601729
0.6887188364 0.6887188364 0.6887188364
0.6890764927 0.6890764927 0.6890764927
0.6894331474 0.6894331474 0.6894331474
0.6897888061 0.6897888061 0.6897888061
0.6901434744 0.6901434744 0.6901434744
0.6904971577 0.6904971577 0.6904971577
0.6908498616 0.6908498616 0.6908498616
0.6912015914 0.6912015914 0.6912015914
0.6915523525 0.6915523525 0.6915523525
0.6919021502 0.6919021502 0.6919021502
0.6922509898 0.6922509898 0.6922509898
0.6925988766 0.6925988766 0.6925988766
0.6929458156 0.6929458156 0.6929458156
0.6932918122 0.6932918122 0.6932918122
0.6936368713 0.6936368713 0.6936368713
0.6939809980 0.6939809980 0.6939809980
0.6943241974 0.6943241974 0.6943241974
0.6946664745 0.6946664745 0.6946664745
0.6950078342 0.6950078342 0.6950078342
0.6953482813 0.6953482813 0.6953482813
0.6956878209 0.6956878209 0.6956878209
0.6960264576 0.6960264576 0.6960264576
0.6963641963 0.6963641963 0.6963641963
0.6967010418 0.6967010418 0.6967010418
0.6970369986 0.6970369986 0.6970369986
0.6973720717 0.6973720717 0.6973720717
0.6977062654 0.6977062654 0.6977062654
0.6980395845 0.6980395845 0.6980395845
0.6983720336 0.6983720336 0.6983720336
0.6987036171 0.6987036171 0.6987036171
0.6990343396 0.6990343396 0.6990343396
0.6993642055 0.6993642055 0.6993642055
0.6996932192 0.6996932192 0.6996932192
0.7000213851 0.7000213851 0.7000213851
0.7003487077 0.7003487077 0.7003487077
0.7006751911 0.7006751911 0.7006751911
0.7010008397 0.7010008397 0.7010008397
0.7013256579 0.7013256579 0.7013256579
0.7016496497 0.7016496497 0.7016496497
0.7019728193 0.7019728193 0.7019728193
0.7022951711 0.7022951711 0.7022951711
0.7026167090 0.7026167090 0.7026167090
0.7029374371 0.7029374371 0.7029374371
0.7032573596 0.7032573596 0.7032573596
0.7035764805 0.7035764805 0.7035764805
0.7038948038 0.7038948038 0.7038948038
0.7042123334 0.7042123334 0.7042123334
0.7045290733 0.7045290733 0.7045290733
0.7048450275 0.7048450275 0.7048450275
0.7051601998 0.7051601998 0.7051601998
0.7054745940 0.7054745940 0.7054745940
0.7057882141 0.7057882141 0.7057882141
0.7061010638 0.7061010638 0.7061010638
0.7064131468 0.7064131468 0.7064131468
0.7067244670 0.7067244670 0.7067244670
0.7070350281 0.7070350281 0.7070350281
0.7073448337 0.7073448337 0.7073448337
0.7076538875 0.7076538875 0.7076538875
0.7079621931 0.7079621931 0.7079621931
0.7082697543 0.7082697543 0.7082697543
0.7085765745 0.7085765745 0.7085765745
0.7088826573 0.7088826573 0.7088826573
0.7091880062 0.7091880062 0.7091880062
0.7094926249 0.7094926249 0.7094926249
0.7097965166 0.7097965166 0.7097965166
0.7100996850 0.7100996850 0.7100996850
0.7104021334 0.7104021334 0.7104021334
0.7107038653 0.7107038653 0.7107038653
0.7110048841 0.7110048841 0.7110048841
0.7113051930 0.7113051930 0.7113051930
0.7116047955 0.7116047955 0.7116047955
0.7119036948 0.7119036948 0.7119036948
0.7122018943 0.7122018943 0.7122018943
0.7124993972 0.7124993972 0.7124993972
0.7127962068 0.7127962068 0.7127962068
0.7130923263 0.7130923263 0.7130923263
0.7133877589 0.7133877589 0.7133877589
0.7136825077 0.7136825077 0.7136825077
0.7139765760 0.7139765760 0.7139765760
0.7142699669 0.7142699669 0.7142699669
0.7145626834 0.7145626834 0.7145626834
0.7148547288 0.7148547288 0.7148547288
0.7151461059 0.7151461059 0.7151461059
0.7154368180 0.7154368180 0.7154368180
0.7157268680 0.7157268680 0.7157268680
0.7160162589 0.7160162589 0.7160162589
0.7163049938 0.7163049938 0.7163049938
0.7165930755 0.7165930755 0.7165930755
0.7168805071 0.7168805071 0.7168805071
0.7171672914 0.7171672914 0.7171672914
0.7174534314 0.7174534314 0.7174534314
0.7177389300 0.7177389300 0.7177389300
0.7180237901 0.7180237901 0.7180237901
0.7183080144 0.7183080144 0.7183080144
0.7185916058 0.7185916058 0.7185916058
0.7188745671 0.7188745671 0.7188745671
0.7191569012 0.7191569012 0.7191569012
0.7194386108 0.7194386108 0.7194386108
0.7197196986 0.7197196986 0.7197196986
0.7200001674 0.7200001674 0.7200001674
0.7202800199 0.7202800199 0.7202800199
0.7205592589 0.7205592589 0.7205592589
0.7208378869 0.7208378869 0.7208378869
0.7211159067 0.7211159067 0.7211159067
0.7213933209 0.7213933209 0.7213933209
0.7216701322 0.7216701322 0.7216701322
0.7219463431 0.7219463431 0.7219463431
0.7222219563 0.7222219563 0.7222219563
0.7224969743 0.7224969743 0.7224969743
0.7227713998 0.7227713998 0.7227713998
0.7230452352 0.7230452352 0.7230452352
0.7233184831 0.7233184831 0.7233184831
0.7235911460 0.7235911460 0.7235911460
0.7238632263 0.7238632263 0.7238632263
0.7241347267 0.7241347267 0.7241347267
0.7244056496 0.7244056496 0.7244056496
0.7246759973 0.7246759973 0.7246759973
0.7249457724 0.7249457724 0.7249457724
0.7252149772 0.7252149772 0.7252149772
0.7254836142 0.7254836142 0.7254836142
0.7257516858 0.7257516858 0.7257516858
0.7260191943 0.7260191943 0.7260191943
0.7262861421 0.7262861421 0.7262861421
0.7265525316 0.7265525316 0.7265525316
0.7268183650 0.7268183650 0.7268183650
0.7270836447 0.7270836447 0.7270836447
0.7273483730 0.7273483730 0.7273483730
0.7276125522 0.7276125522 0.7276125522
0.7278761845 0.7278761845 0.7278761845
0.7281392722 0.7281392722 0.7281392722
0.7284018176 0.7284018176 0.7284018176
0.7286638229 0.7286638229 0.7286638229
0.7289252903 0.7289252903 0.7289252903
0.7291862220 0.7291862220 0.7291862220
0.7294466202 0.7294466202 0.7294466202
0.7297064870 0.7297064870 0.7297064870
0.7299658247 0.7299658247 0.7299658247
0.7302246354 0.7302246354 0.7302246354
0.7304829213 0.7304829213 0.7304829213
0.7307406843 0.7307406843 0.7307406843
0.7309979268 0.7309979268 0.7309979268
0.7312546507 0.7312546507 0.7312546507
0.7315108582 0.7315108582 0.7315108582
0.7317665512 0.7317665512 0.7317665512
0.7320217320 0.7320217320 0.7320217320
0.7322764025 0.7322764025 0.7322764025
0.7325305648 0.7325305648 0.7325305648
0.7327842208 0.7327842208 0.7327842208
0.7330373727 0.7330373727 0.7330373727
0.7332900224 0.7332900224 0.7332900224
0.7335421719 0.7335421719 0.7335421719
0.7337938231 0.7337938231 0.7337938231
0.7340449781 0.7340449781 0.7340449781
0.7342956388 0.7342956388 0.7342956388
0.7345458071 0.7345458071 0.7345458071
0.7347954850 0.7347954850 0.7347954850
0.7350446743 0.7350446743 0.7350446743
0.7352933771 0.7352933771 0.7352933771
0.7355415951 0.7355415951 0.7355415951
0.7357893303 0.7357893303 0.7357893303
0.7360365846 0.7360365846 0.7360365846
0.7362833598 0.7362833598 0.7362833598
0.7365296577 0.7365296577 0.7365296577
0.7367754802 0.7367754802 0.7367754802
0.7370208292 0.7370208292 0.7370208292
0.7372657065 0.7372657065 0.7372657065
0.7375101138 0.7375101138 0.7375101138
0.7377540530 0.7377540530 0.7377540530
0.7379975258 0.7379975258 0.7379975258
0.7382405341 0.7382405341 0.7382405341
0.7384830796 0.7384830796 0.7384830796
0.7387251640 0.7387251640 0.7387251640
0.7389667892 0.7389667892 0.7389667892
0.7392079568 0.7392079568 0.7392079568
0.7394486687 0.7394486687 0.7394486687
0.7396889264 0.7396889264 0.7396889264
0.7399287317 0.7399287317 0.7399287317
0.7401680864 0.7401680864 0.7401680864
0.7404069921 0.7404069921 0.7404069921
0.7406454504 0.7406454504 0.7406454504
0.7408834632 0.7408834632 0.7408834632
0.7411210319 0.7411210319 0.7411210319
0.7413581583 0.7413581583 0.7413581583
0.7415948441 0.7415948441 0.7415948441
0.7418310908 0.7418310908 0.7418310908
0.7420669001 0.7420669001 0.7420669001
0.7423022735 0.7423022735 0.7423022735
0.7425372128 0.7425372128 0.7425372128
0.7427717195 0.7427717195 0.7427717195
0.7430057952 0.7430057952 0.7430057952
0.7432394415 0.7432394415 0.7432394415
0.7434726599 0.7434726599 0.7434726599
0.7437054520 0.7437054520 0.7437054520
0.7439378194 0.7439378194 0.7439378194
0.7441697636 0.7441697636 0.7441697636
0.7444012862 0.7444012862 0.7444012862
0.7446323887 0.7446323887 0.7446323887
0.7448630725 0.7448630725 0.7448630725
0.7450933393 0.7450933393 0.7450933393
0.7453231905 0.7453231905 0.7453231905
0.7455526276 0.7455526276 0.7455526276
0.7457816522 0.7457816522 0.7457816522
0.7460102656 0.7460102656 0.7460102656
0.7462384694 0.7462384694 0.7462384694
0.7464662651 0.7464662651 0.7464662651
0.7466936540 0.7466936540 0.7466936540
0.7469206377 0.7469206377 0.7469206377
0.7471472175 0.7471472175 0.7471472175
0.7473733950 0.7473733950 0.7473733950
0.7475991715 0.7475991715 0.7475991715
0.7478245484 0.7478245484 0.7478245484
0.7480495273 0.7480495273 0.7480495273
0.7482741094 0.7482741094 0.7482741094
0.7484982962 0.7484982962 0.7484982962
0.7487220891 0.7487220891 0.7487220891
0.7489454894 0.7489454894 0.7489454894
0.7491684985 0.7491684985 0.7491684985
0.7493911178 0.7493911178 0.7493911178
0.7496133487 0.7496133487 0.7496133487
0.7498351924 0.7498351924 0.7498351924
0.7500566504 0.7500566504 0.7500566504
0.7502777240 0.7502777240 0.7502777240
0.7504984145 0.7504984145 0.7504984145
0.7507187233 0.7507187233 0.7507187233
0.7509386516 0.7509386516 0.7509386516
0.7511582008 0.7511582008 0.7511582008
0.7513773722 0.7513773722 0.7513773722
0.7515961670 0.7515961670 0.7515961670
0.7518145866 0.7518145866 0.7518145866
0.7520326323 0.7520326323 0.7520326323
0.7522503053 0.7522503053 0.7522503053
0.7524676069 0.7524676069 0.7524676069
0.7526845384 0.7526845384 0.7526845384
0.7529011010 0.7529011010 0.7529011010
0.7531172960 0.7531172960 0.7531172960
0.7533331246 0.7533331246 0.7533331246
0.7535485881 0.7535485881 0.7535485881
0.7537636876 0.7537636876 0.7537636876
0.7539784245 0.7539784245 0.7539784245
0.7541928000 0.7541928000 0.7541928000
0.7544068152 0.7544068152 0.7544068152
0.7546204714 0.7546204714 0.7546204714
0.7548337697 0.7548337697 0.7548337697
0.7550467115 0.7550467115 0.7550467115
0.7552592977 0.7552592977 0.7552592977
0.7554715298 0.7554715298 0.7554715298
0.7556834087 0.7556834087 0.7556834087
0.7558949358 0.7558949358 0.7558949358
0.7561061121 0.7561061121 0.7561061121
0.7563169388 0.7563169388 0.7563169388
0.7565274171 0.7565274171 0.7565274171
0.7567375482 0.7567375482 0.7567375482
0.7569473331 0.7569473331 0.7569473331
0.7571567730 0.7571567730 0.7571567730
0.7573658691 0.7573658691 0.7573658691
0.7575746224 0.7575746224 0.7575746224
0.7577830342 0.7577830342 0.7577830342
0.7579911054 0.7579911054 0.7579911054
