VFX IO/Linear to sRGB.cube
# DaVinci Resolve Cube (1D shaper LUT).

LUT_1D_SIZE 4096
LUT_1D_INPUT_RANGE 0.0000000000 1.0000000000

0.0000000000 0.0000000000 0.0000000000
0.0031550672 0.0031550672 0.0031550672
0.0063101343 0.0063101343 0.0063101343
0.0094652015 0.0094652015 0.0094652015
0.0126202686 0.0126202686 0.0126202686
0.0157753358 0.0157753358 0.0157753358
0.0189304029 0.0189304029 0.0189304029
0.0220854701 0.0220854701 0.0220854701
0.0252405372 0.0252405372 0.0252405372
0.0283956044 0.0283956044 0.0283956044
0.0315506716 0.0315506716 0.0315506716
0.0347057387 0.0347057387 0.0347057387
0.0378608059 0.0378608059 0.0378608059
0.0410040886 0.0410040886 0.0410040886
0.0440147770 0.0440147770 0.0440147770
0.0469024651 0.0469024651 0.0469024651
0.0496799062 0.0496799062 0.0496799062
0.0523578279 0.0523578279 0.0523578279
0.0549453525 0.0549453525 0.0549453525
0.0574503123 0.0574503123 0.0574503123
0.0598794895 0.0598794895 0.0598794895
0.0622388019 0.0622388019 0.0622388019
0.0645334485 0.0645334485 0.0645334485
0.0667680255 0.0667680255 0.0667680255
0.0689466185 0.0689466185 0.0689466185
0.0710728786 0.0710728786 0.0710728786
0.0731500836 0.0731500836 0.0731500836
0.0751811890 0.0751811890 0.0751811890
0.0771688705 0.0771688705 0.0771688705
0.0791155591 0.0791155591 0.0791155591
0.0810234716 0.0810234716 0.0810234716
0.0828946355 0.0828946355 0.0828946355
0.0847309107 0.0847309107 0.0847309107
0.0865340086 0.0865340086 0.0865340086
0.0883055073 0.0883055073 0.0883055073
0.0900468664 0.0900468664 0.0900468664
0.0917594383 0.0917594383 0.0917594383
0.0934444792 0.0934444792 0.0934444792
0.0951031584 0.0951031584 0.0951031584
0.0967365662 0.0967365662 0.0967365662
0.0983457210 0.0983457210 0.0983457210
0.0999315761 0.0999315761 0.0999315761
0.1014950252 0.1014950252 0.1014950252
0.1030369072 0.1030369072 0.1030369072
0.1045580110 0.1045580110 0.1045580110
0.1060590796 0.1060590796 0.1060590796
0.1075408134 0.1075408134 0.1075408134
0.1090038738 0.1090038738 0.1090038738
0.1104488861 0.1104488861 0.1104488861
0.1118764422 0.1118764422 0.1118764422
0.1132871029 0.1132871029 0.1132871029
0.1146814000 0.1146814000 0.1146814000
0.1160598389 0.1160598389 0.1160598389
0.1174228997 0.1174228997 0.1174228997
0.1187710393 0.1187710393 0.1187710393
0.1201046931 0.1201046931 0.1201046931
0.1214242758 0.1214242758 0.1214242758
0.1227301832 0.1227301832 0.1227301832
0.1240227934 0.1240227934 0.1240227934
0.1253024675 0.1253024675 0.1253024675
0.1265695511 0.1265695511 0.1265695511
0.1278243747 0.1278243747 0.1278243747
0.1290672551 0.1290672551 0.1290672551
0.1302984960 0.1302984960 0.1302984960
0.1315183885 0.1315183885 0.1315183885
0.1327272122 0.1327272122 0.1327272122
0.1339252353 0.1339252353 0.1339252353
0.1351127161 0.1351127161 0.1351127161
0.1362899025 0.1362899025 0.1362899025
0.1374570331 0.1374570331 0.1374570331
0.1386143379 0.1386143379 0.1386143379
0.1397620382 0.1397620382 0.1397620382
0.1409003472 0.1409003472 0.1409003472
0.1420294706 0.1420294706 0.1420294706
0.1431496070 0.1431496070 0.1431496070
0.1442609478 0.1442609478 0.1442609478
0.1453636781 0.1453636781 0.1453636781
0.1464579766 0.1464579766 0.1464579766
0.1475440159 0.1475440159 0.1475440159
0.1486219631 0.1486219631 0.1486219631
0.1496919799 0.1496919799 0.1496919799
0.1507542225 0.1507542225 0.1507542225
0.1518088425 0.1518088425 0.1518088425
0.1528559865 0.1528559865 0.1528559865
0.1538957966 0.1538957966 0.1538957966
0.1549284107 0.1549284107 0.1549284107
0.1559539622 0.1559539622 0.1559539622
0.1569725808 0.1569725808 0.1569725808
0.1579843922 0.1579843922 0.1579843922
0.1589895185 0.1589895185 0.1589895185
0.1599880783 0.1599880783 0.1599880783
0.1609801867 0.1609801867 0.1609801867
0.1619659556 0.1619659556 0.1619659556
0.1629454938 0.1629454938 0.1629454938
0.1639189070 0.1639189070 0.1639189070
0.1648862980 0.1648862980 0.1648862980
0.1658477670 0.1658477670 0.1658477670
0.1668034114 0.1668034114 0.1668034114
0.1677533258 0.1677533258 0.1677533258
0.1686976027 0.1686976027 0.1686976027
0.1696363318 0.1696363318 0.1696363318
0.1705696009 0.1705696009 0.1705696009
0.1714974952 0.1714974952 0.1714974952
0.1724200980 0.1724200980 0.1724200980
0.1733374904 0.1733374904 0.1733374904
0.1742497514 0.1742497514 0.1742497514
0.1751569582 0.1751569582 0.1751569582
0.1760591862 0.1760591862 0.1760591862
0.1769565088 0.1769565088 0.1769565088
0.1778489977 0.1778489977 0.1778489977
0.1787367230 0.1787367230 0.1787367230
0.1796197530 0.1796197530 0.1796197530
0.1804981546 0.1804981546 0.1804981546
0.1813719929 0.1813719929 0.1813719929
0.1822413319 0.1822413319 0.1822413319
0.1831062337 0.1831062337 0.1831062337
0.1839667594 0.1839667594 0.1839667594
0.1848229686 0.1848229686 0.1848229686
0.1856749195 0.1856749195 0.1856749195
0.1865226690 0.1865226690 0.1865226690
0.1873662731 0.1873662731 0.1873662731
0.1882057861 0.1882057861 0.1882057861
0.1890412616 0.1890412616 0.1890412616
0.1898727519 0.1898727519 0.1898727519
0.1907003080 0.1907003080 0.1907003080
0.1915239802 0.1915239802 0.1915239802
0.1923438174 0.1923438174 0.1923438174
0.1931598678 0.1931598678 0.1931598678
0.1939721785 0.1939721785 0.1939721785
0.1947807957 0.1947807957 0.1947807957
0.1955857645 0.1955857645 0.1955857645
0.1963871293 0.1963871293 0.1963871293
0.1971849336 0.1971849336 0.1971849336
0.1979792200 0.1979792200 0.1979792200
0.1987700302 0.1987700302 0.1987700302
0.1995574053 0.1995574053 0.1995574053
0.2003413855 0.2003413855 0.2003413855
0.2011220102 0.2011220102 0.2011220102
0.2018993181 0.2018993181 0.2018993181
0.2026733471 0.2026733471 0.2026733471
0.2034441346 0.2034441346 0.2034441346
0.2042117171 0.2042117171 0.2042117171
0.2049761306 0.2049761306 0.2049761306
0.2057374103 0.2057374103 0.2057374103
0.2064955908 0.2064955908 0.2064955908
0.2072507062 0.2072507062 0.2072507062
0.2080027898 0.2080027898 0.2080027898
0.2087518745 0.2087518745 0.2087518745
0.2094979925 0.2094979925 0.2094979925
0.2102411755 0.2102411755 0.2102411755
0.2109814546 0.2109814546 0.2109814546
0.2117188603 0.2117188603 0.2117188603
0.2124534229 0.2124534229 0.2124534229
0.2131851718 0.2131851718 0.2131851718
0.2139141360 0.2139141360 0.2139141360
0.2146403443 0.2146403443 0.2146403443
0.2153638246 0.2153638246 0.2153638246
0.2160846046 0.2160846046 0.2160846046
0.2168027115 0.2168027115 0.2168027115
0.2175181721 0.2175181721 0.2175181721
0.2182310125 0.2182310125 0.2182310125
0.2189412588 0.2189412588 0.2189412588
0.2196489364 0.2196489364 0.2196489364
0.2203540703 0.2203540703 0.2203540703
0.2210566852 0.2210566852 0.2210566852
0.2217568054 0.2217568054 0.2217568054
0.2224544547 0.2224544547 0.2224544547
0.2231496568 0.2231496568 0.2231496568
0.2238424347 0.2238424347 0.2238424347
0.2245328113 0.2245328113 0.2245328113
0.2252208091 0.2252208091 0.2252208091
0.2259064501 0.2259064501 0.2259064501
0.2265897561 0.2265897561 0.2265897561
0.2272707486 0.2272707486 0.2272707486
0.2279494488 0.2279494488 0.2279494488
0.2286258774 0.2286258774 0.2286258774
0.2293000550 0.2293000550 0.2293000550
0.2299720018 0.2299720018 0.2299720018
0.2306417377 0.2306417377 0.2306417377
0.2313092823 0.2313092823 0.2313092823
0.2319746551 0.2319746551 0.2319746551
0.2326378750 0.2326378750 0.2326378750
0.2332989609 0.2332989609 0.2332989609
0.2339579313 0.2339579313 0.2339579313
0.2346148045 0.2346148045 0.2346148045
0.2352695985 0.2352695985 0.2352695985
0.2359223311 0.2359223311 0.2359223311
0.2365730198 0.2365730198 0.2365730198
0.2372216818 0.2372216818 0.2372216818
0.2378683343 0.2378683343 0.2378683343
0.2385129940 0.2385129940 0.2385129940
0.2391556775 0.2391556775 0.2391556775
0.2397964011 0.2397964011 0.2397964011
0.2404351811 0.2404351811 0.2404351811
0.2410720333 0.2410720333 0.2410720333
0.2417069734 0.2417069734 0.2417069734
0.2423400169 0.2423400169 0.2423400169
0.2429711792 0.2429711792 0.2429711792
0.2436004753 0.2436004753 0.2436004753
0.2442279202 0.2442279202 0.2442279202
0.2448535284 0.2448535284 0.2448535284
0.2454773147 0.2454773147 0.2454773147
0.2460992932 0.2460992932 0.2460992932
0.2467194781 0.2467194781 0.2467194781
0.2473378835 0.2473378835 0.2473378835
0.2479545231 0.2479545231 0.2479545231
0.2485694105 0.2485694105 0.2485694105
0.2491825591 0.2491825591 0.2491825591
0.2497939823 0.2497939823 0.2497939823
0.2504036932 0.2504036932 0.2504036932
0.2510117047 0.2510117047 0.2510117047
0.2516180296 0.2516180296 0.2516180296
0.2522226806 0.2522226806 0.2522226806
0.2528256701 0.2528256701 0.2528256701
0.2534270105 0.2534270105 0.2534270105
0.2540267139 0.2540267139 0.2540267139
0.2546247924 0.2546247924 0.2546247924
0.2552212579 0.2552212579 0.2552212579
0.2558161222 0.2558161222 0.2558161222
0.2564093968 0.2564093968 0.2564093968
0.2570010932 0.2570010932 0.2570010932
0.2575912229 0.2575912229 0.2575912229
0.2581797969 0.2581797969 0.2581797969
0.2587668264 0.2587668264 0.2587668264
0.2593523223 0.2593523223 0.2593523223
0.2599362955 0.2599362955 0.2599362955
0.2605187566 0.2605187566 0.2605187566
0.2610997162 0.2610997162 0.2610997162
0.2616791848 0.2616791848 0.2616791848
0.2622571728 0.2622571728 0.2622571728
0.2628336903 0.2628336903 0.2628336903
0.2634087475 0.2634087475 0.2634087475
0.2639823543 0.2639823543 0.2639823543
0.2645545207 0.2645545207 0.2645545207
0.2651252564 0.2651252564 0.2651252564
0.2656945711 0.2656945711 0.2656945711
0.2662624744 0.2662624744 0.2662624744
0.2668289757 0.2668289757 0.2668289757
0.2673940843 0.2673940843 0.2673940843
0.2679578095 0.2679578095 0.2679578095
0.2685201606 0.2685201606 0.2685201606
0.2690811464 0.2690811464 0.2690811464
0.2696407761 0.2696407761 0.2696407761
0.2701990584 0.2701990584 0.2701990584
0.2707560021 0.2707560021 0.2707560021
0.2713116159 0.2713116159 0.2713116159
0.2718659084 0.2718659084 0.2718659084
0.2724188881 0.2724188881 0.2724188881
0.2729705633 0.2729705633 0.2729705633
0.2735209425 0.2735209425 0.2735209425
0.2740700337 0.2740700337 0.2740700337
0.2746178453 0.2746178453 0.2746178453
0.2751643852 0.2751643852 0.2751643852
0.2757096614 0.2757096614 0.2757096614
0.2762536818 0.2762536818 0.2762536818
0.2767964542 0.2767964542 0.2767964542
0.2773379865 0.2773379865 0.2773379865
0.2778782862 0.2778782862 0.2778782862
0.2784173609 0.2784173609 0.2784173609
0.2789552181 0.2789552181 0.2789552181
0.2794918653 0.2794918653 0.2794918653
0.2800273099 0.2800273099 0.2800273099
0.2805615590 0.2805615590 0.2805615590
0.2810946200 0.2810946200 0.2810946200
0.2816265000 0.2816265000 0.2816265000
0.2821572060 0.2821572060 0.2821572060
0.2826867451 0.2826867451 0.2826867451
0.2832151242 0.2832151242 0.2832151242
0.2837423501 0.2837423501 0.2837423501
0.2842684298 0.2842684298 0.2842684298
0.2847933698 0.2847933698 0.2847933698
0.2853171770 0.2853171770 0.2853171770
0.2858398578 0.2858398578 0.2858398578
0.2863614189 0.2863614189 0.2863614189
0.2868818667 0.2868818667 0.2868818667
0.2874012077 0.2874012077 0.2874012077
0.2879194483 0.2879194483 0.2879194483
0.2884365946 0.2884365946 0.2884365946
0.2889526531 0.2889526531 0.2889526531
0.2894676298 0.2894676298 0.2894676298
0.2899815309 0.2899815309 0.2899815309
0.2904943626 0.2904943626 0.2904943626
0.2910061307 0.2910061307 0.2910061307
0.2915168413 0.2915168413 0.2915168413
0.2920265003 0.2920265003 0.2920265003
0.2925351135 0.2925351135 0.2925351135
0.2930426867 0.2930426867 0.2930426867
0.2935492258 0.2935492258 0.2935492258
0.2940547363 0.2940547363 0.2940547363
0.2945592240 0.2945592240 0.2945592240
0.2950626944 0.2950626944 0.2950626944
0.2955651531 0.2955651531 0.2955651531
0.2960666056 0.2960666056 0.2960666056
0.2965670574 0.2965670574 0.2965670574
0.2970665137 0.2970665137 0.2970665137
0.2975649801 0.2975649801 0.2975649801
0.2980624618 0.2980624618 0.2980624618
0.2985589640 0.2985589640 0.2985589640
0.2990544920 0.2990544920 0.2990544920
0.2995490510 0.2995490510 0.2995490510
0.3000426460 0.3000426460 0.3000426460
0.3005352822 0.3005352822 0.3005352822
0.3010269646 0.3010269646 0.3010269646
0.3015176983 0.3015176983 0.3015176983
0.3020074880 0.3020074880 0.3020074880
0.3024963388 0.3024963388 0.3024963388
0.3029842556 0.3029842556 0.3029842556
0.3034712431 0.3034712431 0.3034712431
0.3039573061 0.3039573061 0.3039573061
0.3044424495 0.3044424495 0.3044424495
0.3049266779 0.3049266779 0.3049266779
0.3054099959 0.3054099959 0.3054099959
0.3058924082 0.3058924082 0.3058924082
0.3063739194 0.3063739194 0.3063739194
0.3068545341 0.3068545341 0.3068545341
0.3073342567 0.3073342567 0.3073342567
0.3078130918 0.3078130918 0.3078130918
0.3082910438 0.3082910438 0.3082910438
0.3087681171 0.3087681171 0.3087681171
0.3092443160 0.3092443160 0.3092443160
0.3097196449 0.3097196449 0.3097196449
0.3101941082 0.3101941082 0.3101941082
0.3106677100 0.3106677100 0.3106677100
0.3111404546 0.3111404546 0.3111404546
0.3116123462 0.3116123462 0.3116123462
0.3120833890 0.3120833890 0.3120833890
0.3125535870 0.3125535870 0.3125535870
0.3130229445 0.3130229445 0.3130229445
0.3134914654 0.3134914654 0.3134914654
0.3139591538 0.3139591538 0.3139591538
0.3144260137 0.3144260137 0.3144260137
0.3148920491 0.3148920491 0.3148920491
0.3153572639 0.3153572639 0.3153572639
0.3158216620 0.3158216620 0.3158216620
0.3162852473 0.3162852473 0.3162852473
0.3167480237 0.3167480237 0.3167480237
0.3172099949 0.3172099949 0.3172099949
0.3176711648 0.3176711648 0.3176711648
0.3181315371 0.3181315371 0.3181315371
0.3185911156 0.3185911156 0.3185911156
0.3190499039 0.3190499039 0.3190499039
0.3195079058 0.3195079058 0.3195079058
0.3199651248 0.3199651248 0.3199651248
0.3204215647 0.3204215647 0.3204215647
0.3208772290 0.3208772290 0.3208772290
0.3213321212 0.3213321212 0.3213321212
0.3217862449 0.3217862449 0.3217862449
0.3222396037 0.3222396037 0.3222396037
0.3226922009 0.3226922009 0.3226922009
0.3231440402 0.3231440402 0.3231440402
0.3235951248 0.3235951248 0.3235951248
0.3240454583 0.3240454583 0.3240454583
0.3244950439 0.3244950439 0.3244950439
0.3249438852 0.3249438852 0.3249438852
0.3253919853 0.3253919853 0.3253919853
0.3258393476 0.3258393476 0.3258393476
0.3262859755 0.3262859755 0.3262859755
0.3267318721 0.3267318721 0.3267318721
0.3271770407 0.3271770407 0.3271770407
0.3276214845 0.3276214845 0.3276214845
0.3280652067 0.3280652067 0.3280652067
0.3285082106 0.3285082106 0.3285082106
0.3289504991 0.3289504991 0.3289504991
0.3293920755 0.3293920755 0.3293920755
0.3298329429 0.3298329429 0.3298329429
0.3302731044 0.3302731044 0.3302731044
0.3307125629 0.3307125629 0.3307125629
0.3311513216 0.3311513216 0.3311513216
0.3315893834 0.3315893834 0.3315893834
0.3320267514 0.3320267514 0.3320267514
0.3324634286 0.3324634286 0.3324634286
0.3328994178 0.3328994178 0.3328994178
0.3333347220 0.3333347220 0.3333347220
0.3337693442 0.3337693442 0.3337693442
0.3342032872 0.3342032872 0.3342032872
0.3346365539 0.3346365539 0.3346365539
0.3350691472 0.3350691472 0.3350691472
0.3355010698 0.3355010698 0.3355010698
0.3359323247 0.3359323247 0.3359323247
0.3363629145 0.3363629145 0.3363629145
0.3367928421 0.3367928421 0.3367928421
0.3372221102 0.3372221102 0.3372221102
0.3376507216 0.3376507216 0.3376507216
0.3380786790 0.3380786790 0.3380786790
0.3385059851 0.3385059851 0.3385059851
0.3389326426 0.3389326426 0.3389326426
0.3393586541 0.3393586541 0.3393586541
0.3397840222 0.3397840222 0.3397840222
0.3402087497 0.3402087497 0.3402087497
0.3406328391 0.3406328391 0.3406328391
0.3410562931 0.3410562931 0.3410562931
0.3414791141 0.3414791141 0.3414791141
0.3419013048 0.3419013048 0.3419013048
0.3423228678 0.3423228678 0.3423228678
0.3427438054 0.3427438054 0.3427438054
0.3431641203 0.3431641203 0.3431641203
0.3435838149 0.3435838149 0.3435838149
0.3440028918 0.3440028918 0.3440028918
0.3444213533 0.3444213533 0.3444213533
0.3448392020 0.3448392020 0.3448392020
0.3452564402 0.3452564402 0.3452564402
0.3456730703 0.3456730703 0.3456730703
0.3460890949 0.3460890949 0.3460890949
0.3465045162 0.3465045162 0.3465045162
0.3469193366 0.3469193366 0.3469193366
0.3473335585 0.3473335585 0.3473335585
0.3477471842 0.3477471842 0.3477471842
0.3481602161 0.3481602161 0.3481602161
0.3485726563 0.3485726563 0.3485726563
0.3489845074 0.3489845074 0.3489845074
0.3493957714 0.3493957714 0.3493957714
0.3498064508 0.3498064508 0.3498064508
0.3502165476 0.3502165476 0.3502165476
0.3506260643 0.3506260643 0.3506260643
0.3510350029 0.3510350029 0.3510350029
0.3514433657 0.3514433657 0.3514433657
0.3518511549 0.3518511549 0.3518511549
0.3522583728 0.3522583728 0.3522583728
0.3526650213 0.3526650213 0.3526650213
0.3530711028 0.3530711028 0.3530711028
0.3534766193 0.3534766193 0.3534766193
0.3538815730 0.3538815730 0.3538815730
0.3542859659 0.3542859659 0.3542859659
0.3546898003 0.3546898003 0.3546898003
0.3550930781 0.3550930781 0.3550930781
0.3554958015 0.3554958015 0.3554958015
0.3558979726 0.3558979726 0.3558979726
0.3562995933 0.3562995933 0.3562995933
0.3567006657 0.3567006657 0.3567006657
0.3571011918 0.3571011918 0.3571011918
0.3575011737 0.3575011737 0.3575011737
0.3579006133 0.3579006133 0.3579006133
0.3582995127 0.3582995127 0.3582995127
0.3586978739 0.3586978739 0.3586978739
0.3590956987 0.3590956987 0.3590956987
0.3594929891 0.3594929891 0.3594929891
0.3598897472 0.3598897472 0.3598897472
0.3602859748 0.3602859748 0.3602859748
0.3606816738 0.3606816738 0.3606816738
0.3610768462 0.3610768462 0.3610768462
0.3614714938 0.3614714938 0.3614714938
0.3618656186 0.3618656186 0.3618656186
0.3622592223 0.3622592223 0.3622592223
0.3626523070 0.3626523070 0.3626523070
0.3630448744 0.3630448744 0.3630448744
0.3634369264 0.3634369264 0.3634369264
0.3638284648 0.3638284648 0.3638284648
0.3642194914 0.3642194914 0.3642194914
0.3646100080 0.3646100080 0.3646100080
0.3650000166 0.3650000166 0.3650000166
0.3653895187 0.3653895187 0.3653895187
0.3657785163 0.3657785163 0.3657785163
0.3661670110 0.3661670110 0.3661670110
0.3665550047 0.3665550047 0.3665550047
0.3669424991 0.3669424991 0.3669424991
0.3673294959 0.3673294959 0.3673294959
0.3677159969 0.3677159969 0.3677159969
0.3681020038 0.3681020038 0.3681020038
0.3684875183 0.3684875183 0.3684875183
0.3688725420 0.3688725420 0.3688725420
0.3692570768 0.3692570768 0.3692570768
0.3696411243 0.3696411243 0.3696411243
0.3700246861 0.3700246861 0.3700246861
0.3704077639 0.3704077639 0.3704077639
0.3707903593 0.3707903593 0.3707903593
0.3711724741 0.3711724741 0.3711724741
0.3715541098 0.3715541098 0.3715541098
0.3719352681 0.3719352681 0.3719352681
0.3723159506 0.3723159506 0.3723159506
0.3726961589 0.3726961589 0.3726961589
0.3730758946 0.3730758946 0.3730758946
0.3734551592 0.3734551592 0.3734551592
0.3738339545 0.3738339545 0.3738339545
0.3742122818 0.3742122818 0.3742122818
0.3745901429 0.3745901429 0.3745901429
0.3749675393 0.3749675393 0.3749675393
0.3753444725 0.3753444725 0.3753444725
0.3757209440 0.3757209440 0.3757209440
0.3760969554 0.3760969554 0.3760969554
0.3764725082 0.3764725082 0.3764725082
0.3768476040 0.3768476040 0.3768476040
0.3772222441 0.3772222441 0.3772222441
0.3775964303 0.3775964303 0.3775964303
0.3779701638 0.3779701638 0.3779701638
0.3783434462 0.3783434462 0.3783434462
0.3787162790 0.3787162790 0.3787162790
0.3790886637 0.3790886637 0.3790886637
0.3794606016 0.3794606016 0.3794606016
0.3798320943 0.3798320943 0.3798320943
0.3802031433 0.3802031433 0.3802031433
0.3805737498 0.3805737498 0.3805737498
0.3809439154 0.3809439154 0.3809439154
0.3813136415 0.3813136415 0.3813136415
0.3816829295 0.3816829295 0.3816829295
0.3820517808 0.3820517808 0.3820517808
0.3824201968 0.3824201968 0.3824201968
0.3827881789 0.3827881789 0.3827881789
0.3831557285 0.3831557285 0.3831557285
0.3835228469 0.3835228469 0.3835228469
0.3838895356 0.3838895356 0.3838895356
0.3842557958 0.3842557958 0.3842557958
0.3846216290 0.3846216290 0.3846216290
0.3849870365 0.3849870365 0.3849870365
0.3853520196 0.3853520196 0.3853520196
0.3857165797 0.3857165797 0.3857165797
0.3860807181 0.3860807181 0.3860807181
0.3864444361 0.3864444361 0.3864444361
0.3868077351 0.3868077351 0.3868077351
0.3871706163 0.3871706163 0.3871706163
0.3875330810 0.3875330810 0.3875330810
0.3878951306 0.3878951306 0.3878951306
0.3882567663 0.3882567663 0.3882567663
0.3886179894 0.3886179894 0.3886179894
0.3889788012 0.3889788012 0.3889788012
0.3893392030 0.3893392030 0.3893392030
0.3896991959 0.3896991959 0.3896991959
0.3900587814 0.3900587814 0.3900587814
0.3904179605 0.3904179605 0.3904179605
0.3907767347 0.3907767347 0.3907767347
0.3911351050 0.3911351050 0.3911351050
0.3914930727 0.3914930727 0.3914930727
0.3918506392 0.3918506392 0.3918506392
0.3922078055 0.3922078055 0.3922078055
0.3925645728 0.3925645728 0.3925645728
0.3929209425 0.3929209425 0.3929209425
0.3932769157 0.3932769157 0.3932769157
0.3936324936 0.3936324936 0.3936324936
0.3939876773 0.3939876773 0.3939876773
0.3943424682 0.3943424682 0.3943424682
0.3946968672 0.3946968672 0.3946968672
0.3950508757 0.3950508757 0.3950508757
0.3954044948 0.3954044948 0.3954044948
0.3957577256 0.3957577256 0.3957577256
0.3961105693 0.3961105693 0.3961105693
0.3964630271 0.3964630271 0.3964630271
0.3968151000 0.3968151000 0.3968151000
0.3971667893 0.3971667893 0.3971667893
0.3975180960 0.3975180960 0.3975180960
0.3978690213 0.3978690213 0.3978690213
0.3982195664 0.3982195664 0.3982195664
0.3985697322 0.3985697322 0.3985697322
0.3989195200 0.3989195200 0.3989195200
0.3992689309 0.3992689309 0.3992689309
0.3996179658 0.3996179658 0.3996179658
0.3999666261 0.3999666261 0.3999666261
0.4003149126 0.4003149126 0.4003149126
0.4006628266 0.4006628266 0.4006628266
0.4010103691 0.4010103691 0.4010103691
0.4013575411 0.4013575411 0.4013575411
0.4017043438 0.4017043438 0.4017043438
0.4020507782 0.4020507782 0.4020507782
0.4023968453 0.4023968453 0.4023968453
0.4027425463 0.4027425463 0.4027425463
0.4030878821 0.4030878821 0.4030878821
0.4034328539 0.4034328539 0.4034328539
0.4037774626 0.4037774626 0.4037774626
0.4041217093 0.4041217093 0.4041217093
0.4044655950 0.4044655950 0.4044655950
0.4048091207 0.4048091207 0.4048091207
0.4051522876 0.4051522876 0.4051522876
0.4054950965 0.4054950965 0.4054950965
0.4058375485 0.4058375485 0.4058375485
0.4061796445 0.4061796445 0.4061796445
0.4065213857 0.4065213857 0.4065213857
0.4068627730 0.4068627730 0.4068627730
0.4072038074 0.4072038074 0.4072038074
0.4075444899 0.4075444899 0.4075444899
0.4078848214 0.4078848214 0.4078848214
0.4082248030 0.4082248030 0.4082248030
0.4085644356 0.4085644356 0.4085644356
0.4089037202 0.4089037202 0.4089037202
0.4092426577 0.4092426577 0.4092426577
0.4095812492 0.4095812492 0.4095812492
0.4099194956 0.4099194956 0.4099194956
0.4102573977 0.4102573977 0.4102573977
0.4105949567 0.4105949567 0.4105949567
0.4109321733 0.4109321733 0.4109321733
0.4112690487 0.4112690487 0.4112690487
0.4116055836 0.4116055836 0.4116055836
0.4119417791 0.4119417791 0.4119417791
0.4122776360 0.4122776360 0.4122776360
0.4126131553 0.4126131553 0.4126131553
0.4129483379 0.4129483379 0.4129483379
0.4132831847 0.4132831847 0.4132831847
0.4136176967 0.4136176967 0.4136176967
0.4139518746 0.4139518746 0.4139518746
0.4142857196 0.4142857196 0.4142857196
0.4146192323 0.4146192323 0.4146192323
0.4149524138 0.4149524138 0.4149524138
0.4152852650 0.4152852650 0.4152852650
0.4156177866 0.4156177866 0.4156177866
0.4159499796 0.4159499796 0.4159499796
0.4162818450 0.4162818450 0.4162818450
0.4166133834 0.4166133834 0.4166133834
0.4169445959 0.4169445959 0.4169445959
0.4172754833 0.4172754833 0.4172754833
0.4176060465 0.4176060465 0.4176060465
0.4179362862 0.4179362862 0.4179362862
0.4182662035 0.4182662035 0.4182662035
0.4185957991 0.4185957991 0.4185957991
0.4189250738 0.4189250738 0.4189250738
0.4192540286 0.4192540286 0.4192540286
0.4195826643 0.4195826643 0.4195826643
0.4199109817 0.4199109817 0.4199109817
0.4202389816 0.4202389816 0.4202389816
0.4205666649 0.4205666649 0.4205666649
0.4208940323 0.4208940323 0.4208940323
0.4212210849 0.4212210849 0.4212210849
0.4215478232 0.4215478232 0.4215478232
0.4218742483 0.4218742483 0.4218742483
0.4222003608 0.4222003608 0.4222003608
0.4225261616 0.4225261616 0.4225261616
