VFX IO/Linear to Gamma 2.4.cube
# DaVinci Resolve Cube (1D shaper LUT).

LUT_1D_SIZE 4096
LUT_1D_INPUT_RANGE 0.0000000000 1.0000000000

0.0000000000 0.0000000000 0.0000000000
0.0312531795 0.0312531795 0.0312531795
0.0417179895 0.0417179895 0.0417179895
0.0493963351 0.0493963351 0.0493963351
0.0556868350 0.0556868350 0.0556868350
0.0611127332 0.0611127332 0.0611127332
0.0659361968 0.0659361968 0.0659361968
0.0703102090 0.0703102090 0.0703102090
0.0743330068 0.0743330068 0.0743330068
0.0780719904 0.0780719904 0.0780719904
0.0815757119 0.0815757119 0.0815757119
0.0848804796 0.0848804796 0.0848804796
0.0880142633 0.0880142633 0.0880142633
0.0909991361 0.0909991361 0.0909991361
0.0938528692 0.0938528692 0.0938528692
0.0965900143 0.0965900143 0.0965900143
0.0992226599 0.0992226599 0.0992226599
0.1017609743 0.1017609743 0.1017609743
0.1042136042 0.1042136042 0.1042136042
0.1065879737 0.1065879737 0.1065879737
0.1088905114 0.1088905114 0.1088905114
0.1111268264 0.1111268264 0.1111268264
0.1133018470 0.1133018470 0.1133018470
0.1154199293 0.1154199293 0.1154199293
0.1174849464 0.1174849464 0.1174849464
0.1195003588 0.1195003588 0.1195003588
0.1214692735 0.1214692735 0.1214692735
0.1233944919 0.1233944919 0.1233944919
0.1252785502 0.1252785502 0.1252785502
0.1271237527 0.1271237527 0.1271237527
0.1289322006 0.1289322006 0.1289322006
0.1307058156 0.1307058156 0.1307058156
0.1324463609 0.1324463609 0.1324463609
0.1341554584 0.1341554584 0.1341554584
0.1358346041 0.1358346041 0.1358346041
0.1374851814 0.1374851814 0.1374851814
0.1391084723 0.1391084723 0.1391084723
0.1407056675 0.1407056675 0.1407056675
0.1422778753 0.1422778753 0.1422778753
0.1438261291 0.1438261291 0.1438261291
0.1453513943 0.1453513943 0.1453513943
0.1468545745 0.1468545745 0.1468545745
0.1483365168 0.1483365168 0.1483365168
0.1497980163 0.1497980163 0.1497980163
0.1512398209 0.1512398209 0.1512398209
0.1526626347 0.1526626347 0.1526626347
0.1540671217 0.1540671217 0.1540671217
0.1554539088 0.1554539088 0.1554539088
0.1568235888 0.1568235888 0.1568235888
0.1581767225 0.1581767225 0.1581767225
0.1595138416 0.1595138416 0.1595138416
0.1608354502 0.1608354502 0.1608354502
0.1621420274 0.1621420274 0.1621420274
0.1634340281 0.1634340281 0.1634340281
0.1647118856 0.1647118856 0.1647118856
0.1659760124 0.1659760124 0.1659760124
0.1672268017 0.1672268017 0.1672268017
0.1684646287 0.1684646287 0.1684646287
0.1696898516 0.1696898516 0.1696898516
0.1709028128 0.1709028128 0.1709028128
0.1721038399 0.1721038399 0.1721038399
0.1732932461 0.1732932461 0.1732932461
0.1744713319 0.1744713319 0.1744713319
0.1756383849 0.1756383849 0.1756383849
0.1767946811 0.1767946811 0.1767946811
0.1779404855 0.1779404855 0.1779404855
0.1790760525 0.1790760525 0.1790760525
0.1802016266 0.1802016266 0.1802016266
0.1813174431 0.1813174431 0.1813174431
0.1824237281 0.1824237281 0.1824237281
0.1835206995 0.1835206995 0.1835206995
0.1846085670 0.1846085670 0.1846085670
0.1856875328 0.1856875328 0.1856875328
0.1867577921 0.1867577921 0.1867577921
0.1878195327 0.1878195327 0.1878195327
0.1888729363 0.1888729363 0.1888729363
0.1899181783 0.1899181783 0.1899181783
0.1909554280 0.1909554280 0.1909554280
0.1919848492 0.1919848492 0.1919848492
0.1930066001 0.1930066001 0.1930066001
0.1940208340 0.1940208340 0.1940208340
0.1950276991 0.1950276991 0.1950276991
0.1960273389 0.1960273389 0.1960273389
0.1970198924 0.1970198924 0.1970198924
0.1980054944 0.1980054944 0.1980054944
0.1989842755 0.1989842755 0.1989842755
0.1999563622 0.1999563622 0.1999563622
0.2009218775 0.2009218775 0.2009218775
0.2018809404 0.2018809404 0.2018809404
0.2028336668 0.2028336668 0.2028336668
0.2037801690 0.2037801690 0.2037801690
0.2047205561 0.2047205561 0.2047205561
0.2056549342 0.2056549342 0.2056549342
0.2065834064 0.2065834064 0.2065834064
0.2075060730 0.2075060730 0.2075060730
0.2084230313 0.2084230313 0.2084230313
0.2093343763 0.2093343763 0.2093343763
0.2102402003 0.2102402003 0.2102402003
0.2111405932 0.2111405932 0.2111405932
0.2120356423 0.2120356423 0.2120356423
0.2129254330 0.2129254330 0.2129254330
0.2138100483 0.2138100483 0.2138100483
0.2146895689 0.2146895689 0.2146895689
0.2155640740 0.2155640740 0.2155640740
0.2164336402 0.2164336402 0.2164336402
0.2172983426 0.2172983426 0.2172983426
0.2181582543 0.2181582543 0.2181582543
0.2190134467 0.2190134467 0.2190134467
0.2198639894 0.2198639894 0.2198639894
0.2207099505 0.2207099505 0.2207099505
0.2215513962 0.2215513962 0.2215513962
0.2223883915 0.2223883915 0.2223883915
0.2232209996 0.2232209996 0.2232209996
0.2240492824 0.2240492824 0.2240492824
0.2248733003 0.2248733003 0.2248733003
0.2256931125 0.2256931125 0.2256931125
0.2265087767 0.2265087767 0.2265087767
0.2273203494 0.2273203494 0.2273203494
0.2281278857 0.2281278857 0.2281278857
0.2289314398 0.2289314398 0.2289314398
0.2297310645 0.2297310645 0.2297310645
0.2305268115 0.2305268115 0.2305268115
0.2313187314 0.2313187314 0.2313187314
0.2321068738 0.2321068738 0.2321068738
0.2328912872 0.2328912872 0.2328912872
0.2336720191 0.2336720191 0.2336720191
0.2344491160 0.2344491160 0.2344491160
0.2352226235 0.2352226235 0.2352226235
0.2359925863 0.2359925863 0.2359925863
0.2367590480 0.2367590480 0.2367590480
0.2375220517 0.2375220517 0.2375220517
0.2382816392 0.2382816392 0.2382816392
0.2390378518 0.2390378518 0.2390378518
0.2397907298 0.2397907298 0.2397907298
0.2405403130 0.2405403130 0.2405403130
0.2412866401 0.2412866401 0.2412866401
0.2420297493 0.2420297493 0.2420297493
0.2427696779 0.2427696779 0.2427696779
0.2435064626 0.2435064626 0.2435064626
0.2442401394 0.2442401394 0.2442401394
0.2449707437 0.2449707437 0.2449707437
0.2456983101 0.2456983101 0.2456983101
0.2464228726 0.2464228726 0.2464228726
0.2471444647 0.2471444647 0.2471444647
0.2478631193 0.2478631193 0.2478631193
0.2485788684 0.2485788684 0.2485788684
0.2492917439 0.2492917439 0.2492917439
0.2500017768 0.2500017768 0.2500017768
0.2507089976 0.2507089976 0.2507089976
0.2514134365 0.2514134365 0.2514134365
0.2521151228 0.2521151228 0.2521151228
0.2528140856 0.2528140856 0.2528140856
0.2535103535 0.2535103535 0.2535103535
0.2542039543 0.2542039543 0.2542039543
0.2548949157 0.2548949157 0.2548949157
0.2555832647 0.2555832647 0.2555832647
0.2562690281 0.2562690281 0.2562690281
0.2569522319 0.2569522319 0.2569522319
0.2576329019 0.2576329019 0.2576329019
0.2583110636 0.2583110636 0.2583110636
0.2589867417 0.2589867417 0.2589867417
0.2596599610 0.2596599610 0.2596599610
0.2603307454 0.2603307454 0.2603307454
0.2609991187 0.2609991187 0.2609991187
0.2616651044 0.2616651044 0.2616651044
0.2623287255 0.2623287255 0.2623287255
0.2629900045 0.2629900045 0.2629900045
0.2636489638 0.2636489638 0.2636489638
0.2643056253 0.2643056253 0.2643056253
0.2649600107 0.2649600107 0.2649600107
0.2656121413 0.2656121413 0.2656121413
0.2662620380 0.2662620380 0.2662620380
0.2669097214 0.2669097214 0.2669097214
0.2675552120 0.2675552120 0.2675552120
0.2681985296 0.2681985296 0.2681985296
0.2688396942 0.2688396942 0.2688396942
0.2694787251 0.2694787251 0.2694787251
0.2701156415 0.2701156415 0.2701156415
0.2707504622 0.2707504622 0.2707504622
0.2713832060 0.2713832060 0.2713832060
0.2720138911 0.2720138911 0.2720138911
0.2726425355 0.2726425355 0.2726425355
0.2732691573 0.2732691573 0.2732691573
0.2738937738 0.2738937738 0.2738937738
0.2745164024 0.2745164024 0.2745164024
0.2751370602 0.2751370602 0.2751370602
0.2757557641 0.2757557641 0.2757557641
0.2763725306 0.2763725306 0.2763725306
0.2769873762 0.2769873762 0.2769873762
0.2776003169 0.2776003169 0.2776003169
0.2782113687 0.2782113687 0.2782113687
0.2788205474 0.2788205474 0.2788205474
0.2794278684 0.2794278684 0.2794278684
0.2800333470 0.2800333470 0.2800333470
0.2806369984 0.2806369984 0.2806369984
0.2812388373 0.2812388373 0.2812388373
0.2818388786 0.2818388786 0.2818388786
0.2824371367 0.2824371367 0.2824371367
0.2830336259 0.2830336259 0.2830336259
0.2836283603 0.2836283603 0.2836283603
0.2842213540 0.2842213540 0.2842213540
0.2848126205 0.2848126205 0.2848126205
0.2854021736 0.2854021736 0.2854021736
0.2859900267 0.2859900267 0.2859900267
0.2865761929 0.2865761929 0.2865761929
0.2871606854 0.2871606854 0.2871606854
0.2877435170 0.2877435170 0.2877435170
0.2883247006 0.2883247006 0.2883247006
0.2889042487 0.2889042487 0.2889042487
0.2894821737 0.2894821737 0.2894821737
0.2900584879 0.2900584879 0.2900584879
0.2906332034 0.2906332034 0.2906332034
0.2912063323 0.2912063323 0.2912063323
0.2917778863 0.2917778863 0.2917778863
0.2923478772 0.2923478772 0.2923478772
0.2929163165 0.2929163165 0.2929163165
0.2934832155 0.2934832155 0.2934832155
0.2940485857 0.2940485857 0.2940485857
0.2946124381 0.2946124381 0.2946124381
0.2951747837 0.2951747837 0.2951747837
0.2957356334 0.2957356334 0.2957356334
0.2962949980 0.2962949980 0.2962949980
0.2968528880 0.2968528880 0.2968528880
0.2974093141 0.2974093141 0.2974093141
0.2979642865 0.2979642865 0.2979642865
0.2985178156 0.2985178156 0.2985178156
0.2990699114 0.2990699114 0.2990699114
0.2996205841 0.2996205841 0.2996205841
0.3001698434 0.3001698434 0.3001698434
0.3007176993 0.3007176993 0.3007176993
0.3012641614 0.3012641614 0.3012641614
0.3018092393 0.3018092393 0.3018092393
0.3023529425 0.3023529425 0.3023529425
0.3028952803 0.3028952803 0.3028952803
0.3034362620 0.3034362620 0.3034362620
0.3039758968 0.3039758968 0.3039758968
0.3045141937 0.3045141937 0.3045141937
0.3050511618 0.3050511618 0.3050511618
0.3055868098 0.3055868098 0.3055868098
0.3061211465 0.3061211465 0.3061211465
0.3066541806 0.3066541806 0.3066541806
0.3071859208 0.3071859208 0.3071859208
0.3077163754 0.3077163754 0.3077163754
0.3082455530 0.3082455530 0.3082455530
0.3087734617 0.3087734617 0.3087734617
0.3093001099 0.3093001099 0.3093001099
0.3098255056 0.3098255056 0.3098255056
0.3103496569 0.3103496569 0.3103496569
0.3108725719 0.3108725719 0.3108725719
0.3113942582 0.3113942582 0.3113942582
0.3119147239 0.3119147239 0.3119147239
0.3124339766 0.3124339766 0.3124339766
0.3129520238 0.3129520238 0.3129520238
0.3134688733 0.3134688733 0.3134688733
0.3139845325 0.3139845325 0.3139845325
0.3144990088 0.3144990088 0.3144990088
0.3150123095 0.3150123095 0.3150123095
0.3155244419 0.3155244419 0.3155244419
0.3160354132 0.3160354132 0.3160354132
0.3165452304 0.3165452304 0.3165452304
0.3170539008 0.3170539008 0.3170539008
0.3175614312 0.3175614312 0.3175614312
0.3180678285 0.3180678285 0.3180678285
0.3185730995 0.3185730995 0.3185730995
0.3190772512 0.3190772512 0.3190772512
0.3195802901 0.3195802901 0.3195802901
0.3200822228 0.3200822228 0.3200822228
0.3205830561 0.3205830561 0.3205830561
0.3210827963 0.3210827963 0.3210827963
0.3215814500 0.3215814500 0.3215814500
0.3220790235 0.3220790235 0.3220790235
0.3225755232 0.3225755232 0.3225755232
0.3230709553 0.3230709553 0.3230709553
0.3235653260 0.3235653260 0.3235653260
0.3240586414 0.3240586414 0.3240586414
0.3245509078 0.3245509078 0.3245509078
0.3250421310 0.3250421310 0.3250421310
0.3255323172 0.3255323172 0.3255323172
0.3260214721 0.3260214721 0.3260214721
0.3265096017 0.3265096017 0.3265096017
0.3269967118 0.3269967118 0.3269967118
0.3274828081 0.3274828081 0.3274828081
0.3279678964 0.3279678964 0.3279678964
0.3284519823 0.3284519823 0.3284519823
0.3289350713 0.3289350713 0.3289350713
0.3294171692 0.3294171692 0.3294171692
0.3298982813 0.3298982813 0.3298982813
0.3303784131 0.3303784131 0.3303784131
0.3308575700 0.3308575700 0.3308575700
0.3313357574 0.3313357574 0.3313357574
0.3318129805 0.3318129805 0.3318129805
0.3322892447 0.3322892447 0.3322892447
0.3327645551 0.3327645551 0.3327645551
0.3332389169 0.3332389169 0.3332389169
0.3337123353 0.3337123353 0.3337123353
0.3341848152 0.3341848152 0.3341848152
0.3346563619 0.3346563619 0.3346563619
0.3351269801 0.3351269801 0.3351269801
0.3355966749 0.3355966749 0.3355966749
0.3360654512 0.3360654512 0.3360654512
0.3365333138 0.3365333138 0.3365333138
0.3370002675 0.3370002675 0.3370002675
0.3374663172 0.3374663172 0.3374663172
0.3379314675 0.3379314675 0.3379314675
0.3383957232 0.3383957232 0.3383957232
0.3388590889 0.3388590889 0.3388590889
0.3393215693 0.3393215693 0.3393215693
0.3397831688 0.3397831688 0.3397831688
0.3402438921 0.3402438921 0.3402438921
0.3407037436 0.3407037436 0.3407037436
0.3411627278 0.3411627278 0.3411627278
0.3416208492 0.3416208492 0.3416208492
0.3420781120 0.3420781120 0.3420781120
0.3425345208 0.3425345208 0.3425345208
0.3429900797 0.3429900797 0.3429900797
0.3434447931 0.3434447931 0.3434447931
0.3438986652 0.3438986652 0.3438986652
0.3443517003 0.3443517003 0.3443517003
0.3448039024 0.3448039024 0.3448039024
0.3452552758 0.3452552758 0.3452552758
0.3457058246 0.3457058246 0.3457058246
0.3461555528 0.3461555528 0.3461555528
0.3466044644 0.3466044644 0.3466044644
0.3470525636 0.3470525636 0.3470525636
0.3474998542 0.3474998542 0.3474998542
0.3479463402 0.3479463402 0.3479463402
0.3483920256 0.3483920256 0.3483920256
0.3488369142 0.3488369142 0.3488369142
0.3492810098 0.3492810098 0.3492810098
0.3497243164 0.3497243164 0.3497243164
0.3501668376 0.3501668376 0.3501668376
0.3506085773 0.3506085773 0.3506085773
0.3510495392 0.3510495392 0.3510495392
0.3514897270 0.3514897270 0.3514897270
0.3519291444 0.3519291444 0.3519291444
0.3523677950 0.3523677950 0.3523677950
0.3528056824 0.3528056824 0.3528056824
0.3532428102 0.3532428102 0.3532428102
0.3536791821 0.3536791821 0.3536791821
0.3541148015 0.3541148015 0.3541148015
0.3545496720 0.3545496720 0.3545496720
0.3549837970 0.3549837970 0.3549837970
0.3554171799 0.3554171799 0.3554171799
0.3558498244 0.3558498244 0.3558498244
0.3562817336 0.3562817336 0.3562817336
0.3567129111 0.3567129111 0.3567129111
0.3571433601 0.3571433601 0.3571433601
0.3575730841 0.3575730841 0.3575730841
0.3580020862 0.3580020862 0.3580020862
0.3584303698 0.3584303698 0.3584303698
0.3588579382 0.3588579382 0.3588579382
0.3592847946 0.3592847946 0.3592847946
0.3597109421 0.3597109421 0.3597109421
0.3601363840 0.3601363840 0.3601363840
0.3605611235 0.3605611235 0.3605611235
0.3609851636 0.3609851636 0.3609851636
0.3614085075 0.3614085075 0.3614085075
0.3618311583 0.3618311583 0.3618311583
0.3622531191 0.3622531191 0.3622531191
0.3626743929 0.3626743929 0.3626743929
0.3630949827 0.3630949827 0.3630949827
0.3635148915 0.3635148915 0.3635148915
0.3639341224 0.3639341224 0.3639341224
0.3643526782 0.3643526782 0.3643526782
0.3647705620 0.3647705620 0.3647705620
0.3651877766 0.3651877766 0.3651877766
0.3656043250 0.3656043250 0.3656043250
0.3660202100 0.3660202100 0.3660202100
0.3664354345 0.3664354345 0.3664354345
0.3668500014 0.3668500014 0.3668500014
0.3672639133 0.3672639133 0.3672639133
0.3676771733 0.3676771733 0.3676771733
0.3680897839 0.3680897839 0.3680897839
0.3685017481 0.3685017481 0.3685017481
0.3689130685 0.3689130685 0.3689130685
0.3693237478 0.3693237478 0.3693237478
0.3697337888 0.3697337888 0.3697337888
0.3701431941 0.3701431941 0.3701431941
0.3705519665 0.3705519665 0.3705519665
0.3709601085 0.3709601085 0.3709601085
0.3713676228 0.3713676228 0.3713676228
0.3717745121 0.3717745121 0.3717745121
0.3721807788 0.3721807788 0.3721807788
0.3725864256 0.3725864256 0.3725864256
0.3729914551 0.3729914551 0.3729914551
0.3733958697 0.3733958697 0.3733958697
0.3737996721 0.3737996721 0.3737996721
0.3742028647 0.3742028647 0.3742028647
0.3746054500 0.3746054500 0.3746054500
0.3750074305 0.3750074305 0.3750074305
0.3754088086 0.3754088086 0.3754088086
0.3758095869 0.3758095869 0.3758095869
0.3762097676 0.3762097676 0.3762097676
0.3766093533 0.3766093533 0.3766093533
0.3770083464 0.3770083464 0.3770083464
0.3774067491 0.3774067491 0.3774067491
0.3778045639 0.3778045639 0.3778045639
0.3782017931 0.3782017931 0.3782017931
0.3785984391 0.3785984391 0.3785984391
0.3789945042 0.3789945042 0.3789945042
0.3793899907 0.3793899907 0.3793899907
0.3797849008 0.3797849008 0.3797849008
0.3801792369 0.3801792369 0.3801792369
0.3805730011 0.3805730011 0.3805730011
0.3809661958 0.3809661958 0.3809661958
0.3813588232 0.3813588232 0.3813588232
0.3817508855 0.3817508855 0.3817508855
0.3821423849 0.3821423849 0.3821423849
0.3825333236 0.3825333236 0.3825333236
0.3829237037 0.3829237037 0.3829237037
0.3833135274 0.3833135274 0.3833135274
0.3837027969 0.3837027969 0.3837027969
0.3840915143 0.3840915143 0.3840915143
0.3844796818 0.3844796818 0.3844796818
0.3848673013 0.3848673013 0.3848673013
0.3852543751 0.3852543751 0.3852543751
0.3856409052 0.3856409052 0.3856409052
0.3860268936 0.3860268936 0.3860268936
0.3864123425 0.3864123425 0.3864123425
0.3867972538 0.3867972538 0.3867972538
0.3871816297 0.3871816297 0.3871816297
0.3875654720 0.3875654720 0.3875654720
0.3879487829 0.3879487829 0.3879487829
0.3883315643 0.3883315643 0.3883315643
0.3887138181 0.3887138181 0.3887138181
0.3890955465 0.3890955465 0.3890955465
0.3894767512 0.3894767512 0.3894767512
0.3898574344 0.3898574344 0.3898574344
0.3902375978 0.3902375978 0.3902375978
0.3906172434 0.3906172434 0.3906172434
0.3909963732 0.3909963732 0.3909963732
0.3913749889 0.3913749889 0.3913749889
0.3917530926 0.3917530926 0.3917530926
0.3921306861 0.3921306861 0.3921306861
0.3925077713 0.3925077713 0.3925077713
0.3928843499 0.3928843499 0.3928843499
0.3932604239 0.3932604239 0.3932604239
0.3936359950 0.3936359950 0.3936359950
0.3940110652 0.3940110652 0.3940110652
0.3943856362 0.3943856362 0.3943856362
0.3947597098 0.3947597098 0.3947597098
0.3951332877 0.3951332877 0.3951332877
0.3955063719 0.3955063719 0.3955063719
0.3958789640 0.3958789640 0.3958789640
0.3962510658 0.3962510658 0.3962510658
0.3966226790 0.3966226790 0.3966226790
0.3969938055 0.3969938055 0.3969938055
0.3973644468 0.3973644468 0.3973644468
0.3977346048 0.3977346048 0.3977346048
0.3981042811 0.3981042811 0.3981042811
0.3984734774 0.3984734774 0.3984734774
0.3988421955 0.3988421955 0.3988421955
0.3992104370 0.3992104370 0.3992104370
0.3995782035 0.3995782035 0.3995782035
0.3999454968 0.3999454968 0.3999454968
0.4003123184 0.4003123184 0.4003123184
0.4006786700 0.4006786700 0.4006786700
0.4010445533 0.4010445533 0.4010445533
0.4014099699 0.4014099699 0.4014099699
0.4017749214 0.4017749214 0.4017749214
0.4021394093 0.4021394093 0.4021394093
0.4025034353 0.4025034353 0.4025034353
0.4028670010 0.4028670010 0.4028670010
0.4032301079 0.4032301079 0.4032301079
0.4035927577 0.4035927577 0.4035927577
0.4039549518 0.4039549518 0.4039549518
0.4043166918 0.4043166918 0.4043166918
0.4046779793 0.4046779793 0.4046779793
0.4050388157 0.4050388157 0.4050388157
0.4053992027 0.4053992027 0.4053992027
0.4057591418 0.4057591418 0.4057591418
0.4061186343 0.4061186343 0.4061186343
0.4064776819 0.4064776819 0.4064776819
0.4068362861 0.4068362861 0.4068362861
0.4071944483 0.4071944483 0.4071944483
0.4075521699 0.4075521699 0.4075521699
0.4079094526 0.4079094526 0.4079094526
0.4082662976 0.4082662976 0.4082662976
0.4086227065 0.4086227065 0.4086227065
0.4089786808 0.4089786808 0.4089786808
0.4093342218 0.4093342218 0.4093342218
0.4096893309 0.4096893309 0.4096893309
0.4100440097 0.4100440097 0.4100440097
0.4103982595 0.4103982595 0.4103982595
0.4107520817 0.4107520817 0.4107520817
0.4111054777 0.4111054777 0.4111054777
0.4114584490 0.4114584490 0.4114584490
0.4118109968 0.4118109968 0.4118109968
0.4121631226 0.4121631226 0.4121631226
0.4125148277 0.4125148277 0.4125148277
0.4128661136 0.4128661136 0.4128661136
0.4132169814 0.4132169814 0.4132169814
0.4135674327 0.4135674327 0.4135674327
0.4139174687 0.4139174687 0.4139174687
0.4142670908 0.4142670908 0.4142670908
0.4146163003 0.4146163003 0.4146163003
0.4149650985 0.4149650985 0.4149650985
0.4153134867 0.4153134867 0.4153134867
0.4156614663 0.4156614663 0.4156614663
0.4160090385 0.4160090385 0.4160090385
0.4163562046 0.4163562046 0.4163562046
0.4167029659 0.4167029659 0.4167029659
0.4170493237 0.4170493237 0.4170493237
0.4173952793 0.4173952793 0.4173952793
0.4177408339 0.4177408339 0.4177408339
0.4180859887 0.4180859887 0.4180859887
0.4184307452 0.4184307452 0.4184307452
0.4187751043 0.4187751043 0.4187751043
0.4191190676 0.4191190676 0.4191190676
0.4194626360 0.4194626360 0.4194626360
0.4198058110 0.4198058110 0.4198058110
0.4201485937 0.4201485937 0.4201485937
0.4204909852 0.4204909852 0.4204909852
0.4208329869 0.4208329869 0.4208329869
0.4211746000 0.4211746000 0.4211746000
0.4215158255 0.4215158255 0.4215158255
0.4218566648 0.4218566648 0.4218566648
0.4221971190 0.4221971190 0.4221971190
0.4225371892 0.4225371892 0.4225371892
0.4228768768 0.4228768768 0.4228768768
0.4232161827 0.4232161827 0.4232161827
0.4235551082 0.4235551082 0.4235551082
0.4238936545 0.4238936545 0.4238936545
0.4242318226 0.4242318226 0.4242318226
0.4245696138 0.4245696138 0.4245696138
0.4249070291 0.4249070291 0.4249070291
0.4252440697 0.4252440697 0.4252440697
0.4255807368 0.4255807368 0.4255807368
0.4259170314 0.4259170314 0.4259170314
0.4262529547 0.4262529547 0.4262529547
0.4265885078 0.4265885078 0.4265885078
0.4269236917 0.4269236917 0.4269236917
0.4272585077 0.4272585077 0.4272585077
0.4275929567 0.4275929567 0.4275929567
0.4279270399 0.4279270399 0.4279270399
0.4282607583 0.4282607583 0.4282607583
0.4285941130 0.4285941130 0.4285941130
0.4289271052 0.4289271052 0.4289271052
0.4292597359 0.4292597359 0.4292597359
0.4295920060 0.4295920060 0.4295920060
0.4299239168 0.4299239168 0.4299239168
0.4302554692 0.4302554692 0.4302554692
0.4305866643 0.4305866643 0.4305866643
0.4309175032 0.4309175032 0.4309175032
0.4312479868 0.4312479868 0.4312479868
0.4315781162 0.4315781162 0.4315781162
0.4319078925 0.4319078925 0.4319078925
0.4322373167 0.4322373167 0.4322373167
0.4325663897 0.4325663897 0.4325663897
0.4328951126 0.4328951126 0.4328951126
0.4332234864 0.4332234864 0.4332234864
0.4335515122 0.4335515122 0.4335515122
0.4338791908 0.4338791908 0.4338791908
0.4342065233 0.4342065233 0.4342065233
0.4345335108 0.4345335108 0.4345335108
0.4348601541 0.4348601541 0.4348601541
0.4351864543 0.4351864543 0.4351864543
0.4355124123 0.4355124123 0.4355124123
0.4358380291 0.4358380291 0.4358380291
0.4361633057 0.4361633057 0.4361633057
0.4364882431 0.4364882431 0.4364882431
0.4368128421 0.4368128421 0.4368128421
0.4371371038 0.4371371038 0.4371371038
0.4374610291 0.4374610291 0.4374610291
0.4377846190 0.4377846190 0.4377846190
0.4381078743 0.4381078743 0.4381078743
0.4384307961 0.4384307961 0.4384307961
0.4387533852 0.4387533852 0.4387533852
0.4390756427 0.4390756427 0.4390756427
0.4393975693 0.4393975693 0.4393975693
0.4397191661 0.4397191661 0.4397191661
0.4400404339 0.4400404339 0.4400404339
0.4403613737 0.4403613737 0.4403613737
0.4406819863 0.4406819863 0.4406819863
0.4410022727 0.4410022727 0.4410022727
0.4413222338 0.4413222338 0.4413222338
0.4416418705 0.4416418705 0.4416418705
0.4419611836 0.4419611836 0.4419611836
0.4422801740 0.4422801740 0.4422801740
0.4425988427 0.4425988427 0.4425988427
0.4429171905 0.4429171905 0.4429171905
0.4432352183 0.4432352183 0.4432352183
0.4435529269 0.4435529269 0.4435529269
0.4438703173 0.4438703173 0.4438703173
0.4441873902 0.4441873902 0.4441873902
0.4445041466 0.4445041466 0.4445041466
0.4448205873 0.4448205873 0.4448205873
0.4451367131 0.4451367131 0.4451367131
0.4454525250 0.4454525250 0.4454525250
0.4457680237 0.4457680237 0.4457680237
0.4460832101 0.4460832101 0.4460832101
0.4463980850 0.4463980850 0.4463980850
0.4467126493 0.4467126493 0.4467126493
0.4470269037 0.4470269037 0.4470269037
0.4473408492 0.4473408492 0.4473408492
0.4476544866 0.4476544866 0.4476544866
0.4479678166 0.4479678166 0.4479678166
0.4482808400 0.4482808400 0.4482808400
0.4485935578 0.4485935578 0.4485935578
0.4489059707 0.4489059707 0.4489059707
0.4492180795 0.4492180795 0.4492180795
0.4495298850 0.4495298850 0.4495298850
0.4498413879 0.4498413879 0.4498413879
0.4501525892 0.4501525892 0.4501525892
0.4504634896 0.4504634896 0.4504634896
0.4507740899 0.4507740899 0.4507740899
0.4510843908 0.4510843908 0.4510843908
0.4513943932 0.4513943932 0.4513943932
0.4517040979 0.4517040979 0.4517040979
0.4520135055 0.4520135055 0.4520135055
0.4523226169 0.4523226169 0.4523226169
0.4526314328 0.4526314328 0.4526314328
