VFX IO/Linear to ARRI LogC.cube
# DaVinci Resolve Cube (1D shaper LUT).

LUT_1D_SIZE 4096
LUT_1D_INPUT_RANGE -0.0172904187 55.0795809951

0.0000000000 0.0000000000 0.0000000000
0.0722200200 0.0722200200 0.0722200200
0.1444400400 0.1444400400 0.1444400400
0.2017209828 0.2017209828 0.2017209828
0.2389266789 0.2389266789 0.2389266789
0.2665038109 0.2665038109 0.2665038109
0.2884250879 0.2884250879 0.2884250879
0.3066202402 0.3066202402 0.3066202402
0.3221738338 0.3221738338 0.3221738338
0.3357565105 0.3357565105 0.3357565105
0.3478120863 0.3478120863 0.3478120863
0.3586494923 0.3586494923 0.3586494923
0.3684924543 0.3684924543 0.3684924543
0.3775082827 0.3775082827 0.3775082827
0.3858252168 0.3858252168 0.3858252168
0.3935438991 0.3935438991 0.3935438991
0.4007446468 0.4007446468 0.4007446468
0.4074926078 0.4074926078 0.4074926078
0.4138413966 0.4138413966 0.4138413966
0.4198355675 0.4198355675 0.4198355675
0.4255127013 0.4255127013 0.4255127013
0.4309045970 0.4309045970 0.4309045970
0.4360386133 0.4360386133 0.4360386133
0.4409382641 0.4409382641 0.4409382641
0.4456240237 0.4456240237 0.4456240237
0.4501137733 0.4501137733 0.4501137733
0.4544232488 0.4544232488 0.4544232488
0.4585663974 0.4585663974 0.4585663974
0.4625555873 0.4625555873 0.4625555873
0.4664018154 0.4664018154 0.4664018154
0.4701150060 0.4701150060 0.4701150060
0.4737040401 0.4737040401 0.4737040401
0.4771769643 0.4771769643 0.4771769643
0.4805410504 0.4805410504 0.4805410504
0.4838029146 0.4838029146 0.4838029146
0.4869685769 0.4869685769 0.4869685769
0.4900435507 0.4900435507 0.4900435507
0.4930329025 0.4930329025 0.4930329025
0.4959412515 0.4959412515 0.4959412515
0.4987728894 0.4987728894 0.4987728894
0.5015317798 0.5015317798 0.5015317798
0.5042214990 0.5042214990 0.5042214990
0.5068454742 0.5068454742 0.5068454742
0.5094068646 0.5094068646 0.5094068646
0.5119085908 0.5119085908 0.5119085908
0.5143532753 0.5143532753 0.5143532753
0.5167436004 0.5167436004 0.5167436004
0.5190817714 0.5190817714 0.5190817714
0.5213701725 0.5213701725 0.5213701725
0.5236107707 0.5236107707 0.5236107707
0.5258055925 0.5258055925 0.5258055925
0.5279564261 0.5279564261 0.5279564261
0.5300650001 0.5300650001 0.5300650001
0.5321329236 0.5321329236 0.5321329236
0.5341618061 0.5341618061 0.5341618061
0.5361530781 0.5361530781 0.5361530781
0.5381080508 0.5381080508 0.5381080508
0.5400280356 0.5400280356 0.5400280356
0.5419143438 0.5419143438 0.5419143438
0.5437680483 0.5437680483 0.5437680483
0.5455902815 0.5455902815 0.5455902815
0.5473821163 0.5473821163 0.5473821163
0.5491445065 0.5491445065 0.5491445065
0.5508784652 0.5508784652 0.5508784652
0.5525848269 0.5525848269 0.5525848269
0.5542645454 0.5542645454 0.5542645454
0.5559183359 0.5559183359 0.5559183359
0.5575470328 0.5575470328 0.5575470328
0.5591514111 0.5591514111 0.5591514111
0.5607321262 0.5607321262 0.5607321262
0.5622899532 0.5622899532 0.5622899532
0.5638254881 0.5638254881 0.5638254881
0.5653393865 0.5653393865 0.5653393865
0.5668321848 0.5668321848 0.5668321848
0.5683045387 0.5683045387 0.5683045387
0.5697569251 0.5697569251 0.5697569251
0.5711899996 0.5711899996 0.5711899996
0.5726041198 0.5726041198 0.5726041198
0.5739999413 0.5739999413 0.5739999413
0.5753777623 0.5753777623 0.5753777623
0.5767381787 0.5767381787 0.5767381787
0.5780815482 0.5780815482 0.5780815482
0.5794082880 0.5794082880 0.5794082880
0.5807188749 0.5807188749 0.5807188749
0.5820136666 0.5820136666 0.5820136666
0.5832930207 0.5832930207 0.5832930207
0.5845572352 0.5845572352 0.5845572352
0.5858068466 0.5858068466 0.5858068466
0.5870419741 0.5870419741 0.5870419741
0.5882630944 0.5882630944 0.5882630944
0.5894705057 0.5894705057 0.5894705057
0.5906645060 0.5906645060 0.5906645060
0.5918453336 0.5918453336 0.5918453336
0.5930132866 0.5930132866 0.5930132866
0.5941687226 0.5941687226 0.5941687226
0.5953118205 0.5953118205 0.5953118205
0.5964428782 0.5964428782 0.5964428782
0.5975621343 0.5975621343 0.5975621343
0.5986698866 0.5986698866 0.5986698866
0.5997663140 0.5997663140 0.5997663140
0.6008515954 0.6008515954 0.6008515954
0.6019260883 0.6019260883 0.6019260883
0.6029899120 0.6029899120 0.6029899120
0.6040432453 0.6040432453 0.6040432453
0.6050863862 0.6050863862 0.6050863862
0.6061195135 0.6061195135 0.6061195135
0.6071427464 0.6071427464 0.6071427464
0.6081563830 0.6081563830 0.6081563830
0.6091604829 0.6091604829 0.6091604829
0.6101552844 0.6101552844 0.6101552844
0.6111409664 0.6111409664 0.6111409664
0.6121176481 0.6121176481 0.6121176481
0.6130855680 0.6130855680 0.6130855680
0.6140448451 0.6140448451 0.6140448451
0.6149955988 0.6149955988 0.6149955988
0.6159380078 0.6159380078 0.6159380078
0.6168721914 0.6168721914 0.6168721914
0.6177983284 0.6177983284 0.6177983284
0.6187165976 0.6187165976 0.6187165976
0.6196269989 0.6196269989 0.6196269989
0.6205298305 0.6205298305 0.6205298305
0.6214250326 0.6214250326 0.6214250326
0.6223129034 0.6223129034 0.6223129034
0.6231935024 0.6231935024 0.6231935024
0.6240668893 0.6240668893 0.6240668893
0.6249332428 0.6249332428 0.6249332428
0.6257926822 0.6257926822 0.6257926822
0.6266452670 0.6266452670 0.6266452670
0.6274911165 0.6274911165 0.6274911165
0.6283304095 0.6283304095 0.6283304095
0.6291631460 0.6291631460 0.6291631460
0.6299895048 0.6299895048 0.6299895048
0.6308095455 0.6308095455 0.6308095455
0.6316233277 0.6316233277 0.6316233277
0.6324310303 0.6324310303 0.6324310303
0.6332327127 0.6332327127 0.6332327127
0.6340284348 0.6340284348 0.6340284348
0.6348182559 0.6348182559 0.6348182559
0.6356023550 0.6356023550 0.6356023550
0.6363807917 0.6363807917 0.6363807917
0.6371535659 0.6371535659 0.6371535659
0.6379208565 0.6379208565 0.6379208565
0.6386827230 0.6386827230 0.6386827230
0.6394391656 0.6394391656 0.6394391656
0.6401903629 0.6401903629 0.6401903629
0.6409363151 0.6409363151 0.6409363151
0.6416771412 0.6416771412 0.6416771412
0.6424128413 0.6424128413 0.6424128413
0.6431435943 0.6431435943 0.6431435943
0.6438693404 0.6438693404 0.6438693404
0.6445902586 0.6445902586 0.6445902586
0.6453063488 0.6453063488 0.6453063488
0.6460177302 0.6460177302 0.6460177302
0.6467244029 0.6467244029 0.6467244029
0.6474264264 0.6474264264 0.6474264264
0.6481239200 0.6481239200 0.6481239200
0.6488169432 0.6488169432 0.6488169432
0.6495054364 0.6495054364 0.6495054364
0.6501896381 0.6501896381 0.6501896381
0.6508694291 0.6508694291 0.6508694291
0.6515449882 0.6515449882 0.6515449882
0.6522163153 0.6522163153 0.6522163153
0.6528834701 0.6528834701 0.6528834701
0.6535464525 0.6535464525 0.6535464525
0.6542054415 0.6542054415 0.6542054415
0.6548603773 0.6548603773 0.6548603773
0.6555113196 0.6555113196 0.6555113196
0.6561583877 0.6561583877 0.6561583877
0.6568015218 0.6568015218 0.6568015218
0.6574409008 0.6574409008 0.6574409008
0.6580764055 0.6580764055 0.6580764055
0.6587082148 0.6587082148 0.6587082148
0.6593363285 0.6593363285 0.6593363285
0.6599608064 0.6599608064 0.6599608064
0.6605816483 0.6605816483 0.6605816483
0.6611989737 0.6611989737 0.6611989737
0.6618127227 0.6618127227 0.6618127227
0.6624229550 0.6624229550 0.6624229550
0.6630297899 0.6630297899 0.6630297899
0.6636331677 0.6636331677 0.6636331677
0.6642332077 0.6642332077 0.6642332077
0.6648299098 0.6648299098 0.6648299098
0.6654232740 0.6654232740 0.6654232740
0.6660134196 0.6660134196 0.6660134196
0.6666003466 0.6666003466 0.6666003466
0.6671840549 0.6671840549 0.6671840549
0.6677646041 0.6677646041 0.6677646041
0.6683420539 0.6683420539 0.6683420539
0.6689164042 0.6689164042 0.6689164042
0.6694876552 0.6694876552 0.6694876552
0.6700559258 0.6700559258 0.6700559258
0.6706212163 0.6706212163 0.6706212163
0.6711835265 0.6711835265 0.6711835265
0.6717429161 0.6717429161 0.6717429161
0.6722993851 0.6722993851 0.6722993851
0.6728529930 0.6728529930 0.6728529930
0.6734037995 0.6734037995 0.6734037995
0.6739517450 0.6739517450 0.6739517450
0.6744968891 0.6744968891 0.6744968891
0.6750393510 0.6750393510 0.6750393510
0.6755790114 0.6755790114 0.6755790114
0.6761160493 0.6761160493 0.6761160493
0.6766503453 0.6766503453 0.6766503453
0.6771820188 0.6771820188 0.6771820188
0.6777110696 0.6777110696 0.6777110696
0.6782375574 0.6782375574 0.6782375574
0.6787614226 0.6787614226 0.6787614226
0.6792827845 0.6792827845 0.6792827845
0.6798016429 0.6798016429 0.6798016429
0.6803179383 0.6803179383 0.6803179383
0.6808318496 0.6808318496 0.6808318496
0.6813432574 0.6813432574 0.6813432574
0.6818522215 0.6818522215 0.6818522215
0.6823588014 0.6823588014 0.6823588014
0.6828630567 0.6828630567 0.6828630567
0.6833648682 0.6833648682 0.6833648682
0.6838644147 0.6838644147 0.6838644147
0.6843616366 0.6843616366 0.6843616366
0.6848565340 0.6848565340 0.6848565340
0.6853491664 0.6853491664 0.6853491664
0.6858395338 0.6858395338 0.6858395338
0.6863276958 0.6863276958 0.6863276958
0.6868136525 0.6868136525 0.6868136525
0.6872974038 0.6872974038 0.6872974038
0.6877790093 0.6877790093 0.6877790093
0.6882584691 0.6882584691 0.6882584691
0.6887357831 0.6887357831 0.6887357831
0.6892109513 0.6892109513 0.6892109513
0.6896840930 0.6896840930 0.6896840930
0.6901550889 0.6901550889 0.6901550889
0.6906240582 0.6906240582 0.6906240582
0.6910910010 0.6910910010 0.6910910010
0.6915559173 0.6915559173 0.6915559173
0.6920188069 0.6920188069 0.6920188069
0.6924797297 0.6924797297 0.6924797297
0.6929386258 0.6929386258 0.6929386258
0.6933956146 0.6933956146 0.6933956146
0.6938506961 0.6938506961 0.6938506961
0.6943038106 0.6943038106 0.6943038106
0.6947550774 0.6947550774 0.6947550774
0.6952043772 0.6952043772 0.6952043772
0.6956518292 0.6956518292 0.6956518292
0.6960974932 0.6960974932 0.6960974932
0.6965412498 0.6965412498 0.6965412498
0.6969831586 0.6969831586 0.6969831586
0.6974232793 0.6974232793 0.6974232793
0.6978616118 0.6978616118 0.6978616118
0.6982981563 0.6982981563 0.6982981563
0.6987329721 0.6987329721 0.6987329721
0.6991659999 0.6991659999 0.6991659999
0.6995972991 0.6995972991 0.6995972991
0.7000268102 0.7000268102 0.7000268102
0.7004546523 0.7004546523 0.7004546523
0.7008808255 0.7008808255 0.7008808255
0.7013052702 0.7013052702 0.7013052702
0.7017281055 0.7017281055 0.7017281055
0.7021492124 0.7021492124 0.7021492124
0.7025687099 0.7025687099 0.7025687099
0.7029865980 0.7029865980 0.7029865980
0.7034028172 0.7034028172 0.7034028172
0.7038174272 0.7038174272 0.7038174272
0.7042304873 0.7042304873 0.7042304873
0.7046419382 0.7046419382 0.7046419382
0.7050517797 0.7050517797 0.7050517797
0.7054601312 0.7054601312 0.7054601312
0.7058668733 0.7058668733 0.7058668733
0.7062721252 0.7062721252 0.7062721252
0.7066758275 0.7066758275 0.7066758275
0.7070780396 0.7070780396 0.7070780396
0.7074787617 0.7074787617 0.7074787617
0.7078779340 0.7078779340 0.7078779340
0.7082756758 0.7082756758 0.7082756758
0.7086719871 0.7086719871 0.7086719871
0.7090667486 0.7090667486 0.7090667486
0.7094601393 0.7094601393 0.7094601393
0.7098520398 0.7098520398 0.7098520398
0.7102425694 0.7102425694 0.7102425694
0.7106316090 0.7106316090 0.7106316090
0.7110192776 0.7110192776 0.7110192776
0.7114055753 0.7114055753 0.7114055753
0.7117905021 0.7117905021 0.7117905021
0.7121739984 0.7121739984 0.7121739984
0.7125561833 0.7125561833 0.7125561833
0.7129369378 0.7129369378 0.7129369378
0.7133164406 0.7133164406 0.7133164406
0.7136945128 0.7136945128 0.7136945128
0.7140713334 0.7140713334 0.7140713334
0.7144467831 0.7144467831 0.7144467831
0.7148209810 0.7148209810 0.7148209810
0.7151938081 0.7151938081 0.7151938081
0.7155653834 0.7155653834 0.7155653834
0.7159357071 0.7159357071 0.7159357071
0.7163047194 0.7163047194 0.7163047194
0.7166724801 0.7166724801 0.7166724801
0.7170389891 0.7170389891 0.7170389891
0.7174042463 0.7174042463 0.7174042463
0.7177682519 0.7177682519 0.7177682519
0.7181310654 0.7181310654 0.7181310654
0.7184926271 0.7184926271 0.7184926271
0.7188529372 0.7188529372 0.7188529372
0.7192121148 0.7192121148 0.7192121148
0.7195700407 0.7195700407 0.7195700407
0.7199267745 0.7199267745 0.7199267745
0.7202823758 0.7202823758 0.7202823758
0.7206367850 0.7206367850 0.7206367850
0.7209900022 0.7209900022 0.7209900022
0.7213420868 0.7213420868 0.7213420868
0.7216930389 0.7216930389 0.7216930389
0.7220427990 0.7220427990 0.7220427990
0.7223914266 0.7223914266 0.7223914266
0.7227389812 0.7227389812 0.7227389812
0.7230853438 0.7230853438 0.7230853438
0.7234306335 0.7234306335 0.7234306335
0.7237748504 0.7237748504 0.7237748504
0.7241178751 0.7241178751 0.7241178751
0.7244598866 0.7244598866 0.7244598866
0.7248007655 0.7248007655 0.7248007655
0.7251405716 0.7251405716 0.7251405716
0.7254793644 0.7254793644 0.7254793644
0.7258170247 0.7258170247 0.7258170247
0.7261536717 0.7261536717 0.7261536717
0.7264891863 0.7264891863 0.7264891863
0.7268237472 0.7268237472 0.7268237472
0.7271572351 0.7271572351 0.7271572351
0.7274896502 0.7274896502 0.7274896502
0.7278211117 0.7278211117 0.7278211117
0.7281515002 0.7281515002 0.7281515002
0.7284808755 0.7284808755 0.7284808755
0.7288092971 0.7288092971 0.7288092971
0.7291366458 0.7291366458 0.7291366458
0.7294630408 0.7294630408 0.7294630408
0.7297884226 0.7297884226 0.7297884226
0.7301128507 0.7301128507 0.7301128507
0.7304363251 0.7304363251 0.7304363251
0.7307587862 0.7307587862 0.7307587862
0.7310802341 0.7310802341 0.7310802341
0.7314007878 0.7314007878 0.7314007878
0.7317203879 0.7317203879 0.7317203879
0.7320390344 0.7320390344 0.7320390344
0.7323567271 0.7323567271 0.7323567271
0.7326734662 0.7326734662 0.7326734662
0.7329893112 0.7329893112 0.7329893112
0.7333042026 0.7333042026 0.7333042026
0.7336181998 0.7336181998 0.7336181998
0.7339312434 0.7339312434 0.7339312434
0.7342433929 0.7342433929 0.7342433929
0.7345546484 0.7345546484 0.7345546484
0.7348650098 0.7348650098 0.7348650098
0.7351744175 0.7351744175 0.7351744175
0.7354829907 0.7354829907 0.7354829907
0.7357906699 0.7357906699 0.7357906699
0.7360974550 0.7360974550 0.7360974550
0.7364034057 0.7364034057 0.7364034057
0.7367084622 0.7367084622 0.7367084622
0.7370126247 0.7370126247 0.7370126247
0.7373159528 0.7373159528 0.7373159528
0.7376184464 0.7376184464 0.7376184464
0.7379201055 0.7379201055 0.7379201055
0.7382208705 0.7382208705 0.7382208705
0.7385208011 0.7385208011 0.7385208011
0.7388198972 0.7388198972 0.7388198972
0.7391181588 0.7391181588 0.7391181588
0.7394156456 0.7394156456 0.7394156456
0.7397122383 0.7397122383 0.7397122383
0.7400080562 0.7400080562 0.7400080562
0.7403030396 0.7403030396 0.7403030396
0.7405972481 0.7405972481 0.7405972481
0.7408906221 0.7408906221 0.7408906221
0.7411832213 0.7411832213 0.7411832213
0.7414749861 0.7414749861 0.7414749861
0.7417659760 0.7417659760 0.7417659760
0.7420561910 0.7420561910 0.7420561910
0.7423456311 0.7423456311 0.7423456311
0.7426342964 0.7426342964 0.7426342964
0.7429221869 0.7429221869 0.7429221869
0.7432093024 0.7432093024 0.7432093024
0.7434956431 0.7434956431 0.7434956431
0.7437812090 0.7437812090 0.7437812090
0.7440660000 0.7440660000 0.7440660000
0.7443500757 0.7443500757 0.7443500757
0.7446334362 0.7446334362 0.7446334362
0.7449159622 0.7449159622 0.7449159622
0.7451978326 0.7451978326 0.7451978326
0.7454789281 0.7454789281 0.7454789281
0.7457592487 0.7457592487 0.7457592487
0.7460389137 0.7460389137 0.7460389137
0.7463178039 0.7463178039 0.7463178039
0.7465959787 0.7465959787 0.7465959787
0.7468734384 0.7468734384 0.7468734384
0.7471501827 0.7471501827 0.7471501827
0.7474262118 0.7474262118 0.7474262118
0.7477015257 0.7477015257 0.7477015257
0.7479761839 0.7479761839 0.7479761839
0.7482500672 0.7482500672 0.7482500672
0.7485232949 0.7485232949 0.7485232949
0.7487958074 0.7487958074 0.7487958074
0.7490676641 0.7490676641 0.7490676641
0.7493388057 0.7493388057 0.7493388057
0.7496092916 0.7496092916 0.7496092916
0.7498790622 0.7498790622 0.7498790622
0.7501481771 0.7501481771 0.7501481771
0.7504166365 0.7504166365 0.7504166365
0.7506843805 0.7506843805 0.7506843805
0.7509515285 0.7509515285 0.7509515285
0.7512179613 0.7512179613 0.7512179613
0.7514837384 0.7514837384 0.7514837384
0.7517488599 0.7517488599 0.7517488599
0.7520133257 0.7520133257 0.7520133257
0.7522771358 0.7522771358 0.7522771358
0.7525403500 0.7525403500 0.7525403500
0.7528028488 0.7528028488 0.7528028488
0.7530647516 0.7530647516 0.7530647516
0.7533259988 0.7533259988 0.7533259988
0.7535866499 0.7535866499 0.7535866499
0.7538466454 0.7538466454 0.7538466454
0.7541059852 0.7541059852 0.7541059852
0.7543647289 0.7543647289 0.7543647289
0.7546228170 0.7546228170 0.7546228170
0.7548803091 0.7548803091 0.7548803091
0.7551372051 0.7551372051 0.7551372051
0.7553935051 0.7553935051 0.7553935051
0.7556491494 0.7556491494 0.7556491494
0.7559041977 0.7559041977 0.7559041977
0.7561586499 0.7561586499 0.7561586499
0.7564124465 0.7564124465 0.7564124465
0.7566657066 0.7566657066 0.7566657066
0.7569183707 0.7569183707 0.7569183707
0.7571704388 0.7571704388 0.7571704388
0.7574218512 0.7574218512 0.7574218512
0.7576727271 0.7576727271 0.7576727271
0.7579230666 0.7579230666 0.7579230666
0.7581727505 0.7581727505 0.7581727505
0.7584218979 0.7584218979 0.7584218979
0.7586704493 0.7586704493 0.7586704493
0.7589184046 0.7589184046 0.7589184046
0.7591658235 0.7591658235 0.7591658235
0.7594126463 0.7594126463 0.7594126463
0.7596589327 0.7596589327 0.7596589327
0.7599046230 0.7599046230 0.7599046230
0.7601497769 0.7601497769 0.7601497769
0.7603943944 0.7603943944 0.7603943944
0.7606384158 0.7606384158 0.7606384158
0.7608819008 0.7608819008 0.7608819008
0.7611247897 0.7611247897 0.7611247897
0.7613672018 0.7613672018 0.7613672018
0.7616090178 0.7616090178 0.7616090178
0.7618502975 0.7618502975 0.7618502975
0.7620910406 0.7620910406 0.7620910406
0.7623312473 0.7623312473 0.7623312473
0.7625709176 0.7625709176 0.7625709176
0.7628100514 0.7628100514 0.7628100514
0.7630487084 0.7630487084 0.7630487084
0.7632867694 0.7632867694 0.7632867694
0.7635242939 0.7635242939 0.7635242939
0.7637613416 0.7637613416 0.7637613416
0.7639978528 0.7639978528 0.7639978528
0.7642338276 0.7642338276 0.7642338276
0.7644693255 0.7644693255 0.7644693255
0.7647042871 0.7647042871 0.7647042871
0.7649387121 0.7649387121 0.7649387121
0.7651726007 0.7651726007 0.7651726007
0.7654060721 0.7654060721 0.7654060721
0.7656389475 0.7656389475 0.7656389475
0.7658713460 0.7658713460 0.7658713460
0.7661032677 0.7661032677 0.7661032677
0.7663347125 0.7663347125 0.7663347125
0.7665656209 0.7665656209 0.7665656209
0.7667959929 0.7667959929 0.7667959929
0.7670259476 0.7670259476 0.7670259476
0.7672553658 0.7672553658 0.7672553658
0.7674843073 0.7674843073 0.7674843073
0.7677127719 0.7677127719 0.7677127719
0.7679407001 0.7679407001 0.7679407001
0.7681682110 0.7681682110 0.7681682110
0.7683951855 0.7683951855 0.7683951855
0.7686217427 0.7686217427 0.7686217427
0.7688477635 0.7688477635 0.7688477635
0.7690733671 0.7690733671 0.7690733671
0.7692984343 0.7692984343 0.7692984343
0.7695230842 0.7695230842 0.7695230842
0.7697472572 0.7697472572 0.7697472572
0.7699709535 0.7699709535 0.7699709535
0.7701941729 0.7701941729 0.7701941729
0.7704169154 0.7704169154 0.7704169154
0.7706392407 0.7706392407 0.7706392407
0.7708610892 0.7708610892 0.7708610892
0.7710824609 0.7710824609 0.7710824609
0.7713034153 0.7713034153 0.7713034153
0.7715238929 0.7715238929 0.7715238929
0.7717438936 0.7717438936 0.7717438936
0.7719634771 0.7719634771 0.7719634771
0.7721825838 0.7721825838 0.7721825838
0.7724012733 0.7724012733 0.7724012733
0.7726194859 0.7726194859 0.7726194859
0.7728372812 0.7728372812 0.7728372812
0.7730546594 0.7730546594 0.7730546594
0.7732715607 0.7732715607 0.7732715607
0.7734880447 0.7734880447 0.7734880447
0.7737041116 0.7737041116 0.7737041116
0.7739197016 0.7739197016 0.7739197016
0.7741348743 0.7741348743 0.7741348743
0.7743496299 0.7743496299 0.7743496299
0.7745639086 0.7745639086 0.7745639086
0.7747778296 0.7747778296 0.7747778296
0.7749912739 0.7749912739 0.7749912739
0.7752043009 0.7752043009 0.7752043009
0.7754169106 0.7754169106 0.7754169106
0.7756291032 0.7756291032 0.7756291032
0.7758408785 0.7758408785 0.7758408785
0.7760522962 0.7760522962 0.7760522962
0.7762632370 0.7762632370 0.7762632370
0.7764737606 0.7764737606 0.7764737606
0.7766838670 0.7766838670 0.7766838670
0.7768935561 0.7768935561 0.7768935561
0.7771028876 0.7771028876 0.7771028876
0.7773117423 0.7773117423 0.7773117423
0.7775202394 0.7775202394 0.7775202394
0.7777283192 0.7777283192 0.7777283192
0.7779360414 0.7779360414 0.7779360414
0.7781432867 0.7781432867 0.7781432867
0.7783501744 0.7783501744 0.7783501744
0.7785566449 0.7785566449 0.7785566449
0.7787627578 0.7787627578 0.7787627578
0.7789684534 0.7789684534 0.7789684534
0.7791737318 0.7791737318 0.7791737318
0.7793786526 0.7793786526 0.7793786526
0.7795831561 0.7795831561 0.7795831561
0.7797873020 0.7797873020 0.7797873020
0.7799910307 0.7799910307 0.7799910307
0.7801944017 0.7801944017 0.7801944017
0.7803973556 0.7803973556 0.7803973556
0.7805999517 0.7805999517 0.7805999517
0.7808021307 0.7808021307 0.7808021307
0.7810039520 0.7810039520 0.7810039520
0.7812054157 0.7812054157 0.7812054157
0.7814064622 0.7814064622 0.7814064622
0.7816071510 0.7816071510 0.7816071510
0.7818074822 0.7818074822 0.7818074822
0.7820074558 0.7820074558 0.7820074558
0.7822070122 0.7822070122 0.7822070122
0.7824062109 0.7824062109 0.7824062109
0.7826050520 0.7826050520 0.7826050520
0.7828035355 0.7828035355 0.7828035355
0.7830016017 0.7830016017 0.7830016017
0.7831993699 0.7831993699 0.7831993699
0.7833967209 0.7833967209 0.7833967209
0.7835937142 0.7835937142 0.7835937142
0.7837903500 0.7837903500 0.7837903500
0.7839866877 0.7839866877 0.7839866877
0.7841826081 0.7841826081 0.7841826081
0.7843781710 0.7843781710 0.7843781710
0.7845733762 0.7845733762 0.7845733762
0.7847682238 0.7847682238 0.7847682238
0.7849627733 0.7849627733 0.7849627733
0.7851569057 0.7851569057 0.7851569057
0.7853507400 0.7853507400 0.7853507400
0.7855442166 0.7855442166 0.7855442166
0.7857372761 0.7857372761 0.7857372761
0.7859300375 0.7859300375 0.7859300375
0.7861225009 0.7861225009 0.7861225009
0.7863145471 0.7863145471 0.7863145471
0.7865062952 0.7865062952 0.7865062952
0.7866976857 0.7866976857 0.7866976857
0.7868887186 0.7868887186 0.7868887186
0.7870794535 0.7870794535 0.7870794535
0.7872698307 0.7872698307 0.7872698307
0.7874598503 0.7874598503 0.7874598503
0.7876495719 0.7876495719 0.7876495719
0.7878389359 0.7878389359 0.7878389359
0.7880279422 0.7880279422 0.7880279422
0.7882166505 0.7882166505 0.7882166505
0.7884050012 0.7884050012 0.7884050012
0.7885930538 0.7885930538 0.7885930538
0.7887807488 0.7887807488 0.7887807488
0.7889681458 0.7889681458 0.7889681458
0.7891551852 0.7891551852 0.7891551852
0.7893419266 0.7893419266 0.7893419266
0.7895283103 0.7895283103 0.7895283103
0.7897143960 0.7897143960 0.7897143960
0.7899001837 0.7899001837 0.7899001837
0.7900856137 0.7900856137 0.7900856137
0.7902707458 0.7902707458 0.7902707458
0.7904555202 0.7904555202 0.7904555202
0.7906399965 0.7906399965 0.7906399965
0.7908241749 0.7908241749 0.7908241749
0.7910079956 0.7910079956 0.7910079956
0.7911915779 0.7911915779 0.7911915779
0.7913748026 0.7913748026 0.7913748026
0.7915576696 0.7915576696 0.7915576696
0.7917402983 0.7917402983 0.7917402983
0.7919225693 0.7919225693 0.7919225693
0.7921045423 0.7921045423 0.7921045423
0.7922862172 0.7922862172 0.7922862172
0.7924675941 0.7924675941 0.7924675941
0.7926486731 0.7926486731 0.7926486731
0.7928293943 0.7928293943 0.7928293943
0.7930098772 0.7930098772 0.7930098772
0.7931900024 0.7931900024 0.7931900024
0.7933698893 0.7933698893 0.7933698893
0.7935494184 0.7935494184 0.7935494184
0.7937286496 0.7937286496 0.7937286496
0.7939075828 0.7939075828 0.7939075828
0.7940862775 0.7940862775 0.7940862775
0.7942646146 0.7942646146 0.7942646146
0.7944426537 0.7944426537 0.7944426537
0.7946204543 0.7946204543 0.7946204543
0.7947978973 0.7947978973 0.7947978973
0.7949751019 0.7949751019 0.7949751019
0.7951519489 0.7951519489 0.7951519489
0.7953285575 0.7953285575 0.7953285575
0.7955048680 0.7955048680 0.7955048680
0.7956808805 0.7956808805 0.7956808805
