VFX IO/Linear to sLog2.cube
# DaVinci Resolve Cube (1D shaper LUT).

LUT_1D_SIZE 4096
LUT_1D_INPUT_RANGE -0.0291229262 15.2869712193

0.0000000026 0.0000000026 0.0000000026
0.0113339224 0.0113339224 0.0113339224
0.0226678421 0.0226678421 0.0226678421
0.0340017619 0.0340017619 0.0340017619
0.0453356833 0.0453356833 0.0453356833
0.0566696051 0.0566696051 0.0566696051
0.0680035260 0.0680035260 0.0680035260
0.0793374474 0.0793374474 0.0793374474
0.0906533342 0.0906533342 0.0906533342
0.1014488930 0.1014488930 0.1014488930
0.1115655051 0.1115655051 0.1115655051
0.1210835453 0.1210835453 0.1210835453
0.1300698979 0.1300698979 0.1300698979
0.1385808408 0.1385808408 0.1385808408
0.1466641598 0.1466641598 0.1466641598
0.1543607761 0.1543607761 0.1543607761
0.1617060029 0.1617060029 0.1617060029
0.1687305341 0.1687305341 0.1687305341
0.1754611976 0.1754611976 0.1754611976
0.1819216055 0.1819216055 0.1819216055
0.1881326333 0.1881326333 0.1881326333
0.1941127954 0.1941127954 0.1941127954
0.1998786672 0.1998786672 0.1998786672
0.2054450628 0.2054450628 0.2054450628
0.2108253164 0.2108253164 0.2108253164
0.2160314990 0.2160314990 0.2160314990
0.2210744947 0.2210744947 0.2210744947
0.2259642435 0.2259642435 0.2259642435
0.2307097795 0.2307097795 0.2307097795
0.2353193712 0.2353193712 0.2353193712
0.2398005850 0.2398005850 0.2398005850
0.2441603626 0.2441603626 0.2441603626
0.2484051476 0.2484051476 0.2484051476
0.2525408223 0.2525408223 0.2525408223
0.2565728608 0.2565728608 0.2565728608
0.2605063416 0.2605063416 0.2605063416
0.2643459602 0.2643459602 0.2643459602
0.2680960934 0.2680960934 0.2680960934
0.2717608116 0.2717608116 0.2717608116
0.2753439172 0.2753439172 0.2753439172
0.2788489958 0.2788489958 0.2788489958
0.2822793267 0.2822793267 0.2822793267
0.2856380743 0.2856380743 0.2856380743
0.2889281223 0.2889281223 0.2889281223
0.2921522781 0.2921522781 0.2921522781
0.2953130680 0.2953130680 0.2953130680
0.2984129930 0.2984129930 0.2984129930
0.3014543244 0.3014543244 0.3014543244
0.3044392313 0.3044392313 0.3044392313
0.3073697809 0.3073697809 0.3073697809
0.3102479127 0.3102479127 0.3102479127
0.3130754640 0.3130754640 0.3130754640
0.3158541959 0.3158541959 0.3158541959
0.3185857414 0.3185857414 0.3185857414
0.3212717085 0.3212717085 0.3212717085
0.3239135772 0.3239135772 0.3239135772
0.3265127512 0.3265127512 0.3265127512
0.3290706340 0.3290706340 0.3290706340
0.3315884762 0.3315884762 0.3315884762
0.3340675281 0.3340675281 0.3340675281
0.3365089892 0.3365089892 0.3365089892
0.3389139314 0.3389139314 0.3389139314
0.3412834775 0.3412834775 0.3412834775
0.3436186484 0.3436186484 0.3436186484
0.3459203882 0.3459203882 0.3459203882
0.3481896667 0.3481896667 0.3481896667
0.3504274027 0.3504274027 0.3504274027
0.3526344637 0.3526344637 0.3526344637
0.3548116410 0.3548116410 0.3548116410
0.3569597512 0.3569597512 0.3569597512
0.3590795598 0.3590795598 0.3590795598
0.3611718324 0.3611718324 0.3611718324
0.3632372071 0.3632372071 0.3632372071
0.3652764495 0.3652764495 0.3652764495
0.3672901464 0.3672901464 0.3672901464
0.3692789615 0.3692789615 0.3692789615
0.3712435072 0.3712435072 0.3712435072
0.3731843449 0.3731843449 0.3731843449
0.3751020616 0.3751020616 0.3751020616
0.3769971932 0.3769971932 0.3769971932
0.3788702501 0.3788702501 0.3788702501
0.3807217682 0.3807217682 0.3807217682
0.3825522069 0.3825522069 0.3825522069
0.3843620766 0.3843620766 0.3843620766
0.3861518111 0.3861518111 0.3861518111
0.3879218698 0.3879218698 0.3879218698
0.3896726610 0.3896726610 0.3896726610
0.3914045930 0.3914045930 0.3914045930
0.3931180996 0.3931180996 0.3931180996
0.3948135382 0.3948135382 0.3948135382
0.3964913170 0.3964913170 0.3964913170
0.3981517678 0.3981517678 0.3981517678
0.3997952734 0.3997952734 0.3997952734
0.4014221656 0.4014221656 0.4014221656
0.4030327506 0.4030327506 0.4030327506
0.4046273856 0.4046273856 0.4046273856
0.4062063770 0.4062063770 0.4062063770
0.4077700309 0.4077700309 0.4077700309
0.4093186281 0.4093186281 0.4093186281
0.4108524748 0.4108524748 0.4108524748
0.4123718262 0.4123718262 0.4123718262
0.4138769630 0.4138769630 0.4138769630
0.4153681660 0.4153681660 0.4153681660
0.4168456648 0.4168456648 0.4168456648
0.4183097402 0.4183097402 0.4183097402
0.4197605963 0.4197605963 0.4197605963
0.4211984882 0.4211984882 0.4211984882
0.4226236458 0.4226236458 0.4226236458
0.4240362986 0.4240362986 0.4240362986
0.4254366508 0.4254366508 0.4254366508
0.4268249321 0.4268249321 0.4268249321
0.4282013212 0.4282013212 0.4282013212
0.4295660476 0.4295660476 0.4295660476
0.4309193157 0.4309193157 0.4309193157
0.4322612784 0.4322612784 0.4322612784
0.4335921400 0.4335921400 0.4335921400
0.4349120791 0.4349120791 0.4349120791
0.4362212999 0.4362212999 0.4362212999
0.4375199299 0.4375199299 0.4375199299
0.4388081988 0.4388081988 0.4388081988
0.4400862087 0.4400862087 0.4400862087
0.4413541383 0.4413541383 0.4413541383
0.4426121917 0.4426121917 0.4426121917
0.4438604454 0.4438604454 0.4438604454
0.4450991292 0.4450991292 0.4450991292
0.4463283196 0.4463283196 0.4463283196
0.4475481953 0.4475481953 0.4475481953
0.4487589093 0.4487589093 0.4487589093
0.4499605893 0.4499605893 0.4499605893
0.4511533373 0.4511533373 0.4511533373
0.4523373065 0.4523373065 0.4523373065
0.4535126500 0.4535126500 0.4535126500
0.4546794698 0.4546794698 0.4546794698
0.4558378681 0.4558378681 0.4558378681
0.4569879979 0.4569879979 0.4569879979
0.4581299869 0.4581299869 0.4581299869
0.4592638861 0.4592638861 0.4592638861
0.4603898741 0.4603898741 0.4603898741
0.4615080530 0.4615080530 0.4615080530
0.4626184994 0.4626184994 0.4626184994
0.4637213409 0.4637213409 0.4637213409
0.4648166541 0.4648166541 0.4648166541
0.4659045920 0.4659045920 0.4659045920
0.4669852056 0.4669852056 0.4669852056
0.4680586227 0.4680586227 0.4680586227
0.4691249197 0.4691249197 0.4691249197
0.4701841988 0.4701841988 0.4701841988
0.4712365365 0.4712365365 0.4712365365
0.4722820603 0.4722820603 0.4722820603
0.4733208214 0.4733208214 0.4733208214
0.4743529218 0.4743529218 0.4743529218
0.4753784381 0.4753784381 0.4753784381
0.4763974723 0.4763974723 0.4763974723
0.4774101010 0.4774101010 0.4774101010
0.4784163753 0.4784163753 0.4784163753
0.4794164227 0.4794164227 0.4794164227
0.4804102688 0.4804102688 0.4804102688
0.4813980157 0.4813980157 0.4813980157
0.4823797398 0.4823797398 0.4823797398
0.4833555178 0.4833555178 0.4833555178
0.4843254263 0.4843254263 0.4843254263
0.4852894907 0.4852894907 0.4852894907
0.4862478387 0.4862478387 0.4862478387
0.4872004957 0.4872004957 0.4872004957
0.4881475638 0.4881475638 0.4881475638
0.4890890942 0.4890890942 0.4890890942
0.4900251378 0.4900251378 0.4900251378
0.4909557711 0.4909557711 0.4909557711
0.4918810198 0.4918810198 0.4918810198
0.4928010114 0.4928010114 0.4928010114
0.4937157969 0.4937157969 0.4937157969
0.4946253763 0.4946253763 0.4946253763
0.4955298518 0.4955298518 0.4955298518
0.4964292744 0.4964292744 0.4964292744
0.4973236950 0.4973236950 0.4973236950
0.4982131649 0.4982131649 0.4982131649
0.4990977348 0.4990977348 0.4990977348
0.4999775071 0.4999775071 0.4999775071
0.5008524306 0.5008524306 0.5008524306
0.5017227094 0.5017227094 0.5017227094
0.5025882416 0.5025882416 0.5025882416
0.5034491801 0.5034491801 0.5034491801
0.5043055251 0.5043055251 0.5043055251
0.5051573276 0.5051573276 0.5051573276
0.5060046386 0.5060046386 0.5060046386
0.5068475091 0.5068475091 0.5068475091
0.5076859902 0.5076859902 0.5076859902
0.5085201839 0.5085201839 0.5085201839
0.5093499882 0.5093499882 0.5093499882
0.5101756073 0.5101756073 0.5101756073
0.5109969390 0.5109969390 0.5109969390
0.5118141876 0.5118141876 0.5118141876
0.5126272509 0.5126272509 0.5126272509
0.5134362310 0.5134362310 0.5134362310
0.5142411789 0.5142411789 0.5142411789
0.5150420948 0.5150420948 0.5150420948
0.5158390295 0.5158390295 0.5158390295
0.5166320852 0.5166320852 0.5166320852
0.5174212108 0.5174212108 0.5174212108
0.5182065085 0.5182065085 0.5182065085
0.5189880292 0.5189880292 0.5189880292
0.5197657220 0.5197657220 0.5197657220
0.5205396888 0.5205396888 0.5205396888
0.5213099297 0.5213099297 0.5213099297
0.5220765469 0.5220765469 0.5220765469
0.5228394891 0.5228394891 0.5228394891
0.5235988586 0.5235988586 0.5235988586
0.5243546553 0.5243546553 0.5243546553
0.5251068792 0.5251068792 0.5251068792
0.5258556324 0.5258556324 0.5258556324
0.5266009148 0.5266009148 0.5266009148
0.5273427777 0.5273427777 0.5273427777
0.5280812208 0.5280812208 0.5280812208
0.5288162954 0.5288162954 0.5288162954
0.5295480524 0.5295480524 0.5295480524
0.5302764407 0.5302764407 0.5302764407
0.5310016135 0.5310016135 0.5310016135
0.5317234688 0.5317234688 0.5317234688
0.5324421596 0.5324421596 0.5324421596
0.5331575838 0.5331575838 0.5331575838
0.5338698946 0.5338698946 0.5338698946
0.5345790410 0.5345790410 0.5345790410
0.5352851249 0.5352851249 0.5352851249
0.5359880955 0.5359880955 0.5359880955
0.5366879526 0.5366879526 0.5366879526
0.5373848494 0.5373848494 0.5373848494
0.5380787348 0.5380787348 0.5380787348
0.5387696090 0.5387696090 0.5387696090
0.5394575228 0.5394575228 0.5394575228
0.5401425273 0.5401425273 0.5401425273
0.5408246736 0.5408246736 0.5408246736
0.5415038596 0.5415038596 0.5415038596
0.5421802385 0.5421802385 0.5421802385
0.5428538101 0.5428538101 0.5428538101
0.5435245235 0.5435245235 0.5435245235
0.5441924808 0.5441924808 0.5441924808
0.5448576309 0.5448576309 0.5448576309
0.5455200758 0.5455200758 0.5455200758
0.5461798157 0.5461798157 0.5461798157
0.5468368505 0.5468368505 0.5468368505
0.5474912312 0.5474912312 0.5474912312
0.5481429578 0.5481429578 0.5481429578
0.5487920303 0.5487920303 0.5487920303
0.5494384999 0.5494384999 0.5494384999
0.5500824174 0.5500824174 0.5500824174
0.5507237319 0.5507237319 0.5507237319
0.5513624945 0.5513624945 0.5513624945
0.5519987560 0.5519987560 0.5519987560
0.5526325167 0.5526325167 0.5526325167
0.5532637763 0.5532637763 0.5532637763
0.5538925861 0.5538925861 0.5538925861
0.5545189460 0.5545189460 0.5545189460
0.5551428559 0.5551428559 0.5551428559
0.5557643670 0.5557643670 0.5557643670
0.5563834793 0.5563834793 0.5563834793
0.5570002437 0.5570002437 0.5570002437
0.5576146092 0.5576146092 0.5576146092
0.5582266779 0.5582266779 0.5582266779
0.5588363988 0.5588363988 0.5588363988
0.5594438229 0.5594438229 0.5594438229
0.5600490013 0.5600490013 0.5600490013
0.5606518829 0.5606518829 0.5606518829
0.5612525187 0.5612525187 0.5612525187
0.5618509088 0.5618509088 0.5618509088
0.5624470531 0.5624470531 0.5624470531
0.5630410538 0.5630410538 0.5630410538
0.5636328597 0.5636328597 0.5636328597
0.5642224710 0.5642224710 0.5642224710
0.5648099386 0.5648099386 0.5648099386
0.5653953135 0.5653953135 0.5653953135
0.5659784937 0.5659784937 0.5659784937
0.5665596324 0.5665596324 0.5665596324
0.5671386274 0.5671386274 0.5671386274
0.5677155807 0.5677155807 0.5677155807
0.5682904415 0.5682904415 0.5682904415
0.5688633117 0.5688633117 0.5688633117
0.5694340893 0.5694340893 0.5694340893
0.5700028763 0.5700028763 0.5700028763
0.5705696728 0.5705696728 0.5705696728
0.5711344787 0.5711344787 0.5711344787
0.5716972941 0.5716972941 0.5716972941
0.5722581189 0.5722581189 0.5722581189
0.5728170552 0.5728170552 0.5728170552
0.5733740010 0.5733740010 0.5733740010
0.5739290584 0.5739290584 0.5739290584
0.5744822272 0.5744822272 0.5744822272
0.5750334566 0.5750334566 0.5750334566
0.5755828485 0.5755828485 0.5755828485
0.5761303519 0.5761303519 0.5761303519
0.5766759669 0.5766759669 0.5766759669
0.5772197445 0.5772197445 0.5772197445
0.5777617356 0.5777617356 0.5777617356
0.5783018893 0.5783018893 0.5783018893
0.5788402056 0.5788402056 0.5788402056
0.5793767866 0.5793767866 0.5793767866
0.5799115301 0.5799115301 0.5799115301
0.5804445382 0.5804445382 0.5804445382
0.5809757600 0.5809757600 0.5809757600
0.5815052464 0.5815052464 0.5815052464
0.5820329975 0.5820329975 0.5820329975
0.5825590132 0.5825590132 0.5825590132
0.5830832935 0.5830832935 0.5830832935
0.5836059406 0.5836059406 0.5836059406
0.5841268524 0.5841268524 0.5841268524
0.5846460798 0.5846460798 0.5846460798
0.5851636229 0.5851636229 0.5851636229
0.5856795327 0.5856795327 0.5856795327
0.5861937583 0.5861937583 0.5861937583
0.5867064015 0.5867064015 0.5867064015
0.5872173605 0.5872173605 0.5872173605
0.5877267373 0.5877267373 0.5877267373
0.5882345318 0.5882345318 0.5882345318
0.5887406930 0.5887406930 0.5887406930
0.5892452721 0.5892452721 0.5892452721
0.5897482688 0.5897482688 0.5897482688
0.5902496834 0.5902496834 0.5902496834
0.5907495667 0.5907495667 0.5907495667
0.5912479189 0.5912479189 0.5912479189
0.5917446888 0.5917446888 0.5917446888
0.5922399786 0.5922399786 0.5922399786
0.5927336862 0.5927336862 0.5927336862
0.5932259135 0.5932259135 0.5932259135
0.5937166608 0.5937166608 0.5937166608
0.5942058768 0.5942058768 0.5942058768
0.5946936638 0.5946936638 0.5946936638
0.5951799195 0.5951799195 0.5951799195
0.5956647461 0.5956647461 0.5956647461
0.5961480926 0.5961480926 0.5961480926
0.5966300100 0.5966300100 0.5966300100
0.5971104982 0.5971104982 0.5971104982
0.5975895574 0.5975895574 0.5975895574
0.5980671363 0.5980671363 0.5980671363
0.5985433883 0.5985433883 0.5985433883
0.5990181601 0.5990181601 0.5990181601
0.5994915538 0.5994915538 0.5994915538
0.5999635695 0.5999635695 0.5999635695
0.6004342070 0.6004342070 0.6004342070
0.6009034665 0.6009034665 0.6009034665
0.6013713990 0.6013713990 0.6013713990
0.6018379534 0.6018379534 0.6018379534
0.6023031297 0.6023031297 0.6023031297
0.6027669790 0.6027669790 0.6027669790
0.6032295013 0.6032295013 0.6032295013
0.6036906965 0.6036906965 0.6036906965
0.6041505647 0.6041505647 0.6041505647
0.6046091569 0.6046091569 0.6046091569
0.6050664220 0.6050664220 0.6050664220
0.6055223602 0.6055223602 0.6055223602
0.6059770223 0.6059770223 0.6059770223
0.6064304595 0.6064304595 0.6064304595
0.6068825696 0.6068825696 0.6068825696
0.6073334038 0.6073334038 0.6073334038
0.6077830130 0.6077830130 0.6077830130
0.6082313462 0.6082313462 0.6082313462
0.6086784544 0.6086784544 0.6086784544
0.6091243377 0.6091243377 0.6091243377
0.6095689450 0.6095689450 0.6095689450
0.6100123274 0.6100123274 0.6100123274
0.6104545358 0.6104545358 0.6104545358
0.6108955193 0.6108955193 0.6108955193
0.6113352778 0.6113352778 0.6113352778
0.6117738624 0.6117738624 0.6117738624
0.6122112221 0.6122112221 0.6122112221
0.6126474078 0.6126474078 0.6126474078
0.6130824196 0.6130824196 0.6130824196
0.6135162575 0.6135162575 0.6135162575
0.6139489215 0.6139489215 0.6139489215
0.6143804627 0.6143804627 0.6143804627
0.6148108299 0.6148108299 0.6148108299
0.6152400232 0.6152400232 0.6152400232
0.6156680936 0.6156680936 0.6156680936
0.6160950411 0.6160950411 0.6160950411
0.6165208148 0.6165208148 0.6165208148
0.6169455166 0.6169455166 0.6169455166
0.6173690444 0.6173690444 0.6173690444
0.6177915005 0.6177915005 0.6177915005
0.6182128337 0.6182128337 0.6182128337
0.6186330950 0.6186330950 0.6186330950
0.6190522335 0.6190522335 0.6190522335
0.6194703001 0.6194703001 0.6194703001
0.6198872949 0.6198872949 0.6198872949
0.6203031668 0.6203031668 0.6203031668
0.6207180179 0.6207180179 0.6207180179
0.6211317462 0.6211317462 0.6211317462
0.6215444536 0.6215444536 0.6215444536
0.6219560893 0.6219560893 0.6219560893
0.6223667041 0.6223667041 0.6223667041
0.6227762471 0.6227762471 0.6227762471
0.6231847693 0.6231847693 0.6231847693
0.6235922196 0.6235922196 0.6235922196
0.6239987002 0.6239987002 0.6239987002
0.6244041090 0.6244041090 0.6244041090
0.6248084970 0.6248084970 0.6248084970
0.6252118642 0.6252118642 0.6252118642
0.6256142616 0.6256142616 0.6256142616
0.6260156382 0.6260156382 0.6260156382
0.6264159940 0.6264159940 0.6264159940
0.6268153801 0.6268153801 0.6268153801
0.6272137964 0.6272137964 0.6272137964
0.6276111920 0.6276111920 0.6276111920
0.6280076177 0.6280076177 0.6280076177
0.6284030738 0.6284030738 0.6284030738
0.6287975600 0.6287975600 0.6287975600
0.6291911276 0.6291911276 0.6291911276
0.6295836743 0.6295836743 0.6295836743
0.6299752513 0.6299752513 0.6299752513
0.6303659096 0.6303659096 0.6303659096
0.6307556492 0.6307556492 0.6307556492
0.6311444190 0.6311444190 0.6311444190
0.6315322190 0.6315322190 0.6315322190
0.6319191514 0.6319191514 0.6319191514
0.6323051140 0.6323051140 0.6323051140
0.6326901579 0.6326901579 0.6326901579
0.6330742831 0.6330742831 0.6330742831
0.6334574896 0.6334574896 0.6334574896
0.6338398284 0.6338398284 0.6338398284
0.6342211975 0.6342211975 0.6342211975
0.6346016988 0.6346016988 0.6346016988
0.6349812815 0.6349812815 0.6349812815
0.6353599965 0.6353599965 0.6353599965
0.6357377927 0.6357377927 0.6357377927
0.6361147213 0.6361147213 0.6361147213
0.6364907822 0.6364907822 0.6364907822
0.6368659755 0.6368659755 0.6368659755
0.6372402500 0.6372402500 0.6372402500
0.6376137079 0.6376137079 0.6376137079
0.6379862470 0.6379862470 0.6379862470
0.6383579696 0.6383579696 0.6383579696
0.6387288244 0.6387288244 0.6387288244
0.6390988116 0.6390988116 0.6390988116
0.6394679821 0.6394679821 0.6394679821
0.6398362850 0.6398362850 0.6398362850
0.6402037202 0.6402037202 0.6402037202
0.6405703388 0.6405703388 0.6405703388
0.6409361407 0.6409361407 0.6409361407
0.6413011260 0.6413011260 0.6413011260
0.6416652436 0.6416652436 0.6416652436
0.6420285445 0.6420285445 0.6420285445
0.6423910799 0.6423910799 0.6423910799
0.6427527476 0.6427527476 0.6427527476
0.6431135987 0.6431135987 0.6431135987
0.6434736841 0.6434736841 0.6434736841
0.6438329530 0.6438329530 0.6438329530
0.6441914052 0.6441914052 0.6441914052
0.6445490407 0.6445490407 0.6445490407
0.6449059107 0.6449059107 0.6449059107
0.6452620151 0.6452620151 0.6452620151
0.6456173028 0.6456173028 0.6456173028
0.6459717739 0.6459717739 0.6459717739
0.6463255304 0.6463255304 0.6463255304
0.6466784703 0.6466784703 0.6466784703
0.6470306446 0.6470306446 0.6470306446
0.6473820533 0.6473820533 0.6473820533
0.6477327475 0.6477327475 0.6477327475
0.6480826250 0.6480826250 0.6480826250
0.6484317369 0.6484317369 0.6484317369
0.6487800833 0.6487800833 0.6487800833
0.6491277150 0.6491277150 0.6491277150
0.6494745812 0.6494745812 0.6494745812
0.6498207328 0.6498207328 0.6498207328
0.6501660678 0.6501660678 0.6501660678
0.6505107393 0.6505107393 0.6505107393
0.6508546451 0.6508546451 0.6508546451
0.6511977854 0.6511977854 0.6511977854
0.6515402111 0.6515402111 0.6515402111
0.6518819223 0.6518819223 0.6518819223
0.6522229189 0.6522229189 0.6522229189
0.6525632009 0.6525632009 0.6525632009
0.6529027684 0.6529027684 0.6529027684
0.6532415703 0.6532415703 0.6532415703
0.6535797087 0.6535797087 0.6535797087
0.6539171325 0.6539171325 0.6539171325
0.6542538417 0.6542538417 0.6542538417
0.6545898364 0.6545898364 0.6545898364
0.6549251166 0.6549251166 0.6549251166
0.6552597332 0.6552597332 0.6552597332
0.6555936353 0.6555936353 0.6555936353
0.6559268738 0.6559268738 0.6559268738
0.6562593978 0.6562593978 0.6562593978
0.6565912583 0.6565912583 0.6565912583
0.6569224043 0.6569224043 0.6569224043
0.6572528867 0.6572528867 0.6572528867
0.6575827056 0.6575827056 0.6575827056
0.6579118099 0.6579118099 0.6579118099
0.6582403018 0.6582403018 0.6582403018
0.6585680791 0.6585680791 0.6585680791
0.6588951928 0.6588951928 0.6588951928
0.6592216431 0.6592216431 0.6592216431
0.6595474809 0.6595474809 0.6595474809
0.6598726041 0.6598726041 0.6598726041
0.6601970639 0.6601970639 0.6601970639
0.6605209111 0.6605209111 0.6605209111
0.6608440948 0.6608440948 0.6608440948
0.6611666150 0.6611666150 0.6611666150
0.6614885228 0.6614885228 0.6614885228
0.6618097670 0.6618097670 0.6618097670
0.6621303987 0.6621303987 0.6621303987
0.6624503669 0.6624503669 0.6624503669
0.6627696716 0.6627696716 0.6627696716
0.6630883639 0.6630883639 0.6630883639
0.6634064436 0.6634064436 0.6634064436
0.6637239109 0.6637239109 0.6637239109
0.6640407146 0.6640407146 0.6640407146
0.6643569059 0.6643569059 0.6643569059
0.6646724847 0.6646724847 0.6646724847
0.6649874511 0.6649874511 0.6649874511
0.6653018049 0.6653018049 0.6653018049
0.6656154952 0.6656154952 0.6656154952
0.6659286241 0.6659286241 0.6659286241
0.6662411405 0.6662411405 0.6662411405
0.6665530445 0.6665530445 0.6665530445
0.6668643359 0.6668643359 0.6668643359
0.6671750660 0.6671750660 0.6671750660
0.6674851835 0.6674851835 0.6674851835
0.6677946886 0.6677946886 0.6677946886
0.6681035812 0.6681035812 0.6681035812
0.6684119123 0.6684119123 0.6684119123
0.6687196310 0.6687196310 0.6687196310
0.6690267883 0.6690267883 0.6690267883
0.6693333330 0.6693333330 0.6693333330
0.6696393164 0.6696393164 0.6696393164
0.6699446872 0.6699446872 0.6699446872
0.6702494966 0.6702494966 0.6702494966
0.6705537446 0.6705537446 0.6705537446
0.6708574311 0.6708574311 0.6708574311
0.6711605052 0.6711605052 0.6711605052
0.6714630178 0.6714630178 0.6714630178
0.6717650200 0.6717650200 0.6717650200
0.6720664098 0.6720664098 0.6720664098
0.6723672381 0.6723672381 0.6723672381
0.6726675050 0.6726675050 0.6726675050
0.6729672104 0.6729672104 0.6729672104
0.6732663544 0.6732663544 0.6732663544
0.6735649370 0.6735649370 0.6735649370
0.6738629581 0.6738629581 0.6738629581
0.6741604688 0.6741604688 0.6741604688
0.6744574181 0.6744574181 0.6744574181
0.6747538060 0.6747538060 0.6747538060
0.6750496324 0.6750496324 0.6750496324
0.6753449484 0.6753449484 0.6753449484
0.6756397030 0.6756397030 0.6756397030
0.6759339472 0.6759339472 0.6759339472
0.6762276299 0.6762276299 0.6762276299
0.6765208023 0.6765208023 0.6765208023
0.6768134132 0.6768134132 0.6768134132
0.6771055137 0.6771055137 0.6771055137
0.6773970528 0.6773970528 0.6773970528
0.6776880815 0.6776880815 0.6776880815
0.6779785998 0.6779785998 0.6779785998
0.6782686076 0.6782686076 0.6782686076
0.6785580541 0.6785580541 0.6785580541
0.6788469901 0.6788469901 0.6788469901
0.6791354158 0.6791354158 0.6791354158
0.6794233310 0.6794233310 0.6794233310
0.6797107359 0.6797107359 0.6797107359
0.6799976304 0.6799976304 0.6799976304
0.6802839634 0.6802839634 0.6802839634
0.6805698371 0.6805698371 0.6805698371
0.6808552003 0.6808552003 0.6808552003
0.6811400532 0.6811400532 0.6811400532
0.6814243957 0.6814243957 0.6814243957
0.6817082277 0.6817082277 0.6817082277
0.6819916005 0.6819916005 0.6819916005
0.6822744628 0.6822744628 0.6822744628
0.6825568147 0.6825568147 0.6825568147
0.6828386562 0.6828386562 0.6828386562
0.6831200384 0.6831200384 0.6831200384
0.6834009102 0.6834009102 0.6834009102
0.6836812715 0.6836812715 0.6836812715
0.6839611735 0.6839611735 0.6839611735
0.6842405652 0.6842405652 0.6842405652
0.6845194974 0.6845194974 0.6845194974
0.6847979703 0.6847979703 0.6847979703
0.6850759328 0.6850759328 0.6850759328
0.6853533849 0.6853533849 0.6853533849
0.6856304287 0.6856304287 0.6856304287
0.6859069621 0.6859069621 0.6859069621
0.6861829851 0.6861829851 0.6861829851
0.6864585998 0.6864585998 0.6864585998
0.6867337040 0.6867337040 0.6867337040
0.6870083490 0.6870083490 0.6870083490
0.6872824835 0.6872824835 0.6872824835
0.6875562097 0.6875562097 0.6875562097
0.6878294765 0.6878294765 0.6878294765
0.6881022330 0.6881022330 0.6881022330
0.6883745301 0.6883745301 0.6883745301
0.6886464188 0.6886464188 0.6886464188
0.6889177972 0.6889177972 0.6889177972
0.6891887673 0.6891887673 0.6891887673
0.6894592269 0.6894592269 0.6894592269
0.6897292783 0.6897292783 0.6897292783
0.6899988703 0.6899988703 0.6899988703
0.6902680029 0.6902680029 0.6902680029
0.6905366761 0.6905366761 0.6905366761
0.6908048901 0.6908048901 0.6908048901
0.6910726956 0.6910726956 0.6910726956
0.6913400419 0.6913400419 0.6913400419
0.6916069288 0.6916069288 0.6916069288
0.6918733563 0.6918733563 0.6918733563
0.6921393755 0.6921393755 0.6921393755
0.6924049864 0.6924049864 0.6924049864
0.6926700868 0.6926700868 0.6926700868
0.6929348301 0.6929348301 0.6929348301
0.6931990629 0.6931990629 0.6931990629
0.6934629384 0.6934629384 0.6934629384
0.6937263035 0.6937263035 0.6937263035
0.6939893114 0.6939893114 0.6939893114
0.6942518088 0.6942518088 0.6942518088
0.6945139490 0.6945139490 0.6945139490
0.6947756298 0.6947756298 0.6947756298
0.6950369023 0.6950369023 0.6950369023
0.6952977665 0.6952977665 0.6952977665
