VFX IO/Linear to Rec.709.cube
# DaVinci Resolve Cube (1D shaper LUT).

LUT_1D_SIZE 4096
LUT_1D_INPUT_RANGE 0.0000000000 1.0000000000

0.0000000000 0.0000000000 0.0000000000
0.0010989011 0.0010989011 0.0010989011
0.0021978022 0.0021978022 0.0021978022
0.0032967033 0.0032967033 0.0032967033
0.0043956044 0.0043956044 0.0043956044
0.0054945055 0.0054945055 0.0054945055
0.0065934066 0.0065934066 0.0065934066
0.0076923077 0.0076923077 0.0076923077
0.0087912088 0.0087912088 0.0087912088
0.0098901099 0.0098901099 0.0098901099
0.0109890110 0.0109890110 0.0109890110
0.0120879121 0.0120879121 0.0120879121
0.0131868132 0.0131868132 0.0131868132
0.0142857143 0.0142857143 0.0142857143
0.0153846154 0.0153846154 0.0153846154
0.0164835165 0.0164835165 0.0164835165
0.0175824176 0.0175824176 0.0175824176
0.0186813187 0.0186813187 0.0186813187
0.0197802198 0.0197802198 0.0197802198
0.0208791209 0.0208791209 0.0208791209
0.0219780220 0.0219780220 0.0219780220
0.0230769231 0.0230769231 0.0230769231
0.0241758242 0.0241758242 0.0241758242
0.0252747253 0.0252747253 0.0252747253
0.0263736264 0.0263736264 0.0263736264
0.0274725275 0.0274725275 0.0274725275
0.0285714286 0.0285714286 0.0285714286
0.0296703297 0.0296703297 0.0296703297
0.0307692308 0.0307692308 0.0307692308
0.0318681319 0.0318681319 0.0318681319
0.0329670330 0.0329670330 0.0329670330
0.0340659341 0.0340659341 0.0340659341
0.0351648352 0.0351648352 0.0351648352
0.0362637363 0.0362637363 0.0362637363
0.0373626374 0.0373626374 0.0373626374
0.0384615385 0.0384615385 0.0384615385
0.0395604396 0.0395604396 0.0395604396
0.0406593407 0.0406593407 0.0406593407
0.0417582418 0.0417582418 0.0417582418
0.0428571429 0.0428571429 0.0428571429
0.0439560440 0.0439560440 0.0439560440
0.0450549451 0.0450549451 0.0450549451
0.0461538462 0.0461538462 0.0461538462
0.0472527473 0.0472527473 0.0472527473
0.0483516484 0.0483516484 0.0483516484
0.0494505495 0.0494505495 0.0494505495
0.0505494505 0.0505494505 0.0505494505
0.0516483516 0.0516483516 0.0516483516
0.0527472527 0.0527472527 0.0527472527
0.0538461538 0.0538461538 0.0538461538
0.0549450549 0.0549450549 0.0549450549
0.0560439560 0.0560439560 0.0560439560
0.0571428571 0.0571428571 0.0571428571
0.0582417582 0.0582417582 0.0582417582
0.0593406593 0.0593406593 0.0593406593
0.0604395604 0.0604395604 0.0604395604
0.0615384615 0.0615384615 0.0615384615
0.0626373626 0.0626373626 0.0626373626
0.0637362637 0.0637362637 0.0637362637
0.0648351648 0.0648351648 0.0648351648
0.0659340659 0.0659340659 0.0659340659
0.0670329670 0.0670329670 0.0670329670
0.0681318681 0.0681318681 0.0681318681
0.0692307692 0.0692307692 0.0692307692
0.0703296703 0.0703296703 0.0703296703
0.0714285714 0.0714285714 0.0714285714
0.0725274725 0.0725274725 0.0725274725
0.0736263736 0.0736263736 0.0736263736
0.0747252747 0.0747252747 0.0747252747
0.0758241758 0.0758241758 0.0758241758
0.0769230769 0.0769230769 0.0769230769
0.0780219780 0.0780219780 0.0780219780
0.0791208791 0.0791208791 0.0791208791
0.0802197802 0.0802197802 0.0802197802
0.0815667198 0.0815667198 0.0815667198
0.0826607083 0.0826607083 0.0826607083
0.0837467033 0.0837467033 0.0837467033
0.0848248672 0.0848248672 0.0848248672
0.0858953572 0.0858953572 0.0858953572
0.0869583250 0.0869583250 0.0869583250
0.0880139180 0.0880139180 0.0880139180
0.0890622783 0.0890622783 0.0890622783
0.0901035441 0.0901035441 0.0901035441
0.0911378489 0.0911378489 0.0911378489
0.0921653223 0.0921653223 0.0921653223
0.0931860900 0.0931860900 0.0931860900
0.0942002739 0.0942002739 0.0942002739
0.0952079922 0.0952079922 0.0952079922
0.0962093598 0.0962093598 0.0962093598
0.0972044882 0.0972044882 0.0972044882
0.0981934857 0.0981934857 0.0981934857
0.0991764576 0.0991764576 0.0991764576
0.1001535063 0.1001535063 0.1001535063
0.1011247312 0.1011247312 0.1011247312
0.1020902291 0.1020902291 0.1020902291
0.1030500941 0.1030500941 0.1030500941
0.1040044180 0.1040044180 0.1040044180
0.1049532899 0.1049532899 0.1049532899
0.1058967967 0.1058967967 0.1058967967
0.1068350230 0.1068350230 0.1068350230
0.1077680513 0.1077680513 0.1077680513
0.1086959619 0.1086959619 0.1086959619
0.1096188332 0.1096188332 0.1096188332
0.1105367414 0.1105367414 0.1105367414
0.1114497612 0.1114497612 0.1114497612
0.1123579652 0.1123579652 0.1123579652
0.1132614243 0.1132614243 0.1132614243
0.1141602077 0.1141602077 0.1141602077
0.1150543829 0.1150543829 0.1150543829
0.1159440159 0.1159440159 0.1159440159
0.1168291712 0.1168291712 0.1168291712
0.1177099117 0.1177099117 0.1177099117
0.1185862989 0.1185862989 0.1185862989
0.1194583928 0.1194583928 0.1194583928
0.1203262523 0.1203262523 0.1203262523
0.1211899348 0.1211899348 0.1211899348
0.1220494964 0.1220494964 0.1220494964
0.1229049921 0.1229049921 0.1229049921
0.1237564756 0.1237564756 0.1237564756
0.1246039995 0.1246039995 0.1246039995
0.1254476153 0.1254476153 0.1254476153
0.1262873732 0.1262873732 0.1262873732
0.1271233227 0.1271233227 0.1271233227
0.1279555120 0.1279555120 0.1279555120
0.1287839884 0.1287839884 0.1287839884
0.1296087982 0.1296087982 0.1296087982
0.1304299867 0.1304299867 0.1304299867
0.1312475985 0.1312475985 0.1312475985
0.1320616770 0.1320616770 0.1320616770
0.1328722650 0.1328722650 0.1328722650
0.1336794043 0.1336794043 0.1336794043
0.1344831359 0.1344831359 0.1344831359
0.1352835002 0.1352835002 0.1352835002
0.1360805365 0.1360805365 0.1360805365
0.1368742835 0.1368742835 0.1368742835
0.1376647793 0.1376647793 0.1376647793
0.1384520610 0.1384520610 0.1384520610
0.1392361653 0.1392361653 0.1392361653
0.1400171279 0.1400171279 0.1400171279
0.1407949842 0.1407949842 0.1407949842
0.1415697688 0.1415697688 0.1415697688
0.1423415154 0.1423415154 0.1423415154
0.1431102575 0.1431102575 0.1431102575
0.1438760278 0.1438760278 0.1438760278
0.1446388585 0.1446388585 0.1446388585
0.1453987811 0.1453987811 0.1453987811
0.1461558267 0.1461558267 0.1461558267
0.1469100258 0.1469100258 0.1469100258
0.1476614082 0.1476614082 0.1476614082
0.1484100035 0.1484100035 0.1484100035
0.1491558406 0.1491558406 0.1491558406
0.1498989480 0.1498989480 0.1498989480
0.1506393535 0.1506393535 0.1506393535
0.1513770848 0.1513770848 0.1513770848
0.1521121689 0.1521121689 0.1521121689
0.1528446323 0.1528446323 0.1528446323
0.1535745012 0.1535745012 0.1535745012
0.1543018013 0.1543018013 0.1543018013
0.1550265581 0.1550265581 0.1550265581
0.1557487963 0.1557487963 0.1557487963
0.1564685405 0.1564685405 0.1564685405
0.1571858148 0.1571858148 0.1571858148
0.1579006430 0.1579006430 0.1579006430
0.1586130483 0.1586130483 0.1586130483
0.1593230539 0.1593230539 0.1593230539
0.1600306823 0.1600306823 0.1600306823
0.1607359559 0.1607359559 0.1607359559
0.1614388966 0.1614388966 0.1614388966
0.1621395260 0.1621395260 0.1621395260
0.1628378654 0.1628378654 0.1628378654
0.1635339358 0.1635339358 0.1635339358
0.1642277578 0.1642277578 0.1642277578
0.1649193517 0.1649193517 0.1649193517
0.1656087377 0.1656087377 0.1656087377
0.1662959355 0.1662959355 0.1662959355
0.1669809645 0.1669809645 0.1669809645
0.1676638440 0.1676638440 0.1676638440
0.1683445927 0.1683445927 0.1683445927
0.1690232294 0.1690232294 0.1690232294
0.1696997724 0.1696997724 0.1696997724
0.1703742399 0.1703742399 0.1703742399
0.1710466495 0.1710466495 0.1710466495
0.1717170191 0.1717170191 0.1717170191
0.1723853658 0.1723853658 0.1723853658
0.1730517069 0.1730517069 0.1730517069
0.1737160591 0.1737160591 0.1737160591
0.1743784391 0.1743784391 0.1743784391
0.1750388634 0.1750388634 0.1750388634
0.1756973481 0.1756973481 0.1756973481
0.1763539092 0.1763539092 0.1763539092
0.1770085624 0.1770085624 0.1770085624
0.1776613233 0.1776613233 0.1776613233
0.1783122073 0.1783122073 0.1783122073
0.1789612293 0.1789612293 0.1789612293
0.1796084045 0.1796084045 0.1796084045
0.1802537474 0.1802537474 0.1802537474
0.1808972727 0.1808972727 0.1808972727
0.1815389947 0.1815389947 0.1815389947
0.1821789276 0.1821789276 0.1821789276
0.1828170854 0.1828170854 0.1828170854
0.1834534819 0.1834534819 0.1834534819
0.1840881306 0.1840881306 0.1840881306
0.1847210451 0.1847210451 0.1847210451
0.1853522387 0.1853522387 0.1853522387
0.1859817244 0.1859817244 0.1859817244
0.1866095153 0.1866095153 0.1866095153
0.1872356241 0.1872356241 0.1872356241
0.1878600634 0.1878600634 0.1878600634
0.1884828459 0.1884828459 0.1884828459
0.1891039837 0.1891039837 0.1891039837
0.1897234891 0.1897234891 0.1897234891
0.1903413741 0.1903413741 0.1903413741
0.1909576505 0.1909576505 0.1909576505
0.1915723302 0.1915723302 0.1915723302
0.1921854248 0.1921854248 0.1921854248
0.1927969456 0.1927969456 0.1927969456
0.1934069041 0.1934069041 0.1934069041
0.1940153115 0.1940153115 0.1940153115
0.1946221787 0.1946221787 0.1946221787
0.1952275167 0.1952275167 0.1952275167
0.1958313364 0.1958313364 0.1958313364
0.1964336485 0.1964336485 0.1964336485
0.1970344634 0.1970344634 0.1970344634
0.1976337916 0.1976337916 0.1976337916
0.1982316435 0.1982316435 0.1982316435
0.1988280293 0.1988280293 0.1988280293
0.1994229590 0.1994229590 0.1994229590
0.2000164426 0.2000164426 0.2000164426
0.2006084900 0.2006084900 0.2006084900
0.2011991110 0.2011991110 0.2011991110
0.2017883151 0.2017883151 0.2017883151
0.2023761119 0.2023761119 0.2023761119
0.2029625108 0.2029625108 0.2029625108
0.2035475213 0.2035475213 0.2035475213
0.2041311524 0.2041311524 0.2041311524
0.2047134133 0.2047134133 0.2047134133
0.2052943131 0.2052943131 0.2052943131
0.2058738607 0.2058738607 0.2058738607
0.2064520649 0.2064520649 0.2064520649
0.2070289344 0.2070289344 0.2070289344
0.2076044780 0.2076044780 0.2076044780
0.2081787041 0.2081787041 0.2081787041
0.2087516212 0.2087516212 0.2087516212
0.2093232377 0.2093232377 0.2093232377
0.2098935618 0.2098935618 0.2098935618
0.2104626019 0.2104626019 0.2104626019
0.2110303659 0.2110303659 0.2110303659
0.2115968620 0.2115968620 0.2115968620
0.2121620980 0.2121620980 0.2121620980
0.2127260819 0.2127260819 0.2127260819
0.2132888214 0.2132888214 0.2132888214
0.2138503242 0.2138503242 0.2138503242
0.2144105980 0.2144105980 0.2144105980
0.2149696503 0.2149696503 0.2149696503
0.2155274885 0.2155274885 0.2155274885
0.2160841202 0.2160841202 0.2160841202
0.2166395526 0.2166395526 0.2166395526
0.2171937929 0.2171937929 0.2171937929
0.2177468484 0.2177468484 0.2177468484
0.2182987261 0.2182987261 0.2182987261
0.2188494332 0.2188494332 0.2188494332
0.2193989765 0.2193989765 0.2193989765
0.2199473630 0.2199473630 0.2199473630
0.2204945995 0.2204945995 0.2204945995
0.2210406927 0.2210406927 0.2210406927
0.2215856495 0.2215856495 0.2215856495
0.2221294764 0.2221294764 0.2221294764
0.2226721800 0.2226721800 0.2226721800
0.2232137668 0.2232137668 0.2232137668
0.2237542433 0.2237542433 0.2237542433
0.2242936158 0.2242936158 0.2242936158
0.2248318908 0.2248318908 0.2248318908
0.2253690744 0.2253690744 0.2253690744
0.2259051728 0.2259051728 0.2259051728
0.2264401924 0.2264401924 0.2264401924
0.2269741390 0.2269741390 0.2269741390
0.2275070188 0.2275070188 0.2275070188
0.2280388378 0.2280388378 0.2280388378
0.2285696019 0.2285696019 0.2285696019
0.2290993169 0.2290993169 0.2290993169
0.2296279887 0.2296279887 0.2296279887
0.2301556230 0.2301556230 0.2301556230
0.2306822257 0.2306822257 0.2306822257
0.2312078022 0.2312078022 0.2312078022
0.2317323583 0.2317323583 0.2317323583
0.2322558996 0.2322558996 0.2322558996
0.2327784314 0.2327784314 0.2327784314
0.2332999594 0.2332999594 0.2332999594
0.2338204889 0.2338204889 0.2338204889
0.2343400252 0.2343400252 0.2343400252
0.2348585737 0.2348585737 0.2348585737
0.2353761398 0.2353761398 0.2353761398
0.2358927285 0.2358927285 0.2358927285
0.2364083451 0.2364083451 0.2364083451
0.2369229947 0.2369229947 0.2369229947
0.2374366825 0.2374366825 0.2374366825
0.2379494134 0.2379494134 0.2379494134
0.2384611925 0.2384611925 0.2384611925
0.2389720247 0.2389720247 0.2389720247
0.2394819150 0.2394819150 0.2394819150
0.2399908682 0.2399908682 0.2399908682
0.2404988892 0.2404988892 0.2404988892
0.2410059828 0.2410059828 0.2410059828
0.2415121537 0.2415121537 0.2415121537
0.2420174066 0.2420174066 0.2420174066
0.2425217462 0.2425217462 0.2425217462
0.2430251772 0.2430251772 0.2430251772
0.2435277042 0.2435277042 0.2435277042
0.2440293316 0.2440293316 0.2440293316
0.2445300641 0.2445300641 0.2445300641
0.2450299061 0.2450299061 0.2450299061
0.2455288621 0.2455288621 0.2455288621
0.2460269364 0.2460269364 0.2460269364
0.2465241335 0.2465241335 0.2465241335
0.2470204577 0.2470204577 0.2470204577
0.2475159133 0.2475159133 0.2475159133
0.2480105046 0.2480105046 0.2480105046
0.2485042358 0.2485042358 0.2485042358
0.2489971111 0.2489971111 0.2489971111
0.2494891347 0.2494891347 0.2494891347
0.2499803107 0.2499803107 0.2499803107
0.2504706432 0.2504706432 0.2504706432
0.2509601363 0.2509601363 0.2509601363
0.2514487940 0.2514487940 0.2514487940
0.2519366203 0.2519366203 0.2519366203
0.2524236192 0.2524236192 0.2524236192
0.2529097947 0.2529097947 0.2529097947
0.2533951506 0.2533951506 0.2533951506
0.2538796909 0.2538796909 0.2538796909
0.2543634194 0.2543634194 0.2543634194
0.2548463398 0.2548463398 0.2548463398
0.2553284561 0.2553284561 0.2553284561
0.2558097719 0.2558097719 0.2558097719
0.2562902910 0.2562902910 0.2562902910
0.2567700172 0.2567700172 0.2567700172
0.2572489540 0.2572489540 0.2572489540
0.2577271051 0.2577271051 0.2577271051
0.2582044742 0.2582044742 0.2582044742
0.2586810649 0.2586810649 0.2586810649
0.2591568806 0.2591568806 0.2591568806
0.2596319250 0.2596319250 0.2596319250
0.2601062016 0.2601062016 0.2601062016
0.2605797138 0.2605797138 0.2605797138
0.2610524651 0.2610524651 0.2610524651
0.2615244590 0.2615244590 0.2615244590
0.2619956989 0.2619956989 0.2619956989
0.2624661880 0.2624661880 0.2624661880
0.2629359299 0.2629359299 0.2629359299
0.2634049279 0.2634049279 0.2634049279
0.2638731852 0.2638731852 0.2638731852
0.2643407051 0.2643407051 0.2643407051
0.2648074909 0.2648074909 0.2648074909
0.2652735459 0.2652735459 0.2652735459
0.2657388732 0.2657388732 0.2657388732
0.2662034761 0.2662034761 0.2662034761
0.2666673577 0.2666673577 0.2666673577
0.2671305211 0.2671305211 0.2671305211
0.2675929696 0.2675929696 0.2675929696
0.2680547061 0.2680547061 0.2680547061
0.2685157338 0.2685157338 0.2685157338
0.2689760558 0.2689760558 0.2689760558
0.2694356750 0.2694356750 0.2694356750
0.2698945945 0.2698945945 0.2698945945
0.2703528172 0.2703528172 0.2703528172
0.2708103462 0.2708103462 0.2708103462
0.2712671845 0.2712671845 0.2712671845
0.2717233348 0.2717233348 0.2717233348
0.2721788002 0.2721788002 0.2721788002
0.2726335835 0.2726335835 0.2726335835
0.2730876876 0.2730876876 0.2730876876
0.2735411154 0.2735411154 0.2735411154
0.2739938696 0.2739938696 0.2739938696
0.2744459532 0.2744459532 0.2744459532
0.2748973688 0.2748973688 0.2748973688
0.2753481194 0.2753481194 0.2753481194
0.2757982075 0.2757982075 0.2757982075
0.2762476360 0.2762476360 0.2762476360
0.2766964075 0.2766964075 0.2766964075
0.2771445248 0.2771445248 0.2771445248
0.2775919906 0.2775919906 0.2775919906
0.2780388075 0.2780388075 0.2780388075
0.2784849781 0.2784849781 0.2784849781
0.2789305052 0.2789305052 0.2789305052
0.2793753912 0.2793753912 0.2793753912
0.2798196388 0.2798196388 0.2798196388
0.2802632506 0.2802632506 0.2802632506
0.2807062291 0.2807062291 0.2807062291
0.2811485768 0.2811485768 0.2811485768
0.2815902964 0.2815902964 0.2815902964
0.2820313902 0.2820313902 0.2820313902
0.2824718608 0.2824718608 0.2824718608
0.2829117107 0.2829117107 0.2829117107
0.2833509423 0.2833509423 0.2833509423
0.2837895581 0.2837895581 0.2837895581
0.2842275604 0.2842275604 0.2842275604
0.2846649518 0.2846649518 0.2846649518
0.2851017345 0.2851017345 0.2851017345
0.2855379110 0.2855379110 0.2855379110
0.2859734837 0.2859734837 0.2859734837
0.2864084549 0.2864084549 0.2864084549
0.2868428269 0.2868428269 0.2868428269
0.2872766020 0.2872766020 0.2872766020
0.2877097826 0.2877097826 0.2877097826
0.2881423709 0.2881423709 0.2881423709
0.2885743693 0.2885743693 0.2885743693
0.2890057799 0.2890057799 0.2890057799
0.2894366051 0.2894366051 0.2894366051
0.2898668471 0.2898668471 0.2898668471
0.2902965080 0.2902965080 0.2902965080
0.2907255901 0.2907255901 0.2907255901
0.2911540956 0.2911540956 0.2911540956
0.2915820266 0.2915820266 0.2915820266
0.2920093854 0.2920093854 0.2920093854
0.2924361741 0.2924361741 0.2924361741
0.2928623947 0.2928623947 0.2928623947
0.2932880495 0.2932880495 0.2932880495
0.2937131406 0.2937131406 0.2937131406
0.2941376700 0.2941376700 0.2941376700
0.2945616399 0.2945616399 0.2945616399
0.2949850522 0.2949850522 0.2949850522
0.2954079091 0.2954079091 0.2954079091
0.2958302127 0.2958302127 0.2958302127
0.2962519649 0.2962519649 0.2962519649
0.2966731678 0.2966731678 0.2966731678
0.2970938234 0.2970938234 0.2970938234
0.2975139337 0.2975139337 0.2975139337
0.2979335006 0.2979335006 0.2979335006
0.2983525262 0.2983525262 0.2983525262
0.2987710124 0.2987710124 0.2987710124
0.2991889612 0.2991889612 0.2991889612
0.2996063745 0.2996063745 0.2996063745
0.3000232543 0.3000232543 0.3000232543
0.3004396024 0.3004396024 0.3004396024
0.3008554208 0.3008554208 0.3008554208
0.3012707113 0.3012707113 0.3012707113
0.3016854759 0.3016854759 0.3016854759
0.3020997163 0.3020997163 0.3020997163
0.3025134346 0.3025134346 0.3025134346
0.3029266325 0.3029266325 0.3029266325
0.3033393119 0.3033393119 0.3033393119
0.3037514745 0.3037514745 0.3037514745
0.3041631223 0.3041631223 0.3041631223
0.3045742570 0.3045742570 0.3045742570
0.3049848804 0.3049848804 0.3049848804
0.3053949944 0.3053949944 0.3053949944
0.3058046006 0.3058046006 0.3058046006
0.3062137009 0.3062137009 0.3062137009
0.3066222970 0.3066222970 0.3066222970
0.3070303907 0.3070303907 0.3070303907
0.3074379836 0.3074379836 0.3074379836
0.3078450776 0.3078450776 0.3078450776
0.3082516744 0.3082516744 0.3082516744
0.3086577755 0.3086577755 0.3086577755
0.3090633829 0.3090633829 0.3090633829
0.3094684981 0.3094684981 0.3094684981
0.3098731228 0.3098731228 0.3098731228
0.3102772586 0.3102772586 0.3102772586
0.3106809074 0.3106809074 0.3106809074
0.3110840706 0.3110840706 0.3110840706
0.3114867500 0.3114867500 0.3114867500
0.3118889471 0.3118889471 0.3118889471
0.3122906637 0.3122906637 0.3122906637
0.3126919012 0.3126919012 0.3126919012
0.3130926614 0.3130926614 0.3130926614
0.3134929458 0.3134929458 0.3134929458
0.3138927560 0.3138927560 0.3138927560
0.3142920936 0.3142920936 0.3142920936
0.3146909602 0.3146909602 0.3146909602
0.3150893572 0.3150893572 0.3150893572
0.3154872864 0.3154872864 0.3154872864
0.3158847491 0.3158847491 0.3158847491
0.3162817470 0.3162817470 0.3162817470
0.3166782816 0.3166782816 0.3166782816
0.3170743544 0.3170743544 0.3170743544
0.3174699669 0.3174699669 0.3174699669
0.3178651207 0.3178651207 0.3178651207
0.3182598171 0.3182598171 0.3182598171
0.3186540578 0.3186540578 0.3186540578
0.3190478442 0.3190478442 0.3190478442
0.3194411777 0.3194411777 0.3194411777
0.3198340598 0.3198340598 0.3198340598
0.3202264920 0.3202264920 0.3202264920
0.3206184758 0.3206184758 0.3206184758
0.3210100125 0.3210100125 0.3210100125
0.3214011036 0.3214011036 0.3214011036
0.3217917505 0.3217917505 0.3217917505
0.3221819547 0.3221819547 0.3221819547
0.3225717176 0.3225717176 0.3225717176
0.3229610405 0.3229610405 0.3229610405
0.3233499249 0.3233499249 0.3233499249
0.3237383721 0.3237383721 0.3237383721
0.3241263836 0.3241263836 0.3241263836
0.3245139607 0.3245139607 0.3245139607
0.3249011047 0.3249011047 0.3249011047
0.3252878171 0.3252878171 0.3252878171
0.3256740991 0.3256740991 0.3256740991
0.3260599523 0.3260599523 0.3260599523
0.3264453777 0.3264453777 0.3264453777
0.3268303769 0.3268303769 0.3268303769
0.3272149511 0.3272149511 0.3272149511
0.3275991017 0.3275991017 0.3275991017
0.3279828300 0.3279828300 0.3279828300
0.3283661372 0.3283661372 0.3283661372
0.3287490247 0.3287490247 0.3287490247
0.3291314937 0.3291314937 0.3291314937
0.3295135456 0.3295135456 0.3295135456
0.3298951816 0.3298951816 0.3298951816
0.3302764031 0.3302764031 0.3302764031
0.3306572112 0.3306572112 0.3306572112
0.3310376072 0.3310376072 0.3310376072
0.3314175924 0.3314175924 0.3314175924
0.3317971681 0.3317971681 0.3317971681
0.3321763354 0.3321763354 0.3321763354
0.3325550957 0.3325550957 0.3325550957
0.3329334500 0.3329334500 0.3329334500
0.3333113998 0.3333113998 0.3333113998
0.3336889461 0.3336889461 0.3336889461
0.3340660902 0.3340660902 0.3340660902
0.3344428333 0.3344428333 0.3344428333
0.3348191766 0.3348191766 0.3348191766
0.3351951213 0.3351951213 0.3351951213
0.3355706685 0.3355706685 0.3355706685
0.3359458196 0.3359458196 0.3359458196
0.3363205755 0.3363205755 0.3363205755
0.3366949376 0.3366949376 0.3366949376
0.3370689069 0.3370689069 0.3370689069
0.3374424847 0.3374424847 0.3374424847
0.3378156720 0.3378156720 0.3378156720
0.3381884701 0.3381884701 0.3381884701
0.3385608800 0.3385608800 0.3385608800
0.3389329029 0.3389329029 0.3389329029
0.3393045400 0.3393045400 0.3393045400
0.3396757924 0.3396757924 0.3396757924
0.3400466611 0.3400466611 0.3400466611
0.3404171473 0.3404171473 0.3404171473
0.3407872522 0.3407872522 0.3407872522
0.3411569767 0.3411569767 0.3411569767
0.3415263221 0.3415263221 0.3415263221
0.3418952894 0.3418952894 0.3418952894
0.3422638796 0.3422638796 0.3422638796
0.3426320940 0.3426320940 0.3426320940
0.3429999335 0.3429999335 0.3429999335
0.3433673992 0.3433673992 0.3433673992
0.3437344922 0.3437344922 0.3437344922
0.3441012136 0.3441012136 0.3441012136
0.3444675644 0.3444675644 0.3444675644
0.3448335457 0.3448335457 0.3448335457
0.3451991586 0.3451991586 0.3451991586
0.3455644039 0.3455644039 0.3455644039
0.3459292829 0.3459292829 0.3459292829
0.3462937965 0.3462937965 0.3462937965
0.3466579458 0.3466579458 0.3466579458
0.3470217318 0.3470217318 0.3470217318
0.3473851555 0.3473851555 0.3473851555
0.3477482179 0.3477482179 0.3477482179
0.3481109201 0.3481109201 0.3481109201
0.3484732630 0.3484732630 0.3484732630
0.3488352477 0.3488352477 0.3488352477
0.3491968751 0.3491968751 0.3491968751
0.3495581462 0.3495581462 0.3495581462
0.3499190620 0.3499190620 0.3499190620
0.3502796236 0.3502796236 0.3502796236
0.3506398318 0.3506398318 0.3506398318
0.3509996877 0.3509996877 0.3509996877
0.3513591922 0.3513591922 0.3513591922
0.3517183463 0.3517183463 0.3517183463
0.3520771509 0.3520771509 0.3520771509
0.3524356071 0.3524356071 0.3524356071
0.3527937157 0.3527937157 0.3527937157
0.3531514777 0.3531514777 0.3531514777
0.3535088941 0.3535088941 0.3535088941
0.3538659658 0.3538659658 0.3538659658
0.3542226937 0.3542226937 0.3542226937
0.3545790787 0.3545790787 0.3545790787
0.3549351219 0.3549351219 0.3549351219
0.3552908240 0.3552908240 0.3552908240
0.3556461861 0.3556461861 0.3556461861
0.3560012090 0.3560012090 0.3560012090
0.3563558936 0.3563558936 0.3563558936
0.3567102409 0.3567102409 0.3567102409
0.3570642518 0.3570642518 0.3570642518
0.3574179271 0.3574179271 0.3574179271
0.3577712678 0.3577712678 0.3577712678
0.3581242748 0.3581242748 0.3581242748
0.3584769488 0.3584769488 0.3584769488
0.3588292909 0.3588292909 0.3588292909
0.3591813019 0.3591813019 0.3591813019
0.3595329826 0.3595329826 0.3595329826
0.3598843340 0.3598843340 0.3598843340
0.3602353569 0.3602353569 0.3602353569
0.3605860521 0.3605860521 0.3605860521
0.3609364206 0.3609364206 0.3609364206
0.3612864632 0.3612864632 0.3612864632
0.3616361807 0.3616361807 0.3616361807
0.3619855741 0.3619855741 0.3619855741
0.3623346440 0.3623346440 0.3623346440
0.3626833914 0.3626833914 0.3626833914
0.3630318172 0.3630318172 0.3630318172
0.3633799221 0.3633799221 0.3633799221
0.3637277070 0.3637277070 0.3637277070
0.3640751727 0.3640751727 0.3640751727
0.3644223200 0.3644223200 0.3644223200
0.3647691498 0.3647691498 0.3647691498
0.3651156629 0.3651156629 0.3651156629
0.3654618600 0.3654618600 0.3654618600
0.3658077421 0.3658077421 0.3658077421
0.3661533098 0.3661533098 0.3661533098
0.3664985641 0.3664985641 0.3664985641
0.3668435057 0.3668435057 0.3668435057
0.3671881353 0.3671881353 0.3671881353
0.3675324539 0.3675324539 0.3675324539
0.3678764622 0.3678764622 0.3678764622
