VFX IO/Rec.709 to Linear.cube
# DaVinci Resolve Cube (1D shaper LUT).

LUT_1D_SIZE 4096
LUT_1D_INPUT_RANGE 0.0000000000 1.0000000000

0.0000000000 0.0000000000 0.0000000000
0.0000542667 0.0000542667 0.0000542667
0.0001085334 0.0001085334 0.0001085334
0.0001628002 0.0001628002 0.0001628002
0.0002170669 0.0002170669 0.0002170669
0.0002713336 0.0002713336 0.0002713336
0.0003256003 0.0003256003 0.0003256003
0.0003798670 0.0003798670 0.0003798670
0.0004341338 0.0004341338 0.0004341338
0.0004884005 0.0004884005 0.0004884005
0.0005426672 0.0005426672 0.0005426672
0.0005969339 0.0005969339 0.0005969339
0.0006512007 0.0006512007 0.0006512007
0.0007054674 0.0007054674 0.0007054674
0.0007597341 0.0007597341 0.0007597341
0.0008140008 0.0008140008 0.0008140008
0.0008682675 0.0008682675 0.0008682675
0.0009225343 0.0009225343 0.0009225343
0.0009768010 0.0009768010 0.0009768010
0.0010310677 0.0010310677 0.0010310677
0.0010853344 0.0010853344 0.0010853344
0.0011396011 0.0011396011 0.0011396011
0.0011938679 0.0011938679 0.0011938679
0.0012481346 0.0012481346 0.0012481346
0.0013024013 0.0013024013 0.0013024013
0.0013566680 0.0013566680 0.0013566680
0.0014109347 0.0014109347 0.0014109347
0.0014652015 0.0014652015 0.0014652015
0.0015194682 0.0015194682 0.0015194682
0.0015737349 0.0015737349 0.0015737349
0.0016280016 0.0016280016 0.0016280016
0.0016822683 0.0016822683 0.0016822683
0.0017365351 0.0017365351 0.0017365351
0.0017908018 0.0017908018 0.0017908018
0.0018450685 0.0018450685 0.0018450685
0.0018993352 0.0018993352 0.0018993352
0.0019536020 0.0019536020 0.0019536020
0.0020078687 0.0020078687 0.0020078687
0.0020621354 0.0020621354 0.0020621354
0.0021164021 0.0021164021 0.0021164021
0.0021706688 0.0021706688 0.0021706688
0.0022249356 0.0022249356 0.0022249356
0.0022792023 0.0022792023 0.0022792023
0.0023334690 0.0023334690 0.0023334690
0.0023877357 0.0023877357 0.0023877357
0.0024420024 0.0024420024 0.0024420024
0.0024962692 0.0024962692 0.0024962692
0.0025505359 0.0025505359 0.0025505359
0.0026048026 0.0026048026 0.0026048026
0.0026590693 0.0026590693 0.0026590693
0.0027133360 0.0027133360 0.0027133360
0.0027676028 0.0027676028 0.0027676028
0.0028218695 0.0028218695 0.0028218695
0.0028761362 0.0028761362 0.0028761362
0.0029304029 0.0029304029 0.0029304029
0.0029846697 0.0029846697 0.0029846697
0.0030389364 0.0030389364 0.0030389364
0.0030932031 0.0030932031 0.0030932031
0.0031474698 0.0031474698 0.0031474698
0.0032017365 0.0032017365 0.0032017365
0.0032560033 0.0032560033 0.0032560033
0.0033102700 0.0033102700 0.0033102700
0.0033645367 0.0033645367 0.0033645367
0.0034188034 0.0034188034 0.0034188034
0.0034730701 0.0034730701 0.0034730701
0.0035273369 0.0035273369 0.0035273369
0.0035816036 0.0035816036 0.0035816036
0.0036358703 0.0036358703 0.0036358703
0.0036901370 0.0036901370 0.0036901370
0.0037444037 0.0037444037 0.0037444037
0.0037986705 0.0037986705 0.0037986705
0.0038529372 0.0038529372 0.0038529372
0.0039072039 0.0039072039 0.0039072039
0.0039614706 0.0039614706 0.0039614706
0.0040157373 0.0040157373 0.0040157373
0.0040700041 0.0040700041 0.0040700041
0.0041242708 0.0041242708 0.0041242708
0.0041785375 0.0041785375 0.0041785375
0.0042328042 0.0042328042 0.0042328042
0.0042870710 0.0042870710 0.0042870710
0.0043413377 0.0043413377 0.0043413377
0.0043956044 0.0043956044 0.0043956044
0.0044498711 0.0044498711 0.0044498711
0.0045041378 0.0045041378 0.0045041378
0.0045584046 0.0045584046 0.0045584046
0.0046126713 0.0046126713 0.0046126713
0.0046669380 0.0046669380 0.0046669380
0.0047212047 0.0047212047 0.0047212047
0.0047754714 0.0047754714 0.0047754714
0.0048297382 0.0048297382 0.0048297382
0.0048840049 0.0048840049 0.0048840049
0.0049382716 0.0049382716 0.0049382716
0.0049925383 0.0049925383 0.0049925383
0.0050468050 0.0050468050 0.0050468050
0.0051010718 0.0051010718 0.0051010718
0.0051553385 0.0051553385 0.0051553385
0.0052096052 0.0052096052 0.0052096052
0.0052638719 0.0052638719 0.0052638719
0.0053181387 0.0053181387 0.0053181387
0.0053724054 0.0053724054 0.0053724054
0.0054266721 0.0054266721 0.0054266721
0.0054809388 0.0054809388 0.0054809388
0.0055352055 0.0055352055 0.0055352055
0.0055894723 0.0055894723 0.0055894723
0.0056437390 0.0056437390 0.0056437390
0.0056980057 0.0056980057 0.0056980057
0.0057522724 0.0057522724 0.0057522724
0.0058065391 0.0058065391 0.0058065391
0.0058608059 0.0058608059 0.0058608059
0.0059150726 0.0059150726 0.0059150726
0.0059693393 0.0059693393 0.0059693393
0.0060236060 0.0060236060 0.0060236060
0.0060778727 0.0060778727 0.0060778727
0.0061321395 0.0061321395 0.0061321395
0.0061864062 0.0061864062 0.0061864062
0.0062406729 0.0062406729 0.0062406729
0.0062949396 0.0062949396 0.0062949396
0.0063492063 0.0063492063 0.0063492063
0.0064034731 0.0064034731 0.0064034731
0.0064577398 0.0064577398 0.0064577398
0.0065120065 0.0065120065 0.0065120065
0.0065662732 0.0065662732 0.0065662732
0.0066205400 0.0066205400 0.0066205400
0.0066748067 0.0066748067 0.0066748067
0.0067290734 0.0067290734 0.0067290734
0.0067833401 0.0067833401 0.0067833401
0.0068376068 0.0068376068 0.0068376068
0.0068918736 0.0068918736 0.0068918736
0.0069461403 0.0069461403 0.0069461403
0.0070004070 0.0070004070 0.0070004070
0.0070546737 0.0070546737 0.0070546737
0.0071089404 0.0071089404 0.0071089404
0.0071632072 0.0071632072 0.0071632072
0.0072174739 0.0072174739 0.0072174739
0.0072717406 0.0072717406 0.0072717406
0.0073260073 0.0073260073 0.0073260073
0.0073802740 0.0073802740 0.0073802740
0.0074345408 0.0074345408 0.0074345408
0.0074888075 0.0074888075 0.0074888075
0.0075430742 0.0075430742 0.0075430742
0.0075973409 0.0075973409 0.0075973409
0.0076516077 0.0076516077 0.0076516077
0.0077058744 0.0077058744 0.0077058744
0.0077601411 0.0077601411 0.0077601411
0.0078144078 0.0078144078 0.0078144078
0.0078686745 0.0078686745 0.0078686745
0.0079229413 0.0079229413 0.0079229413
0.0079772080 0.0079772080 0.0079772080
0.0080314747 0.0080314747 0.0080314747
0.0080857414 0.0080857414 0.0080857414
0.0081400081 0.0081400081 0.0081400081
0.0081942749 0.0081942749 0.0081942749
0.0082485416 0.0082485416 0.0082485416
0.0083028083 0.0083028083 0.0083028083
0.0083570750 0.0083570750 0.0083570750
0.0084113417 0.0084113417 0.0084113417
0.0084656085 0.0084656085 0.0084656085
0.0085198752 0.0085198752 0.0085198752
0.0085741419 0.0085741419 0.0085741419
0.0086284086 0.0086284086 0.0086284086
0.0086826753 0.0086826753 0.0086826753
0.0087369421 0.0087369421 0.0087369421
0.0087912088 0.0087912088 0.0087912088
0.0088454755 0.0088454755 0.0088454755
0.0088997422 0.0088997422 0.0088997422
0.0089540090 0.0089540090 0.0089540090
0.0090082757 0.0090082757 0.0090082757
0.0090625424 0.0090625424 0.0090625424
0.0091168091 0.0091168091 0.0091168091
0.0091710758 0.0091710758 0.0091710758
0.0092253426 0.0092253426 0.0092253426
0.0092796093 0.0092796093 0.0092796093
0.0093338760 0.0093338760 0.0093338760
0.0093881427 0.0093881427 0.0093881427
0.0094424094 0.0094424094 0.0094424094
0.0094966762 0.0094966762 0.0094966762
0.0095509429 0.0095509429 0.0095509429
0.0096052096 0.0096052096 0.0096052096
0.0096594763 0.0096594763 0.0096594763
0.0097137430 0.0097137430 0.0097137430
0.0097680098 0.0097680098 0.0097680098
0.0098222765 0.0098222765 0.0098222765
0.0098765432 0.0098765432 0.0098765432
0.0099308099 0.0099308099 0.0099308099
0.0099850767 0.0099850767 0.0099850767
0.0100393434 0.0100393434 0.0100393434
0.0100936101 0.0100936101 0.0100936101
0.0101478768 0.0101478768 0.0101478768
0.0102021435 0.0102021435 0.0102021435
0.0102564103 0.0102564103 0.0102564103
0.0103106770 0.0103106770 0.0103106770
0.0103649437 0.0103649437 0.0103649437
0.0104192104 0.0104192104 0.0104192104
0.0104734771 0.0104734771 0.0104734771
0.0105277439 0.0105277439 0.0105277439
0.0105820106 0.0105820106 0.0105820106
0.0106362773 0.0106362773 0.0106362773
0.0106905440 0.0106905440 0.0106905440
0.0107448107 0.0107448107 0.0107448107
0.0107990775 0.0107990775 0.0107990775
0.0108533442 0.0108533442 0.0108533442
0.0109076109 0.0109076109 0.0109076109
0.0109618776 0.0109618776 0.0109618776
0.0110161443 0.0110161443 0.0110161443
0.0110704111 0.0110704111 0.0110704111
0.0111246778 0.0111246778 0.0111246778
0.0111789445 0.0111789445 0.0111789445
0.0112332112 0.0112332112 0.0112332112
0.0112874780 0.0112874780 0.0112874780
0.0113417447 0.0113417447 0.0113417447
0.0113960114 0.0113960114 0.0113960114
0.0114502781 0.0114502781 0.0114502781
0.0115045448 0.0115045448 0.0115045448
0.0115588116 0.0115588116 0.0115588116
0.0116130783 0.0116130783 0.0116130783
0.0116673450 0.0116673450 0.0116673450
0.0117216117 0.0117216117 0.0117216117
0.0117758784 0.0117758784 0.0117758784
0.0118301452 0.0118301452 0.0118301452
0.0118844119 0.0118844119 0.0118844119
0.0119386786 0.0119386786 0.0119386786
0.0119929453 0.0119929453 0.0119929453
0.0120472120 0.0120472120 0.0120472120
0.0121014788 0.0121014788 0.0121014788
0.0121557455 0.0121557455 0.0121557455
0.0122100122 0.0122100122 0.0122100122
0.0122642789 0.0122642789 0.0122642789
0.0123185457 0.0123185457 0.0123185457
0.0123728124 0.0123728124 0.0123728124
0.0124270791 0.0124270791 0.0124270791
0.0124813458 0.0124813458 0.0124813458
0.0125356125 0.0125356125 0.0125356125
0.0125898793 0.0125898793 0.0125898793
0.0126441460 0.0126441460 0.0126441460
0.0126984127 0.0126984127 0.0126984127
0.0127526794 0.0127526794 0.0127526794
0.0128069461 0.0128069461 0.0128069461
0.0128612129 0.0128612129 0.0128612129
0.0129154796 0.0129154796 0.0129154796
0.0129697463 0.0129697463 0.0129697463
0.0130240130 0.0130240130 0.0130240130
0.0130782797 0.0130782797 0.0130782797
0.0131325465 0.0131325465 0.0131325465
0.0131868132 0.0131868132 0.0131868132
0.0132410799 0.0132410799 0.0132410799
0.0132953466 0.0132953466 0.0132953466
0.0133496133 0.0133496133 0.0133496133
0.0134038801 0.0134038801 0.0134038801
0.0134581468 0.0134581468 0.0134581468
0.0135124135 0.0135124135 0.0135124135
0.0135666802 0.0135666802 0.0135666802
0.0136209470 0.0136209470 0.0136209470
0.0136752137 0.0136752137 0.0136752137
0.0137294804 0.0137294804 0.0137294804
0.0137837471 0.0137837471 0.0137837471
0.0138380138 0.0138380138 0.0138380138
0.0138922806 0.0138922806 0.0138922806
0.0139465473 0.0139465473 0.0139465473
0.0140008140 0.0140008140 0.0140008140
0.0140550807 0.0140550807 0.0140550807
0.0141093474 0.0141093474 0.0141093474
0.0141636142 0.0141636142 0.0141636142
0.0142178809 0.0142178809 0.0142178809
0.0142721476 0.0142721476 0.0142721476
0.0143264143 0.0143264143 0.0143264143
0.0143806810 0.0143806810 0.0143806810
0.0144349478 0.0144349478 0.0144349478
0.0144892145 0.0144892145 0.0144892145
0.0145434812 0.0145434812 0.0145434812
0.0145977479 0.0145977479 0.0145977479
0.0146520147 0.0146520147 0.0146520147
0.0147062814 0.0147062814 0.0147062814
0.0147605481 0.0147605481 0.0147605481
0.0148148148 0.0148148148 0.0148148148
0.0148690815 0.0148690815 0.0148690815
0.0149233483 0.0149233483 0.0149233483
0.0149776150 0.0149776150 0.0149776150
0.0150318817 0.0150318817 0.0150318817
0.0150861484 0.0150861484 0.0150861484
0.0151404151 0.0151404151 0.0151404151
0.0151946819 0.0151946819 0.0151946819
0.0152489486 0.0152489486 0.0152489486
0.0153032153 0.0153032153 0.0153032153
0.0153574820 0.0153574820 0.0153574820
0.0154117487 0.0154117487 0.0154117487
0.0154660155 0.0154660155 0.0154660155
0.0155202822 0.0155202822 0.0155202822
0.0155745489 0.0155745489 0.0155745489
0.0156288156 0.0156288156 0.0156288156
0.0156830823 0.0156830823 0.0156830823
0.0157373491 0.0157373491 0.0157373491
0.0157916158 0.0157916158 0.0157916158
0.0158458825 0.0158458825 0.0158458825
0.0159001492 0.0159001492 0.0159001492
0.0159544160 0.0159544160 0.0159544160
0.0160086827 0.0160086827 0.0160086827
0.0160629494 0.0160629494 0.0160629494
0.0161172161 0.0161172161 0.0161172161
0.0161714828 0.0161714828 0.0161714828
0.0162257496 0.0162257496 0.0162257496
0.0162800163 0.0162800163 0.0162800163
0.0163342830 0.0163342830 0.0163342830
0.0163885497 0.0163885497 0.0163885497
0.0164428164 0.0164428164 0.0164428164
0.0164970832 0.0164970832 0.0164970832
0.0165513499 0.0165513499 0.0165513499
0.0166056166 0.0166056166 0.0166056166
0.0166598833 0.0166598833 0.0166598833
0.0167141500 0.0167141500 0.0167141500
0.0167684168 0.0167684168 0.0167684168
0.0168226835 0.0168226835 0.0168226835
0.0168769502 0.0168769502 0.0168769502
0.0169312169 0.0169312169 0.0169312169
0.0169854837 0.0169854837 0.0169854837
0.0170397504 0.0170397504 0.0170397504
0.0170940171 0.0170940171 0.0170940171
0.0171482838 0.0171482838 0.0171482838
0.0172025505 0.0172025505 0.0172025505
0.0172568173 0.0172568173 0.0172568173
0.0173110840 0.0173110840 0.0173110840
0.0173653507 0.0173653507 0.0173653507
0.0174196174 0.0174196174 0.0174196174
0.0174738841 0.0174738841 0.0174738841
0.0175281509 0.0175281509 0.0175281509
0.0175824176 0.0175824176 0.0175824176
0.0176366843 0.0176366843 0.0176366843
0.0176909510 0.0176909510 0.0176909510
0.0177452177 0.0177452177 0.0177452177
0.0177994845 0.0177994845 0.0177994845
0.0178537512 0.0178537512 0.0178537512
0.0179080179 0.0179080179 0.0179080179
0.0179622846 0.0179622846 0.0179622846
0.0179615283 0.0179615283 0.0179615283
0.0180157015 0.0180157015 0.0180157015
0.0180699645 0.0180699645 0.0180699645
0.0181243172 0.0181243172 0.0181243172
0.0181787597 0.0181787597 0.0181787597
0.0182332920 0.0182332920 0.0182332920
0.0182879142 0.0182879142 0.0182879142
0.0183426263 0.0183426263 0.0183426263
0.0183974283 0.0183974283 0.0183974283
0.0184523201 0.0184523201 0.0184523201
0.0185073020 0.0185073020 0.0185073020
0.0185623738 0.0185623738 0.0185623738
0.0186175357 0.0186175357 0.0186175357
0.0186727876 0.0186727876 0.0186727876
0.0187281295 0.0187281295 0.0187281295
0.0187835616 0.0187835616 0.0187835616
0.0188390838 0.0188390838 0.0188390838
0.0188946961 0.0188946961 0.0188946961
0.0189503985 0.0189503985 0.0189503985
0.0190061912 0.0190061912 0.0190061912
0.0190620741 0.0190620741 0.0190620741
0.0191180473 0.0191180473 0.0191180473
0.0191741107 0.0191741107 0.0191741107
0.0192302644 0.0192302644 0.0192302644
0.0192865085 0.0192865085 0.0192865085
0.0193428429 0.0193428429 0.0193428429
0.0193992677 0.0193992677 0.0193992677
0.0194557829 0.0194557829 0.0194557829
0.0195123886 0.0195123886 0.0195123886
0.0195690847 0.0195690847 0.0195690847
0.0196258713 0.0196258713 0.0196258713
0.0196827484 0.0196827484 0.0196827484
0.0197397161 0.0197397161 0.0197397161
0.0197967743 0.0197967743 0.0197967743
0.0198539231 0.0198539231 0.0198539231
0.0199111625 0.0199111625 0.0199111625
0.0199684926 0.0199684926 0.0199684926
0.0200259134 0.0200259134 0.0200259134
0.0200834248 0.0200834248 0.0200834248
0.0201410270 0.0201410270 0.0201410270
0.0201987199 0.0201987199 0.0201987199
0.0202565036 0.0202565036 0.0202565036
0.0203143781 0.0203143781 0.0203143781
0.0203723434 0.0203723434 0.0203723434
0.0204303996 0.0204303996 0.0204303996
0.0204885466 0.0204885466 0.0204885466
0.0205467846 0.0205467846 0.0205467846
0.0206051135 0.0206051135 0.0206051135
0.0206635333 0.0206635333 0.0206635333
0.0207220441 0.0207220441 0.0207220441
0.0207806460 0.0207806460 0.0207806460
0.0208393388 0.0208393388 0.0208393388
0.0208981228 0.0208981228 0.0208981228
0.0209569978 0.0209569978 0.0209569978
0.0210159639 0.0210159639 0.0210159639
0.0210750212 0.0210750212 0.0210750212
0.0211341696 0.0211341696 0.0211341696
0.0211934092 0.0211934092 0.0211934092
0.0212527400 0.0212527400 0.0212527400
0.0213121621 0.0213121621 0.0213121621
0.0213716754 0.0213716754 0.0213716754
0.0214312800 0.0214312800 0.0214312800
0.0214909759 0.0214909759 0.0214909759
0.0215507632 0.0215507632 0.0215507632
0.0216106418 0.0216106418 0.0216106418
0.0216706118 0.0216706118 0.0216706118
0.0217306732 0.0217306732 0.0217306732
0.0217908261 0.0217908261 0.0217908261
0.0218510705 0.0218510705 0.0218510705
0.0219114063 0.0219114063 0.0219114063
0.0219718336 0.0219718336 0.0219718336
0.0220323525 0.0220323525 0.0220323525
0.0220929630 0.0220929630 0.0220929630
0.0221536651 0.0221536651 0.0221536651
0.0222144587 0.0222144587 0.0222144587
0.0222753440 0.0222753440 0.0222753440
0.0223363210 0.0223363210 0.0223363210
0.0223973897 0.0223973897 0.0223973897
0.0224585501 0.0224585501 0.0224585501
0.0225198022 0.0225198022 0.0225198022
0.0225811461 0.0225811461 0.0225811461
0.0226425818 0.0226425818 0.0226425818
0.0227041093 0.0227041093 0.0227041093
0.0227657287 0.0227657287 0.0227657287
0.0228274399 0.0228274399 0.0228274399
0.0228892430 0.0228892430 0.0228892430
0.0229511380 0.0229511380 0.0229511380
0.0230131250 0.0230131250 0.0230131250
0.0230752040 0.0230752040 0.0230752040
0.0231373749 0.0231373749 0.0231373749
0.0231996378 0.0231996378 0.0231996378
0.0232619928 0.0232619928 0.0232619928
0.0233244399 0.0233244399 0.0233244399
0.0233869790 0.0233869790 0.0233869790
0.0234496103 0.0234496103 0.0234496103
0.0235123337 0.0235123337 0.0235123337
0.0235751493 0.0235751493 0.0235751493
0.0236380570 0.0236380570 0.0236380570
0.0237010570 0.0237010570 0.0237010570
0.0237641492 0.0237641492 0.0237641492
0.0238273337 0.0238273337 0.0238273337
0.0238906105 0.0238906105 0.0238906105
0.0239539795 0.0239539795 0.0239539795
0.0240174409 0.0240174409 0.0240174409
0.0240809947 0.0240809947 0.0240809947
0.0241446409 0.0241446409 0.0241446409
0.0242083794 0.0242083794 0.0242083794
0.0242722104 0.0242722104 0.0242722104
0.0243361339 0.0243361339 0.0243361339
0.0244001498 0.0244001498 0.0244001498
0.0244642582 0.0244642582 0.0244642582
0.0245284592 0.0245284592 0.0245284592
0.0245927528 0.0245927528 0.0245927528
0.0246571389 0.0246571389 0.0246571389
0.0247216176 0.0247216176 0.0247216176
0.0247861889 0.0247861889 0.0247861889
0.0248508529 0.0248508529 0.0248508529
0.0249156096 0.0249156096 0.0249156096
0.0249804590 0.0249804590 0.0249804590
0.0250454010 0.0250454010 0.0250454010
0.0251104359 0.0251104359 0.0251104359
0.0251755635 0.0251755635 0.0251755635
0.0252407839 0.0252407839 0.0252407839
0.0253060972 0.0253060972 0.0253060972
0.0253715032 0.0253715032 0.0253715032
0.0254370022 0.0254370022 0.0254370022
0.0255025940 0.0255025940 0.0255025940
0.0255682788 0.0255682788 0.0255682788
0.0256340565 0.0256340565 0.0256340565
0.0256999271 0.0256999271 0.0256999271
0.0257658908 0.0257658908 0.0257658908
0.0258319474 0.0258319474 0.0258319474
0.0258980971 0.0258980971 0.0258980971
0.0259643399 0.0259643399 0.0259643399
0.0260306757 0.0260306757 0.0260306757
0.0260971047 0.0260971047 0.0260971047
0.0261636268 0.0261636268 0.0261636268
0.0262302420 0.0262302420 0.0262302420
0.0262969504 0.0262969504 0.0262969504
0.0263637520 0.0263637520 0.0263637520
0.0264306469 0.0264306469 0.0264306469
0.0264976349 0.0264976349 0.0264976349
0.0265647163 0.0265647163 0.0265647163
0.0266318910 0.0266318910 0.0266318910
0.0266991589 0.0266991589 0.0266991589
0.0267665203 0.0267665203 0.0267665203
0.0268339749 0.0268339749 0.0268339749
0.0269015230 0.0269015230 0.0269015230
0.0269691645 0.0269691645 0.0269691645
0.0270368994 0.0270368994 0.0270368994
0.0271047278 0.0271047278 0.0271047278
0.0271726497 0.0271726497 0.0271726497
0.0272406651 0.0272406651 0.0272406651
0.0273087740 0.0273087740 0.0273087740
0.0273769765 0.0273769765 0.0273769765
0.0274452725 0.0274452725 0.0274452725
0.0275136622 0.0275136622 0.0275136622
0.0275821454 0.0275821454 0.0275821454
0.0276507224 0.0276507224 0.0276507224
0.0277193929 0.0277193929 0.0277193929
0.0277881572 0.0277881572 0.0277881572
0.0278570152 0.0278570152 0.0278570152
0.0279259670 0.0279259670 0.0279259670
0.0279950125 0.0279950125 0.0279950125
0.0280641518 0.0280641518 0.0280641518
0.0281333849 0.0281333849 0.0281333849
0.0282027118 0.0282027118 0.0282027118
0.0282721326 0.0282721326 0.0282721326
0.0283416473 0.0283416473 0.0283416473
0.0284112559 0.0284112559 0.0284112559
0.0284809584 0.0284809584 0.0284809584
0.0285507548 0.0285507548 0.0285507548
0.0286206452 0.0286206452 0.0286206452
0.0286906296 0.0286906296 0.0286906296
0.0287607081 0.0287607081 0.0287607081
0.0288308805 0.0288308805 0.0288308805
0.0289011471 0.0289011471 0.0289011471
0.0289715077 0.0289715077 0.0289715077
0.0290419624 0.0290419624 0.0290419624
0.0291125113 0.0291125113 0.0291125113
0.0291831543 0.0291831543 0.0291831543
0.0292538915 0.0292538915 0.0292538915
0.0293247229 0.0293247229 0.0293247229
0.0293956485 0.0293956485 0.0293956485
0.0294666684 0.0294666684 0.0294666684
0.0295377825 0.0295377825 0.0295377825
0.0296089910 0.0296089910 0.0296089910
0.0296802937 0.0296802937 0.0296802937
0.0297516908 0.0297516908 0.0297516908
0.0298231822 0.0298231822 0.0298231822
0.0298947680 0.0298947680 0.0298947680
0.0299664482 0.0299664482 0.0299664482
0.0300382229 0.0300382229 0.0300382229
0.0301100920 0.0301100920 0.0301100920
0.0301820556 0.0301820556 0.0301820556
0.0302541136 0.0302541136 0.0302541136
0.0303262662 0.0303262662 0.0303262662
0.0303985134 0.0303985134 0.0303985134
0.0304708550 0.0304708550 0.0304708550
0.0305432913 0.0305432913 0.0305432913
0.0306158222 0.0306158222 0.0306158222
0.0306884477 0.0306884477 0.0306884477
0.0307611679 0.0307611679 0.0307611679
0.0308339827 0.0308339827 0.0308339827
0.0309068922 0.0309068922 0.0309068922
0.0309798965 0.0309798965 0.0309798965
0.0310529955 0.0310529955 0.0310529955
0.0311261893 0.0311261893 0.0311261893
0.0311994778 0.0311994778 0.0311994778
0.0312728612 0.0312728612 0.0312728612
0.0313463394 0.0313463394 0.0313463394
0.0314199124 0.0314199124 0.0314199124
0.0314935803 0.0314935803 0.0314935803
0.0315673431 0.0315673431 0.0315673431
0.0316412009 0.0316412009 0.0316412009
0.0317151535 0.0317151535 0.0317151535
0.0317892012 0.0317892012 0.0317892012
0.0318633438 0.0318633438 0.0318633438
0.0319375814 0.0319375814 0.0319375814
0.0320119141 0.0320119141 0.0320119141
0.0320863418 0.0320863418 0.0320863418
0.0321608646 0.0321608646 0.0321608646
0.0322354825 0.0322354825 0.0322354825
0.0323101955 0.0323101955 0.0323101955
0.0323850037 0.0323850037 0.0323850037
0.0324599070 0.0324599070 0.0324599070
0.0325349055 0.0325349055 0.0325349055
0.0326099992 0.0326099992 0.0326099992
0.0326851882 0.0326851882 0.0326851882
0.0327604724 0.0327604724 0.0327604724
0.0328358518 0.0328358518 0.0328358518
0.0329113266 0.0329113266 0.0329113266
0.0329868966 0.0329868966 0.0329868966
0.0330625621 0.0330625621 0.0330625621
0.0331383228 0.0331383228 0.0331383228
0.0332141790 0.0332141790 0.0332141790
0.0332901305 0.0332901305 0.0332901305
0.0333661775 0.0333661775 0.0333661775
0.0334423200 0.0334423200 0.0334423200
0.0335185579 0.0335185579 0.0335185579
0.0335948913 0.0335948913 0.0335948913
0.0336713202 0.0336713202 0.0336713202
0.0337478446 0.0337478446 0.0337478446
0.0338244646 0.0338244646 0.0338244646
0.0339011802 0.0339011802 0.0339011802
0.0339779913 0.0339779913 0.0339779913
0.0340548981 0.0340548981 0.0340548981
0.0341319006 0.0341319006 0.0341319006
0.0342089987 0.0342089987 0.0342089987
0.0342861925 0.0342861925 0.0342861925
0.0343634820 0.0343634820 0.0343634820
0.0344408672 0.0344408672 0.0344408672
0.0345183482 0.0345183482 0.0345183482
0.0345959249 0.0345959249 0.0345959249
0.0346735975 0.0346735975 0.0346735975
0.0347513658 0.0347513658 0.0347513658
0.0348292300 0.0348292300 0.0348292300
0.0349071901 0.0349071901 0.0349071901
0.0349852460 0.0349852460 0.0349852460
0.0350633978 0.0350633978 0.0350633978
0.0351416456 0.0351416456 0.0351416456
0.0352199893 0.0352199893 0.0352199893
0.0352984289 0.0352984289 0.0352984289
0.0353769646 0.0353769646 0.0353769646
0.0354555963 0.0354555963 0.0354555963
0.0355343239 0.0355343239 0.0355343239
0.0356131477 0.0356131477 0.0356131477
0.0356920675 0.0356920675 0.0356920675
0.0357710834 0.0357710834 0.0357710834
0.0358501954 0.0358501954 0.0358501954
0.0359294036 0.0359294036 0.0359294036
0.0360087079 0.0360087079 0.0360087079
0.0360881084 0.0360881084 0.0360881084
0.0361676050 0.0361676050 0.0361676050
0.0362471979 0.0362471979 0.0362471979
0.0363268871 0.0363268871 0.0363268871
0.0364066725 0.0364066725 0.0364066725
0.0364865542 0.0364865542 0.0364865542
0.0365665322 0.0365665322 0.0365665322
0.0366466065 0.0366466065 0.0366466065
