VFX IO/sLog2 to Linear.cube
# DaVinci Resolve Cube (1D shaper LUT).

LUT_1D_SIZE 4096
LUT_1D_INPUT_RANGE 0.0000000000 1.0000000000

-0.0291229262 -0.0291229262 -0.0291229262
-0.0290423401 -0.0290423401 -0.0290423401
-0.0289617540 -0.0289617540 -0.0289617540
-0.0288811680 -0.0288811680 -0.0288811680
-0.0288005819 -0.0288005819 -0.0288005819
-0.0287199958 -0.0287199958 -0.0287199958
-0.0286394097 -0.0286394097 -0.0286394097
-0.0285588236 -0.0285588236 -0.0285588236
-0.0284782376 -0.0284782376 -0.0284782376
-0.0283976515 -0.0283976515 -0.0283976515
-0.0283170654 -0.0283170654 -0.0283170654
-0.0282364793 -0.0282364793 -0.0282364793
-0.0281558932 -0.0281558932 -0.0281558932
-0.0280753072 -0.0280753072 -0.0280753072
-0.0279947211 -0.0279947211 -0.0279947211
-0.0279141350 -0.0279141350 -0.0279141350
-0.0278335489 -0.0278335489 -0.0278335489
-0.0277529628 -0.0277529628 -0.0277529628
-0.0276723767 -0.0276723767 -0.0276723767
-0.0275917907 -0.0275917907 -0.0275917907
-0.0275112046 -0.0275112046 -0.0275112046
-0.0274306185 -0.0274306185 -0.0274306185
-0.0273500324 -0.0273500324 -0.0273500324
-0.0272694463 -0.0272694463 -0.0272694463
-0.0271888603 -0.0271888603 -0.0271888603
-0.0271082742 -0.0271082742 -0.0271082742
-0.0270276881 -0.0270276881 -0.0270276881
-0.0269471020 -0.0269471020 -0.0269471020
-0.0268665159 -0.0268665159 -0.0268665159
-0.0267859299 -0.0267859299 -0.0267859299
-0.0267053438 -0.0267053438 -0.0267053438
-0.0266247577 -0.0266247577 -0.0266247577
-0.0265441716 -0.0265441716 -0.0265441716
-0.0264635855 -0.0264635855 -0.0264635855
-0.0263829995 -0.0263829995 -0.0263829995
-0.0263024134 -0.0263024134 -0.0263024134
-0.0262218273 -0.0262218273 -0.0262218273
-0.0261412412 -0.0261412412 -0.0261412412
-0.0260606551 -0.0260606551 -0.0260606551
-0.0259800691 -0.0259800691 -0.0259800691
-0.0258994830 -0.0258994830 -0.0258994830
-0.0258188969 -0.0258188969 -0.0258188969
-0.0257383108 -0.0257383108 -0.0257383108
-0.0256577247 -0.0256577247 -0.0256577247
-0.0255771387 -0.0255771387 -0.0255771387
-0.0254965526 -0.0254965526 -0.0254965526
-0.0254159665 -0.0254159665 -0.0254159665
-0.0253353804 -0.0253353804 -0.0253353804
-0.0252547943 -0.0252547943 -0.0252547943
-0.0251742083 -0.0251742083 -0.0251742083
-0.0250936222 -0.0250936222 -0.0250936222
-0.0250130361 -0.0250130361 -0.0250130361
-0.0249324500 -0.0249324500 -0.0249324500
-0.0248518639 -0.0248518639 -0.0248518639
-0.0247712778 -0.0247712778 -0.0247712778
-0.0246906918 -0.0246906918 -0.0246906918
-0.0246101057 -0.0246101057 -0.0246101057
-0.0245295196 -0.0245295196 -0.0245295196
-0.0244489335 -0.0244489335 -0.0244489335
-0.0243683474 -0.0243683474 -0.0243683474
-0.0242877614 -0.0242877614 -0.0242877614
-0.0242071753 -0.0242071753 -0.0242071753
-0.0241265892 -0.0241265892 -0.0241265892
-0.0240460031 -0.0240460031 -0.0240460031
-0.0239654170 -0.0239654170 -0.0239654170
-0.0238848310 -0.0238848310 -0.0238848310
-0.0238042449 -0.0238042449 -0.0238042449
-0.0237236588 -0.0237236588 -0.0237236588
-0.0236430727 -0.0236430727 -0.0236430727
-0.0235624866 -0.0235624866 -0.0235624866
-0.0234819006 -0.0234819006 -0.0234819006
-0.0234013145 -0.0234013145 -0.0234013145
-0.0233207284 -0.0233207284 -0.0233207284
-0.0232401423 -0.0232401423 -0.0232401423
-0.0231595562 -0.0231595562 -0.0231595562
-0.0230789702 -0.0230789702 -0.0230789702
-0.0229983841 -0.0229983841 -0.0229983841
-0.0229177980 -0.0229177980 -0.0229177980
-0.0228372119 -0.0228372119 -0.0228372119
-0.0227566258 -0.0227566258 -0.0227566258
-0.0226760398 -0.0226760398 -0.0226760398
-0.0225954537 -0.0225954537 -0.0225954537
-0.0225148676 -0.0225148676 -0.0225148676
-0.0224342815 -0.0224342815 -0.0224342815
-0.0223536954 -0.0223536954 -0.0223536954
-0.0222731093 -0.0222731093 -0.0222731093
-0.0221925233 -0.0221925233 -0.0221925233
-0.0221119372 -0.0221119372 -0.0221119372
-0.0220313511 -0.0220313511 -0.0220313511
-0.0219507650 -0.0219507650 -0.0219507650
-0.0218701789 -0.0218701789 -0.0218701789
-0.0217895929 -0.0217895929 -0.0217895929
-0.0217090068 -0.0217090068 -0.0217090068
-0.0216284207 -0.0216284207 -0.0216284207
-0.0215478346 -0.0215478346 -0.0215478346
-0.0214672485 -0.0214672485 -0.0214672485
-0.0213866625 -0.0213866625 -0.0213866625
-0.0213060764 -0.0213060764 -0.0213060764
-0.0212254903 -0.0212254903 -0.0212254903
-0.0211449042 -0.0211449042 -0.0211449042
-0.0210643181 -0.0210643181 -0.0210643181
-0.0209837321 -0.0209837321 -0.0209837321
-0.0209031460 -0.0209031460 -0.0209031460
-0.0208225599 -0.0208225599 -0.0208225599
-0.0207419738 -0.0207419738 -0.0207419738
-0.0206613877 -0.0206613877 -0.0206613877
-0.0205808017 -0.0205808017 -0.0205808017
-0.0205002156 -0.0205002156 -0.0205002156
-0.0204196295 -0.0204196295 -0.0204196295
-0.0203390434 -0.0203390434 -0.0203390434
-0.0202584573 -0.0202584573 -0.0202584573
-0.0201778713 -0.0201778713 -0.0201778713
-0.0200972852 -0.0200972852 -0.0200972852
-0.0200166991 -0.0200166991 -0.0200166991
-0.0199361130 -0.0199361130 -0.0199361130
-0.0198555269 -0.0198555269 -0.0198555269
-0.0197749409 -0.0197749409 -0.0197749409
-0.0196943548 -0.0196943548 -0.0196943548
-0.0196137687 -0.0196137687 -0.0196137687
-0.0195331826 -0.0195331826 -0.0195331826
-0.0194525965 -0.0194525965 -0.0194525965
-0.0193720104 -0.0193720104 -0.0193720104
-0.0192914244 -0.0192914244 -0.0192914244
-0.0192108383 -0.0192108383 -0.0192108383
-0.0191302522 -0.0191302522 -0.0191302522
-0.0190496661 -0.0190496661 -0.0190496661
-0.0189690800 -0.0189690800 -0.0189690800
-0.0188884940 -0.0188884940 -0.0188884940
-0.0188079079 -0.0188079079 -0.0188079079
-0.0187273218 -0.0187273218 -0.0187273218
-0.0186467357 -0.0186467357 -0.0186467357
-0.0185661496 -0.0185661496 -0.0185661496
-0.0184855636 -0.0184855636 -0.0184855636
-0.0184049775 -0.0184049775 -0.0184049775
-0.0183243914 -0.0183243914 -0.0183243914
-0.0182438053 -0.0182438053 -0.0182438053
-0.0181632192 -0.0181632192 -0.0181632192
-0.0180826332 -0.0180826332 -0.0180826332
-0.0180020471 -0.0180020471 -0.0180020471
-0.0179214610 -0.0179214610 -0.0179214610
-0.0178408749 -0.0178408749 -0.0178408749
-0.0177602888 -0.0177602888 -0.0177602888
-0.0176797028 -0.0176797028 -0.0176797028
-0.0175991167 -0.0175991167 -0.0175991167
-0.0175185306 -0.0175185306 -0.0175185306
-0.0174379445 -0.0174379445 -0.0174379445
-0.0173573584 -0.0173573584 -0.0173573584
-0.0172767724 -0.0172767724 -0.0172767724
-0.0171961863 -0.0171961863 -0.0171961863
-0.0171156002 -0.0171156002 -0.0171156002
-0.0170350141 -0.0170350141 -0.0170350141
-0.0169544280 -0.0169544280 -0.0169544280
-0.0168738420 -0.0168738420 -0.0168738420
-0.0167932559 -0.0167932559 -0.0167932559
-0.0167126698 -0.0167126698 -0.0167126698
-0.0166320837 -0.0166320837 -0.0166320837
-0.0165514976 -0.0165514976 -0.0165514976
-0.0164709115 -0.0164709115 -0.0164709115
-0.0163903255 -0.0163903255 -0.0163903255
-0.0163097394 -0.0163097394 -0.0163097394
-0.0162291533 -0.0162291533 -0.0162291533
-0.0161485672 -0.0161485672 -0.0161485672
-0.0160679811 -0.0160679811 -0.0160679811
-0.0159873951 -0.0159873951 -0.0159873951
-0.0159068090 -0.0159068090 -0.0159068090
-0.0158262229 -0.0158262229 -0.0158262229
-0.0157456368 -0.0157456368 -0.0157456368
-0.0156650507 -0.0156650507 -0.0156650507
-0.0155844647 -0.0155844647 -0.0155844647
-0.0155038786 -0.0155038786 -0.0155038786
-0.0154232925 -0.0154232925 -0.0154232925
-0.0153427064 -0.0153427064 -0.0153427064
-0.0152621203 -0.0152621203 -0.0152621203
-0.0151815343 -0.0151815343 -0.0151815343
-0.0151009482 -0.0151009482 -0.0151009482
-0.0150203621 -0.0150203621 -0.0150203621
-0.0149397760 -0.0149397760 -0.0149397760
-0.0148591899 -0.0148591899 -0.0148591899
-0.0147786039 -0.0147786039 -0.0147786039
-0.0146980178 -0.0146980178 -0.0146980178
-0.0146174317 -0.0146174317 -0.0146174317
-0.0145368456 -0.0145368456 -0.0145368456
-0.0144562595 -0.0144562595 -0.0144562595
-0.0143756735 -0.0143756735 -0.0143756735
-0.0142950874 -0.0142950874 -0.0142950874
-0.0142145013 -0.0142145013 -0.0142145013
-0.0141339152 -0.0141339152 -0.0141339152
-0.0140533291 -0.0140533291 -0.0140533291
-0.0139727430 -0.0139727430 -0.0139727430
-0.0138921570 -0.0138921570 -0.0138921570
-0.0138115709 -0.0138115709 -0.0138115709
-0.0137309848 -0.0137309848 -0.0137309848
-0.0136503987 -0.0136503987 -0.0136503987
-0.0135698126 -0.0135698126 -0.0135698126
-0.0134892266 -0.0134892266 -0.0134892266
-0.0134086405 -0.0134086405 -0.0134086405
-0.0133280544 -0.0133280544 -0.0133280544
-0.0132474683 -0.0132474683 -0.0132474683
-0.0131668822 -0.0131668822 -0.0131668822
-0.0130862962 -0.0130862962 -0.0130862962
-0.0130057101 -0.0130057101 -0.0130057101
-0.0129251240 -0.0129251240 -0.0129251240
-0.0128445379 -0.0128445379 -0.0128445379
-0.0127639518 -0.0127639518 -0.0127639518
-0.0126833658 -0.0126833658 -0.0126833658
-0.0126027797 -0.0126027797 -0.0126027797
-0.0125221936 -0.0125221936 -0.0125221936
-0.0124416075 -0.0124416075 -0.0124416075
-0.0123610214 -0.0123610214 -0.0123610214
-0.0122804354 -0.0122804354 -0.0122804354
-0.0121998493 -0.0121998493 -0.0121998493
-0.0121192632 -0.0121192632 -0.0121192632
-0.0120386771 -0.0120386771 -0.0120386771
-0.0119580910 -0.0119580910 -0.0119580910
-0.0118775050 -0.0118775050 -0.0118775050
-0.0117969189 -0.0117969189 -0.0117969189
-0.0117163328 -0.0117163328 -0.0117163328
-0.0116357467 -0.0116357467 -0.0116357467
-0.0115551606 -0.0115551606 -0.0115551606
-0.0114745746 -0.0114745746 -0.0114745746
-0.0113939885 -0.0113939885 -0.0113939885
-0.0113134024 -0.0113134024 -0.0113134024
-0.0112328163 -0.0112328163 -0.0112328163
-0.0111522302 -0.0111522302 -0.0111522302
-0.0110716441 -0.0110716441 -0.0110716441
-0.0109910581 -0.0109910581 -0.0109910581
-0.0109104720 -0.0109104720 -0.0109104720
-0.0108298859 -0.0108298859 -0.0108298859
-0.0107492998 -0.0107492998 -0.0107492998
-0.0106687137 -0.0106687137 -0.0106687137
-0.0105881277 -0.0105881277 -0.0105881277
-0.0105075416 -0.0105075416 -0.0105075416
-0.0104269555 -0.0104269555 -0.0104269555
-0.0103463694 -0.0103463694 -0.0103463694
-0.0102657833 -0.0102657833 -0.0102657833
-0.0101851973 -0.0101851973 -0.0101851973
-0.0101046112 -0.0101046112 -0.0101046112
-0.0100240251 -0.0100240251 -0.0100240251
-0.0099434390 -0.0099434390 -0.0099434390
-0.0098628529 -0.0098628529 -0.0098628529
-0.0097822669 -0.0097822669 -0.0097822669
-0.0097016808 -0.0097016808 -0.0097016808
-0.0096210947 -0.0096210947 -0.0096210947
-0.0095405086 -0.0095405086 -0.0095405086
-0.0094599225 -0.0094599225 -0.0094599225
-0.0093793365 -0.0093793365 -0.0093793365
-0.0092987504 -0.0092987504 -0.0092987504
-0.0092181643 -0.0092181643 -0.0092181643
-0.0091375782 -0.0091375782 -0.0091375782
-0.0090569921 -0.0090569921 -0.0090569921
-0.0089764061 -0.0089764061 -0.0089764061
-0.0088958200 -0.0088958200 -0.0088958200
-0.0088152339 -0.0088152339 -0.0088152339
-0.0087346478 -0.0087346478 -0.0087346478
-0.0086540617 -0.0086540617 -0.0086540617
-0.0085734756 -0.0085734756 -0.0085734756
-0.0084928896 -0.0084928896 -0.0084928896
-0.0084123035 -0.0084123035 -0.0084123035
-0.0083317174 -0.0083317174 -0.0083317174
-0.0082511313 -0.0082511313 -0.0082511313
-0.0081705452 -0.0081705452 -0.0081705452
-0.0080899592 -0.0080899592 -0.0080899592
-0.0080093731 -0.0080093731 -0.0080093731
-0.0079287870 -0.0079287870 -0.0079287870
-0.0078482009 -0.0078482009 -0.0078482009
-0.0077676148 -0.0077676148 -0.0077676148
-0.0076870288 -0.0076870288 -0.0076870288
-0.0076064427 -0.0076064427 -0.0076064427
-0.0075258566 -0.0075258566 -0.0075258566
-0.0074452705 -0.0074452705 -0.0074452705
-0.0073646844 -0.0073646844 -0.0073646844
-0.0072840984 -0.0072840984 -0.0072840984
-0.0072035123 -0.0072035123 -0.0072035123
-0.0071229262 -0.0071229262 -0.0071229262
-0.0070423401 -0.0070423401 -0.0070423401
-0.0069617540 -0.0069617540 -0.0069617540
-0.0068811680 -0.0068811680 -0.0068811680
-0.0068005819 -0.0068005819 -0.0068005819
-0.0067199958 -0.0067199958 -0.0067199958
-0.0066394097 -0.0066394097 -0.0066394097
-0.0065588236 -0.0065588236 -0.0065588236
-0.0064782376 -0.0064782376 -0.0064782376
-0.0063976515 -0.0063976515 -0.0063976515
-0.0063170654 -0.0063170654 -0.0063170654
-0.0062364793 -0.0062364793 -0.0062364793
-0.0061558932 -0.0061558932 -0.0061558932
-0.0060753072 -0.0060753072 -0.0060753072
-0.0059947211 -0.0059947211 -0.0059947211
-0.0059141350 -0.0059141350 -0.0059141350
-0.0058335489 -0.0058335489 -0.0058335489
-0.0057529628 -0.0057529628 -0.0057529628
-0.0056723767 -0.0056723767 -0.0056723767
-0.0055917907 -0.0055917907 -0.0055917907
-0.0055112046 -0.0055112046 -0.0055112046
-0.0054306185 -0.0054306185 -0.0054306185
-0.0053500324 -0.0053500324 -0.0053500324
-0.0052694463 -0.0052694463 -0.0052694463
-0.0051888603 -0.0051888603 -0.0051888603
-0.0051082742 -0.0051082742 -0.0051082742
-0.0050276881 -0.0050276881 -0.0050276881
-0.0049471020 -0.0049471020 -0.0049471020
-0.0048665159 -0.0048665159 -0.0048665159
-0.0047859299 -0.0047859299 -0.0047859299
-0.0047053438 -0.0047053438 -0.0047053438
-0.0046247577 -0.0046247577 -0.0046247577
-0.0045441716 -0.0045441716 -0.0045441716
-0.0044635855 -0.0044635855 -0.0044635855
-0.0043829995 -0.0043829995 -0.0043829995
-0.0043024134 -0.0043024134 -0.0043024134
-0.0042218273 -0.0042218273 -0.0042218273
-0.0041412412 -0.0041412412 -0.0041412412
-0.0040606551 -0.0040606551 -0.0040606551
-0.0039800691 -0.0039800691 -0.0039800691
-0.0038994830 -0.0038994830 -0.0038994830
-0.0038188969 -0.0038188969 -0.0038188969
-0.0037383108 -0.0037383108 -0.0037383108
-0.0036577247 -0.0036577247 -0.0036577247
-0.0035771387 -0.0035771387 -0.0035771387
-0.0034965526 -0.0034965526 -0.0034965526
-0.0034159665 -0.0034159665 -0.0034159665
-0.0033353804 -0.0033353804 -0.0033353804
-0.0032547943 -0.0032547943 -0.0032547943
-0.0031742083 -0.0031742083 -0.0031742083
-0.0030936222 -0.0030936222 -0.0030936222
-0.0030130361 -0.0030130361 -0.0030130361
-0.0029324500 -0.0029324500 -0.0029324500
-0.0028518639 -0.0028518639 -0.0028518639
-0.0027712778 -0.0027712778 -0.0027712778
-0.0026906918 -0.0026906918 -0.0026906918
-0.0026101057 -0.0026101057 -0.0026101057
-0.0025295196 -0.0025295196 -0.0025295196
-0.0024489335 -0.0024489335 -0.0024489335
-0.0023683474 -0.0023683474 -0.0023683474
-0.0022877614 -0.0022877614 -0.0022877614
-0.0022071753 -0.0022071753 -0.0022071753
-0.0021265892 -0.0021265892 -0.0021265892
-0.0020460031 -0.0020460031 -0.0020460031
-0.0019654170 -0.0019654170 -0.0019654170
-0.0018848310 -0.0018848310 -0.0018848310
-0.0018042449 -0.0018042449 -0.0018042449
-0.0017236588 -0.0017236588 -0.0017236588
-0.0016430727 -0.0016430727 -0.0016430727
-0.0015624866 -0.0015624866 -0.0015624866
-0.0014819006 -0.0014819006 -0.0014819006
-0.0014013145 -0.0014013145 -0.0014013145
-0.0013207284 -0.0013207284 -0.0013207284
-0.0012401423 -0.0012401423 -0.0012401423
-0.0011595562 -0.0011595562 -0.0011595562
-0.0010789702 -0.0010789702 -0.0010789702
-0.0009983841 -0.0009983841 -0.0009983841
-0.0009177980 -0.0009177980 -0.0009177980
-0.0008372119 -0.0008372119 -0.0008372119
-0.0007566258 -0.0007566258 -0.0007566258
-0.0006760398 -0.0006760398 -0.0006760398
-0.0005954537 -0.0005954537 -0.0005954537
-0.0005148676 -0.0005148676 -0.0005148676
-0.0004342815 -0.0004342815 -0.0004342815
-0.0003536954 -0.0003536954 -0.0003536954
-0.0002731093 -0.0002731093 -0.0002731093
-0.0001925233 -0.0001925233 -0.0001925233
-0.0001119372 -0.0001119372 -0.0001119372
-0.0000313511 -0.0000313511 -0.0000313511
0.0000492581 0.0000492581 0.0000492581
0.0001299807 0.0001299807 0.0001299807
0.0002108259 0.0002108259 0.0002108259
0.0002917939 0.0002917939 0.0002917939
0.0003728848 0.0003728848 0.0003728848
0.0004540989 0.0004540989 0.0004540989
0.0005354363 0.0005354363 0.0005354363
0.0006168973 0.0006168973 0.0006168973
0.0006984819 0.0006984819 0.0006984819
0.0007801905 0.0007801905 0.0007801905
0.0008620232 0.0008620232 0.0008620232
0.0009439801 0.0009439801 0.0009439801
0.0010260615 0.0010260615 0.0010260615
0.0011082676 0.0011082676 0.0011082676
0.0011905985 0.0011905985 0.0011905985
0.0012730545 0.0012730545 0.0012730545
0.0013556357 0.0013556357 0.0013556357
0.0014383423 0.0014383423 0.0014383423
0.0015211745 0.0015211745 0.0015211745
0.0016041325 0.0016041325 0.0016041325
0.0016872165 0.0016872165 0.0016872165
0.0017704267 0.0017704267 0.0017704267
0.0018537633 0.0018537633 0.0018537633
0.0019372264 0.0019372264 0.0019372264
0.0020208163 0.0020208163 0.0020208163
0.0021045331 0.0021045331 0.0021045331
0.0021883771 0.0021883771 0.0021883771
0.0022723484 0.0022723484 0.0022723484
0.0023564472 0.0023564472 0.0023564472
0.0024406738 0.0024406738 0.0024406738
0.0025250282 0.0025250282 0.0025250282
0.0026095108 0.0026095108 0.0026095108
0.0026941217 0.0026941217 0.0026941217
0.0027788611 0.0027788611 0.0027788611
0.0028637292 0.0028637292 0.0028637292
0.0029487262 0.0029487262 0.0029487262
0.0030338522 0.0030338522 0.0030338522
0.0031191076 0.0031191076 0.0031191076
0.0032044924 0.0032044924 0.0032044924
0.0032900069 0.0032900069 0.0032900069
0.0033756513 0.0033756513 0.0033756513
0.0034614257 0.0034614257 0.0034614257
0.0035473304 0.0035473304 0.0035473304
0.0036333656 0.0036333656 0.0036333656
0.0037195314 0.0037195314 0.0037195314
0.0038058281 0.0038058281 0.0038058281
0.0038922559 0.0038922559 0.0038922559
0.0039788149 0.0039788149 0.0039788149
0.0040655053 0.0040655053 0.0040655053
0.0041523275 0.0041523275 0.0041523275
0.0042392815 0.0042392815 0.0042392815
0.0043263675 0.0043263675 0.0043263675
0.0044135858 0.0044135858 0.0044135858
0.0045009366 0.0045009366 0.0045009366
0.0045884200 0.0045884200 0.0045884200
0.0046760363 0.0046760363 0.0046760363
0.0047637857 0.0047637857 0.0047637857
0.0048516683 0.0048516683 0.0048516683
0.0049396844 0.0049396844 0.0049396844
0.0050278342 0.0050278342 0.0050278342
0.0051161178 0.0051161178 0.0051161178
0.0052045355 0.0052045355 0.0052045355
0.0052930875 0.0052930875 0.0052930875
0.0053817740 0.0053817740 0.0053817740
0.0054705952 0.0054705952 0.0054705952
0.0055595512 0.0055595512 0.0055595512
0.0056486424 0.0056486424 0.0056486424
0.0057378689 0.0057378689 0.0057378689
0.0058272309 0.0058272309 0.0058272309
0.0059167286 0.0059167286 0.0059167286
0.0060063622 0.0060063622 0.0060063622
0.0060961319 0.0060961319 0.0060961319
0.0061860380 0.0061860380 0.0061860380
0.0062760806 0.0062760806 0.0062760806
0.0063662600 0.0063662600 0.0063662600
0.0064565763 0.0064565763 0.0064565763
0.0065470298 0.0065470298 0.0065470298
0.0066376207 0.0066376207 0.0066376207
0.0067283491 0.0067283491 0.0067283491
0.0068192154 0.0068192154 0.0068192154
0.0069102196 0.0069102196 0.0069102196
0.0070013621 0.0070013621 0.0070013621
0.0070926429 0.0070926429 0.0070926429
0.0071840624 0.0071840624 0.0071840624
0.0072756208 0.0072756208 0.0072756208
0.0073673182 0.0073673182 0.0073673182
0.0074591548 0.0074591548 0.0074591548
0.0075511310 0.0075511310 0.0075511310
0.0076432468 0.0076432468 0.0076432468
0.0077355025 0.0077355025 0.0077355025
0.0078278983 0.0078278983 0.0078278983
0.0079204344 0.0079204344 0.0079204344
0.0080131111 0.0080131111 0.0080131111
0.0081059286 0.0081059286 0.0081059286
0.0081988869 0.0081988869 0.0081988869
0.0082919865 0.0082919865 0.0082919865
0.0083852275 0.0083852275 0.0083852275
0.0084786101 0.0084786101 0.0084786101
0.0085721344 0.0085721344 0.0085721344
0.0086658009 0.0086658009 0.0086658009
0.0087596096 0.0087596096 0.0087596096
0.0088535607 0.0088535607 0.0088535607
0.0089476545 0.0089476545 0.0089476545
0.0090418913 0.0090418913 0.0090418913
0.0091362711 0.0091362711 0.0091362711
0.0092307943 0.0092307943 0.0092307943
0.0093254611 0.0093254611 0.0093254611
0.0094202716 0.0094202716 0.0094202716
0.0095152261 0.0095152261 0.0095152261
0.0096103248 0.0096103248 0.0096103248
0.0097055680 0.0097055680 0.0097055680
0.0098009558 0.0098009558 0.0098009558
0.0098964884 0.0098964884 0.0098964884
0.0099921662 0.0099921662 0.0099921662
0.0100879892 0.0100879892 0.0100879892
0.0101839578 0.0101839578 0.0101839578
0.0102800722 0.0102800722 0.0102800722
0.0103763325 0.0103763325 0.0103763325
0.0104727390 0.0104727390 0.0104727390
0.0105692919 0.0105692919 0.0105692919
0.0106659914 0.0106659914 0.0106659914
0.0107628378 0.0107628378 0.0107628378
0.0108598313 0.0108598313 0.0108598313
0.0109569721 0.0109569721 0.0109569721
0.0110542604 0.0110542604 0.0110542604
0.0111516965 0.0111516965 0.0111516965
0.0112492806 0.0112492806 0.0112492806
0.0113470128 0.0113470128 0.0113470128
0.0114448935 0.0114448935 0.0114448935
0.0115429229 0.0115429229 0.0115429229
0.0116411011 0.0116411011 0.0116411011
0.0117394284 0.0117394284 0.0117394284
0.0118379050 0.0118379050 0.0118379050
0.0119365313 0.0119365313 0.0119365313
0.0120353073 0.0120353073 0.0120353073
0.0121342333 0.0121342333 0.0121342333
0.0122333095 0.0122333095 0.0122333095
0.0123325362 0.0123325362 0.0123325362
0.0124319137 0.0124319137 0.0124319137
0.0125314420 0.0125314420 0.0125314420
0.0126311215 0.0126311215 0.0126311215
0.0127309524 0.0127309524 0.0127309524
0.0128309349 0.0128309349 0.0128309349
0.0129310692 0.0129310692 0.0129310692
0.0130313556 0.0130313556 0.0130313556
0.0131317944 0.0131317944 0.0131317944
0.0132323856 0.0132323856 0.0132323856
0.0133331297 0.0133331297 0.0133331297
0.0134340267 0.0134340267 0.0134340267
0.0135350770 0.0135350770 0.0135350770
0.0136362807 0.0136362807 0.0136362807
0.0137376382 0.0137376382 0.0137376382
0.0138391495 0.0138391495 0.0138391495
0.0139408151 0.0139408151 0.0139408151
0.0140426350 0.0140426350 0.0140426350
0.0141446096 0.0141446096 0.0141446096
0.0142467390 0.0142467390 0.0142467390
0.0143490236 0.0143490236 0.0143490236
0.0144514635 0.0144514635 0.0144514635
0.0145540589 0.0145540589 0.0145540589
0.0146568102 0.0146568102 0.0146568102
0.0147597176 0.0147597176 0.0147597176
0.0148627812 0.0148627812 0.0148627812
0.0149660013 0.0149660013 0.0149660013
0.0150693782 0.0150693782 0.0150693782
0.0151729121 0.0151729121 0.0151729121
0.0152766033 0.0152766033 0.0152766033
0.0153804519 0.0153804519 0.0153804519
0.0154844582 0.0154844582 0.0154844582
0.0155886225 0.0155886225 0.0155886225
0.0156929450 0.0156929450 0.0156929450
0.0157974260 0.0157974260 0.0157974260
0.0159020656 0.0159020656 0.0159020656
0.0160068641 0.0160068641 0.0160068641
0.0161118218 0.0161118218 0.0161118218
0.0162169389 0.0162169389 0.0162169389
0.0163222156 0.0163222156 0.0163222156
0.0164276522 0.0164276522 0.0164276522
0.0165332489 0.0165332489 0.0165332489
0.0166390061 0.0166390061 0.0166390061
0.0167449238 0.0167449238 0.0167449238
0.0168510024 0.0168510024 0.0168510024
0.0169572421 0.0169572421 0.0169572421
0.0170636431 0.0170636431 0.0170636431
0.0171702057 0.0171702057 0.0171702057
0.0172769302 0.0172769302 0.0172769302
0.0173838168 0.0173838168 0.0173838168
0.0174908656 0.0174908656 0.0174908656
0.0175980771 0.0175980771 0.0175980771
0.0177054514 0.0177054514 0.0177054514
0.0178129888 0.0178129888 0.0178129888
0.0179206894 0.0179206894 0.0179206894
0.0180285537 0.0180285537 0.0180285537
0.0181365817 0.0181365817 0.0181365817
0.0182447739 0.0182447739 0.0182447739
0.0183531303 0.0183531303 0.0183531303
0.0184616513 0.0184616513 0.0184616513
0.0185703371 0.0185703371 0.0185703371
0.0186791880 0.0186791880 0.0186791880
0.0187882042 0.0187882042 0.0187882042
0.0188973859 0.0188973859 0.0188973859
0.0190067335 0.0190067335 0.0190067335
0.0191162471 0.0191162471 0.0191162471
0.0192259271 0.0192259271 0.0192259271
0.0193357736 0.0193357736 0.0193357736
0.0194457870 0.0194457870 0.0194457870
0.0195559674 0.0195559674 0.0195559674
0.0196663152 0.0196663152 0.0196663152
0.0197768305 0.0197768305 0.0197768305
0.0198875137 0.0198875137 0.0198875137
0.0199983650 0.0199983650 0.0199983650
0.0201093847 0.0201093847 0.0201093847
0.0202205729 0.0202205729 0.0202205729
0.0203319300 0.0203319300 0.0203319300
0.0204434563 0.0204434563 0.0204434563
0.0205551519 0.0205551519 0.0205551519
0.0206670171 0.0206670171 0.0206670171
0.0207790523 0.0207790523 0.0207790523
0.0208912576 0.0208912576 0.0208912576
0.0210036333 0.0210036333 0.0210036333
0.0211161796 0.0211161796 0.0211161796
0.0212288969 0.0212288969 0.0212288969
