VFX IO/sRGB to Linear.cube
# DaVinci Resolve Cube (1D shaper LUT).

LUT_1D_SIZE 4096
LUT_1D_INPUT_RANGE 0.0000000000 1.0000000000

0.0000000000 0.0000000000 0.0000000000
0.0000189009 0.0000189009 0.0000189009
0.0000378019 0.0000378019 0.0000378019
0.0000567028 0.0000567028 0.0000567028
0.0000756038 0.0000756038 0.0000756038
0.0000945047 0.0000945047 0.0000945047
0.0001134057 0.0001134057 0.0001134057
0.0001323066 0.0001323066 0.0001323066
0.0001512076 0.0001512076 0.0001512076
0.0001701085 0.0001701085 0.0001701085
0.0001890095 0.0001890095 0.0001890095
0.0002079104 0.0002079104 0.0002079104
0.0002268114 0.0002268114 0.0002268114
0.0002457123 0.0002457123 0.0002457123
0.0002646133 0.0002646133 0.0002646133
0.0002835142 0.0002835142 0.0002835142
0.0003024152 0.0003024152 0.0003024152
0.0003213161 0.0003213161 0.0003213161
0.0003402171 0.0003402171 0.0003402171
0.0003591180 0.0003591180 0.0003591180
0.0003780190 0.0003780190 0.0003780190
0.0003969199 0.0003969199 0.0003969199
0.0004158208 0.0004158208 0.0004158208
0.0004347218 0.0004347218 0.0004347218
0.0004536227 0.0004536227 0.0004536227
0.0004725237 0.0004725237 0.0004725237
0.0004914246 0.0004914246 0.0004914246
0.0005103256 0.0005103256 0.0005103256
0.0005292265 0.0005292265 0.0005292265
0.0005481275 0.0005481275 0.0005481275
0.0005670284 0.0005670284 0.0005670284
0.0005859294 0.0005859294 0.0005859294
0.0006048303 0.0006048303 0.0006048303
0.0006237313 0.0006237313 0.0006237313
0.0006426322 0.0006426322 0.0006426322
0.0006615332 0.0006615332 0.0006615332
0.0006804341 0.0006804341 0.0006804341
0.0006993351 0.0006993351 0.0006993351
0.0007182360 0.0007182360 0.0007182360
0.0007371370 0.0007371370 0.0007371370
0.0007560379 0.0007560379 0.0007560379
0.0007749389 0.0007749389 0.0007749389
0.0007938398 0.0007938398 0.0007938398
0.0008127408 0.0008127408 0.0008127408
0.0008316417 0.0008316417 0.0008316417
0.0008505426 0.0008505426 0.0008505426
0.0008694436 0.0008694436 0.0008694436
0.0008883445 0.0008883445 0.0008883445
0.0009072455 0.0009072455 0.0009072455
0.0009261464 0.0009261464 0.0009261464
0.0009450474 0.0009450474 0.0009450474
0.0009639483 0.0009639483 0.0009639483
0.0009828493 0.0009828493 0.0009828493
0.0010017502 0.0010017502 0.0010017502
0.0010206512 0.0010206512 0.0010206512
0.0010395521 0.0010395521 0.0010395521
0.0010584531 0.0010584531 0.0010584531
0.0010773540 0.0010773540 0.0010773540
0.0010962550 0.0010962550 0.0010962550
0.0011151559 0.0011151559 0.0011151559
0.0011340569 0.0011340569 0.0011340569
0.0011529578 0.0011529578 0.0011529578
0.0011718588 0.0011718588 0.0011718588
0.0011907597 0.0011907597 0.0011907597
0.0012096607 0.0012096607 0.0012096607
0.0012285616 0.0012285616 0.0012285616
0.0012474625 0.0012474625 0.0012474625
0.0012663635 0.0012663635 0.0012663635
0.0012852644 0.0012852644 0.0012852644
0.0013041654 0.0013041654 0.0013041654
0.0013230663 0.0013230663 0.0013230663
0.0013419673 0.0013419673 0.0013419673
0.0013608682 0.0013608682 0.0013608682
0.0013797692 0.0013797692 0.0013797692
0.0013986701 0.0013986701 0.0013986701
0.0014175711 0.0014175711 0.0014175711
0.0014364720 0.0014364720 0.0014364720
0.0014553730 0.0014553730 0.0014553730
0.0014742739 0.0014742739 0.0014742739
0.0014931749 0.0014931749 0.0014931749
0.0015120758 0.0015120758 0.0015120758
0.0015309768 0.0015309768 0.0015309768
0.0015498777 0.0015498777 0.0015498777
0.0015687787 0.0015687787 0.0015687787
0.0015876796 0.0015876796 0.0015876796
0.0016065806 0.0016065806 0.0016065806
0.0016254815 0.0016254815 0.0016254815
0.0016443824 0.0016443824 0.0016443824
0.0016632834 0.0016632834 0.0016632834
0.0016821843 0.0016821843 0.0016821843
0.0017010853 0.0017010853 0.0017010853
0.0017199862 0.0017199862 0.0017199862
0.0017388872 0.0017388872 0.0017388872
0.0017577881 0.0017577881 0.0017577881
0.0017766891 0.0017766891 0.0017766891
0.0017955900 0.0017955900 0.0017955900
0.0018144910 0.0018144910 0.0018144910
0.0018333919 0.0018333919 0.0018333919
0.0018522929 0.0018522929 0.0018522929
0.0018711938 0.0018711938 0.0018711938
0.0018900948 0.0018900948 0.0018900948
0.0019089957 0.0019089957 0.0019089957
0.0019278967 0.0019278967 0.0019278967
0.0019467976 0.0019467976 0.0019467976
0.0019656986 0.0019656986 0.0019656986
0.0019845995 0.0019845995 0.0019845995
0.0020035005 0.0020035005 0.0020035005
0.0020224014 0.0020224014 0.0020224014
0.0020413024 0.0020413024 0.0020413024
0.0020602033 0.0020602033 0.0020602033
0.0020791042 0.0020791042 0.0020791042
0.0020980052 0.0020980052 0.0020980052
0.0021169061 0.0021169061 0.0021169061
0.0021358071 0.0021358071 0.0021358071
0.0021547080 0.0021547080 0.0021547080
0.0021736090 0.0021736090 0.0021736090
0.0021925099 0.0021925099 0.0021925099
0.0022114109 0.0022114109 0.0022114109
0.0022303118 0.0022303118 0.0022303118
0.0022492128 0.0022492128 0.0022492128
0.0022681137 0.0022681137 0.0022681137
0.0022870147 0.0022870147 0.0022870147
0.0023059156 0.0023059156 0.0023059156
0.0023248166 0.0023248166 0.0023248166
0.0023437175 0.0023437175 0.0023437175
0.0023626185 0.0023626185 0.0023626185
0.0023815194 0.0023815194 0.0023815194
0.0024004204 0.0024004204 0.0024004204
0.0024193213 0.0024193213 0.0024193213
0.0024382223 0.0024382223 0.0024382223
0.0024571232 0.0024571232 0.0024571232
0.0024760241 0.0024760241 0.0024760241
0.0024949251 0.0024949251 0.0024949251
0.0025138260 0.0025138260 0.0025138260
0.0025327270 0.0025327270 0.0025327270
0.0025516279 0.0025516279 0.0025516279
0.0025705289 0.0025705289 0.0025705289
0.0025894298 0.0025894298 0.0025894298
0.0026083308 0.0026083308 0.0026083308
0.0026272317 0.0026272317 0.0026272317
0.0026461327 0.0026461327 0.0026461327
0.0026650336 0.0026650336 0.0026650336
0.0026839346 0.0026839346 0.0026839346
0.0027028355 0.0027028355 0.0027028355
0.0027217365 0.0027217365 0.0027217365
0.0027406374 0.0027406374 0.0027406374
0.0027595384 0.0027595384 0.0027595384
0.0027784393 0.0027784393 0.0027784393
0.0027973403 0.0027973403 0.0027973403
0.0028162412 0.0028162412 0.0028162412
0.0028351422 0.0028351422 0.0028351422
0.0028540431 0.0028540431 0.0028540431
0.0028729440 0.0028729440 0.0028729440
0.0028918450 0.0028918450 0.0028918450
0.0029107459 0.0029107459 0.0029107459
0.0029296469 0.0029296469 0.0029296469
0.0029485478 0.0029485478 0.0029485478
0.0029674488 0.0029674488 0.0029674488
0.0029863497 0.0029863497 0.0029863497
0.0030052507 0.0030052507 0.0030052507
0.0030241516 0.0030241516 0.0030241516
0.0030430526 0.0030430526 0.0030430526
0.0030619535 0.0030619535 0.0030619535
0.0030808545 0.0030808545 0.0030808545
0.0030997554 0.0030997554 0.0030997554
0.0031186564 0.0031186564 0.0031186564
0.0031376794 0.0031376794 0.0031376794
0.0031569621 0.0031569621 0.0031569621
0.0031763139 0.0031763139 0.0031763139
0.0031957346 0.0031957346 0.0031957346
0.0032152245 0.0032152245 0.0032152245
0.0032347835 0.0032347835 0.0032347835
0.0032544117 0.0032544117 0.0032544117
0.0032741093 0.0032741093 0.0032741093
0.0032938762 0.0032938762 0.0032938762
0.0033137126 0.0033137126 0.0033137126
0.0033336184 0.0033336184 0.0033336184
0.0033535939 0.0033535939 0.0033535939
0.0033736390 0.0033736390 0.0033736390
0.0033937538 0.0033937538 0.0033937538
0.0034139384 0.0034139384 0.0034139384
0.0034341928 0.0034341928 0.0034341928
0.0034545172 0.0034545172 0.0034545172
0.0034749116 0.0034749116 0.0034749116
0.0034953760 0.0034953760 0.0034953760
0.0035159106 0.0035159106 0.0035159106
0.0035365153 0.0035365153 0.0035365153
0.0035571904 0.0035571904 0.0035571904
0.0035779357 0.0035779357 0.0035779357
0.0035987515 0.0035987515 0.0035987515
0.0036196377 0.0036196377 0.0036196377
0.0036405945 0.0036405945 0.0036405945
0.0036616219 0.0036616219 0.0036616219
0.0036827200 0.0036827200 0.0036827200
0.0037038888 0.0037038888 0.0037038888
0.0037251284 0.0037251284 0.0037251284
0.0037464389 0.0037464389 0.0037464389
0.0037678204 0.0037678204 0.0037678204
0.0037892728 0.0037892728 0.0037892728
0.0038107964 0.0038107964 0.0038107964
0.0038323911 0.0038323911 0.0038323911
0.0038540570 0.0038540570 0.0038540570
0.0038757941 0.0038757941 0.0038757941
0.0038976027 0.0038976027 0.0038976027
0.0039194826 0.0039194826 0.0039194826
0.0039414341 0.0039414341 0.0039414341
0.0039634570 0.0039634570 0.0039634570
0.0039855516 0.0039855516 0.0039855516
0.0040077179 0.0040077179 0.0040077179
0.0040299560 0.0040299560 0.0040299560
0.0040522658 0.0040522658 0.0040522658
0.0040746475 0.0040746475 0.0040746475
0.0040971012 0.0040971012 0.0040971012
0.0041196269 0.0041196269 0.0041196269
0.0041422246 0.0041422246 0.0041422246
0.0041648945 0.0041648945 0.0041648945
0.0041876366 0.0041876366 0.0041876366
0.0042104510 0.0042104510 0.0042104510
0.0042333377 0.0042333377 0.0042333377
0.0042562969 0.0042562969 0.0042562969
0.0042793285 0.0042793285 0.0042793285
0.0043024326 0.0043024326 0.0043024326
0.0043256094 0.0043256094 0.0043256094
0.0043488588 0.0043488588 0.0043488588
0.0043721809 0.0043721809 0.0043721809
0.0043955758 0.0043955758 0.0043955758
0.0044190436 0.0044190436 0.0044190436
0.0044425844 0.0044425844 0.0044425844
0.0044661981 0.0044661981 0.0044661981
0.0044898848 0.0044898848 0.0044898848
0.0045136447 0.0045136447 0.0045136447
0.0045374778 0.0045374778 0.0045374778
0.0045613841 0.0045613841 0.0045613841
0.0045853638 0.0045853638 0.0045853638
0.0046094168 0.0046094168 0.0046094168
0.0046335432 0.0046335432 0.0046335432
0.0046577432 0.0046577432 0.0046577432
0.0046820167 0.0046820167 0.0046820167
0.0047063638 0.0047063638 0.0047063638
0.0047307847 0.0047307847 0.0047307847
0.0047552793 0.0047552793 0.0047552793
0.0047798477 0.0047798477 0.0047798477
0.0048044900 0.0048044900 0.0048044900
0.0048292063 0.0048292063 0.0048292063
0.0048539966 0.0048539966 0.0048539966
0.0048788609 0.0048788609 0.0048788609
0.0049037994 0.0049037994 0.0049037994
0.0049288121 0.0049288121 0.0049288121
0.0049538991 0.0049538991 0.0049538991
0.0049790604 0.0049790604 0.0049790604
0.0050042960 0.0050042960 0.0050042960
0.0050296062 0.0050296062 0.0050296062
0.0050549908 0.0050549908 0.0050549908
0.0050804500 0.0050804500 0.0050804500
0.0051059839 0.0051059839 0.0051059839
0.0051315925 0.0051315925 0.0051315925
0.0051572758 0.0051572758 0.0051572758
0.0051830340 0.0051830340 0.0051830340
0.0052088670 0.0052088670 0.0052088670
0.0052347750 0.0052347750 0.0052347750
0.0052607580 0.0052607580 0.0052607580
0.0052868161 0.0052868161 0.0052868161
0.0053129494 0.0053129494 0.0053129494
0.0053391578 0.0053391578 0.0053391578
0.0053654415 0.0053654415 0.0053654415
0.0053918005 0.0053918005 0.0053918005
0.0054182349 0.0054182349 0.0054182349
0.0054447447 0.0054447447 0.0054447447
0.0054713301 0.0054713301 0.0054713301
0.0054979910 0.0054979910 0.0054979910
0.0055247276 0.0055247276 0.0055247276
0.0055515398 0.0055515398 0.0055515398
0.0055784278 0.0055784278 0.0055784278
0.0056053916 0.0056053916 0.0056053916
0.0056324313 0.0056324313 0.0056324313
0.0056595469 0.0056595469 0.0056595469
0.0056867385 0.0056867385 0.0056867385
0.0057140062 0.0057140062 0.0057140062
0.0057413500 0.0057413500 0.0057413500
0.0057687700 0.0057687700 0.0057687700
0.0057962662 0.0057962662 0.0057962662
0.0058238387 0.0058238387 0.0058238387
0.0058514875 0.0058514875 0.0058514875
0.0058792128 0.0058792128 0.0058792128
0.0059070146 0.0059070146 0.0059070146
0.0059348929 0.0059348929 0.0059348929
0.0059628478 0.0059628478 0.0059628478
0.0059908793 0.0059908793 0.0059908793
0.0060189876 0.0060189876 0.0060189876
0.0060471727 0.0060471727 0.0060471727
0.0060754346 0.0060754346 0.0060754346
0.0061037734 0.0061037734 0.0061037734
0.0061321891 0.0061321891 0.0061321891
0.0061606819 0.0061606819 0.0061606819
0.0061892518 0.0061892518 0.0061892518
0.0062178988 0.0062178988 0.0062178988
0.0062466230 0.0062466230 0.0062466230
0.0062754244 0.0062754244 0.0062754244
0.0063043032 0.0063043032 0.0063043032
0.0063332593 0.0063332593 0.0063332593
0.0063622929 0.0063622929 0.0063622929
0.0063914039 0.0063914039 0.0063914039
0.0064205926 0.0064205926 0.0064205926
0.0064498588 0.0064498588 0.0064498588
0.0064792027 0.0064792027 0.0064792027
0.0065086243 0.0065086243 0.0065086243
0.0065381237 0.0065381237 0.0065381237
0.0065677010 0.0065677010 0.0065677010
0.0065973561 0.0065973561 0.0065973561
0.0066270893 0.0066270893 0.0066270893
0.0066569004 0.0066569004 0.0066569004
0.0066867896 0.0066867896 0.0066867896
0.0067167570 0.0067167570 0.0067167570
0.0067468026 0.0067468026 0.0067468026
0.0067769264 0.0067769264 0.0067769264
0.0068071285 0.0068071285 0.0068071285
0.0068374090 0.0068374090 0.0068374090
0.0068677679 0.0068677679 0.0068677679
0.0068982054 0.0068982054 0.0068982054
0.0069287213 0.0069287213 0.0069287213
0.0069593159 0.0069593159 0.0069593159
0.0069899891 0.0069899891 0.0069899891
0.0070207410 0.0070207410 0.0070207410
0.0070515717 0.0070515717 0.0070515717
0.0070824813 0.0070824813 0.0070824813
0.0071134697 0.0071134697 0.0071134697
0.0071445371 0.0071445371 0.0071445371
0.0071756835 0.0071756835 0.0071756835
0.0072069090 0.0072069090 0.0072069090
0.0072382135 0.0072382135 0.0072382135
0.0072695973 0.0072695973 0.0072695973
0.0073010603 0.0073010603 0.0073010603
0.0073326025 0.0073326025 0.0073326025
0.0073642242 0.0073642242 0.0073642242
0.0073959252 0.0073959252 0.0073959252
0.0074277057 0.0074277057 0.0074277057
0.0074595657 0.0074595657 0.0074595657
0.0074915053 0.0074915053 0.0074915053
0.0075235245 0.0075235245 0.0075235245
0.0075556234 0.0075556234 0.0075556234
0.0075878020 0.0075878020 0.0075878020
0.0076200605 0.0076200605 0.0076200605
0.0076523988 0.0076523988 0.0076523988
0.0076848170 0.0076848170 0.0076848170
0.0077173152 0.0077173152 0.0077173152
0.0077498934 0.0077498934 0.0077498934
0.0077825518 0.0077825518 0.0077825518
0.0078152902 0.0078152902 0.0078152902
0.0078481088 0.0078481088 0.0078481088
0.0078810077 0.0078810077 0.0078810077
0.0079139869 0.0079139869 0.0079139869
0.0079470465 0.0079470465 0.0079470465
0.0079801865 0.0079801865 0.0079801865
0.0080134069 0.0080134069 0.0080134069
0.0080467079 0.0080467079 0.0080467079
0.0080800895 0.0080800895 0.0080800895
0.0081135517 0.0081135517 0.0081135517
0.0081470946 0.0081470946 0.0081470946
0.0081807183 0.0081807183 0.0081807183
0.0082144228 0.0082144228 0.0082144228
0.0082482081 0.0082482081 0.0082482081
0.0082820744 0.0082820744 0.0082820744
0.0083160216 0.0083160216 0.0083160216
0.0083500499 0.0083500499 0.0083500499
0.0083841592 0.0083841592 0.0083841592
0.0084183497 0.0084183497 0.0084183497
0.0084526214 0.0084526214 0.0084526214
0.0084869744 0.0084869744 0.0084869744
0.0085214086 0.0085214086 0.0085214086
0.0085559242 0.0085559242 0.0085559242
0.0085905212 0.0085905212 0.0085905212
0.0086251997 0.0086251997 0.0086251997
0.0086599597 0.0086599597 0.0086599597
0.0086948013 0.0086948013 0.0086948013
0.0087297245 0.0087297245 0.0087297245
0.0087647295 0.0087647295 0.0087647295
0.0087998161 0.0087998161 0.0087998161
0.0088349846 0.0088349846 0.0088349846
0.0088702349 0.0088702349 0.0088702349
0.0089055671 0.0089055671 0.0089055671
0.0089409812 0.0089409812 0.0089409812
0.0089764774 0.0089764774 0.0089764774
0.0090120557 0.0090120557 0.0090120557
0.0090477161 0.0090477161 0.0090477161
0.0090834586 0.0090834586 0.0090834586
0.0091192834 0.0091192834 0.0091192834
0.0091551905 0.0091551905 0.0091551905
0.0091911799 0.0091911799 0.0091911799
0.0092272517 0.0092272517 0.0092272517
0.0092634059 0.0092634059 0.0092634059
0.0092996427 0.0092996427 0.0092996427
0.0093359620 0.0093359620 0.0093359620
0.0093723639 0.0093723639 0.0093723639
0.0094088485 0.0094088485 0.0094088485
0.0094454158 0.0094454158 0.0094454158
0.0094820658 0.0094820658 0.0094820658
0.0095187987 0.0095187987 0.0095187987
0.0095556144 0.0095556144 0.0095556144
0.0095925131 0.0095925131 0.0095925131
0.0096294948 0.0096294948 0.0096294948
0.0096665595 0.0096665595 0.0096665595
0.0097037072 0.0097037072 0.0097037072
0.0097409382 0.0097409382 0.0097409382
0.0097782523 0.0097782523 0.0097782523
0.0098156497 0.0098156497 0.0098156497
0.0098531303 0.0098531303 0.0098531303
0.0098906943 0.0098906943 0.0098906943
0.0099283418 0.0099283418 0.0099283418
0.0099660726 0.0099660726 0.0099660726
0.0100038870 0.0100038870 0.0100038870
0.0100417850 0.0100417850 0.0100417850
0.0100797666 0.0100797666 0.0100797666
0.0101178318 0.0101178318 0.0101178318
0.0101559808 0.0101559808 0.0101559808
0.0101942135 0.0101942135 0.0101942135
0.0102325301 0.0102325301 0.0102325301
0.0102709306 0.0102709306 0.0102709306
0.0103094149 0.0103094149 0.0103094149
0.0103479833 0.0103479833 0.0103479833
0.0103866357 0.0103866357 0.0103866357
0.0104253722 0.0104253722 0.0104253722
0.0104641928 0.0104641928 0.0104641928
0.0105030977 0.0105030977 0.0105030977
0.0105420867 0.0105420867 0.0105420867
0.0105811601 0.0105811601 0.0105811601
0.0106203178 0.0106203178 0.0106203178
0.0106595600 0.0106595600 0.0106595600
0.0106988865 0.0106988865 0.0106988865
0.0107382976 0.0107382976 0.0107382976
0.0107777933 0.0107777933 0.0107777933
0.0108173735 0.0108173735 0.0108173735
0.0108570384 0.0108570384 0.0108570384
0.0108967880 0.0108967880 0.0108967880
0.0109366224 0.0109366224 0.0109366224
0.0109765416 0.0109765416 0.0109765416
0.0110165457 0.0110165457 0.0110165457
0.0110566346 0.0110566346 0.0110566346
0.0110968086 0.0110968086 0.0110968086
0.0111370676 0.0111370676 0.0111370676
0.0111774116 0.0111774116 0.0111774116
0.0112178408 0.0112178408 0.0112178408
0.0112583551 0.0112583551 0.0112583551
0.0112989547 0.0112989547 0.0112989547
0.0113396395 0.0113396395 0.0113396395
0.0113804097 0.0113804097 0.0113804097
0.0114212653 0.0114212653 0.0114212653
0.0114622062 0.0114622062 0.0114622062
0.0115032327 0.0115032327 0.0115032327
0.0115443447 0.0115443447 0.0115443447
0.0115855423 0.0115855423 0.0115855423
0.0116268255 0.0116268255 0.0116268255
0.0116681944 0.0116681944 0.0116681944
0.0117096490 0.0117096490 0.0117096490
0.0117511895 0.0117511895 0.0117511895
0.0117928157 0.0117928157 0.0117928157
0.0118345279 0.0118345279 0.0118345279
0.0118763259 0.0118763259 0.0118763259
0.0119182100 0.0119182100 0.0119182100
0.0119601801 0.0119601801 0.0119601801
0.0120022363 0.0120022363 0.0120022363
0.0120443787 0.0120443787 0.0120443787
0.0120866072 0.0120866072 0.0120866072
0.0121289220 0.0121289220 0.0121289220
0.0121713230 0.0121713230 0.0121713230
0.0122138104 0.0122138104 0.0122138104
0.0122563842 0.0122563842 0.0122563842
0.0122990445 0.0122990445 0.0122990445
0.0123417912 0.0123417912 0.0123417912
0.0123846245 0.0123846245 0.0123846245
0.0124275443 0.0124275443 0.0124275443
0.0124705508 0.0124705508 0.0124705508
0.0125136440 0.0125136440 0.0125136440
0.0125568239 0.0125568239 0.0125568239
0.0126000906 0.0126000906 0.0126000906
0.0126434442 0.0126434442 0.0126434442
0.0126868847 0.0126868847 0.0126868847
0.0127304121 0.0127304121 0.0127304121
0.0127740264 0.0127740264 0.0127740264
0.0128177279 0.0128177279 0.0128177279
0.0128615164 0.0128615164 0.0128615164
0.0129053920 0.0129053920 0.0129053920
0.0129493548 0.0129493548 0.0129493548
0.0129934049 0.0129934049 0.0129934049
0.0130375423 0.0130375423 0.0130375423
0.0130817670 0.0130817670 0.0130817670
0.0131260790 0.0131260790 0.0131260790
0.0131704786 0.0131704786 0.0131704786
0.0132149656 0.0132149656 0.0132149656
0.0132595401 0.0132595401 0.0132595401
0.0133042022 0.0133042022 0.0133042022
0.0133489519 0.0133489519 0.0133489519
0.0133937894 0.0133937894 0.0133937894
0.0134387145 0.0134387145 0.0134387145
0.0134837274 0.0134837274 0.0134837274
0.0135288282 0.0135288282 0.0135288282
0.0135740168 0.0135740168 0.0135740168
0.0136192934 0.0136192934 0.0136192934
0.0136646579 0.0136646579 0.0136646579
0.0137101105 0.0137101105 0.0137101105
0.0137556511 0.0137556511 0.0137556511
0.0138012799 0.0138012799 0.0138012799
0.0138469968 0.0138469968 0.0138469968
0.0138928019 0.0138928019 0.0138928019
0.0139386953 0.0139386953 0.0139386953
0.0139846770 0.0139846770 0.0139846770
0.0140307471 0.0140307471 0.0140307471
0.0140769056 0.0140769056 0.0140769056
0.0141231525 0.0141231525 0.0141231525
0.0141694880 0.0141694880 0.0141694880
0.0142159120 0.0142159120 0.0142159120
0.0142624246 0.0142624246 0.0142624246
0.0143090258 0.0143090258 0.0143090258
0.0143557158 0.0143557158 0.0143557158
0.0144024945 0.0144024945 0.0144024945
0.0144493620 0.0144493620 0.0144493620
0.0144963184 0.0144963184 0.0144963184
0.0145433636 0.0145433636 0.0145433636
0.0145904978 0.0145904978 0.0145904978
0.0146377210 0.0146377210 0.0146377210
0.0146850332 0.0146850332 0.0146850332
0.0147324345 0.0147324345 0.0147324345
0.0147799250 0.0147799250 0.0147799250
0.0148275046 0.0148275046 0.0148275046
0.0148751734 0.0148751734 0.0148751734
0.0149229316 0.0149229316 0.0149229316
0.0149707790 0.0149707790 0.0149707790
0.0150187158 0.0150187158 0.0150187158
0.0150667421 0.0150667421 0.0150667421
0.0151148578 0.0151148578 0.0151148578
0.0151630630 0.0151630630 0.0151630630
0.0152113578 0.0152113578 0.0152113578
0.0152597422 0.0152597422 0.0152597422
0.0153082162 0.0153082162 0.0153082162
0.0153567800 0.0153567800 0.0153567800
0.0154054335 0.0154054335 0.0154054335
0.0154541768 0.0154541768 0.0154541768
0.0155030099 0.0155030099 0.0155030099
0.0155519330 0.0155519330 0.0155519330
0.0156009460 0.0156009460 0.0156009460
0.0156500489 0.0156500489 0.0156500489
0.0156992419 0.0156992419 0.0156992419
0.0157485250 0.0157485250 0.0157485250
0.0157978982 0.0157978982 0.0157978982
0.0158473616 0.0158473616 0.0158473616
0.0158969153 0.0158969153 0.0158969153
0.0159465592 0.0159465592 0.0159465592
0.0159962934 0.0159962934 0.0159962934
0.0160461179 0.0160461179 0.0160461179
0.0160960329 0.0160960329 0.0160960329
0.0161460384 0.0161460384 0.0161460384
0.0161961343 0.0161961343 0.0161961343
0.0162463208 0.0162463208 0.0162463208
0.0162965979 0.0162965979 0.0162965979
0.0163469656 0.0163469656 0.0163469656
0.0163974241 0.0163974241 0.0163974241
0.0164479732 0.0164479732 0.0164479732
0.0164986132 0.0164986132 0.0164986132
0.0165493440 0.0165493440 0.0165493440
0.0166001656 0.0166001656 0.0166001656
0.0166510782 0.0166510782 0.0166510782
0.0167020818 0.0167020818 0.0167020818
0.0167531764 0.0167531764 0.0167531764
0.0168043620 0.0168043620 0.0168043620
0.0168556387 0.0168556387 0.0168556387
0.0169070066 0.0169070066 0.0169070066
0.0169584657 0.0169584657 0.0169584657
0.0170100161 0.0170100161 0.0170100161
0.0170616577 0.0170616577 0.0170616577
0.0171133907 0.0171133907 0.0171133907
0.0171652151 0.0171652151 0.0171652151
0.0172171309 0.0172171309 0.0172171309
0.0172691382 0.0172691382 0.0172691382
0.0173212370 0.0173212370 0.0173212370
0.0173734274 0.0173734274 0.0173734274
0.0174257094 0.0174257094 0.0174257094
0.0174780830 0.0174780830 0.0174780830
0.0175305484 0.0175305484 0.0175305484
0.0175831055 0.0175831055 0.0175831055
0.0176357545 0.0176357545 0.0176357545
0.0176884952 0.0176884952 0.0176884952
0.0177413279 0.0177413279 0.0177413279
0.0177942525 0.0177942525 0.0177942525
0.0178472691 0.0178472691 0.0178472691
0.0179003777 0.0179003777 0.0179003777
0.0179535784 0.0179535784 0.0179535784
0.0180068712 0.0180068712 0.0180068712
0.0180602561 0.0180602561 0.0180602561
0.0181137333 0.0181137333 0.0181137333
0.0181673027 0.0181673027 0.0181673027
0.0182209645 0.0182209645 0.0182209645
0.0182747185 0.0182747185 0.0182747185
0.0183285650 0.0183285650 0.0183285650
0.0183825039 0.0183825039 0.0183825039
0.0184365353 0.0184365353 0.0184365353
0.0184906592 0.0184906592 0.0184906592
0.0185448757 0.0185448757 0.0185448757
0.0185991848 0.0185991848 0.0185991848
0.0186535866 0.0186535866 0.0186535866
0.0187080811 0.0187080811 0.0187080811
0.0187626683 0.0187626683 0.0187626683
0.0188173484 0.0188173484 0.0188173484
0.0188721213 0.0188721213 0.0188721213
0.0189269870 0.0189269870 0.0189269870
0.0189819457 0.0189819457 0.0189819457
0.0190369974 0.0190369974 0.0190369974
0.0190921421 0.0190921421 0.0190921421
0.0191473799 0.0191473799 0.0191473799
0.0192027108 0.0192027108 0.0192027108
0.0192581348 0.0192581348 0.0192581348
0.0193136521 0.0193136521 0.0193136521
0.0193692626 0.0193692626 0.0193692626
0.0194249664 0.0194249664 0.0194249664
