HDR ST 2084/Gamma 2.6 to HDR 1000 nits.cube
# DaVinci Resolve Cube (1D shaper LUT).

LUT_1D_SIZE 4096
LUT_1D_INPUT_RANGE 0.0000000000 3.1092851202

0.0000007310 0.0000007310 0.0000007310
0.0000747534 0.0000747534 0.0000747534
0.0001948560 0.0001948560 0.0001948560
0.0003532574 0.0003532574 0.0003532574
0.0005445277 0.0005445277 0.0005445277
0.0007647459 0.0007647459 0.0007647459
0.0010108427 0.0010108427 0.0010108427
0.0012803008 0.0012803008 0.0012803008
0.0015710206 0.0015710206 0.0015710206
0.0018811664 0.0018811664 0.0018811664
0.0022091682 0.0022091682 0.0022091682
0.0025536621 0.0025536621 0.0025536621
0.0029134036 0.0029134036 0.0029134036
0.0032872711 0.0032872711 0.0032872711
0.0036742741 0.0036742741 0.0036742741
0.0040735910 0.0040735910 0.0040735910
0.0044843745 0.0044843745 0.0044843745
0.0049058488 0.0049058488 0.0049058488
0.0053373883 0.0053373883 0.0053373883
0.0057782657 0.0057782657 0.0057782657
0.0062281261 0.0062281261 0.0062281261
0.0066862316 0.0066862316 0.0066862316
0.0071522295 0.0071522295 0.0071522295
0.0076254848 0.0076254848 0.0076254848
0.0081058294 0.0081058294 0.0081058294
0.0085926587 0.0085926587 0.0085926587
0.0090856906 0.0090856906 0.0090856906
0.0095845833 0.0095845833 0.0095845833
0.0100890715 0.0100890715 0.0100890715
0.0105987368 0.0105987368 0.0105987368
0.0111133847 0.0111133847 0.0111133847
0.0116327759 0.0116327759 0.0116327759
0.0121564064 0.0121564064 0.0121564064
0.0126843182 0.0126843182 0.0126843182
0.0132162049 0.0132162049 0.0132162049
0.0137519371 0.0137519371 0.0137519371
0.0142910853 0.0142910853 0.0142910853
0.0148338024 0.0148338024 0.0148338024
0.0153795499 0.0153795499 0.0153795499
0.0159284566 0.0159284566 0.0159284566
0.0164801273 0.0164801273 0.0164801273
0.0170345474 0.0170345474 0.0170345474
0.0175916161 0.0175916161 0.0175916161
0.0181510393 0.0181510393 0.0181510393
0.0187127553 0.0187127553 0.0187127553
0.0192767624 0.0192767624 0.0192767624
0.0198426452 0.0198426452 0.0198426452
0.0204106085 0.0204106085 0.0204106085
0.0209804252 0.0209804252 0.0209804252
0.0215519015 0.0215519015 0.0215519015
0.0221250989 0.0221250989 0.0221250989
0.0226997938 0.0226997938 0.0226997938
0.0232759099 0.0232759099 0.0232759099
0.0238535274 0.0238535274 0.0238535274
0.0244324096 0.0244324096 0.0244324096
0.0250124671 0.0250124671 0.0250124671
0.0255935155 0.0255935155 0.0255935155
0.0261757746 0.0261757746 0.0261757746
0.0267588608 0.0267588608 0.0267588608
0.0273431968 0.0273431968 0.0273431968
0.0279279016 0.0279279016 0.0279279016
0.0285138730 0.0285138730 0.0285138730
0.0291005336 0.0291005336 0.0291005336
0.0296877287 0.0296877287 0.0296877287
0.0302754603 0.0302754603 0.0302754603
0.0308642182 0.0308642182 0.0308642182
0.0314529985 0.0314529985 0.0314529985
0.0320424847 0.0320424847 0.0320424847
0.0326323025 0.0326323025 0.0326323025
0.0332227275 0.0332227275 0.0332227275
0.0338134132 0.0338134132 0.0338134132
0.0344043411 0.0344043411 0.0344043411
0.0349956751 0.0349956751 0.0349956751
0.0355870984 0.0355870984 0.0355870984
0.0361788124 0.0361788124 0.0361788124
0.0367705040 0.0367705040 0.0367705040
0.0373625942 0.0373625942 0.0373625942
0.0379547998 0.0379547998 0.0379547998
0.0385468304 0.0385468304 0.0385468304
0.0391389653 0.0391389653 0.0391389653
0.0397313274 0.0397313274 0.0397313274
0.0403234586 0.0403234586 0.0403234586
0.0409154892 0.0409154892 0.0409154892
0.0415075719 0.0415075719 0.0415075719
0.0420996659 0.0420996659 0.0420996659
0.0426913239 0.0426913239 0.0426913239
0.0432831496 0.0432831496 0.0432831496
0.0438747033 0.0438747033 0.0438747033
0.0444659777 0.0444659777 0.0444659777
0.0450571887 0.0450571887 0.0450571887
0.0456479080 0.0456479080 0.0456479080
0.0462385863 0.0462385863 0.0462385863
0.0468292609 0.0468292609 0.0468292609
0.0474190414 0.0474190414 0.0474190414
0.0480088890 0.0480088890 0.0480088890
0.0485983826 0.0485983826 0.0485983826
0.0491875783 0.0491875783 0.0491875783
0.0497760475 0.0497760475 0.0497760475
0.0503648296 0.0503648296 0.0503648296
0.0509525277 0.0509525277 0.0509525277
0.0515402034 0.0515402034 0.0515402034
0.0521277077 0.0521277077 0.0521277077
0.0527143627 0.0527143627 0.0527143627
0.0533005148 0.0533005148 0.0533005148
0.0538867936 0.0538867936 0.0538867936
0.0544720031 0.0544720031 0.0544720031
0.0550570413 0.0550570413 0.0550570413
0.0556415021 0.0556415021 0.0556415021
0.0562255122 0.0562255122 0.0562255122
0.0568086468 0.0568086468 0.0568086468
0.0573918819 0.0573918819 0.0573918819
0.0579742491 0.0579742491 0.0579742491
0.0585561693 0.0585561693 0.0585561693
0.0591378100 0.0591378100 0.0591378100
0.0597181730 0.0597181730 0.0597181730
0.0602988712 0.0602988712 0.0602988712
0.0608786233 0.0608786233 0.0608786233
0.0614575930 0.0614575930 0.0614575930
0.0620359592 0.0620359592 0.0620359592
0.0626139119 0.0626139119 0.0626139119
0.0631916374 0.0631916374 0.0631916374
0.0637681112 0.0637681112 0.0637681112
0.0643444508 0.0643444508 0.0643444508
0.0649196133 0.0649196133 0.0649196133
0.0654950812 0.0654950812 0.0654950812
0.0660691485 0.0660691485 0.0660691485
0.0666429996 0.0666429996 0.0666429996
0.0672155619 0.0672155619 0.0672155619
0.0677883625 0.0677883625 0.0677883625
0.0683603361 0.0683603361 0.0683603361
0.0689310357 0.0689310357 0.0689310357
0.0695013776 0.0695013776 0.0695013776
0.0700712651 0.0700712651 0.0700712651
0.0706402734 0.0706402734 0.0706402734
0.0712089986 0.0712089986 0.0712089986
0.0717763081 0.0717763081 0.0717763081
0.0723438710 0.0723438710 0.0723438710
0.0729094818 0.0729094818 0.0729094818
0.0734751821 0.0734751821 0.0734751821
0.0740405321 0.0740405321 0.0740405321
0.0746047497 0.0746047497 0.0746047497
0.0751684606 0.0751684606 0.0751684606
0.0757312328 0.0757312328 0.0757312328
0.0762944520 0.0762944520 0.0762944520
0.0768554658 0.0768554658 0.0768554658
0.0774171725 0.0774171725 0.0774171725
0.0779768750 0.0779768750 0.0779768750
0.0785359964 0.0785359964 0.0785359964
0.0790944770 0.0790944770 0.0790944770
0.0796522275 0.0796522275 0.0796522275
0.0802099779 0.0802099779 0.0802099779
0.0807672739 0.0807672739 0.0807672739
0.0813220739 0.0813220739 0.0813220739
0.0818782523 0.0818782523 0.0818782523
0.0824325904 0.0824325904 0.0824325904
0.0829849988 0.0829849988 0.0829849988
0.0835390389 0.0835390389 0.0835390389
0.0840910152 0.0840910152 0.0840910152
0.0846420825 0.0846420825 0.0846420825
0.0851930007 0.0851930007 0.0851930007
0.0857432932 0.0857432932 0.0857432932
0.0862929150 0.0862929150 0.0862929150
0.0868422240 0.0868422240 0.0868422240
0.0873886347 0.0873886347 0.0873886347
0.0879358873 0.0879358873 0.0879358873
0.0884826556 0.0884826556 0.0884826556
0.0890289024 0.0890289024 0.0890289024
0.0895736963 0.0895736963 0.0895736963
0.0901169851 0.0901169851 0.0901169851
0.0906613320 0.0906613320 0.0906613320
0.0912040621 0.0912040621 0.0912040621
0.0917459950 0.0917459950 0.0917459950
0.0922875404 0.0922875404 0.0922875404
0.0928277373 0.0928277373 0.0928277373
0.0933669880 0.0933669880 0.0933669880
0.0939061493 0.0939061493 0.0939061493
0.0944456458 0.0944456458 0.0944456458
0.0949822143 0.0949822143 0.0949822143
0.0955194831 0.0955194831 0.0955194831
0.0960551053 0.0960551053 0.0960551053
0.0965908840 0.0965908840 0.0965908840
0.0971244425 0.0971244425 0.0971244425
0.0976594910 0.0976594910 0.0976594910
0.0981917456 0.0981917456 0.0981917456
0.0987254381 0.0987254381 0.0987254381
0.0992567018 0.0992567018 0.0992567018
0.0997874141 0.0997874141 0.0997874141
0.1003180146 0.1003180146 0.1003180146
0.1008474901 0.1008474901 0.1008474901
0.1013762951 0.1013762951 0.1013762951
0.1019043922 0.1019043922 0.1019043922
0.1024312377 0.1024312377 0.1024312377
0.1029577851 0.1029577851 0.1029577851
0.1034839973 0.1034839973 0.1034839973
0.1040088460 0.1040088460 0.1040088460
0.1045332849 0.1045332849 0.1045332849
0.1050567776 0.1050567776 0.1050567776
0.1055787802 0.1055787802 0.1055787802
0.1061018035 0.1061018035 0.1061018035
0.1066232547 0.1066232547 0.1066232547
0.1071430966 0.1071430966 0.1071430966
0.1076638773 0.1076638773 0.1076638773
0.1081824526 0.1081824526 0.1081824526
0.1087019145 0.1087019145 0.1087019145
0.1092196181 0.1092196181 0.1092196181
0.1097360477 0.1097360477 0.1097360477
0.1102532819 0.1102532819 0.1102532819
0.1107691750 0.1107691750 0.1107691750
0.1112826169 0.1112826169 0.1112826169
0.1117989495 0.1117989495 0.1117989495
0.1123111323 0.1123111323 0.1123111323
0.1128245443 0.1128245443 0.1128245443
0.1133364365 0.1133364365 0.1133364365
0.1138467714 0.1138467714 0.1138467714
0.1143571660 0.1143571660 0.1143571660
0.1148676053 0.1148676053 0.1148676053
0.1153775081 0.1153775081 0.1153775081
0.1158857197 0.1158857197 0.1158857197
0.1163927764 0.1163927764 0.1163927764
0.1169008836 0.1169008836 0.1169008836
0.1174072251 0.1174072251 0.1174072251
0.1179123074 0.1179123074 0.1179123074
0.1184183955 0.1184183955 0.1184183955
0.1189214587 0.1189214587 0.1189214587
0.1194266304 0.1194266304 0.1194266304
0.1199281290 0.1199281290 0.1199281290
0.1204305515 0.1204305515 0.1204305515
0.1209315434 0.1209315434 0.1209315434
0.1214322522 0.1214322522 0.1214322522
0.1219326481 0.1219326481 0.1219326481
0.1224315390 0.1224315390 0.1224315390
0.1229312569 0.1229312569 0.1229312569
0.1234282255 0.1234282255 0.1234282255
0.1239271760 0.1239271760 0.1239271760
0.1244227141 0.1244227141 0.1244227141
0.1249177977 0.1249177977 0.1249177977
0.1254142225 0.1254142225 0.1254142225
0.1259077340 0.1259077340 0.1259077340
0.1264013201 0.1264013201 0.1264013201
0.1268949956 0.1268949956 0.1268949956
0.1273875087 0.1273875087 0.1273875087
0.1278794259 0.1278794259 0.1278794259
0.1283707470 0.1283707470 0.1283707470
0.1288608313 0.1288608313 0.1288608313
0.1293502599 0.1293502599 0.1293502599
0.1298396438 0.1298396438 0.1298396438
0.1303277165 0.1303277165 0.1303277165
0.1308156997 0.1308156997 0.1308156997
0.1313029677 0.1313029677 0.1313029677
0.1317888498 0.1317888498 0.1317888498
0.1322752237 0.1322752237 0.1322752237
0.1327601671 0.1327601671 0.1327601671
0.1332436651 0.1332436651 0.1332436651
0.1337282509 0.1337282509 0.1337282509
0.1342113316 0.1342113316 0.1342113316
0.1346929073 0.1346929073 0.1346929073
0.1351748705 0.1351748705 0.1351748705
0.1356559247 0.1356559247 0.1356559247
0.1361360550 0.1361360550 0.1361360550
0.1366152167 0.1366152167 0.1366152167
0.1370947212 0.1370947212 0.1370947212
0.1375732422 0.1375732422 0.1375732422
0.1380507499 0.1380507499 0.1380507499
0.1385285556 0.1385285556 0.1385285556
0.1390033066 0.1390033066 0.1390033066
0.1394803375 0.1394803375 0.1394803375
0.1399549395 0.1399549395 0.1399549395
0.1404297799 0.1404297799 0.1404297799
0.1409035027 0.1409035027 0.1409035027
0.1413760632 0.1413760632 0.1413760632
0.1418495178 0.1418495178 0.1418495178
0.1423204243 0.1423204243 0.1423204243
0.1427928656 0.1427928656 0.1427928656
0.1432634145 0.1432634145 0.1432634145
0.1437334120 0.1437334120 0.1437334120
0.1442014575 0.1442014575 0.1442014575
0.1446717083 0.1446717083 0.1446717083
0.1451392919 0.1451392919 0.1451392919
0.1456069499 0.1456069499 0.1456069499
0.1460732818 0.1460732818 0.1460732818
0.1465389729 0.1465389729 0.1465389729
0.1470047086 0.1470047086 0.1470047086
0.1474697888 0.1474697888 0.1474697888
0.1479334533 0.1479334533 0.1479334533
0.1483978629 0.1483978629 0.1483978629
0.1488608420 0.1488608420 0.1488608420
0.1493237913 0.1493237913 0.1493237913
0.1497852951 0.1497852951 0.1497852951
0.1502460390 0.1502460390 0.1502460390
0.1507074386 0.1507074386 0.1507074386
0.1511673480 0.1511673480 0.1511673480
0.1516271681 0.1516271681 0.1516271681
0.1520847231 0.1520847231 0.1520847231
0.1525421590 0.1525421590 0.1525421590
0.1530002207 0.1530002207 0.1530002207
0.1534574330 0.1534574330 0.1534574330
0.1539137661 0.1539137661 0.1539137661
0.1543692052 0.1543692052 0.1543692052
0.1548244953 0.1548244953 0.1548244953
0.1552788615 0.1552788615 0.1552788615
0.1557322890 0.1557322890 0.1557322890
0.1561862826 0.1561862826 0.1561862826
0.1566385776 0.1566385776 0.1566385776
0.1570906341 0.1570906341 0.1570906341
0.1575424820 0.1575424820 0.1575424820
0.1579925567 0.1579925567 0.1579925567
0.1584423780 0.1584423780 0.1584423780
0.1588934809 0.1588934809 0.1588934809
0.1593427658 0.1593427658 0.1593427658
0.1597902477 0.1597902477 0.1597902477
0.1602389514 0.1602389514 0.1602389514
0.1606858224 0.1606858224 0.1606858224
0.1611323655 0.1611323655 0.1611323655
0.1615785807 0.1615785807 0.1615785807
0.1620244682 0.1620244682 0.1620244682
0.1624692082 0.1624692082 0.1624692082
0.1629136056 0.1629136056 0.1629136056
0.1633568406 0.1633568406 0.1633568406
0.1638004631 0.1638004631 0.1638004631
0.1642437130 0.1642437130 0.1642437130
0.1646865606 0.1646865606 0.1646865606
0.1651274115 0.1651274115 0.1651274115
0.1655686200 0.1655686200 0.1655686200
0.1660078168 0.1660078168 0.1660078168
0.1664489508 0.1664489508 0.1664489508
0.1668880433 0.1668880433 0.1668880433
0.1673258543 0.1673258543 0.1673258543
0.1677640080 0.1677640080 0.1677640080
0.1682016551 0.1682016551 0.1682016551
0.1686388254 0.1686388254 0.1686388254
0.1690746844 0.1690746844 0.1690746844
0.1695100069 0.1695100069 0.1695100069
0.1699464470 0.1699464470 0.1699464470
0.1703807265 0.1703807265 0.1703807265
0.1708152741 0.1708152741 0.1708152741
0.1712484509 0.1712484509 0.1712484509
0.1716818810 0.1716818810 0.1716818810
0.1721147448 0.1721147448 0.1721147448
0.1725461930 0.1725461930 0.1725461930
0.1729762256 0.1729762256 0.1729762256
0.1734089702 0.1734089702 0.1734089702
0.1738386154 0.1738386154 0.1738386154
0.1742693037 0.1742693037 0.1742693037
0.1746968627 0.1746968627 0.1746968627
0.1751254499 0.1751254499 0.1751254499
0.1755542308 0.1755542308 0.1755542308
0.1759823561 0.1759823561 0.1759823561
0.1764098108 0.1764098108 0.1764098108
0.1768349111 0.1768349111 0.1768349111
0.1772618592 0.1772618592 0.1772618592
0.1776872724 0.1776872724 0.1776872724
0.1781119704 0.1781119704 0.1781119704
0.1785359681 0.1785359681 0.1785359681
0.1789592355 0.1789592355 0.1789592355
0.1793835014 0.1793835014 0.1793835014
0.1798061579 0.1798061579 0.1798061579
0.1802280843 0.1802280843 0.1802280843
0.1806501001 0.1806501001 0.1806501001
0.1810713708 0.1810713708 0.1810713708
0.1814909875 0.1814909875 0.1814909875
0.1819115579 0.1819115579 0.1819115579
0.1823322326 0.1823322326 0.1823322326
0.1827503443 0.1827503443 0.1827503443
0.1831685156 0.1831685156 0.1831685156
0.1835858822 0.1835858822 0.1835858822
0.1840041876 0.1840041876 0.1840041876
0.1844207793 0.1844207793 0.1844207793
0.1848382950 0.1848382950 0.1848382950
0.1852531880 0.1852531880 0.1852531880
0.1856690049 0.1856690049 0.1856690049
0.1860839427 0.1860839427 0.1860839427
0.1864980161 0.1864980161 0.1864980161
0.1869121045 0.1869121045 0.1869121045
0.1873252988 0.1873252988 0.1873252988
0.1877384931 0.1877384931 0.1877384931
0.1881507784 0.1881507784 0.1881507784
0.1885630637 0.1885630637 0.1885630637
0.1889744103 0.1889744103 0.1889744103
0.1893848330 0.1893848330 0.1893848330
0.1897961348 0.1897961348 0.1897961348
0.1902046651 0.1902046651 0.1902046651
0.1906140745 0.1906140745 0.1906140745
0.1910243481 0.1910243481 0.1910243481
0.1914318204 0.1914318204 0.1914318204
0.1918401420 0.1918401420 0.1918401420
0.1922474802 0.1922474802 0.1922474802
0.1926547587 0.1926547587 0.1926547587
0.1930601001 0.1930601001 0.1930601001
0.1934662759 0.1934662759 0.1934662759
0.1938714534 0.1938714534 0.1938714534
0.1942765266 0.1942765266 0.1942765266
0.1946805716 0.1946805716 0.1946805716
0.1950835735 0.1950835735 0.1950835735
0.1954883337 0.1954883337 0.1954883337
0.1958910972 0.1958910972 0.1958910972
0.1962937415 0.1962937415 0.1962937415
0.1966953278 0.1966953278 0.1966953278
0.1970977187 0.1970977187 0.1970977187
0.1974980682 0.1974980682 0.1974980682
0.1978982836 0.1978982836 0.1978982836
0.1982993037 0.1982993037 0.1982993037
0.1986982524 0.1986982524 0.1986982524
0.1990970522 0.1990970522 0.1990970522
0.1994966418 0.1994966418 0.1994966418
0.1998950988 0.1998950988 0.1998950988
0.2002914548 0.2002914548 0.2002914548
0.2006895542 0.2006895542 0.2006895542
0.2010855526 0.2010855526 0.2010855526
0.2014823109 0.2014823109 0.2014823109
0.2018779069 0.2018779069 0.2018779069
0.2022732943 0.2022732943 0.2022732943
0.2026665360 0.2026665360 0.2026665360
0.2030634582 0.2030634582 0.2030634582
0.2034562677 0.2034562677 0.2034562677
0.2038508058 0.2038508058 0.2038508058
0.2042421699 0.2042421699 0.2042421699
0.2046352774 0.2046352774 0.2046352774
0.2050281316 0.2050281316 0.2050281316
0.2054177970 0.2054177970 0.2054177970
0.2058111578 0.2058111578 0.2058111578
0.2062003165 0.2062003165 0.2062003165
0.2065901905 0.2065901905 0.2065901905
0.2069808096 0.2069808096 0.2069808096
0.2073701620 0.2073701620 0.2073701620
0.2077592313 0.2077592313 0.2077592313
0.2081470490 0.2081470490 0.2081470490
0.2085355669 0.2085355669 0.2085355669
0.2089227885 0.2089227885 0.2089227885
0.2093097270 0.2093097270 0.2093097270
0.2096963674 0.2096963674 0.2096963674
0.2100837231 0.2100837231 0.2100837231
0.2104677409 0.2104677409 0.2104677409
0.2108534575 0.2108534575 0.2108534575
0.2112378478 0.2112378478 0.2112378478
0.2116219252 0.2116219252 0.2116219252
0.2120066881 0.2120066881 0.2120066881
0.2123911232 0.2123911232 0.2123911232
0.2127742022 0.2127742022 0.2127742022
0.2131548971 0.2131548971 0.2131548971
0.2135383189 0.2135383189 0.2135383189
0.2139193416 0.2139193416 0.2139193416
0.2143010348 0.2143010348 0.2143010348
0.2146823704 0.2146823704 0.2146823704
0.2150623202 0.2150623202 0.2150623202
0.2154429406 0.2154429406 0.2154429406
0.2158221453 0.2158221453 0.2158221453
0.2162020206 0.2162020206 0.2162020206
0.2165804654 0.2165804654 0.2165804654
0.2169585377 0.2169585377 0.2169585377
0.2173362076 0.2173362076 0.2173362076
0.2177134901 0.2177134901 0.2177134901
0.2180903852 0.2180903852 0.2180903852
0.2184668630 0.2184668630 0.2184668630
0.2188429385 0.2188429385 0.2188429385
0.2192175537 0.2192175537 0.2192175537
0.2195948958 0.2195948958 0.2195948958
0.2199676186 0.2199676186 0.2199676186
0.2203420252 0.2203420252 0.2203420252
0.2207170576 0.2207170576 0.2207170576
0.2210895419 0.2210895419 0.2210895419
0.2214647830 0.2214647830 0.2214647830
0.2218374461 0.2218374461 0.2218374461
0.2222086042 0.2222086042 0.2222086042
0.2225803733 0.2225803733 0.2225803733
0.2229527682 0.2229527682 0.2229527682
0.2233236283 0.2233236283 0.2233236283
0.2236940265 0.2236940265 0.2236940265
0.2240650356 0.2240650356 0.2240650356
0.2244344950 0.2244344950 0.2244344950
0.2248045653 0.2248045653 0.2248045653
0.2251730710 0.2251730710 0.2251730710
0.2255421877 0.2255421877 0.2255421877
0.2259086370 0.2259086370 0.2259086370
0.2262778580 0.2262778580 0.2262778580
0.2266444117 0.2266444117 0.2266444117
0.2270126343 0.2270126343 0.2270126343
0.2273771018 0.2273771018 0.2273771018
0.2277443260 0.2277443260 0.2277443260
0.2281099409 0.2281099409 0.2281099409
0.2284750491 0.2284750491 0.2284750491
0.2288407385 0.2288407385 0.2288407385
0.2292048037 0.2292048037 0.2292048037
0.2295694500 0.2295694500 0.2295694500
0.2299324572 0.2299324572 0.2299324572
0.2302949429 0.2302949429 0.2302949429
0.2306590825 0.2306590825 0.2306590825
0.2310215831 0.2310215831 0.2310215831
0.2313835323 0.2313835323 0.2313835323
0.2317460477 0.2317460477 0.2317460477
0.2321080118 0.2321080118 0.2321080118
0.2324694246 0.2324694246 0.2324694246
0.2328291535 0.2328291535 0.2328291535
0.2331894487 0.2331894487 0.2331894487
0.2335491627 0.2335491627 0.2335491627
0.2339083105 0.2339083105 0.2339083105
0.2342668772 0.2342668772 0.2342668772
0.2346248627 0.2346248627 0.2346248627
0.2349833995 0.2349833995 0.2349833995
0.2353413403 0.2353413403 0.2353413403
0.2356987000 0.2356987000 0.2356987000
0.2360565811 0.2360565811 0.2360565811
0.2364138812 0.2364138812 0.2364138812
0.2367694378 0.2367694378 0.2367694378
0.2371243984 0.2371243984 0.2371243984
0.2374810129 0.2374810129 0.2374810129
0.2378358841 0.2378358841 0.2378358841
0.2381912768 0.2381912768 0.2381912768
0.2385449260 0.2385449260 0.2385449260
0.2388990670 0.2388990670 0.2388990670
0.2392537445 0.2392537445 0.2392537445
0.2396066487 0.2396066487 0.2396066487
0.2399600595 0.2399600595 0.2399600595
0.2403116822 0.2403116822 0.2403116822
0.2406649739 0.2406649739 0.2406649739
0.2410164624 0.2410164624 0.2410164624
0.2413673103 0.2413673103 0.2413673103
0.2417175174 0.2417175174 0.2417175174
0.2420693636 0.2420693636 0.2420693636
0.2424205691 0.2424205691 0.2424205691
0.2427687794 0.2427687794 0.2427687794
0.2431186587 0.2431186587 0.2431186587
0.2434667051 0.2434667051 0.2434667051
0.2438164055 0.2438164055 0.2438164055
0.2441654354 0.2441654354 0.2441654354
0.2445137799 0.2445137799 0.2445137799
0.2448614538 0.2448614538 0.2448614538
0.2452084422 0.2452084422 0.2452084422
0.2455547452 0.2455547452 0.2455547452
0.2459015250 0.2459015250 0.2459015250
0.2462476045 0.2462476045 0.2462476045
0.2465929985 0.2465929985 0.2465929985
0.2469388694 0.2469388694 0.2469388694
0.2472852170 0.2472852170 0.2472852170
0.2476296723 0.2476296723 0.2476296723
0.2479734123 0.2479734123 0.2479734123
0.2483188063 0.2483188063 0.2483188063
0.2486623079 0.2486623079 0.2486623079
0.2490062714 0.2490062714 0.2490062714
0.2493483275 0.2493483275 0.2493483275
0.2496908456 0.2496908456 0.2496908456
0.2500338256 0.2500338256 0.2500338256
0.2503760755 0.2503760755 0.2503760755
0.2507175803 0.2507175803 0.2507175803
0.2510583401 0.2510583401 0.2510583401
0.2513983846 0.2513983846 0.2513983846
0.2517400682 0.2517400682 0.2517400682
0.2520810068 0.2520810068 0.2520810068
0.2524199784 0.2524199784 0.2524199784
0.2527582049 0.2527582049 0.2527582049
0.2530992925 0.2530992925 0.2530992925
0.2534371912 0.2534371912 0.2534371912
0.2537755370 0.2537755370 0.2537755370
0.2541143596 0.2541143596 0.2541143596
0.2544511557 0.2544511557 0.2544511557
0.2547871768 0.2547871768 0.2547871768
0.2551260889 0.2551260889 0.2551260889
0.2554642260 0.2554642260 0.2554642260
0.2557991445 0.2557991445 0.2557991445
0.2561357021 0.2561357021 0.2561357021
0.2564702630 0.2564702630 0.2564702630
0.2568052411 0.2568052411 0.2568052411
0.2571418881 0.2571418881 0.2571418881
0.2574765086 0.2574765086 0.2574765086
0.2578103244 0.2578103244 0.2578103244
0.2581445575 0.2581445575 0.2581445575
0.2584779859 0.2584779859 0.2584779859
0.2588106096 0.2588106096 0.2588106096
0.2591449022 0.2591449022 0.2591449022
0.2594771385 0.2594771385 0.2594771385
0.2598097920 0.2598097920 0.2598097920
0.2601416111 0.2601416111 0.2601416111
0.2604738474 0.2604738474 0.2604738474
0.2608040273 0.2608040273 0.2608040273
0.2611346245 0.2611346245 0.2611346245
0.2614656091 0.2614656091 0.2614656091
0.2617970109 0.2617970109 0.2617970109
0.2621263564 0.2621263564 0.2621263564
0.2624560595 0.2624560595 0.2624560595
0.2627849579 0.2627849579 0.2627849579
0.2631142437 0.2631142437 0.2631142437
0.2634439468 0.2634439468 0.2634439468
0.2637715340 0.2637715340 0.2637715340
0.2640995085 0.2640995085 0.2640995085
0.2644279003 0.2644279003 0.2644279003
0.2647541761 0.2647541761 0.2647541761
0.2650808394 0.2650808394 0.2650808394
0.2654066086 0.2654066086 0.2654066086
0.2657340765 0.2657340765 0.2657340765
0.2660606503 0.2660606503 0.2660606503
0.2663876116 0.2663876116 0.2663876116
0.2667111754 0.2667111754 0.2667111754
0.2670376599 0.2670376599 0.2670376599
0.2673632801 0.2673632801 0.2673632801
0.2676880062 0.2676880062 0.2676880062
0.2680105567 0.2680105567 0.2680105567
0.2683347464 0.2683347464 0.2683347464
0.2686580718 0.2686580718 0.2686580718
0.2689817846 0.2689817846 0.2689817846
0.2693045735 0.2693045735 0.2693045735
0.2696264684 0.2696264684 0.2696264684
0.2699487507 0.2699487507 0.2699487507
0.2702701092 0.2702701092 0.2702701092
0.2705931365 0.2705931365 0.2705931365
0.2709139585 0.2709139585 0.2709139585
0.2712338865 0.2712338865 0.2712338865
0.2715567350 0.2715567350 0.2715567350
0.2718748152 0.2718748152 0.2718748152
0.2721958458 0.2721958458 0.2721958458
0.2725159228 0.2725159228 0.2725159228
0.2728337944 0.2728337944 0.2728337944
0.2731533349 0.2731533349 0.2731533349
0.2734732330 0.2734732330 0.2734732330
