HDR ST 2084/Gamma 2.4 to HDR 4000 nits.cube
# DaVinci Resolve Cube (1D shaper LUT).

LUT_1D_SIZE 4096
LUT_1D_INPUT_RANGE 0.0000000000 4.6507714352

0.0000007310 0.0000007310 0.0000007310
0.0003948064 0.0003948064 0.0003948064
0.0010440113 0.0010440113 0.0010440113
0.0018522952 0.0018522952 0.0018522952
0.0027746572 0.0027746572 0.0027746572
0.0037836204 0.0037836204 0.0037836204
0.0048605036 0.0048605036 0.0048605036
0.0059916833 0.0059916833 0.0059916833
0.0071671316 0.0071671316 0.0071671316
0.0083786855 0.0083786855 0.0083786855
0.0096202912 0.0096202912 0.0096202912
0.0108866710 0.0108866710 0.0108866710
0.0121736368 0.0121736368 0.0121736368
0.0134777641 0.0134777641 0.0134777641
0.0147963464 0.0147963464 0.0147963464
0.0161264148 0.0161264148 0.0161264148
0.0174664035 0.0174664035 0.0174664035
0.0188142098 0.0188142098 0.0188142098
0.0201682709 0.0201682709 0.0201682709
0.0215272475 0.0215272475 0.0215272475
0.0228901748 0.0228901748 0.0228901748
0.0242558811 0.0242558811 0.0242558811
0.0256233942 0.0256233942 0.0256233942
0.0269919764 0.0269919764 0.0269919764
0.0283610579 0.0283610579 0.0283610579
0.0297296252 0.0297296252 0.0297296252
0.0310977716 0.0310977716 0.0310977716
0.0324642472 0.0324642472 0.0324642472
0.0338295065 0.0338295065 0.0338295065
0.0351923630 0.0351923630 0.0351923630
0.0365529284 0.0365529284 0.0365529284
0.0379105769 0.0379105769 0.0379105769
0.0392654650 0.0392654650 0.0392654650
0.0406166203 0.0406166203 0.0406166203
0.0419647731 0.0419647731 0.0419647731
0.0433091931 0.0433091931 0.0433091931
0.0446498245 0.0446498245 0.0446498245
0.0459864438 0.0459864438 0.0459864438
0.0473188497 0.0473188497 0.0473188497
0.0486472957 0.0486472957 0.0486472957
0.0499713048 0.0499713048 0.0499713048
0.0512905680 0.0512905680 0.0512905680
0.0526059568 0.0526059568 0.0526059568
0.0539162345 0.0539162345 0.0539162345
0.0552221015 0.0552221015 0.0552221015
0.0565230846 0.0565230846 0.0565230846
0.0578193776 0.0578193776 0.0578193776
0.0591107383 0.0591107383 0.0591107383
0.0603979118 0.0603979118 0.0603979118
0.0616800115 0.0616800115 0.0616800115
0.0629567876 0.0629567876 0.0629567876
0.0642290190 0.0642290190 0.0642290190
0.0654963553 0.0654963553 0.0654963553
0.0667588115 0.0667588115 0.0667588115
0.0680165142 0.0680165142 0.0680165142
0.0692679659 0.0692679659 0.0692679659
0.0705167800 0.0705167800 0.0705167800
0.0717585236 0.0717585236 0.0717585236
0.0729970261 0.0729970261 0.0729970261
0.0742299408 0.0742299408 0.0742299408
0.0754573867 0.0754573867 0.0754573867
0.0766806677 0.0766806677 0.0766806677
0.0778993219 0.0778993219 0.0778993219
0.0791132823 0.0791132823 0.0791132823
0.0803209767 0.0803209767 0.0803209767
0.0815251097 0.0815251097 0.0815251097
0.0827233866 0.0827233866 0.0827233866
0.0839186981 0.0839186981 0.0839186981
0.0851075351 0.0851075351 0.0851075351
0.0862920806 0.0862920806 0.0862920806
0.0874738172 0.0874738172 0.0874738172
0.0886478946 0.0886478946 0.0886478946
0.0898183882 0.0898183882 0.0898183882
0.0909851715 0.0909851715 0.0909851715
0.0921463892 0.0921463892 0.0921463892
0.0933032557 0.0933032557 0.0933032557
0.0944561586 0.0944561586 0.0944561586
0.0956036896 0.0956036896 0.0956036896
0.0967462435 0.0967462435 0.0967462435
0.0978866443 0.0978866443 0.0978866443
0.0990201831 0.0990201831 0.0990201831
0.1001497209 0.1001497209 0.1001497209
0.1012762934 0.1012762934 0.1012762934
0.1023970544 0.1023970544 0.1023970544
0.1035135314 0.1035135314 0.1035135314
0.1046258360 0.1046258360 0.1046258360
0.1057335809 0.1057335809 0.1057335809
0.1068384349 0.1068384349 0.1068384349
0.1079385132 0.1079385132 0.1079385132
0.1090339571 0.1090339571 0.1090339571
0.1101254746 0.1101254746 0.1101254746
0.1112121940 0.1112121940 0.1112121940
0.1122953966 0.1122953966 0.1122953966
0.1133736745 0.1133736745 0.1133736745
0.1144489050 0.1144489050 0.1144489050
0.1155202538 0.1155202538 0.1155202538
0.1165874228 0.1165874228 0.1165874228
0.1176501215 0.1176501215 0.1176501215
0.1187097728 0.1187097728 0.1187097728
0.1197632402 0.1197632402 0.1197632402
0.1208160147 0.1208160147 0.1208160147
0.1218632236 0.1218632236 0.1218632236
0.1229069307 0.1229069307 0.1229069307
0.1239457130 0.1239457130 0.1239457130
0.1249817014 0.1249817014 0.1249817014
0.1260140836 0.1260140836 0.1260140836
0.1270419955 0.1270419955 0.1270419955
0.1280677021 0.1280677021 0.1280677021
0.1290885061 0.1290885061 0.1290885061
0.1301054060 0.1301054060 0.1301054060
0.1311188489 0.1311188489 0.1311188489
0.1321286112 0.1321286112 0.1321286112
0.1331344992 0.1331344992 0.1331344992
0.1341382414 0.1341382414 0.1341382414
0.1351377368 0.1351377368 0.1351377368
0.1361340731 0.1361340731 0.1361340731
0.1371257752 0.1371257752 0.1371257752
0.1381146312 0.1381146312 0.1381146312
0.1390997916 0.1390997916 0.1390997916
0.1400824487 0.1400824487 0.1400824487
0.1410603970 0.1410603970 0.1410603970
0.1420355141 0.1420355141 0.1420355141
0.1430076361 0.1430076361 0.1430076361
0.1439759135 0.1439759135 0.1439759135
0.1449416131 0.1449416131 0.1449416131
0.1459038556 0.1459038556 0.1459038556
0.1468625069 0.1468625069 0.1468625069
0.1478181183 0.1478181183 0.1478181183
0.1487698406 0.1487698406 0.1487698406
0.1497189701 0.1497189701 0.1497189701
0.1506646425 0.1506646425 0.1506646425
0.1516067386 0.1516067386 0.1516067386
0.1525472999 0.1525472999 0.1525472999
0.1534825414 0.1534825414 0.1534825414
0.1544174999 0.1544174999 0.1544174999
0.1553476155 0.1553476155 0.1553476155
0.1562749892 0.1562749892 0.1562749892
0.1571995020 0.1571995020 0.1571995020
0.1581195444 0.1581195444 0.1581195444
0.1590380073 0.1590380073 0.1590380073
0.1599532664 0.1599532664 0.1599532664
0.1608659923 0.1608659923 0.1608659923
0.1617737561 0.1617737561 0.1617737561
0.1626818776 0.1626818776 0.1626818776
0.1635855883 0.1635855883 0.1635855883
0.1644863486 0.1644863486 0.1644863486
0.1653840393 0.1653840393 0.1653840393
0.1662785858 0.1662785858 0.1662785858
0.1671706885 0.1671706885 0.1671706885
0.1680594236 0.1680594236 0.1680594236
0.1689463258 0.1689463258 0.1689463258
0.1698296815 0.1698296815 0.1698296815
0.1707118601 0.1707118601 0.1707118601
0.1715894938 0.1715894938 0.1715894938
0.1724649519 0.1724649519 0.1724649519
0.1733381599 0.1733381599 0.1733381599
0.1742090285 0.1742090285 0.1742090285
0.1750766486 0.1750766486 0.1750766486
0.1759409308 0.1759409308 0.1759409308
0.1768034846 0.1768034846 0.1768034846
0.1776633710 0.1776633710 0.1776633710
0.1785196811 0.1785196811 0.1785196811
0.1793740243 0.1793740243 0.1793740243
0.1802263558 0.1802263558 0.1802263558
0.1810765862 0.1810765862 0.1810765862
0.1819229126 0.1819229126 0.1819229126
0.1827670187 0.1827670187 0.1827670187
0.1836096942 0.1836096942 0.1836096942
0.1844491065 0.1844491065 0.1844491065
0.1852852106 0.1852852106 0.1852852106
0.1861205697 0.1861205697 0.1861205697
0.1869515926 0.1869515926 0.1869515926
0.1877817512 0.1877817512 0.1877817512
0.1886092275 0.1886092275 0.1886092275
0.1894330233 0.1894330233 0.1894330233
0.1902548820 0.1902548820 0.1902548820
0.1910756975 0.1910756975 0.1910756975
0.1918944716 0.1918944716 0.1918944716
0.1927083880 0.1927083880 0.1927083880
0.1935219914 0.1935219914 0.1935219914
0.1943324655 0.1943324655 0.1943324655
0.1951406747 0.1951406747 0.1951406747
0.1959465593 0.1959465593 0.1959465593
0.1967500597 0.1967500597 0.1967500597
0.1975520849 0.1975520849 0.1975520849
0.1983506680 0.1983506680 0.1983506680
0.1991467178 0.1991467178 0.1991467178
0.1999411136 0.1999411136 0.1999411136
0.2007357627 0.2007357627 0.2007357627
0.2015248239 0.2015248239 0.2015248239
0.2023140490 0.2023140490 0.2023140490
0.2030994892 0.2030994892 0.2030994892
0.2038840353 0.2038840353 0.2038840353
0.2046656907 0.2046656907 0.2046656907
0.2054453790 0.2054453790 0.2054453790
0.2062220573 0.2062220573 0.2062220573
0.2069976777 0.2069976777 0.2069976777
0.2077701986 0.2077701986 0.2077701986
0.2085425556 0.2085425556 0.2085425556
0.2093097270 0.2093097270 0.2093097270
0.2100776732 0.2100776732 0.2100776732
0.2108423412 0.2108423412 0.2108423412
0.2116067111 0.2116067111 0.2116067111
0.2123656720 0.2123656720 0.2123656720
0.2131242603 0.2131242603 0.2131242603
0.2138814181 0.2138814181 0.2138814181
0.2146360874 0.2146360874 0.2146360874
0.2153892666 0.2153892666 0.2153892666
0.2161398679 0.2161398679 0.2161398679
0.2168888897 0.2168888897 0.2168888897
0.2176363170 0.2176363170 0.2176363170
0.2183800042 0.2183800042 0.2183800042
0.2191230506 0.2191230506 0.2191230506
0.2198654264 0.2198654264 0.2198654264
0.2206039578 0.2206039578 0.2206039578
0.2213417441 0.2213417441 0.2213417441
0.2220766544 0.2220766544 0.2220766544
0.2228107750 0.2228107750 0.2228107750
0.2235419452 0.2235419452 0.2235419452
0.2242711782 0.2242711782 0.2242711782
0.2249995172 0.2249995172 0.2249995172
0.2257258743 0.2257258743 0.2257258743
0.2264502198 0.2264502198 0.2264502198
0.2271724939 0.2271724939 0.2271724939
0.2278926820 0.2278926820 0.2278926820
0.2286107540 0.2286107540 0.2286107540
0.2293277532 0.2293277532 0.2293277532
0.2300436795 0.2300436795 0.2300436795
0.2307573855 0.2307573855 0.2307573855
0.2314688414 0.2314688414 0.2314688414
0.2321791351 0.2321791351 0.2321791351
0.2328871191 0.2328871191 0.2328871191
0.2335927635 0.2335927635 0.2335927635
0.2342971563 0.2342971563 0.2342971563
0.2350002676 0.2350002676 0.2350002676
0.2357020825 0.2357020825 0.2357020825
0.2364014387 0.2364014387 0.2364014387
0.2370983064 0.2370983064 0.2370983064
0.2377937734 0.2377937734 0.2377937734
0.2384889871 0.2384889871 0.2384889871
0.2391816229 0.2391816229 0.2391816229
0.2398727983 0.2398727983 0.2398727983
0.2405624986 0.2405624986 0.2405624986
0.2412495464 0.2412495464 0.2412495464
0.2419362068 0.2419362068 0.2419362068
0.2426201552 0.2426201552 0.2426201552
0.2433025092 0.2433025092 0.2433025092
0.2439844310 0.2439844310 0.2439844310
0.2446635664 0.2446635664 0.2446635664
0.2453422099 0.2453422099 0.2453422099
0.2460180074 0.2460180074 0.2460180074
0.2466932833 0.2466932833 0.2466932833
0.2473668456 0.2473668456 0.2473668456
0.2480374724 0.2480374724 0.2480374724
0.2487086952 0.2487086952 0.2487086952
0.2493757606 0.2493757606 0.2493757606
0.2500445843 0.2500445843 0.2500445843
0.2507091761 0.2507091761 0.2507091761
0.2513731420 0.2513731420 0.2513731420
0.2520352006 0.2520352006 0.2520352006
0.2526965737 0.2526965737 0.2526965737
0.2533560097 0.2533560097 0.2533560097
0.2540135086 0.2540135086 0.2540135086
0.2546690404 0.2546690404 0.2546690404
0.2553250194 0.2553250194 0.2553250194
0.2559790015 0.2559790015 0.2559790015
0.2566284835 0.2566284835 0.2566284835
0.2572808564 0.2572808564 0.2572808564
0.2579299212 0.2579299212 0.2579299212
0.2585768700 0.2585768700 0.2585768700
0.2592229545 0.2592229545 0.2592229545
0.2598656714 0.2598656714 0.2598656714
0.2605099678 0.2605099678 0.2605099678
0.2611520886 0.2611520886 0.2611520886
0.2617907524 0.2617907524 0.2617907524
0.2624309957 0.2624309957 0.2624309957
0.2630677223 0.2630677223 0.2630677223
0.2637047172 0.2637047172 0.2637047172
0.2643381953 0.2643381953 0.2643381953
0.2649718821 0.2649718821 0.2649718821
0.2656045556 0.2656045556 0.2656045556
0.2662336230 0.2662336230 0.2662336230
0.2668628991 0.2668628991 0.2668628991
0.2674923539 0.2674923539 0.2674923539
0.2681168616 0.2681168616 0.2681168616
0.2687428296 0.2687428296 0.2687428296
0.2693663538 0.2693663538 0.2693663538
0.2699887455 0.2699887455 0.2699887455
0.2706112564 0.2706112564 0.2706112564
0.2712287009 0.2712287009 0.2712287009
0.2718475163 0.2718475163 0.2718475163
0.2724638581 0.2724638581 0.2724638581
0.2730802596 0.2730802596 0.2730802596
0.2736954093 0.2736954093 0.2736954093
0.2743093371 0.2743093371 0.2743093371
0.2749193609 0.2749193609 0.2749193609
0.2755306959 0.2755306959 0.2755306959
0.2761394382 0.2761394382 0.2761394382
0.2767468691 0.2767468691 0.2767468691
0.2773543000 0.2773543000 0.2773543000
0.2779577076 0.2779577076 0.2779577076
0.2785637677 0.2785637677 0.2785637677
0.2791671455 0.2791671455 0.2791671455
0.2797677815 0.2797677815 0.2797677815
0.2803670168 0.2803670168 0.2803670168
0.2809661627 0.2809661627 0.2809661627
0.2815652490 0.2815652490 0.2815652490
0.2821615636 0.2821615636 0.2821615636
0.2827577591 0.2827577591 0.2827577591
0.2833511233 0.2833511233 0.2833511233
0.2839430273 0.2839430273 0.2839430273
0.2845361531 0.2845361531 0.2845361531
0.2851277590 0.2851277590 0.2851277590
0.2857151330 0.2857151330 0.2857151330
0.2863037288 0.2863037288 0.2863037288
0.2868893743 0.2868893743 0.2868893743
0.2874762118 0.2874762118 0.2874762118
0.2880601287 0.2880601287 0.2880601287
0.2886452079 0.2886452079 0.2886452079
0.2892259061 0.2892259061 0.2892259061
0.2898077965 0.2898077965 0.2898077965
0.2903880477 0.2903880477 0.2903880477
0.2909666896 0.2909666896 0.2909666896
0.2915436625 0.2915436625 0.2915436625
0.2921189964 0.2921189964 0.2921189964
0.2926954329 0.2926954329 0.2926954329
0.2932687998 0.2932687998 0.2932687998
0.2938432992 0.2938432992 0.2938432992
0.2944132686 0.2944132686 0.2944132686
0.2949857116 0.2949857116 0.2949857116
0.2955550551 0.2955550551 0.2955550551
0.2961240709 0.2961240709 0.2961240709
0.2966898978 0.2966898978 0.2966898978
0.2972582281 0.2972582281 0.2972582281
0.2978219390 0.2978219390 0.2978219390
0.2983867228 0.2983867228 0.2983867228
0.2989496887 0.2989496887 0.2989496887
0.2995094359 0.2995094359 0.2995094359
0.3000730574 0.3000730574 0.3000730574
0.3006320000 0.3006320000 0.3006320000
0.3011905551 0.3011905551 0.3011905551
0.3017472327 0.3017472327 0.3017472327
0.3023049235 0.3023049235 0.3023049235
0.3028607368 0.3028607368 0.3028607368
0.3034146726 0.3034146726 0.3034146726
0.3039667308 0.3039667308 0.3039667308
0.3045197427 0.3045197427 0.3045197427
0.3050694168 0.3050694168 0.3050694168
0.3056200445 0.3056200445 0.3056200445
0.3061701953 0.3061701953 0.3061701953
0.3067184091 0.3067184091 0.3067184091
0.3072646558 0.3072646558 0.3072646558
0.3078103960 0.3078103960 0.3078103960
0.3083570898 0.3083570898 0.3083570898
0.3088988364 0.3088988364 0.3088988364
0.3094429970 0.3094429970 0.3094429970
0.3099851608 0.3099851608 0.3099851608
0.3105253279 0.3105253279 0.3105253279
0.3110648990 0.3110648990 0.3110648990
0.3116039336 0.3116039336 0.3116039336
0.3121423721 0.3121423721 0.3121423721
0.3126802742 0.3126802742 0.3126802742
0.3132146001 0.3132146001 0.3132146001
0.3137498200 0.3137498200 0.3137498200
0.3142844439 0.3142844439 0.3142844439
0.3148154616 0.3148154616 0.3148154616
0.3153488636 0.3153488636 0.3153488636
0.3158786595 0.3158786595 0.3158786595
0.3164108098 0.3164108098 0.3164108098
0.3169378340 0.3169378340 0.3169378340
0.3174672127 0.3174672127 0.3174672127
0.3179929256 0.3179929256 0.3179929256
0.3185210228 0.3185210228 0.3185210228
0.3190439045 0.3190439045 0.3190439045
0.3195706606 0.3195706606 0.3195706606
0.3200937212 0.3200937212 0.3200937212
0.3206145465 0.3206145465 0.3206145465
0.3211377561 0.3211377561 0.3211377561
0.3216572106 0.3216572106 0.3216572106
0.3221774995 0.3221774995 0.3221774995
0.3226955235 0.3226955235 0.3226955235
0.3232128322 0.3232128322 0.3232128322
0.3237294257 0.3237294257 0.3237294257
0.3242468238 0.3242468238 0.3242468238
0.3247619569 0.3247619569 0.3247619569
0.3252763152 0.3252763152 0.3252763152
0.3257884085 0.3257884085 0.3257884085
0.3262997270 0.3262997270 0.3262997270
0.3268118501 0.3268118501 0.3268118501
0.3273231983 0.3273231983 0.3273231983
0.3278321922 0.3278321922 0.3278321922
0.3283404112 0.3283404112 0.3283404112
0.3288478553 0.3288478553 0.3288478553
0.3293560743 0.3293560743 0.3293560743
0.3298619092 0.3298619092 0.3298619092
0.3303669393 0.3303669393 0.3303669393
0.3308695853 0.3308695853 0.3308695853
0.3313745856 0.3313745856 0.3313745856
0.3318771422 0.3318771422 0.3318771422
0.3323788941 0.3323788941 0.3323788941
0.3328798115 0.3328798115 0.3328798115
0.3333798647 0.3333798647 0.3333798647
0.3338775039 0.3338775039 0.3338775039
0.3343758583 0.3343758583 0.3343758583
0.3348749578 0.3348749578 0.3348749578
0.3353699744 0.3353699744 0.3353699744
0.3358657360 0.3358657360 0.3358657360
0.3363606036 0.3363606036 0.3363606036
0.3368562162 0.3368562162 0.3368562162
0.3373461068 0.3373461068 0.3373461068
0.3378399014 0.3378399014 0.3378399014
0.3383311927 0.3383311927 0.3383311927
0.3388215899 0.3388215899 0.3388215899
0.3393110633 0.3393110633 0.3393110633
0.3398012519 0.3398012519 0.3398012519
0.3402888775 0.3402888775 0.3402888775
0.3407772183 0.3407772183 0.3407772183
0.3412629664 0.3412629664 0.3412629664
0.3417493999 0.3417493999 0.3417493999
0.3422332704 0.3422332704 0.3422332704
0.3427194655 0.3427194655 0.3427194655
0.3432014287 0.3432014287 0.3432014287
0.3436824083 0.3436824083 0.3436824083
0.3441657126 0.3441657126 0.3441657126
0.3446463943 0.3446463943 0.3446463943
0.3451260924 0.3451260924 0.3451260924
0.3456064463 0.3456064463 0.3456064463
0.3460841775 0.3460841775 0.3460841775
0.3465625346 0.3465625346 0.3465625346
0.3470382690 0.3470382690 0.3470382690
0.3475162685 0.3475162685 0.3475162685
0.3479899764 0.3479899764 0.3479899764
0.3484659791 0.3484659791 0.3484659791
0.3489392996 0.3489392996 0.3489392996
0.3494115770 0.3494115770 0.3494115770
0.3498861492 0.3498861492 0.3498861492
0.3503563702 0.3503563702 0.3503563702
0.3508272171 0.3508272171 0.3508272171
0.3512969911 0.3512969911 0.3512969911
0.3517657518 0.3517657518 0.3517657518
0.3522334099 0.3522334099 0.3522334099
0.3527033925 0.3527033925 0.3527033925
0.3531706035 0.3531706035 0.3531706035
0.3536350727 0.3536350727 0.3536350727
0.3541001379 0.3541001379 0.3541001379
0.3545658290 0.3545658290 0.3545658290
0.3550304174 0.3550304174 0.3550304174
0.3554939032 0.3554939032 0.3554939032
0.3559563160 0.3559563160 0.3559563160
0.3564175963 0.3564175963 0.3564175963
0.3568795025 0.3568795025 0.3568795025
0.3573385775 0.3573385775 0.3573385775
0.3577999175 0.3577999175 0.3577999175
0.3582584560 0.3582584560 0.3582584560
0.3587158918 0.3587158918 0.3587158918
0.3591738641 0.3591738641 0.3591738641
0.3596290052 0.3596290052 0.3596290052
0.3600864410 0.3600864410 0.3600864410
0.3605427146 0.3605427146 0.3605427146
0.3609961271 0.3609961271 0.3609961271
0.3614501059 0.3614501059 0.3614501059
0.3619046509 0.3619046509 0.3619046509
0.3623545766 0.3623545766 0.3623545766
0.3628085256 0.3628085256 0.3628085256
0.3632595539 0.3632595539 0.3632595539
0.3637076914 0.3637076914 0.3637076914
0.3641598523 0.3641598523 0.3641598523
0.3646073341 0.3646073341 0.3646073341
0.3650553823 0.3650553823 0.3650553823
0.3655039668 0.3655039668 0.3655039668
0.3659530878 0.3659530878 0.3659530878
0.3663940132 0.3663940132 0.3663940132
0.3668442369 0.3668442369 0.3668442369
0.3672862351 0.3672862351 0.3672862351
0.3677322865 0.3677322865 0.3677322865
0.3681735992 0.3681735992 0.3681735992
0.3686154187 0.3686154187 0.3686154187
0.3690577745 0.3690577745 0.3690577745
0.3695006669 0.3695006669 0.3695006669
0.3699440658 0.3699440658 0.3699440658
0.3703827262 0.3703827262 0.3703827262
0.3708218932 0.3708218932 0.3708218932
0.3712597787 0.3712597787 0.3712597787
0.3716982007 0.3716982007 0.3716982007
0.3721406758 0.3721406758 0.3721406758
0.3725730181 0.3725730181 0.3725730181
0.3730112016 0.3730112016 0.3730112016
0.3734445572 0.3734445572 0.3734445572
0.3738766313 0.3738766313 0.3738766313
0.3743145466 0.3743145466 0.3743145466
0.3747476041 0.3747476041 0.3747476041
0.3751811385 0.3751811385 0.3751811385
0.3756134212 0.3756134212 0.3756134212
0.3760426044 0.3760426044 0.3760426044
0.3764758408 0.3764758408 0.3764758408
0.3769095838 0.3769095838 0.3769095838
0.3773348331 0.3773348331 0.3773348331
0.3777677417 0.3777677417 0.3777677417
0.3781957626 0.3781957626 0.3781957626
0.3786242604 0.3786242604 0.3786242604
0.3790514171 0.3790514171 0.3790514171
0.3794790506 0.3794790506 0.3794790506
0.3799017668 0.3799017668 0.3799017668
0.3803285360 0.3803285360 0.3803285360
0.3807539642 0.3807539642 0.3807539642
0.3811762631 0.3811762631 0.3811762631
0.3816026449 0.3816026449 0.3816026449
0.3820203841 0.3820203841 0.3820203841
0.3824440539 0.3824440539 0.3824440539
0.3828645647 0.3828645647 0.3828645647
0.3832873404 0.3832873404 0.3832873404
0.3837068975 0.3837068975 0.3837068975
0.3841269314 0.3841269314 0.3841269314
0.3845492601 0.3845492601 0.3845492601
0.3849647045 0.3849647045 0.3849647045
0.3853861094 0.3853861094 0.3853861094
0.3858006299 0.3858006299 0.3858006299
0.3862174153 0.3862174153 0.3862174153
0.3866346478 0.3866346478 0.3866346478
0.3870467842 0.3870467842 0.3870467842
0.3874630630 0.3874630630 0.3874630630
0.3878797889 0.3878797889 0.3878797889
0.3882913888 0.3882913888 0.3882913888
0.3887071311 0.3887071311 0.3887071311
0.3891214728 0.3891214728 0.3891214728
0.3895343840 0.3895343840 0.3895343840
0.3899421692 0.3899421692 0.3899421692
0.3903522491 0.3903522491 0.3903522491
0.3907645941 0.3907645941 0.3907645941
0.3911736608 0.3911736608 0.3911736608
0.3915868700 0.3915868700 0.3915868700
0.3919911683 0.3919911683 0.3919911683
0.3923996389 0.3923996389 0.3923996389
0.3928085268 0.3928085268 0.3928085268
0.3932159543 0.3932159543 0.3932159543
0.3936219215 0.3936219215 0.3936219215
0.3940320611 0.3940320611 0.3940320611
0.3944351077 0.3944351077 0.3944351077
0.3948366940 0.3948366940 0.3948366940
0.3952386975 0.3952386975 0.3952386975
0.3956410885 0.3956410885 0.3956410885
0.3960495293 0.3960495293 0.3960495293
0.3964508772 0.3964508772 0.3964508772
0.3968507051 0.3968507051 0.3968507051
0.3972547054 0.3972547054 0.3972547054
0.3976553679 0.3976553679 0.3976553679
0.3980545104 0.3980545104 0.3980545104
0.3984559476 0.3984559476 0.3984559476
0.3988558650 0.3988558650 0.3988558650
0.3992543221 0.3992543221 0.3992543221
0.3996512294 0.3996512294 0.3996512294
0.4000504613 0.4000504613 0.4000504613
0.4004462659 0.4004462659 0.4004462659
0.4008405507 0.4008405507 0.4008405507
0.4012371302 0.4012371302 0.4012371302
0.4016302824 0.4016302824 0.4016302824
0.4020257294 0.4020257294 0.4020257294
0.4024215639 0.4024215639 0.4024215639
0.4028139412 0.4028139412 0.4028139412
0.4032086134 0.4032086134 0.4032086134
0.4035998285 0.4035998285 0.4035998285
0.4039933383 0.4039933383 0.4039933383
0.4043872356 0.4043872356 0.4043872356
0.4047814906 0.4047814906 0.4047814906
0.4051626623 0.4051626623 0.4051626623
0.4055557549 0.4055557549 0.4055557549
0.4059453607 0.4059453607 0.4059453607
0.4063334167 0.4063334167 0.4063334167
0.4067218304 0.4067218304 0.4067218304
0.4071106017 0.4071106017 0.4071106017
0.4075016677 0.4075016677 0.4075016677
0.4078892469 0.4078892469 0.4078892469
0.4082713723 0.4082713723 0.4082713723
0.4086577296 0.4086577296 0.4086577296
0.4090444446 0.4090444446 0.4090444446
0.4094315171 0.4094315171 0.4094315171
0.4098092020 0.4098092020 0.4098092020
0.4101989567 0.4101989567 0.4101989567
0.4105792940 0.4105792940 0.4105792940
0.4109600186 0.4109600186 0.4109600186
0.4113449752 0.4113449752 0.4113449752
0.4117283225 0.4117283225 0.4117283225
0.4121061563 0.4121061563 0.4121061563
0.4124882519 0.4124882519 0.4124882519
0.4128687382 0.4128687382 0.4128687382
0.4132515192 0.4132515192 0.4132515192
0.4136307538 0.4136307538 0.4136307538
0.4140083194 0.4140083194 0.4140083194
0.4143862724 0.4143862724 0.4143862724
0.4147605896 0.4147605896 0.4147605896
0.4151411653 0.4151411653 0.4151411653
0.4155161679 0.4155161679 0.4155161679
0.4158954620 0.4158954620 0.4158954620
0.4162731171 0.4162731171 0.4162731171
0.4166451693 0.4166451693 0.4166451693
0.4170215130 0.4170215130 0.4170215130
0.4173942208 0.4173942208 0.4173942208
0.4177652597 0.4177652597 0.4177652597
0.4181446135 0.4181446135 0.4181446135
0.4185143113 0.4185143113 0.4185143113
0.4188863635 0.4188863635 0.4188863635
0.4192607105 0.4192607105 0.4192607105
0.4196294248 0.4196294248 0.4196294248
0.4200044274 0.4200044274 0.4200044274
0.4203737974 0.4203737974 0.4203737974
0.4207454622 0.4207454622 0.4207454622
0.4211154580 0.4211154580 0.4211154580
0.4214837551 0.4214837551 0.4214837551
0.4218524098 0.4218524098 0.4218524098
0.4222193360 0.4222193360 0.4222193360
0.4225886166 0.4225886166 0.4225886166
0.4229561985 0.4229561985 0.4229561985
