HDR ST 2084/Gamma 2.4 to HDR 800 nits.cube
# DaVinci Resolve Cube (1D shaper LUT).

LUT_1D_SIZE 4096
LUT_1D_INPUT_RANGE 0.0000000000 2.3784142300

0.0000007310 0.0000007310 0.0000007310
0.0001596966 0.0001596966 0.0001596966
0.0004073184 0.0004073184 0.0004073184
0.0007179669 0.0007179669 0.0007179669
0.0010778562 0.0010778562 0.0010778562
0.0014780533 0.0014780533 0.0014780533
0.0019121445 0.0019121445 0.0019121445
0.0023752267 0.0023752267 0.0023752267
0.0028634372 0.0028634372 0.0028634372
0.0033736499 0.0033736499 0.0033736499
0.0039032961 0.0039032961 0.0039032961
0.0044501075 0.0044501075 0.0044501075
0.0050123096 0.0050123096 0.0050123096
0.0055882931 0.0055882931 0.0055882931
0.0061766123 0.0061766123 0.0061766123
0.0067760856 0.0067760856 0.0067760856
0.0073856143 0.0073856143 0.0073856143
0.0080043413 0.0080043413 0.0080043413
0.0086313039 0.0086313039 0.0086313039
0.0092656761 0.0092656761 0.0092656761
0.0099070147 0.0099070147 0.0099070147
0.0105545586 0.0105545586 0.0105545586
0.0112077231 0.0112077231 0.0112077231
0.0118659697 0.0118659697 0.0118659697
0.0125289513 0.0125289513 0.0125289513
0.0131961424 0.0131961424 0.0131961424
0.0138671873 0.0138671873 0.0138671873
0.0145419464 0.0145419464 0.0145419464
0.0152198095 0.0152198095 0.0152198095
0.0159003958 0.0159003958 0.0159003958
0.0165839028 0.0165839028 0.0165839028
0.0172694642 0.0172694642 0.0172694642
0.0179573111 0.0179573111 0.0179573111
0.0186471082 0.0186471082 0.0186471082
0.0193384811 0.0193384811 0.0193384811
0.0200312976 0.0200312976 0.0200312976
0.0207255781 0.0207255781 0.0207255781
0.0214209743 0.0214209743 0.0214209743
0.0221173521 0.0221173521 0.0221173521
0.0228148010 0.0228148010 0.0228148010
0.0235127416 0.0235127416 0.0235127416
0.0242114700 0.0242114700 0.0242114700
0.0249106847 0.0249106847 0.0249106847
0.0256100278 0.0256100278 0.0256100278
0.0263098367 0.0263098367 0.0263098367
0.0270099100 0.0270099100 0.0270099100
0.0277099647 0.0277099647 0.0277099647
0.0284101833 0.0284101833 0.0284101833
0.0291101187 0.0291101187 0.0291101187
0.0298099313 0.0298099313 0.0298099313
0.0305097103 0.0305097103 0.0305097103
0.0312089939 0.0312089939 0.0312089939
0.0319081135 0.0319081135 0.0319081135
0.0326068476 0.0326068476 0.0326068476
0.0333049893 0.0333049893 0.0333049893
0.0340025388 0.0340025388 0.0340025388
0.0346998721 0.0346998721 0.0346998721
0.0353963897 0.0353963897 0.0353963897
0.0360921994 0.0360921994 0.0360921994
0.0367874466 0.0367874466 0.0367874466
0.0374817699 0.0374817699 0.0374817699
0.0381757505 0.0381757505 0.0381757505
0.0388687067 0.0388687067 0.0388687067
0.0395605192 0.0395605192 0.0395605192
0.0402518734 0.0402518734 0.0402518734
0.0409419313 0.0409419313 0.0409419313
0.0416314378 0.0416314378 0.0416314378
0.0423199870 0.0423199870 0.0423199870
0.0430075750 0.0430075750 0.0430075750
0.0436940119 0.0436940119 0.0436940119
0.0443793274 0.0443793274 0.0443793274
0.0450637974 0.0450637974 0.0450637974
0.0457472876 0.0457472876 0.0457472876
0.0464296639 0.0464296639 0.0464296639
0.0471110418 0.0471110418 0.0471110418
0.0477913171 0.0477913171 0.0477913171
0.0484699234 0.0484699234 0.0484699234
0.0491482057 0.0491482057 0.0491482057
0.0498249121 0.0498249121 0.0498249121
0.0505004600 0.0505004600 0.0505004600
0.0511750616 0.0511750616 0.0511750616
0.0518481843 0.0518481843 0.0518481843
0.0525203086 0.0525203086 0.0525203086
0.0531914383 0.0531914383 0.0531914383
0.0538607836 0.0538607836 0.0538607836
0.0545296706 0.0545296706 0.0545296706
0.0551965311 0.0551965311 0.0551965311
0.0558624566 0.0558624566 0.0558624566
0.0565274954 0.0565274954 0.0565274954
0.0571908727 0.0571908727 0.0571908727
0.0578534752 0.0578534752 0.0578534752
0.0585142523 0.0585142523 0.0585142523
0.0591741167 0.0591741167 0.0591741167
0.0598325878 0.0598325878 0.0598325878
0.0604900420 0.0604900420 0.0604900420
0.0611462928 0.0611462928 0.0611462928
0.0618008412 0.0618008412 0.0618008412
0.0624541044 0.0624541044 0.0624541044
0.0631061941 0.0631061941 0.0631061941
0.0637572482 0.0637572482 0.0637572482
0.0644067824 0.0644067824 0.0644067824
0.0650549382 0.0650549382 0.0650549382
0.0657025054 0.0657025054 0.0657025054
0.0663480386 0.0663480386 0.0663480386
0.0669923425 0.0669923425 0.0669923425
0.0676352605 0.0676352605 0.0676352605
0.0682772920 0.0682772920 0.0682772920
0.0689183027 0.0689183027 0.0689183027
0.0695571452 0.0695571452 0.0695571452
0.0701960325 0.0701960325 0.0701960325
0.0708327889 0.0708327889 0.0708327889
0.0714679584 0.0714679584 0.0714679584
0.0721020922 0.0721020922 0.0721020922
0.0727354214 0.0727354214 0.0727354214
0.0733678266 0.0733678266 0.0733678266
0.0739977509 0.0739977509 0.0739977509
0.0746257678 0.0746257678 0.0746257678
0.0752542913 0.0752542913 0.0752542913
0.0758810416 0.0758810416 0.0758810416
0.0765066370 0.0765066370 0.0765066370
0.0771301985 0.0771301985 0.0771301985
0.0777519867 0.0777519867 0.0777519867
0.0783745423 0.0783745423 0.0783745423
0.0789947361 0.0789947361 0.0789947361
0.0796132013 0.0796132013 0.0796132013
0.0802317783 0.0802317783 0.0802317783
0.0808480382 0.0808480382 0.0808480382
0.0814626440 0.0814626440 0.0814626440
0.0820770860 0.0820770860 0.0820770860
0.0826888904 0.0826888904 0.0826888904
0.0833007470 0.0833007470 0.0833007470
0.0839105621 0.0839105621 0.0839105621
0.0845194533 0.0845194533 0.0845194533
0.0851273462 0.0851273462 0.0851273462
0.0857337341 0.0857337341 0.0857337341
0.0863389447 0.0863389447 0.0863389447
0.0869433135 0.0869433135 0.0869433135
0.0875459239 0.0875459239 0.0875459239
0.0881475285 0.0881475285 0.0881475285
0.0887476206 0.0887476206 0.0887476206
0.0893465504 0.0893465504 0.0893465504
0.0899451151 0.0899451151 0.0899451151
0.0905410573 0.0905410573 0.0905410573
0.0911373645 0.0911373645 0.0911373645
0.0917304456 0.0917304456 0.0917304456
0.0923241973 0.0923241973 0.0923241973
0.0929159001 0.0929159001 0.0929159001
0.0935068130 0.0935068130 0.0935068130
0.0940959677 0.0940959677 0.0940959677
0.0946842059 0.0946842059 0.0946842059
0.0952714607 0.0952714607 0.0952714607
0.0958572105 0.0958572105 0.0958572105
0.0964423046 0.0964423046 0.0964423046
0.0970257670 0.0970257670 0.0970257670
0.0976079851 0.0976079851 0.0976079851
0.0981888995 0.0981888995 0.0981888995
0.0987694040 0.0987694040 0.0987694040
0.0993489698 0.0993489698 0.0993489698
0.0999260843 0.0999260843 0.0999260843
0.1005026251 0.1005026251 0.1005026251
0.1010775641 0.1010775641 0.1010775641
0.1016523018 0.1016523018 0.1016523018
0.1022253186 0.1022253186 0.1022253186
0.1027985439 0.1027985439 0.1027985439
0.1033674404 0.1033674404 0.1033674404
0.1039379388 0.1039379388 0.1039379388
0.1045075059 0.1045075059 0.1045075059
0.1050735489 0.1050735489 0.1050735489
0.1056410819 0.1056410819 0.1056410819
0.1062065065 0.1062065065 0.1062065065
0.1067707911 0.1067707911 0.1067707911
0.1073333621 0.1073333621 0.1073333621
0.1078957319 0.1078957319 0.1078957319
0.1084573418 0.1084573418 0.1084573418
0.1090160385 0.1090160385 0.1090160385
0.1095738709 0.1095738709 0.1095738709
0.1101318598 0.1101318598 0.1101318598
0.1106889173 0.1106889173 0.1106889173
0.1112439111 0.1112439111 0.1112439111
0.1117994860 0.1117994860 0.1117994860
0.1123518348 0.1123518348 0.1123518348
0.1129041538 0.1129041538 0.1129041538
0.1134558618 0.1134558618 0.1134558618
0.1140063778 0.1140063778 0.1140063778
0.1145550981 0.1145550981 0.1145550981
0.1151025370 0.1151025370 0.1151025370
0.1156492084 0.1156492084 0.1156492084
0.1161950752 0.1161950752 0.1161950752
0.1167406663 0.1167406663 0.1167406663
0.1172836944 0.1172836944 0.1172836944
0.1178269312 0.1178269312 0.1178269312
0.1183680892 0.1183680892 0.1183680892
0.1189088225 0.1189088225 0.1189088225
0.1194485426 0.1194485426 0.1194485426
0.1199877784 0.1199877784 0.1199877784
0.1205253452 0.1205253452 0.1205253452
0.1210617870 0.1210617870 0.1210617870
0.1215976477 0.1215976477 0.1215976477
0.1221329048 0.1221329048 0.1221329048
0.1226657555 0.1226657555 0.1226657555
0.1231979206 0.1231979206 0.1231979206
0.1237299815 0.1237299815 0.1237299815
0.1242607087 0.1242607087 0.1242607087
0.1247906834 0.1247906834 0.1247906834
0.1253186464 0.1253186464 0.1253186464
0.1258469969 0.1258469969 0.1258469969
0.1263732761 0.1263732761 0.1263732761
0.1268986762 0.1268986762 0.1268986762
0.1274237633 0.1274237633 0.1274237633
0.1279466748 0.1279466748 0.1279466748
0.1284704804 0.1284704804 0.1284704804
0.1289920360 0.1289920360 0.1289920360
0.1295131892 0.1295131892 0.1295131892
0.1300332695 0.1300332695 0.1300332695
0.1305510253 0.1305510253 0.1305510253
0.1310695410 0.1310695410 0.1310695410
0.1315869242 0.1315869242 0.1315869242
0.1321031302 0.1321031302 0.1321031302
0.1326175034 0.1326175034 0.1326175034
0.1331325769 0.1331325769 0.1331325769
0.1336457431 0.1336457431 0.1336457431
0.1341576427 0.1341576427 0.1341576427
0.1346688867 0.1346688867 0.1346688867
0.1351800859 0.1351800859 0.1351800859
0.1356886178 0.1356886178 0.1356886178
0.1361984015 0.1361984015 0.1361984015
0.1367067695 0.1367067695 0.1367067695
0.1372130364 0.1372130364 0.1372130364
0.1377191693 0.1377191693 0.1377191693
0.1382244825 0.1382244825 0.1382244825
0.1387282908 0.1387282908 0.1387282908
0.1392312199 0.1392312199 0.1392312199
0.1397339404 0.1397339404 0.1397339404
0.1402350664 0.1402350664 0.1402350664
0.1407359242 0.1407359242 0.1407359242
0.1412358284 0.1412358284 0.1412358284
0.1417354494 0.1417354494 0.1417354494
0.1422320157 0.1422320157 0.1422320157
0.1427296102 0.1427296102 0.1427296102
0.1432254612 0.1432254612 0.1432254612
0.1437216401 0.1437216401 0.1437216401
0.1442153603 0.1442153603 0.1442153603
0.1447100341 0.1447100341 0.1447100341
0.1452022046 0.1452022046 0.1452022046
0.1456932127 0.1456932127 0.1456932127
0.1461851597 0.1461851597 0.1461851597
0.1466752142 0.1466752142 0.1466752142
0.1471647769 0.1471647769 0.1471647769
0.1476530880 0.1476530880 0.1476530880
0.1481408775 0.1481408775 0.1481408775
0.1486273855 0.1486273855 0.1486273855
0.1491125971 0.1491125971 0.1491125971
0.1495986581 0.1495986581 0.1495986581
0.1500826627 0.1500826627 0.1500826627
0.1505667716 0.1505667716 0.1505667716
0.1510487795 0.1510487795 0.1510487795
0.1515301317 0.1515301317 0.1515301317
0.1520115286 0.1520115286 0.1520115286
0.1524922401 0.1524922401 0.1524922401
0.1529722363 0.1529722363 0.1529722363
0.1534507871 0.1534507871 0.1534507871
0.1539278328 0.1539278328 0.1539278328
0.1544041187 0.1544041187 0.1544041187
0.1548811197 0.1548811197 0.1548811197
0.1553565860 0.1553565860 0.1553565860
0.1558312327 0.1558312327 0.1558312327
0.1563050598 0.1563050598 0.1563050598
0.1567773074 0.1567773074 0.1567773074
0.1572501808 0.1572501808 0.1572501808
0.1577214450 0.1577214450 0.1577214450
0.1581918150 0.1581918150 0.1581918150
0.1586620510 0.1586620510 0.1586620510
0.1591313630 0.1591313630 0.1591313630
0.1595997363 0.1595997363 0.1595997363
0.1600671709 0.1600671709 0.1600671709
0.1605336368 0.1605336368 0.1605336368
0.1609991342 0.1609991342 0.1609991342
0.1614643931 0.1614643931 0.1614643931
0.1619286537 0.1619286537 0.1619286537
0.1623934507 0.1623934507 0.1623934507
0.1628564298 0.1628564298 0.1628564298
0.1633167714 0.1633167714 0.1633167714
0.1637791991 0.1637791991 0.1637791991
0.1642397642 0.1642397642 0.1642397642
0.1647000164 0.1647000164 0.1647000164
0.1651583761 0.1651583761 0.1651583761
0.1656179875 0.1656179875 0.1656179875
0.1660756618 0.1660756618 0.1660756618
0.1665321887 0.1665321887 0.1665321887
0.1669883579 0.1669883579 0.1669883579
0.1674433351 0.1674433351 0.1674433351
0.1678979248 0.1678979248 0.1678979248
0.1683529317 0.1683529317 0.1683529317
0.1688058972 0.1688058972 0.1688058972
0.1692584455 0.1692584455 0.1692584455
0.1697105616 0.1697105616 0.1697105616
0.1701605916 0.1701605916 0.1701605916
0.1706126183 0.1706126183 0.1706126183
0.1710617244 0.1710617244 0.1710617244
0.1715103537 0.1715103537 0.1715103537
0.1719584912 0.1719584912 0.1719584912
0.1724061221 0.1724061221 0.1724061221
0.1728532463 0.1728532463 0.1728532463
0.1732998490 0.1732998490 0.1732998490
0.1737442464 0.1737442464 0.1737442464
0.1741889417 0.1741889417 0.1741889417
0.1746330857 0.1746330857 0.1746330857
0.1750774980 0.1750774980 0.1750774980
0.1755196452 0.1755196452 0.1755196452
0.1759612113 0.1759612113 0.1759612113
0.1764030308 0.1764030308 0.1764030308
0.1768434048 0.1768434048 0.1768434048
0.1772831529 0.1772831529 0.1772831529
0.1777222604 0.1777222604 0.1777222604
0.1781607419 0.1781607419 0.1781607419
0.1785994321 0.1785994321 0.1785994321
0.1790357530 0.1790357530 0.1790357530
0.1794722676 0.1794722676 0.1794722676
0.1799080968 0.1799080968 0.1799080968
0.1803432405 0.1803432405 0.1803432405
0.1807776839 0.1807776839 0.1807776839
0.1812122911 0.1812122911 0.1812122911
0.1816461831 0.1816461831 0.1816461831
0.1820767373 0.1820767373 0.1820767373
0.1825100482 0.1825100482 0.1825100482
0.1829408705 0.1829408705 0.1829408705
0.1833726913 0.1833726913 0.1833726913
0.1838002205 0.1838002205 0.1838002205
0.1842304915 0.1842304915 0.1842304915
0.1846591085 0.1846591085 0.1846591085
0.1850869358 0.1850869358 0.1850869358
0.1855148524 0.1855148524 0.1855148524
0.1859410703 0.1859410703 0.1859410703
0.1863664538 0.1863664538 0.1863664538
0.1867919117 0.1867919117 0.1867919117
0.1872165203 0.1872165203 0.1872165203
0.1876411885 0.1876411885 0.1876411885
0.1880650073 0.1880650073 0.1880650073
0.1884879470 0.1884879470 0.1884879470
0.1889100224 0.1889100224 0.1889100224
0.1893312186 0.1893312186 0.1893312186
0.1897542477 0.1897542477 0.1897542477
0.1901718080 0.1901718080 0.1901718080
0.1905921251 0.1905921251 0.1905921251
0.1910115182 0.1910115182 0.1910115182
0.1914308965 0.1914308965 0.1914308965
0.1918475032 0.1918475032 0.1918475032
0.1922668517 0.1922668517 0.1922668517
0.1926824898 0.1926824898 0.1926824898
0.1930990070 0.1930990070 0.1930990070
0.1935145557 0.1935145557 0.1935145557
0.1939281970 0.1939281970 0.1939281970
0.1943436563 0.1943436563 0.1943436563
0.1947562397 0.1947562397 0.1947562397
0.1951687634 0.1951687634 0.1951687634
0.1955821365 0.1955821365 0.1955821365
0.1959935576 0.1959935576 0.1959935576
0.1964049041 0.1964049041 0.1964049041
0.1968170851 0.1968170851 0.1968170851
0.1972263455 0.1972263455 0.1972263455
0.1976345479 0.1976345479 0.1976345479
0.1980445385 0.1980445385 0.1980445385
0.1984525025 0.1984525025 0.1984525025
0.1988603473 0.1988603473 0.1988603473
0.1992671192 0.1992671192 0.1992671192
0.1996746957 0.1996746957 0.1996746957
0.2000811845 0.2000811845 0.2000811845
0.2004856020 0.2004856020 0.2004856020
0.2008898705 0.2008898705 0.2008898705
0.2012939602 0.2012939602 0.2012939602
0.2016979009 0.2016979009 0.2016979009
0.2021016777 0.2021016777 0.2021016777
0.2025033236 0.2025033236 0.2025033236
0.2029057592 0.2029057592 0.2029057592
0.2033070475 0.2033070475 0.2033070475
0.2037081420 0.2037081420 0.2037081420
0.2041080445 0.2041080445 0.2041080445
0.2045067698 0.2045067698 0.2045067698
0.2049062699 0.2049062699 0.2049062699
0.2053055465 0.2053055465 0.2053055465
0.2057026327 0.2057026327 0.2057026327
0.2061004788 0.2061004788 0.2061004788
0.2064981014 0.2064981014 0.2064981014
0.2068944871 0.2068944871 0.2068944871
0.2072896510 0.2072896510 0.2072896510
0.2076855451 0.2076855451 0.2076855451
0.2080812007 0.2080812007 0.2080812007
0.2084745914 0.2084745914 0.2084745914
0.2088677138 0.2088677138 0.2088677138
0.2092615813 0.2092615813 0.2092615813
0.2096541524 0.2096541524 0.2096541524
0.2100444436 0.2100444436 0.2100444436
0.2104364634 0.2104364634 0.2104364634
0.2108281851 0.2108281851 0.2108281851
0.2112186104 0.2112186104 0.2112186104
0.2116087377 0.2116087377 0.2116087377
0.2119975388 0.2119975388 0.2119975388
0.2123870403 0.2123870403 0.2123870403
0.2127752155 0.2127752155 0.2127752155
0.2131620497 0.2131620497 0.2131620497
0.2135485560 0.2135485560 0.2135485560
0.2139367759 0.2139367759 0.2139367759
0.2143226117 0.2143226117 0.2143226117
0.2147081047 0.2147081047 0.2147081047
0.2150932401 0.2150932401 0.2150932401
0.2154780477 0.2154780477 0.2154780477
0.2158624828 0.2158624828 0.2158624828
0.2162455320 0.2162455320 0.2162455320
0.2166282088 0.2166282088 0.2166282088
0.2170105129 0.2170105129 0.2170105129
0.2173945308 0.2173945308 0.2173945308
0.2177740037 0.2177740037 0.2177740037
0.2181551754 0.2181551754 0.2181551754
0.2185370028 0.2185370028 0.2185370028
0.2189163417 0.2189163417 0.2189163417
0.2192963362 0.2192963362 0.2192963362
0.2196748704 0.2196748704 0.2196748704
0.2200530022 0.2200530022 0.2200530022
0.2204307169 0.2204307169 0.2204307169
0.2208101302 0.2208101302 0.2208101302
0.2211859375 0.2211859375 0.2211859375
0.2215634584 0.2215634584 0.2215634584
0.2219384164 0.2219384164 0.2219384164
0.2223129421 0.2223129421 0.2223129421
0.2226891518 0.2226891518 0.2226891518
0.2230638564 0.2230638564 0.2230638564
0.2234381139 0.2234381139 0.2234381139
0.2238119096 0.2238119096 0.2238119096
0.2241841853 0.2241841853 0.2241841853
0.2245570719 0.2245570719 0.2245570719
0.2249284089 0.2249284089 0.2249284089
0.2253003567 0.2253003567 0.2253003567
0.2256718427 0.2256718427 0.2256718427
0.2260417491 0.2260417491 0.2260417491
0.2264133543 0.2264133543 0.2264133543
0.2267822921 0.2267822921 0.2267822921
0.2271507382 0.2271507382 0.2271507382
0.2275208682 0.2275208682 0.2275208682
0.2278883159 0.2278883159 0.2278883159
0.2282552719 0.2282552719 0.2282552719
0.2286227942 0.2286227942 0.2286227942
0.2289898098 0.2289898098 0.2289898098
0.2293574065 0.2293574065 0.2293574065
0.2297233790 0.2297233790 0.2297233790
0.2300888449 0.2300888449 0.2300888449
0.2304526567 0.2304526567 0.2304526567
0.2308181524 0.2308181524 0.2308181524
0.2311820090 0.2311820090 0.2311820090
0.2315442115 0.2315442115 0.2315442115
0.2319092005 0.2319092005 0.2319092005
0.2322714180 0.2322714180 0.2322714180
0.2326341867 0.2326341867 0.2326341867
0.2329952866 0.2329952866 0.2329952866
0.2333558351 0.2333558351 0.2333558351
0.2337169200 0.2337169200 0.2337169200
0.2340785563 0.2340785563 0.2340785563
0.2344373912 0.2344373912 0.2344373912
0.2347967625 0.2347967625 0.2347967625
0.2351566702 0.2351566702 0.2351566702
0.2355160117 0.2355160117 0.2355160117
0.2358724922 0.2358724922 0.2358724922
0.2362306416 0.2362306416 0.2362306416
0.2365881950 0.2365881950 0.2365881950
0.2369440198 0.2369440198 0.2369440198
0.2373026460 0.2373026460 0.2373026460
0.2376572490 0.2376572490 0.2376572490
0.2380123883 0.2380123883 0.2380123883
0.2383680344 0.2383680344 0.2383680344
0.2387219369 0.2387219369 0.2387219369
0.2390763462 0.2390763462 0.2390763462
0.2394301295 0.2394301295 0.2394301295
0.2397844344 0.2397844344 0.2397844344
0.2401369512 0.2401369512 0.2401369512
0.2404888421 0.2404888421 0.2404888421
0.2408400774 0.2408400774 0.2408400774
0.2411929816 0.2411929816 0.2411929816
0.2415440828 0.2415440828 0.2415440828
0.2418945283 0.2418945283 0.2418945283
0.2422443181 0.2422443181 0.2422443181
0.2425946146 0.2425946146 0.2425946146
0.2429442406 0.2429442406 0.2429442406
0.2432931960 0.2432931960 0.2432931960
0.2436414957 0.2436414957 0.2436414957
0.2439902723 0.2439902723 0.2439902723
0.2443372160 0.2443372160 0.2443372160
0.2446846366 0.2446846366 0.2446846366
0.2450313717 0.2450313717 0.2450313717
0.2453785986 0.2453785986 0.2453785986
0.2457239628 0.2457239628 0.2457239628
0.2460698038 0.2460698038 0.2460698038
0.2464149445 0.2464149445 0.2464149445
0.2467605621 0.2467605621 0.2467605621
0.2471031100 0.2471031100 0.2471031100
0.2474485040 0.2474485040 0.2474485040
0.2477919906 0.2477919906 0.2477919906
0.2481359690 0.2481359690 0.2481359690
0.2484768331 0.2484768331 0.2484768331
0.2488205433 0.2488205433 0.2488205433
0.2491611540 0.2491611540 0.2491611540
0.2495022267 0.2495022267 0.2495022267
0.2498437464 0.2498437464 0.2498437464
0.2501857579 0.2501857579 0.2501857579
0.2505258024 0.2505258024 0.2505258024
0.2508651018 0.2508651018 0.2508651018
0.2512060702 0.2512060702 0.2512060702
0.2515439093 0.2515439093 0.2515439093
0.2518833578 0.2518833578 0.2518833578
0.2522208691 0.2522208691 0.2522208691
0.2525588274 0.2525588274 0.2525588274
0.2528960407 0.2528960407 0.2528960407
0.2532336712 0.2532336712 0.2532336712
0.2535705566 0.2535705566 0.2535705566
0.2539066374 0.2539066374 0.2539066374
0.2542419732 0.2542419732 0.2542419732
0.2545789480 0.2545789480 0.2545789480
0.2549127042 0.2549127042 0.2549127042
0.2552481294 0.2552481294 0.2552481294
0.2555839717 0.2555839717 0.2555839717
0.2559165955 0.2559165955 0.2559165955
0.2562520802 0.2562520802 0.2562520802
0.2565830946 0.2565830946 0.2565830946
0.2569169998 0.2569169998 0.2569169998
0.2572501004 0.2572501004 0.2572501004
0.2575811744 0.2575811744 0.2575811744
0.2579126358 0.2579126358 0.2579126358
0.2582457960 0.2582457960 0.2582457960
0.2585756481 0.2585756481 0.2585756481
0.2589059174 0.2589059174 0.2589059174
0.2592353523 0.2592353523 0.2592353523
0.2595652342 0.2595652342 0.2595652342
0.2598942518 0.2598942518 0.2598942518
0.2602236867 0.2602236867 0.2602236867
0.2605523169 0.2605523169 0.2605523169
0.2608800828 0.2608800828 0.2608800828
0.2612082660 0.2612082660 0.2612082660
0.2615368664 0.2615368664 0.2615368664
0.2618633509 0.2618633509 0.2618633509
0.2621915042 0.2621915042 0.2621915042
0.2625175416 0.2625175416 0.2625175416
0.2628439963 0.2628439963 0.2628439963
0.2631683350 0.2631683350 0.2631683350
0.2634943128 0.2634943128 0.2634943128
0.2638181746 0.2638181746 0.2638181746
0.2641437054 0.2641437054 0.2641437054
0.2644683421 0.2644683421 0.2644683421
0.2647921443 0.2647921443 0.2647921443
0.2651150227 0.2651150227 0.2651150227
0.2654383183 0.2654383183 0.2654383183
0.2657607496 0.2657607496 0.2657607496
0.2660835385 0.2660835385 0.2660835385
0.2664054632 0.2664054632 0.2664054632
0.2667277455 0.2667277455 0.2667277455
0.2670504153 0.2670504153 0.2670504153
0.2673696578 0.2673696578 0.2673696578
0.2676905394 0.2676905394 0.2676905394
0.2680105567 0.2680105567 0.2680105567
0.2683309019 0.2683309019 0.2683309019
0.2686503828 0.2686503828 0.2686503828
0.2689689100 0.2689689100 0.2689689100
0.2692865729 0.2692865729 0.2692865729
0.2696058452 0.2696058452 0.2696058452
0.2699242532 0.2699242532 0.2699242532
0.2702417076 0.2702417076 0.2702417076
0.2705595195 0.2705595195 0.2705595195
0.2708764374 0.2708764374 0.2708764374
0.2711937129 0.2711937129 0.2711937129
0.2715100348 0.2715100348 0.2715100348
0.2718267441 0.2718267441 0.2718267441
0.2721425295 0.2721425295 0.2721425295
0.2724573612 0.2724573612 0.2724573612
0.2727725506 0.2727725506 0.2727725506
0.2730854750 0.2730854750 0.2730854750
0.2734013796 0.2734013796 0.2734013796
0.2737163305 0.2737163305 0.2737163305
0.2740303576 0.2740303576 0.2740303576
0.2743434012 0.2743434012 0.2743434012
0.2746541798 0.2746541798 0.2746541798
0.2749679387 0.2749679387 0.2749679387
0.2752807438 0.2752807438 0.2752807438
0.2755912542 0.2755912542 0.2755912542
0.2759047449 0.2759047449 0.2759047449
0.2762159705 0.2762159705 0.2762159705
0.2765275240 0.2765275240 0.2765275240
0.2768367827 0.2768367827 0.2768367827
0.2771463692 0.2771463692 0.2771463692
0.2774576545 0.2774576545 0.2774576545
0.2777666152 0.2777666152 0.2777666152
0.2780745924 0.2780745924 0.2780745924
0.2783855498 0.2783855498 0.2783855498
0.2786941826 0.2786941826 0.2786941826
0.2790031731 0.2790031731 0.2790031731
0.2793111801 0.2793111801 0.2793111801
0.2796168327 0.2796168327 0.2796168327
0.2799241543 0.2799241543 0.2799241543
0.2802318037 0.2802318037 0.2802318037
0.2805370986 0.2805370986 0.2805370986
0.2808454335 0.2808454335 0.2808454335
0.2811514139 0.2811514139 0.2811514139
0.2814563513 0.2814563513 0.2814563513
0.2817616463 0.2817616463 0.2817616463
0.2820658982 0.2820658982 0.2820658982
0.2823704779 0.2823704779 0.2823704779
0.2826767564 0.2826767564 0.2826767564
0.2829806209 0.2829806209 0.2829806209
0.2832834721 0.2832834721 0.2832834721
0.2835880220 0.2835880220 0.2835880220
0.2838901579 0.2838901579 0.2838901579
0.2841939628 0.2841939628 0.2841939628
0.2844967544 0.2844967544 0.2844967544
0.2847984731 0.2847984731 0.2847984731
0.2851005495 0.2851005495 0.2851005495
0.2854015529 0.2854015529 0.2854015529
