HDR ST 2084/Gamma 2.6 to HDR 4000 nits.cube
# DaVinci Resolve Cube (1D shaper LUT).

LUT_1D_SIZE 4096
LUT_1D_INPUT_RANGE 0.0000000000 5.2993436527

0.0000007310 0.0000007310 0.0000007310
0.0001550588 0.0001550588 0.0001550588
0.0004277101 0.0004277101 0.0004277101
0.0007913291 0.0007913291 0.0007913291
0.0012294711 0.0012294711 0.0012294711
0.0017305197 0.0017305197 0.0017305197
0.0022856828 0.0022856828 0.0022856828
0.0028879044 0.0028879044 0.0028879044
0.0035314942 0.0035314942 0.0035314942
0.0042117038 0.0042117038 0.0042117038
0.0049244547 0.0049244547 0.0049244547
0.0056663789 0.0056663789 0.0056663789
0.0064343940 0.0064343940 0.0064343940
0.0072258892 0.0072258892 0.0072258892
0.0080386857 0.0080386857 0.0080386857
0.0088706575 0.0088706575 0.0088706575
0.0097202063 0.0097202063 0.0097202063
0.0105854487 0.0105854487 0.0105854487
0.0114651881 0.0114651881 0.0114651881
0.0123580126 0.0123580126 0.0123580126
0.0132627394 0.0132627394 0.0132627394
0.0141785452 0.0141785452 0.0141785452
0.0151041681 0.0151041681 0.0151041681
0.0160388052 0.0160388052 0.0160388052
0.0169816054 0.0169816054 0.0169816054
0.0179321095 0.0179321095 0.0179321095
0.0188893043 0.0188893043 0.0188893043
0.0198527407 0.0198527407 0.0198527407
0.0208218638 0.0208218638 0.0208218638
0.0217962321 0.0217962321 0.0217962321
0.0227750167 0.0227750167 0.0227750167
0.0237582736 0.0237582736 0.0237582736
0.0247452445 0.0247452445 0.0247452445
0.0257354006 0.0257354006 0.0257354006
0.0267287269 0.0267287269 0.0267287269
0.0277248230 0.0277248230 0.0277248230
0.0287230797 0.0287230797 0.0287230797
0.0297237821 0.0297237821 0.0297237821
0.0307261255 0.0307261255 0.0307261255
0.0317300297 0.0317300297 0.0317300297
0.0327354446 0.0327354446 0.0327354446
0.0337418281 0.0337418281 0.0337418281
0.0347492546 0.0347492546 0.0347492546
0.0357572585 0.0357572585 0.0357572585
0.0367660001 0.0367660001 0.0367660001
0.0377748758 0.0377748758 0.0377748758
0.0387839079 0.0387839079 0.0387839079
0.0397936217 0.0397936217 0.0397936217
0.0408027135 0.0408027135 0.0408027135
0.0418116860 0.0418116860 0.0418116860
0.0428203568 0.0428203568 0.0428203568
0.0438288189 0.0438288189 0.0438288189
0.0448366106 0.0448366106 0.0448366106
0.0458435193 0.0458435193 0.0458435193
0.0468500815 0.0468500815 0.0468500815
0.0478555486 0.0478555486 0.0478555486
0.0488601252 0.0488601252 0.0488601252
0.0498638451 0.0498638451 0.0498638451
0.0508660637 0.0508660637 0.0508660637
0.0518676676 0.0518676676 0.0518676676
0.0528678447 0.0528678447 0.0528678447
0.0538665615 0.0538665615 0.0538665615
0.0548643731 0.0548643731 0.0548643731
0.0558600053 0.0558600053 0.0558600053
0.0568549037 0.0568549037 0.0568549037
0.0578484014 0.0578484014 0.0578484014
0.0588398315 0.0588398315 0.0588398315
0.0598302558 0.0598302558 0.0598302558
0.0608184785 0.0608184785 0.0608184785
0.0618056580 0.0618056580 0.0618056580
0.0627903119 0.0627903119 0.0627903119
0.0637733862 0.0637733862 0.0637733862
0.0647555739 0.0647555739 0.0647555739
0.0657354295 0.0657354295 0.0657354295
0.0667130500 0.0667130500 0.0667130500
0.0676892176 0.0676892176 0.0676892176
0.0686637908 0.0686637908 0.0686637908
0.0696356297 0.0696356297 0.0696356297
0.0706066340 0.0706066340 0.0706066340
0.0715746507 0.0715746507 0.0715746507
0.0725409687 0.0725409687 0.0725409687
0.0735062361 0.0735062361 0.0735062361
0.0744679123 0.0744679123 0.0744679123
0.0754299089 0.0754299089 0.0754299089
0.0763874874 0.0763874874 0.0763874874
0.0773439258 0.0773439258 0.0773439258
0.0782981217 0.0782981217 0.0782981217
0.0792504698 0.0792504698 0.0792504698
0.0802014172 0.0802014172 0.0802014172
0.0811494514 0.0811494514 0.0811494514
0.0820954069 0.0820954069 0.0820954069
0.0830389559 0.0830389559 0.0830389559
0.0839818045 0.0839818045 0.0839818045
0.0849208087 0.0849208087 0.0849208087
0.0858580992 0.0858580992 0.0858580992
0.0867946744 0.0867946744 0.0867946744
0.0877277181 0.0877277181 0.0877277181
0.0886586383 0.0886586383 0.0886586383
0.0895884559 0.0895884559 0.0895884559
0.0905151814 0.0905151814 0.0905151814
0.0914398506 0.0914398506 0.0914398506
0.0923626646 0.0923626646 0.0923626646
0.0932833776 0.0932833776 0.0932833776
0.0942017436 0.0942017436 0.0942017436
0.0951179788 0.0951179788 0.0951179788
0.0960337147 0.0960337147 0.0960337147
0.0969454870 0.0969454870 0.0969454870
0.0978544280 0.0978544280 0.0978544280
0.0987627134 0.0987627134 0.0987627134
0.0996682197 0.0996682197 0.0996682197
0.1005726755 0.1005726755 0.1005726755
0.1014744341 0.1014744341 0.1014744341
0.1023722887 0.1023722887 0.1023722887
0.1032694951 0.1032694951 0.1032694951
0.1041638851 0.1041638851 0.1041638851
0.1050572917 0.1050572917 0.1050572917
0.1059490293 0.1059490293 0.1059490293
0.1068368852 0.1068368852 0.1068368852
0.1077232286 0.1077232286 0.1077232286
0.1086084321 0.1086084321 0.1086084321
0.1094902307 0.1094902307 0.1094902307
0.1103700325 0.1103700325 0.1103700325
0.1112492830 0.1112492830 0.1112492830
0.1121240780 0.1121240780 0.1121240780
0.1129985601 0.1129985601 0.1129985601
0.1138704270 0.1138704270 0.1138704270
0.1147417277 0.1147417277 0.1147417277
0.1156078801 0.1156078801 0.1156078801
0.1164737418 0.1164737418 0.1164737418
0.1173369437 0.1173369437 0.1173369437
0.1181990355 0.1181990355 0.1181990355
0.1190593317 0.1190593317 0.1190593317
0.1199165508 0.1199165508 0.1199165508
0.1207722798 0.1207722798 0.1207722798
0.1216240600 0.1216240600 0.1216240600
0.1224764511 0.1224764511 0.1224764511
0.1233252212 0.1233252212 0.1233252212
0.1241725981 0.1241725981 0.1241725981
0.1250184923 0.1250184923 0.1250184923
0.1258621812 0.1258621812 0.1258621812
0.1267035306 0.1267035306 0.1267035306
0.1275424510 0.1275424510 0.1275424510
0.1283794194 0.1283794194 0.1283794194
0.1292161942 0.1292161942 0.1292161942
0.1300495863 0.1300495863 0.1300495863
0.1308806986 0.1308806986 0.1308806986
0.1317094415 0.1317094415 0.1317094415
0.1325376034 0.1325376034 0.1325376034
0.1333632022 0.1333632022 0.1333632022
0.1341867447 0.1341867447 0.1341867447
0.1350088120 0.1350088120 0.1350088120
0.1358273476 0.1358273476 0.1358273476
0.1366455108 0.1366455108 0.1366455108
0.1374619007 0.1374619007 0.1374619007
0.1382757872 0.1382757872 0.1382757872
0.1390883923 0.1390883923 0.1390883923
0.1398983151 0.1398983151 0.1398983151
0.1407067776 0.1407067776 0.1407067776
0.1415137202 0.1415137202 0.1415137202
0.1423183680 0.1423183680 0.1423183680
0.1431220174 0.1431220174 0.1431220174
0.1439218372 0.1439218372 0.1439218372
0.1447211951 0.1447211951 0.1447211951
0.1455186158 0.1455186158 0.1455186158
0.1463147551 0.1463147551 0.1463147551
0.1471066773 0.1471066773 0.1471066773
0.1478992701 0.1478992701 0.1478992701
0.1486889273 0.1486889273 0.1486889273
0.1494769901 0.1494769901 0.1494769901
0.1502633989 0.1502633989 0.1502633989
0.1510480642 0.1510480642 0.1510480642
0.1518309265 0.1518309265 0.1518309265
0.1526119262 0.1526119262 0.1526119262
0.1533909738 0.1533909738 0.1533909738
0.1541687697 0.1541687697 0.1541687697
0.1549444795 0.1549444795 0.1549444795
0.1557180583 0.1557180583 0.1557180583
0.1564909369 0.1564909369 0.1564909369
0.1572607756 0.1572607756 0.1572607756
0.1580290496 0.1580290496 0.1580290496
0.1587964296 0.1587964296 0.1587964296
0.1595621258 0.1595621258 0.1595621258
0.1603253037 0.1603253037 0.1603253037
0.1610874236 0.1610874236 0.1610874236
0.1618469059 0.1618469059 0.1618469059
0.1626052260 0.1626052260 0.1626052260
0.1633631140 0.1633631140 0.1633631140
0.1641181856 0.1641181856 0.1641181856
0.1648703665 0.1648703665 0.1648703665
0.1656227559 0.1656227559 0.1656227559
0.1663729548 0.1663729548 0.1663729548
0.1671208590 0.1671208590 0.1671208590
0.1678688675 0.1678688675 0.1678688675
0.1686120778 0.1686120778 0.1686120778
0.1693577170 0.1693577170 0.1693577170
0.1700992584 0.1700992584 0.1700992584
0.1708382666 0.1708382666 0.1708382666
0.1715779603 0.1715779603 0.1715779603
0.1723141819 0.1723141819 0.1723141819
0.1730493754 0.1730493754 0.1730493754
0.1737843305 0.1737843305 0.1737843305
0.1745156497 0.1745156497 0.1745156497
0.1752458066 0.1752458066 0.1752458066
0.1759747416 0.1759747416 0.1759747416
0.1767032892 0.1767032892 0.1767032892
0.1774288267 0.1774288267 0.1774288267
0.1781539023 0.1781539023 0.1781539023
0.1788767427 0.1788767427 0.1788767427
0.1795973033 0.1795973033 0.1795973033
0.1803181171 0.1803181171 0.1803181171
0.1810357124 0.1810357124 0.1810357124
0.1817517728 0.1817517728 0.1817517728
0.1824679822 0.1824679822 0.1824679822
0.1831799597 0.1831799597 0.1831799597
0.1838920116 0.1838920116 0.1838920116
0.1846041530 0.1846041530 0.1846041530
0.1853118986 0.1853118986 0.1853118986
0.1860205233 0.1860205233 0.1860205233
0.1867264658 0.1867264658 0.1867264658
0.1874305308 0.1874305308 0.1874305308
0.1881336272 0.1881336272 0.1881336272
0.1888365895 0.1888365895 0.1888365895
0.1895348728 0.1895348728 0.1895348728
0.1902357191 0.1902357191 0.1902357191
0.1909326911 0.1909326911 0.1909326911
0.1916275918 0.1916275918 0.1916275918
0.1923231483 0.1923231483 0.1923231483
0.1930147111 0.1930147111 0.1930147111
0.1937068701 0.1937068701 0.1937068701
0.1943968087 0.1943968087 0.1943968087
0.1950863749 0.1950863749 0.1950863749
0.1957745999 0.1957745999 0.1957745999
0.1964586228 0.1964586228 0.1964586228
0.1971440464 0.1971440464 0.1971440464
0.1978271008 0.1978271008 0.1978271008
0.1985096335 0.1985096335 0.1985096335
0.1991897076 0.1991897076 0.1991897076
0.1998672932 0.1998672932 0.1998672932
0.2005452216 0.2005452216 0.2005452216
0.2012206167 0.2012206167 0.2012206167
0.2018953264 0.2018953264 0.2018953264
0.2025703490 0.2025703490 0.2025703490
0.2032407671 0.2032407671 0.2032407671
0.2039123923 0.2039123923 0.2039123923
0.2045813054 0.2045813054 0.2045813054
0.2052504271 0.2052504271 0.2052504271
0.2059157789 0.2059157789 0.2059157789
0.2065832615 0.2065832615 0.2065832615
0.2072459310 0.2072459310 0.2072459310
0.2079096884 0.2079096884 0.2079096884
0.2085705549 0.2085705549 0.2085705549
0.2092304826 0.2092304826 0.2092304826
0.2098894566 0.2098894566 0.2098894566
0.2105474472 0.2105474472 0.2105474472
0.2112024128 0.2112024128 0.2112024128
0.2118573636 0.2118573636 0.2118573636
0.2125112712 0.2125112712 0.2125112712
0.2131630778 0.2131630778 0.2131630778
0.2138137817 0.2138137817 0.2138137817
0.2144654095 0.2144654095 0.2144654095
0.2151128352 0.2151128352 0.2151128352
0.2157611400 0.2157611400 0.2157611400
0.2164061964 0.2164061964 0.2164061964
0.2170500308 0.2170500308 0.2170500308
0.2176957577 0.2176957577 0.2176957577
0.2183381617 0.2183381617 0.2183381617
0.2189782262 0.2189782262 0.2189782262
0.2196169943 0.2196169943 0.2196169943
0.2202554941 0.2202554941 0.2202554941
0.2208937109 0.2208937109 0.2208937109
0.2215305567 0.2215305567 0.2215305567
0.2221639007 0.2221639007 0.2221639007
0.2227990329 0.2227990329 0.2227990329
0.2234327495 0.2234327495 0.2234327495
0.2240628898 0.2240628898 0.2240628898
0.2246937007 0.2246937007 0.2246937007
0.2253208607 0.2253208607 0.2253208607
0.2259486765 0.2259486765 0.2259486765
0.2265760452 0.2265760452 0.2265760452
0.2272007763 0.2272007763 0.2272007763
0.2278261334 0.2278261334 0.2278261334
0.2284466177 0.2284466177 0.2284466177
0.2290698588 0.2290698588 0.2290698588
0.2296903878 0.2296903878 0.2296903878
0.2303103805 0.2303103805 0.2303103805
0.2309297919 0.2309297919 0.2309297919
0.2315464318 0.2315464318 0.2315464318
0.2321624607 0.2321624607 0.2321624607
0.2327767760 0.2327767760 0.2327767760
0.2333904654 0.2333904654 0.2333904654
0.2340034992 0.2340034992 0.2340034992
0.2346147597 0.2346147597 0.2346147597
0.2352242172 0.2352242172 0.2352242172
0.2358341068 0.2358341068 0.2358341068
0.2364421785 0.2364421785 0.2364421785
0.2370483726 0.2370483726 0.2370483726
0.2376549691 0.2376549691 0.2376549691
0.2382596880 0.2382596880 0.2382596880
0.2388636321 0.2388636321 0.2388636321
0.2394679487 0.2394679487 0.2394679487
0.2400691658 0.2400691658 0.2400691658
0.2406684309 0.2406684309 0.2406684309
0.2412680089 0.2412680089 0.2412680089
0.2418656051 0.2418656051 0.2418656051
0.2424634844 0.2424634844 0.2424634844
0.2430593371 0.2430593371 0.2430593371
0.2436543107 0.2436543107 0.2436543107
0.2442483902 0.2442483902 0.2442483902
0.2448403686 0.2448403686 0.2448403686
0.2454326004 0.2454326004 0.2454326004
0.2460238934 0.2460238934 0.2460238934
0.2466142327 0.2466142327 0.2466142327
0.2472024262 0.2472024262 0.2472024262
0.2477884442 0.2477884442 0.2477884442
0.2483770251 0.2483770251 0.2483770251
0.2489610165 0.2489610165 0.2489610165
0.2495463789 0.2495463789 0.2495463789
0.2501295209 0.2501295209 0.2501295209
0.2507127821 0.2507127821 0.2507127821
0.2512938082 0.2512938082 0.2512938082
0.2518737316 0.2518737316 0.2518737316
0.2524537742 0.2524537742 0.2524537742
0.2530327141 0.2530327141 0.2530327141
0.2536093593 0.2536093593 0.2536093593
0.2541848421 0.2541848421 0.2541848421
0.2547616065 0.2547616065 0.2547616065
0.2553360164 0.2553360164 0.2553360164
0.2559080124 0.2559080124 0.2559080124
0.2564800680 0.2564800680 0.2564800680
0.2570521533 0.2570521533 0.2570521533
0.2576230466 0.2576230466 0.2576230466
0.2581914663 0.2581914663 0.2581914663
0.2587598860 0.2587598860 0.2587598860
0.2593270838 0.2593270838 0.2593270838
0.2598942518 0.2598942518 0.2598942518
0.2604614198 0.2604614198 0.2604614198
0.2610235512 0.2610235512 0.2610235512
0.2615881264 0.2615881264 0.2615881264
0.2621513903 0.2621513903 0.2621513903
0.2627121210 0.2627121210 0.2627121210
0.2632727623 0.2632727623 0.2632727623
0.2638320625 0.2638320625 0.2638320625
0.2643912435 0.2643912435 0.2643912435
0.2649491131 0.2649491131 0.2649491131
0.2655055821 0.2655055821 0.2655055821
0.2660631835 0.2660631835 0.2660631835
0.2666181326 0.2666181326 0.2666181326
0.2671716809 0.2671716809 0.2671716809
0.2677238286 0.2677238286 0.2677238286
0.2682757676 0.2682757676 0.2682757676
0.2688288689 0.2688288689 0.2688288689
0.2693779469 0.2693779469 0.2693779469
0.2699280977 0.2699280977 0.2699280977
0.2704768181 0.2704768181 0.2704768181
0.2710240185 0.2710240185 0.2710240185
0.2715723217 0.2715723217 0.2715723217
0.2721165121 0.2721165121 0.2721165121
0.2726617754 0.2726617754 0.2726617754
0.2732055187 0.2732055187 0.2732055187
0.2737477422 0.2737477422 0.2737477422
0.2742922902 0.2742922902 0.2742922902
0.2748313844 0.2748313844 0.2748313844
0.2753728032 0.2753728032 0.2753728032
0.2759126723 0.2759126723 0.2759126723
0.2764509320 0.2764509320 0.2764509320
0.2769888937 0.2769888937 0.2769888937
0.2775265574 0.2775265574 0.2775265574
0.2780613005 0.2780613005 0.2780613005
0.2785970271 0.2785970271 0.2785970271
0.2791311443 0.2791311443 0.2791311443
0.2796649039 0.2796649039 0.2796649039
0.2801969945 0.2801969945 0.2801969945
0.2807287574 0.2807287574 0.2807287574
0.2812601924 0.2812601924 0.2812601924
0.2817912400 0.2817912400 0.2817912400
0.2823179066 0.2823179066 0.2823179066
0.2828468680 0.2828468680 0.2828468680
0.2833754718 0.2833754718 0.2833754718
0.2839010060 0.2839010060 0.2839010060
0.2844288349 0.2844288349 0.2844288349
0.2849521935 0.2849521935 0.2849521935
0.2854765058 0.2854765058 0.2854765058
0.2860004008 0.2860004008 0.2860004008
0.2865225077 0.2865225077 0.2865225077
0.2870455682 0.2870455682 0.2870455682
0.2875640690 0.2875640690 0.2875640690
0.2880848646 0.2880848646 0.2880848646
0.2886038423 0.2886038423 0.2886038423
0.2891223729 0.2891223729 0.2891223729
0.2896404266 0.2896404266 0.2896404266
0.2901566327 0.2901566327 0.2901566327
0.2906723619 0.2906723619 0.2906723619
0.2911876142 0.2911876142 0.2911876142
0.2917009592 0.2917009592 0.2917009592
0.2922152281 0.2922152281 0.2922152281
0.2927289605 0.2927289605 0.2927289605
0.2932394147 0.2932394147 0.2932394147
0.2937507331 0.2937507331 0.2937507331
0.2942615449 0.2942615449 0.2942615449
0.2947717905 0.2947717905 0.2947717905
0.2952786982 0.2952786982 0.2952786982
0.2957879007 0.2957879007 0.2957879007
0.2962951064 0.2962951064 0.2962951064
0.2967989445 0.2967989445 0.2967989445
0.2973064780 0.2973064780 0.2973064780
0.2978119850 0.2978119850 0.2978119850
0.2983155251 0.2983155251 0.2983155251
0.2988170385 0.2988170385 0.2988170385
0.2993208170 0.2993208170 0.2993208170
0.2998225987 0.2998225987 0.2998225987
0.3003237545 0.3003237545 0.3003237545
0.3008228540 0.3008228540 0.3008228540
0.3013227880 0.3013227880 0.3013227880
0.3018220961 0.3018220961 0.3018220961
0.3023207784 0.3023207784 0.3023207784
0.3028174043 0.3028174043 0.3028174043
0.3033148050 0.3033148050 0.3033148050
0.3038086891 0.3038086891 0.3038086891
0.3043048084 0.3043048084 0.3043048084
0.3047988117 0.3047988117 0.3047988117
0.3052921593 0.3052921593 0.3052921593
0.3057848215 0.3057848215 0.3057848215
0.3062768281 0.3062768281 0.3062768281
0.3067666888 0.3067666888 0.3067666888
0.3072587848 0.3072587848 0.3072587848
0.3077472448 0.3077472448 0.3077472448
0.3082379699 0.3082379699 0.3082379699
0.3087250292 0.3087250292 0.3087250292
0.3092128336 0.3092128336 0.3092128336
0.3096999526 0.3096999526 0.3096999526
0.3101848364 0.3101848364 0.3101848364
0.3106704950 0.3106704950 0.3106704950
0.3111554086 0.3111554086 0.3111554086
0.3116410673 0.3116410673 0.3116410673
0.3121230304 0.3121230304 0.3121230304
0.3126042187 0.3126042187 0.3126042187
0.3130861521 0.3130861521 0.3130861521
0.3135688007 0.3135688007 0.3135688007
0.3140492141 0.3140492141 0.3140492141
0.3145273328 0.3145273328 0.3145273328
0.3150076866 0.3150076866 0.3150076866
0.3154857457 0.3154857457 0.3154857457
0.3159645200 0.3159645200 0.3159645200
0.3164409995 0.3164409995 0.3164409995
0.3169166744 0.3169166744 0.3169166744
0.3173915446 0.3173915446 0.3173915446
0.3178655803 0.3178655803 0.3178655803
0.3183418512 0.3183418512 0.3183418512
0.3188142776 0.3188142776 0.3188142776
0.3192873895 0.3192873895 0.3192873895
0.3197596669 0.3197596669 0.3197596669
0.3202311099 0.3202311099 0.3202311099
0.3207001686 0.3207001686 0.3207001686
0.3211714625 0.3211714625 0.3211714625
0.3216418624 0.3216418624 0.3216418624
0.3221099079 0.3221099079 0.3221099079
0.3225786090 0.3225786090 0.3225786090
0.3230449259 0.3230449259 0.3230449259
0.3235118985 0.3235118985 0.3235118985
0.3239795268 0.3239795268 0.3239795268
0.3244431913 0.3244431913 0.3244431913
0.3249075115 0.3249075115 0.3249075115
0.3253724873 0.3253724873 0.3253724873
0.3258365393 0.3258365393 0.3258365393
0.3262997270 0.3262997270 0.3262997270
0.3267619908 0.3267619908 0.3267619908
0.3272217810 0.3272217810 0.3272217810
0.3276822269 0.3276822269 0.3276822269
0.3281432986 0.3281432986 0.3281432986
0.3286034465 0.3286034465 0.3286034465
0.3290610909 0.3290610909 0.3290610909
0.3295209408 0.3295209408 0.3295209408
0.3299767077 0.3299767077 0.3299767077
0.3304330707 0.3304330707 0.3304330707
0.3308900893 0.3308900893 0.3308900893
0.3313477337 0.3313477337 0.3313477337
0.3318028152 0.3318028152 0.3318028152
0.3322569430 0.3322569430 0.3322569430
0.3327101171 0.3327101171 0.3327101171
0.3331622779 0.3331622779 0.3331622779
0.3336150646 0.3336150646 0.3336150646
0.3340668678 0.3340668678 0.3340668678
0.3345192969 0.3345192969 0.3345192969
0.3349691033 0.3349691033 0.3349691033
0.3354195058 0.3354195058 0.3354195058
0.3358689249 0.3358689249 0.3358689249
0.3363173306 0.3363173306 0.3363173306
0.3367663324 0.3367663324 0.3367663324
0.3372127116 0.3372127116 0.3372127116
0.3376612663 0.3376612663 0.3376612663
0.3381088376 0.3381088376 0.3381088376
0.3385537267 0.3385537267 0.3385537267
0.3389976025 0.3389976025 0.3389976025
0.3394404352 0.3394404352 0.3394404352
0.3398870528 0.3398870528 0.3398870528
0.3403294086 0.3403294086 0.3403294086
0.3407723308 0.3407723308 0.3407723308
0.3412158191 0.3412158191 0.3412158191
0.3416566253 0.3416566253 0.3416566253
0.3420963585 0.3420963585 0.3420963585
0.3425366580 0.3425366580 0.3425366580
0.3429758847 0.3429758847 0.3429758847
0.3434172869 0.3434172869 0.3434172869
0.3438543379 0.3438543379 0.3438543379
0.3442935944 0.3442935944 0.3442935944
0.3447301090 0.3447301090 0.3447301090
0.3451655507 0.3451655507 0.3451655507
0.3456031382 0.3456031382 0.3456031382
0.3460413218 0.3460413218 0.3460413218
0.3464750648 0.3464750648 0.3464750648
0.3469077051 0.3469077051 0.3469077051
0.3473425210 0.3473425210 0.3473425210
0.3477762341 0.3477762341 0.3477762341
0.3482088149 0.3482088149 0.3482088149
0.3486419320 0.3486419320 0.3486419320
0.3490722775 0.3490722775 0.3490722775
0.3495047688 0.3495047688 0.3495047688
0.3499344885 0.3499344885 0.3499344885
0.3503647149 0.3503647149 0.3503647149
0.3507938087 0.3507938087 0.3507938087
0.3512217402 0.3512217402 0.3512217402
0.3516501784 0.3516501784 0.3516501784
0.3520791233 0.3520791233 0.3520791233
0.3525052369 0.3525052369 0.3525052369
0.3529301882 0.3529301882 0.3529301882
0.3533590138 0.3533590138 0.3533590138
0.3537833095 0.3537833095 0.3537833095
0.3542080820 0.3542080820 0.3542080820
0.3546333611 0.3546333611 0.3546333611
0.3550557792 0.3550557792 0.3550557792
0.3554786742 0.3554786742 0.3554786742
0.3559003770 0.3559003770 0.3559003770
0.3563242853 0.3563242853 0.3563242853
0.3567469716 0.3567469716 0.3567469716
0.3571667671 0.3571667671 0.3571667671
0.3575870395 0.3575870395 0.3575870395
0.3580078185 0.3580078185 0.3580078185
0.3584273756 0.3584273756 0.3584273756
0.3588457108 0.3588457108 0.3588457108
0.3592645228 0.3592645228 0.3592645228
0.3596820831 0.3596820831 0.3596820831
0.3601001501 0.3601001501 0.3601001501
0.3605169654 0.3605169654 0.3605169654
0.3609325588 0.3609325588 0.3609325588
0.3613468707 0.3613468707 0.3613468707
0.3617651463 0.3617651463 0.3617651463
0.3621752262 0.3621752262 0.3621752262
0.3625926971 0.3625926971 0.3625926971
0.3630037308 0.3630037308 0.3630037308
0.3634169698 0.3634169698 0.3634169698
0.3638306260 0.3638306260 0.3638306260
0.3642396033 0.3642396033 0.3642396033
0.3646559417 0.3646559417 0.3646559417
0.3650658131 0.3650658131 0.3650658131
0.3654743731 0.3654743731 0.3654743731
0.3658851385 0.3658851385 0.3658851385
0.3662928939 0.3662928939 0.3662928939
0.3667028248 0.3667028248 0.3667028248
0.3671114743 0.3671114743 0.3671114743
0.3675222993 0.3675222993 0.3675222993
0.3679283559 0.3679283559 0.3679283559
0.3683365881 0.3683365881 0.3683365881
0.3687399924 0.3687399924 0.3687399924
0.3691473603 0.3691473603 0.3691473603
0.3695499003 0.3695499003 0.3695499003
0.3699546456 0.3699546456 0.3699546456
0.3703598082 0.3703598082 0.3703598082
0.3707671762 0.3707671762 0.3707671762
0.3711679280 0.3711679280 0.3711679280
0.3715673387 0.3715673387 0.3715673387
0.3719707131 0.3719707131 0.3719707131
0.3723745048 0.3723745048 0.3723745048
0.3727805316 0.3727805316 0.3727805316
0.3731780946 0.3731780946 0.3731780946
0.3735760748 0.3735760748 0.3735760748
0.3739780486 0.3739780486 0.3739780486
0.3743804395 0.3743804395 0.3743804395
0.3747779131 0.3747779131 0.3747779131
0.3751740158 0.3751740158 0.3751740158
0.3755705357 0.3755705357 0.3755705357
0.3759710491 0.3759710491 0.3759710491
0.3763701618 0.3763701618 0.3763701618
0.3767625690 0.3767625690 0.3767625690
0.3771589398 0.3771589398 0.3771589398
0.3775575161 0.3775575161 0.3775575161
0.3779529333 0.3779529333 0.3779529333
0.3783469498 0.3783469498 0.3783469498
0.3787377477 0.3787377477 0.3787377477
0.3791307807 0.3791307807 0.3791307807
0.3795242012 0.3795242012 0.3795242012
0.3799180090 0.3799180090 0.3799180090
0.3803104460 0.3803104460 0.3803104460
0.3806996346 0.3806996346 0.3806996346
0.3810928464 0.3810928464 0.3810928464
0.3814882934 0.3814882934 0.3814882934
0.3818732202 0.3818732202 0.3818732202
0.3822639883 0.3822639883 0.3822639883
0.3826515377 0.3826515377 0.3826515377
0.3830430806 0.3830430806 0.3830430806
0.3834332228 0.3834332228 0.3834332228
0.3838200867 0.3838200867 0.3838200867
0.3842037022 0.3842037022 0.3842037022
0.3845931590 0.3845931590 0.3845931590
0.3849793673 0.3849793673 0.3849793673
0.3853641152 0.3853641152 0.3853641152
0.3857529163 0.3857529163 0.3857529163
0.3861347437 0.3861347437 0.3861347437
0.3865224719 0.3865224719 0.3865224719
0.3869032264 0.3869032264 0.3869032264
0.3872880340 0.3872880340 0.3872880340
0.3876713812 0.3876713812 0.3876713812
0.3880550861 0.3880550861 0.3880550861
