HDR ST 2084/Gamma 2.4 to HDR 300 nits.cube
# DaVinci Resolve Cube (1D shaper LUT).

LUT_1D_SIZE 4096
LUT_1D_INPUT_RANGE 0.0000000000 1.5805219179

0.0000007310 0.0000007310 0.0000007310
0.0000946463 0.0000946463 0.0000946463
0.0002330228 0.0002330228 0.0002330228
0.0004055091 0.0004055091 0.0004055091
0.0006056622 0.0006056622 0.0006056622
0.0008291929 0.0008291929 0.0008291929
0.0010729674 0.0010729674 0.0010729674
0.0013345268 0.0013345268 0.0013345268
0.0016119143 0.0016119143 0.0016119143
0.0019034861 0.0019034861 0.0019034861
0.0022079006 0.0022079006 0.0022079006
0.0025239445 0.0025239445 0.0025239445
0.0028506240 0.0028506240 0.0028506240
0.0031870075 0.0031870075 0.0031870075
0.0035324036 0.0035324036 0.0035324036
0.0038860154 0.0038860154 0.0038860154
0.0042472365 0.0042472365 0.0042472365
0.0046155364 0.0046155364 0.0046155364
0.0049903900 0.0049903900 0.0049903900
0.0053713480 0.0053713480 0.0053713480
0.0057580085 0.0057580085 0.0057580085
0.0061498885 0.0061498885 0.0061498885
0.0065467944 0.0065467944 0.0065467944
0.0069482825 0.0069482825 0.0069482825
0.0073540988 0.0073540988 0.0073540988
0.0077640279 0.0077640279 0.0077640279
0.0081776502 0.0081776502 0.0081776502
0.0085948892 0.0085948892 0.0085948892
0.0090153962 0.0090153962 0.0090153962
0.0094390567 0.0094390567 0.0094390567
0.0098656844 0.0098656844 0.0098656844
0.0102950716 0.0102950716 0.0102950716
0.0107269241 0.0107269241 0.0107269241
0.0111614270 0.0111614270 0.0111614270
0.0115980040 0.0115980040 0.0115980040
0.0120369457 0.0120369457 0.0120369457
0.0124777053 0.0124777053 0.0124777053
0.0129204607 0.0129204607 0.0129204607
0.0133649148 0.0133649148 0.0133649148
0.0138111562 0.0138111562 0.0138111562
0.0142589426 0.0142589426 0.0142589426
0.0147081446 0.0147081446 0.0147081446
0.0151586868 0.0151586868 0.0151586868
0.0156106250 0.0156106250 0.0156106250
0.0160636865 0.0160636865 0.0160636865
0.0165180266 0.0165180266 0.0165180266
0.0169732030 0.0169732030 0.0169732030
0.0174295474 0.0174295474 0.0174295474
0.0178866722 0.0178866722 0.0178866722
0.0183445644 0.0183445644 0.0183445644
0.0188034270 0.0188034270 0.0188034270
0.0192629565 0.0192629565 0.0192629565
0.0197231434 0.0197231434 0.0197231434
0.0201839134 0.0201839134 0.0201839134
0.0206453186 0.0206453186 0.0206453186
0.0211072359 0.0211072359 0.0211072359
0.0215696674 0.0215696674 0.0215696674
0.0220325328 0.0220325328 0.0220325328
0.0224956609 0.0224956609 0.0224956609
0.0229593422 0.0229593422 0.0229593422
0.0234232191 0.0234232191 0.0234232191
0.0238872841 0.0238872841 0.0238872841
0.0243515428 0.0243515428 0.0243515428
0.0248162746 0.0248162746 0.0248162746
0.0252810474 0.0252810474 0.0252810474
0.0257461704 0.0257461704 0.0257461704
0.0262110960 0.0262110960 0.0262110960
0.0266763028 0.0266763028 0.0266763028
0.0271415114 0.0271415114 0.0271415114
0.0276067182 0.0276067182 0.0276067182
0.0280719250 0.0280719250 0.0280719250
0.0285371523 0.0285371523 0.0285371523
0.0290024355 0.0290024355 0.0290024355
0.0294675305 0.0294675305 0.0294675305
0.0299324859 0.0299324859 0.0299324859
0.0303975139 0.0303975139 0.0303975139
0.0308623984 0.0308623984 0.0308623984
0.0313270688 0.0313270688 0.0313270688
0.0317914672 0.0317914672 0.0317914672
0.0322558507 0.0322558507 0.0322558507
0.0327200256 0.0327200256 0.0327200256
0.0331839509 0.0331839509 0.0331839509
0.0336479358 0.0336479358 0.0336479358
0.0341114625 0.0341114625 0.0341114625
0.0345748477 0.0345748477 0.0345748477
0.0350375734 0.0350375734 0.0350375734
0.0355004929 0.0355004929 0.0355004929
0.0359627530 0.0359627530 0.0359627530
0.0364250615 0.0364250615 0.0364250615
0.0368867293 0.0368867293 0.0368867293
0.0373483188 0.0373483188 0.0373483188
0.0378094986 0.0378094986 0.0378094986
0.0382701084 0.0382701084 0.0382701084
0.0387307629 0.0387307629 0.0387307629
0.0391909368 0.0391909368 0.0391909368
0.0396506861 0.0396506861 0.0396506861
0.0401100665 0.0401100665 0.0401100665
0.0405687392 0.0405687392 0.0405687392
0.0410275720 0.0410275720 0.0410275720
0.0414856412 0.0414856412 0.0414856412
0.0419434272 0.0419434272 0.0419434272
0.0424007997 0.0424007997 0.0424007997
0.0428576507 0.0428576507 0.0428576507
0.0433140621 0.0433140621 0.0433140621
0.0437699221 0.0437699221 0.0437699221
0.0442255475 0.0442255475 0.0442255475
0.0446806103 0.0446806103 0.0446806103
0.0451354422 0.0451354422 0.0451354422
0.0455897190 0.0455897190 0.0455897190
0.0460433327 0.0460433327 0.0460433327
0.0464966334 0.0464966334 0.0464966334
0.0469495244 0.0469495244 0.0469495244
0.0474016741 0.0474016741 0.0474016741
0.0478534475 0.0478534475 0.0478534475
0.0483045168 0.0483045168 0.0483045168
0.0487555005 0.0487555005 0.0487555005
0.0492055938 0.0492055938 0.0492055938
0.0496554226 0.0496554226 0.0496554226
0.0501049124 0.0501049124 0.0501049124
0.0505537279 0.0505537279 0.0505537279
0.0510020331 0.0510020331 0.0510020331
0.0514494963 0.0514494963 0.0514494963
0.0518970303 0.0518970303 0.0518970303
0.0523435585 0.0523435585 0.0523435585
0.0527897589 0.0527897589 0.0527897589
0.0532355607 0.0532355607 0.0532355607
0.0536803640 0.0536803640 0.0536803640
0.0541251451 0.0541251451 0.0541251451
0.0545690358 0.0545690358 0.0545690358
0.0550127700 0.0550127700 0.0550127700
0.0554554649 0.0554554649 0.0554554649
0.0558981374 0.0558981374 0.0558981374
0.0563399047 0.0563399047 0.0563399047
0.0567812435 0.0567812435 0.0567812435
0.0572220944 0.0572220944 0.0572220944
0.0576621071 0.0576621071 0.0576621071
0.0581020638 0.0581020638 0.0581020638
0.0585410520 0.0585410520 0.0585410520
0.0589795858 0.0589795858 0.0589795858
0.0594175979 0.0594175979 0.0594175979
0.0598550290 0.0598550290 0.0598550290
0.0602918267 0.0602918267 0.0602918267
0.0607282184 0.0607282184 0.0607282184
0.0611638576 0.0611638576 0.0611638576
0.0615992844 0.0615992844 0.0615992844
0.0620338470 0.0620338470 0.0620338470
0.0624677837 0.0624677837 0.0624677837
0.0629016608 0.0629016608 0.0629016608
0.0633345023 0.0633345023 0.0633345023
0.0637671798 0.0637671798 0.0637671798
0.0641983971 0.0641983971 0.0641983971
0.0646299869 0.0646299869 0.0646299869
0.0650606379 0.0650606379 0.0650606379
0.0654906183 0.0654906183 0.0654906183
0.0659205168 0.0659205168 0.0659205168
0.0663493276 0.0663493276 0.0663493276
0.0667776465 0.0667776465 0.0667776465
0.0672054291 0.0672054291 0.0672054291
0.0676332861 0.0676332861 0.0676332861
0.0680595264 0.0680595264 0.0680595264
0.0684860870 0.0684860870 0.0684860870
0.0689116046 0.0689116046 0.0689116046
0.0693366975 0.0693366975 0.0693366975
0.0697606504 0.0697606504 0.0697606504
0.0701844320 0.0701844320 0.0701844320
0.0706080049 0.0706080049 0.0706080049
0.0710310042 0.0710310042 0.0710310042
0.0714526772 0.0714526772 0.0714526772
0.0718747303 0.0718747303 0.0718747303
0.0722950324 0.0722950324 0.0722950324
0.0727159902 0.0727159902 0.0727159902
0.0731361657 0.0731361657 0.0731361657
0.0735558867 0.0735558867 0.0735558867
0.0739747509 0.0739747509 0.0739747509
0.0743930787 0.0743930787 0.0743930787
0.0748108327 0.0748108327 0.0748108327
0.0752276182 0.0752276182 0.0752276182
0.0756433904 0.0756433904 0.0756433904
0.0760595798 0.0760595798 0.0760595798
0.0764754415 0.0764754415 0.0764754415
0.0768898055 0.0768898055 0.0768898055
0.0773037598 0.0773037598 0.0773037598
0.0777176544 0.0777176544 0.0777176544
0.0781310797 0.0781310797 0.0781310797
0.0785443857 0.0785443857 0.0785443857
0.0789560229 0.0789560229 0.0789560229
0.0793678612 0.0793678612 0.0793678612
0.0797783360 0.0797783360 0.0797783360
0.0801881850 0.0801881850 0.0801881850
0.0805981606 0.0805981606 0.0805981606
0.0810078382 0.0810078382 0.0810078382
0.0814168155 0.0814168155 0.0814168155
0.0818250477 0.0818250477 0.0818250477
0.0822317153 0.0822317153 0.0822317153
0.0826395676 0.0826395676 0.0826395676
0.0830453932 0.0830453932 0.0830453932
0.0834511667 0.0834511667 0.0834511667
0.0838580802 0.0838580802 0.0838580802
0.0842620507 0.0842620507 0.0842620507
0.0846667141 0.0846667141 0.0846667141
0.0850699916 0.0850699916 0.0850699916
0.0854730979 0.0854730979 0.0854730979
0.0858755857 0.0858755857 0.0858755857
0.0862786919 0.0862786919 0.0862786919
0.0866790488 0.0866790488 0.0866790488
0.0870803893 0.0870803893 0.0870803893
0.0874810219 0.0874810219 0.0874810219
0.0878813490 0.0878813490 0.0878813490
0.0882800594 0.0882800594 0.0882800594
0.0886801258 0.0886801258 0.0886801258
0.0890780911 0.0890780911 0.0890780911
0.0894752294 0.0894752294 0.0894752294
0.0898727998 0.0898727998 0.0898727998
0.0902703702 0.0902703702 0.0902703702
0.0906657204 0.0906657204 0.0906657204
0.0910618976 0.0910618976 0.0910618976
0.0914575756 0.0914575756 0.0914575756
0.0918513834 0.0918513834 0.0918513834
0.0922446325 0.0922446325 0.0922446325
0.0926390961 0.0926390961 0.0926390961
0.0930311754 0.0930311754 0.0930311754
0.0934239775 0.0934239775 0.0934239775
0.0938161537 0.0938161537 0.0938161537
0.0942085832 0.0942085832 0.0942085832
0.0945989713 0.0945989713 0.0945989713
0.0949891135 0.0949891135 0.0949891135
0.0953794569 0.0953794569 0.0953794569
0.0957690701 0.0957690701 0.0957690701
0.0961574614 0.0961574614 0.0961574614
0.0965446010 0.0965446010 0.0965446010
0.0969332829 0.0969332829 0.0969332829
0.0973206833 0.0973206833 0.0973206833
0.0977062955 0.0977062955 0.0977062955
0.0980943739 0.0980943739 0.0980943739
0.0984801576 0.0984801576 0.0984801576
0.0988640860 0.0988640860 0.0988640860
0.0992485359 0.0992485359 0.0992485359
0.0996330157 0.0996330157 0.0996330157
0.1000160649 0.1000160649 0.1000160649
0.1003995910 0.1003995910 0.1003995910
0.1007821336 0.1007821336 0.1007821336
0.1011656225 0.1011656225 0.1011656225
0.1015466228 0.1015466228 0.1015466228
0.1019285470 0.1019285470 0.1019285470
0.1023089215 0.1023089215 0.1023089215
0.1026887149 0.1026887149 0.1026887149
0.1030683964 0.1030683964 0.1030683964
0.1034484655 0.1034484655 0.1034484655
0.1038264036 0.1038264036 0.1038264036
0.1042036936 0.1042036936 0.1042036936
0.1045818254 0.1045818254 0.1045818254
0.1049587801 0.1049587801 0.1049587801
0.1053355411 0.1053355411 0.1053355411
0.1057121083 0.1057121083 0.1057121083
0.1060874388 0.1060874388 0.1060874388
0.1064630523 0.1064630523 0.1064630523
0.1068379134 0.1068379134 0.1068379134
0.1072125286 0.1072125286 0.1072125286
0.1075858325 0.1075858325 0.1075858325
0.1079588607 0.1079588607 0.1079588607
0.1083315909 0.1083315909 0.1083315909
0.1087040156 0.1087040156 0.1087040156
0.1090750694 0.1090750694 0.1090750694
0.1094463170 0.1094463170 0.1094463170
0.1098182797 0.1098182797 0.1098182797
0.1101877615 0.1101877615 0.1101877615
0.1105579361 0.1105579361 0.1105579361
0.1109272018 0.1109272018 0.1109272018
0.1112966016 0.1112966016 0.1112966016
0.1116650552 0.1116650552 0.1116650552
0.1120325550 0.1120325550 0.1120325550
0.1123996153 0.1123996153 0.1123996153
0.1127667800 0.1127667800 0.1127667800
0.1131340265 0.1131340265 0.1131340265
0.1134997159 0.1134997159 0.1134997159
0.1138654724 0.1138654724 0.1138654724
0.1142312884 0.1142312884 0.1142312884
0.1145960540 0.1145960540 0.1145960540
0.1149591878 0.1149591878 0.1149591878
0.1153234616 0.1153234616 0.1153234616
0.1156860813 0.1156860813 0.1156860813
0.1160487011 0.1160487011 0.1160487011
0.1164130121 0.1164130121 0.1164130121
0.1167733744 0.1167733744 0.1167733744
0.1171348318 0.1171348318 0.1171348318
0.1174962670 0.1174962670 0.1174962670
0.1178576648 0.1178576648 0.1178576648
0.1182161570 0.1182161570 0.1182161570
0.1185768768 0.1185768768 0.1185768768
0.1189352348 0.1189352348 0.1189352348
0.1192935109 0.1192935109 0.1192935109
0.1196528599 0.1196528599 0.1196528599
0.1200097948 0.1200097948 0.1200097948
0.1203683615 0.1203683615 0.1203683615
0.1207244843 0.1207244843 0.1207244843
0.1210816577 0.1210816577 0.1210816577
0.1214363500 0.1214363500 0.1214363500
0.1217932478 0.1217932478 0.1217932478
0.1221470535 0.1221470535 0.1221470535
0.1225024685 0.1225024685 0.1225024685
0.1228571162 0.1228571162 0.1228571162
0.1232110038 0.1232110038 0.1232110038
0.1235652938 0.1235652938 0.1235652938
0.1239164099 0.1239164099 0.1239164099
0.1242691055 0.1242691055 0.1242691055
0.1246215925 0.1246215925 0.1246215925
0.1249726564 0.1249726564 0.1249726564
0.1253240854 0.1253240854 0.1253240854
0.1256746799 0.1256746799 0.1256746799
0.1260250211 0.1260250211 0.1260250211
0.1263757199 0.1263757199 0.1263757199
0.1267255396 0.1267255396 0.1267255396
0.1270744801 0.1270744801 0.1270744801
0.1274219155 0.1274219155 0.1274219155
0.1277702898 0.1277702898 0.1277702898
0.1281183660 0.1281183660 0.1281183660
0.1284648925 0.1284648925 0.1284648925
0.1288123578 0.1288123578 0.1288123578
0.1291582584 0.1291582584 0.1291582584
0.1295050681 0.1295050681 0.1295050681
0.1298496574 0.1298496574 0.1298496574
0.1301951706 0.1301951706 0.1301951706
0.1305396855 0.1305396855 0.1305396855
0.1308838576 0.1308838576 0.1308838576
0.1312282830 0.1312282830 0.1312282830
0.1315723211 0.1315723211 0.1315723211
0.1319153607 0.1319153607 0.1319153607
0.1322573572 0.1322573572 0.1322573572
0.1326002479 0.1326002479 0.1326002479
0.1329420805 0.1329420805 0.1329420805
0.1332828552 0.1332828552 0.1332828552
0.1336244941 0.1336244941 0.1336244941
0.1339650601 0.1339650601 0.1339650601
0.1343045384 0.1343045384 0.1343045384
0.1346448660 0.1346448660 0.1346448660
0.1349840909 0.1349840909 0.1349840909
0.1353235096 0.1353235096 0.1353235096
0.1356624663 0.1356624663 0.1356624663
0.1359996349 0.1359996349 0.1359996349
0.1363376379 0.1363376379 0.1363376379
0.1366758049 0.1366758049 0.1366758049
0.1370121539 0.1370121539 0.1370121539
0.1373486668 0.1373486668 0.1373486668
0.1376853287 0.1376853287 0.1376853287
0.1380208135 0.1380208135 0.1380208135
0.1383557767 0.1383557767 0.1383557767
0.1386915296 0.1386915296 0.1386915296
0.1390254200 0.1390254200 0.1390254200
0.1393607557 0.1393607557 0.1393607557
0.1396928728 0.1396928728 0.1396928728
0.1400277913 0.1400277913 0.1400277913
0.1403607875 0.1403607875 0.1403607875
0.1406925321 0.1406925321 0.1406925321
0.1410250664 0.1410250664 0.1410250664
0.1413576752 0.1413576752 0.1413576752
0.1416876614 0.1416876614 0.1416876614
0.1420197785 0.1420197785 0.1420197785
0.1423505992 0.1423505992 0.1423505992
0.1426794231 0.1426794231 0.1426794231
0.1430096924 0.1430096924 0.1430096924
0.1433400363 0.1433400363 0.1433400363
0.1436697394 0.1436697394 0.1436697394
0.1439981163 0.1439981163 0.1439981163
0.1443265378 0.1443265378 0.1443265378
0.1446543038 0.1446543038 0.1446543038
0.1449806988 0.1449806988 0.1449806988
0.1453085393 0.1453085393 0.1453085393
0.1456356943 0.1456356943 0.1456356943
0.1459628791 0.1459628791 0.1459628791
0.1462886781 0.1462886781 0.1462886781
0.1466137916 0.1466137916 0.1466137916
0.1469396055 0.1469396055 0.1469396055
0.1472647190 0.1472647190 0.1472647190
0.1475891173 0.1475891173 0.1475891173
0.1479128003 0.1479128003 0.1479128003
0.1482371986 0.1482371986 0.1482371986
0.1485601366 0.1485601366 0.1485601366
0.1488844901 0.1488844901 0.1488844901
0.1492066681 0.1492066681 0.1492066681
0.1495295316 0.1495295316 0.1495295316
0.1498516500 0.1498516500 0.1498516500
0.1501722783 0.1501722783 0.1501722783
0.1504943073 0.1504943073 0.1504943073
0.1508141160 0.1508141160 0.1508141160
0.1511360556 0.1511360556 0.1511360556
0.1514557600 0.1514557600 0.1514557600
0.1517753899 0.1517753899 0.1517753899
0.1520949602 0.1520949602 0.1520949602
0.1524129957 0.1524129957 0.1524129957
0.1527331620 0.1527331620 0.1527331620
0.1530510336 0.1530510336 0.1530510336
0.1533695757 0.1533695757 0.1533695757
0.1536872685 0.1536872685 0.1536872685
0.1540041566 0.1540041566 0.1540041566
0.1543216705 0.1543216705 0.1543216705
0.1546376050 0.1546376050 0.1546376050
0.1549541801 0.1549541801 0.1549541801
0.1552698910 0.1552698910 0.1552698910
0.1555847526 0.1555847526 0.1555847526
0.1559009850 0.1559009850 0.1559009850
0.1562155932 0.1562155932 0.1562155932
0.1565293372 0.1565293372 0.1565293372
0.1568436921 0.1568436921 0.1568436921
0.1571586728 0.1571586728 0.1571586728
0.1574712545 0.1574712545 0.1574712545
0.1577844322 0.1577844322 0.1577844322
0.1580974758 0.1580974758 0.1580974758
0.1584088504 0.1584088504 0.1584088504
0.1587215960 0.1587215960 0.1587215960
0.1590334177 0.1590334177 0.1590334177
0.1593443006 0.1593443006 0.1593443006
0.1596557945 0.1596557945 0.1596557945
0.1599671096 0.1599671096 0.1599671096
0.1602767259 0.1602767259 0.1602767259
0.1605869234 0.1605869234 0.1605869234
0.1608961672 0.1608961672 0.1608961672
0.1612060070 0.1612060070 0.1612060070
0.1615156531 0.1615156531 0.1615156531
0.1618235558 0.1618235558 0.1618235558
0.1621320248 0.1621320248 0.1621320248
0.1624403149 0.1624403149 0.1624403149
0.1627476066 0.1627476066 0.1627476066
0.1630539000 0.1630539000 0.1630539000
0.1633615494 0.1633615494 0.1633615494
0.1636682004 0.1636682004 0.1636682004
0.1639754176 0.1639754176 0.1639754176
0.1642808318 0.1642808318 0.1642808318
0.1645860225 0.1645860225 0.1645860225
0.1648909748 0.1648909748 0.1648909748
0.1651972830 0.1651972830 0.1651972830
0.1655009687 0.1655009687 0.1655009687
0.1658068001 0.1658068001 0.1658068001
0.1661100090 0.1661100090 0.1661100090
0.1664137393 0.1664137393 0.1664137393
0.1667172313 0.1667172313 0.1667172313
0.1670204699 0.1670204699 0.1670204699
0.1673234403 0.1673234403 0.1673234403
0.1676253527 0.1676253527 0.1676253527
0.1679261774 0.1679261774 0.1679261774
0.1682291478 0.1682291478 0.1682291478
0.1685294360 0.1685294360 0.1685294360
0.1688318551 0.1688318551 0.1688318551
0.1691323817 0.1691323817 0.1691323817
0.1694326252 0.1694326252 0.1694326252
0.1697325855 0.1697325855 0.1697325855
0.1700330526 0.1700330526 0.1700330526
0.1703324169 0.1703324169 0.1703324169
0.1706323028 0.1706323028 0.1706323028
0.1709302366 0.1709302366 0.1709302366
0.1712295264 0.1712295264 0.1712295264
0.1715268344 0.1715268344 0.1715268344
0.1718246788 0.1718246788 0.1718246788
0.1721230149 0.1721230149 0.1721230149
0.1724193841 0.1724193841 0.1724193841
0.1727170795 0.1727170795 0.1727170795
0.1730127931 0.1730127931 0.1730127931
0.1733090132 0.1733090132 0.1733090132
0.1736057252 0.1736057252 0.1736057252
0.1739021093 0.1739021093 0.1739021093
0.1741973162 0.1741973162 0.1741973162
0.1744938493 0.1744938493 0.1744938493
0.1747875363 0.1747875363 0.1747875363
0.1750817001 0.1750817001 0.1750817001
0.1753763556 0.1753763556 0.1753763556
0.1756698191 0.1756698191 0.1756698191
0.1759629101 0.1759629101 0.1759629101
0.1762573421 0.1762573421 0.1762573421
0.1765497029 0.1765497029 0.1765497029
0.1768434048 0.1768434048 0.1768434048
0.1771358848 0.1771358848 0.1771358848
0.1774279773 0.1774279773 0.1774279773
0.1777188480 0.1777188480 0.1777188480
0.1780101955 0.1780101955 0.1780101955
0.1783028692 0.1783028692 0.1783028692
0.1785925776 0.1785925776 0.1785925776
0.1788827479 0.1788827479 0.1788827479
0.1791742593 0.1791742593 0.1791742593
0.1794645041 0.1794645041 0.1794645041
0.1797526330 0.1797526330 0.1797526330
0.1800429374 0.1800429374 0.1800429374
0.1803319752 0.1803319752 0.1803319752
0.1806206107 0.1806206107 0.1806206107
0.1809096932 0.1809096932 0.1809096932
0.1811983734 0.1811983734 0.1811983734
0.1814866215 0.1814866215 0.1814866215
0.1817727238 0.1817727238 0.1817727238
0.1820601225 0.1820601225 0.1820601225
0.1823471189 0.1823471189 0.1823471189
0.1826354116 0.1826354116 0.1826354116
0.1829197854 0.1829197854 0.1829197854
0.1832072288 0.1832072288 0.1832072288
0.1834924668 0.1834924668 0.1834924668
0.1837781519 0.1837781519 0.1837781519
0.1840651631 0.1840651631 0.1840651631
0.1843490601 0.1843490601 0.1843490601
0.1846342981 0.1846342981 0.1846342981
0.1849190742 0.1849190742 0.1849190742
0.1852024943 0.1852024943 0.1852024943
0.1854863614 0.1854863614 0.1854863614
0.1857697517 0.1857697517 0.1857697517
0.1860535741 0.1860535741 0.1860535741
0.1863369346 0.1863369346 0.1863369346
0.1866189241 0.1866189241 0.1866189241
0.1869022399 0.1869022399 0.1869022399
0.1871832758 0.1871832758 0.1871832758
0.1874665320 0.1874665320 0.1874665320
0.1877475083 0.1877475083 0.1877475083
0.1880297959 0.1880297959 0.1880297959
0.1883088946 0.1883088946 0.1883088946
0.1885920167 0.1885920167 0.1885920167
0.1888719499 0.1888719499 0.1888719499
0.1891522706 0.1891522706 0.1891522706
0.1894321144 0.1894321144 0.1894321144
0.1897123456 0.1897123456 0.1897123456
0.1899902672 0.1899902672 0.1899902672
0.1902695000 0.1902695000 0.1902695000
0.1905491352 0.1905491352 0.1905491352
0.1908282638 0.1908282638 0.1908282638
0.1911050379 0.1911050379 0.1911050379
0.1913849711 0.1913849711 0.1913849711
0.1916616261 0.1916616261 0.1916616261
0.1919395924 0.1919395924 0.1919395924
0.1922170371 0.1922170371 0.1922170371
0.1924939603 0.1924939603 0.1924939603
0.1927712709 0.1927712709 0.1927712709
0.1930471212 0.1930471212 0.1930471212
0.1933242977 0.1933242977 0.1933242977
0.1935981512 0.1935981512 0.1935981512
0.1938751787 0.1938751787 0.1938751787
0.1941507161 0.1941507161 0.1941507161
0.1944257319 0.1944257319 0.1944257319
0.1947001815 0.1947001815 0.1947001815
0.1949750185 0.1949750185 0.1949750185
0.1952502429 0.1952502429 0.1952502429
0.1955230385 0.1955230385 0.1955230385
0.1957971454 0.1957971454 0.1957971454
0.1960716248 0.1960716248 0.1960716248
0.1963436604 0.1963436604 0.1963436604
0.1966179609 0.1966179609 0.1966179609
0.1968898028 0.1968898028 0.1968898028
0.1971620172 0.1971620172 0.1971620172
0.1974355578 0.1974355578 0.1974355578
0.1977066100 0.1977066100 0.1977066100
0.1979780495 0.1979780495 0.1979780495
0.1982508004 0.1982508004 0.1982508004
0.1985210627 0.1985210627 0.1985210627
0.1987907290 0.1987907290 0.1987907290
0.1990626752 0.1990626752 0.1990626752
0.1993321180 0.1993321180 0.1993321180
0.1996028721 0.1996028721 0.1996028721
0.1998720914 0.1998720914 0.1998720914
0.2001426071 0.2001426071 0.2001426071
0.2004115731 0.2004115731 0.2004115731
0.2006818503 0.2006818503 0.2006818503
0.2009496093 0.2009496093 0.2009496093
0.2012186795 0.2012186795 0.2012186795
0.2014871389 0.2014871389 0.2014871389
0.2017559558 0.2017559558 0.2017559558
0.2020231783 0.2020231783 0.2020231783
0.2022907585 0.2022907585 0.2022907585
0.2025577128 0.2025577128 0.2025577128
0.2028240412 0.2028240412 0.2028240412
0.2030916959 0.2030916959 0.2030916959
0.2033587247 0.2033587247 0.2033587247
0.2036251277 0.2036251277 0.2036251277
0.2038908899 0.2038908899 0.2038908899
0.2041579634 0.2041579634 0.2041579634
0.2044224590 0.2044224590 0.2044224590
0.2046882659 0.2046882659 0.2046882659
0.2049524486 0.2049524486 0.2049524486
0.2052189410 0.2052189410 0.2052189410
0.2054828107 0.2054828107 0.2054828107
0.2057460397 0.2057460397 0.2057460397
0.2060115635 0.2060115635 0.2060115635
0.2062744647 0.2062744647 0.2062744647
0.2065386921 0.2065386921 0.2065386921
0.2068022639 0.2068022639 0.2068022639
0.2070661634 0.2070661634 0.2070661634
0.2073284090 0.2073284090 0.2073284090
0.2075909823 0.2075909823 0.2075909823
0.2078528851 0.2078528851 0.2078528851
0.2081161141 0.2081161141 0.2081161141
0.2083776742 0.2083776742 0.2083776742
0.2086385489 0.2086385489 0.2086385489
0.2089017630 0.2089017630 0.2089017630
0.2091612816 0.2091612816 0.2091612816
0.2094231397 0.2094231397 0.2094231397
0.2096843123 0.2096843123 0.2096843123
0.2099447995 0.2099447995 0.2099447995
0.2102035880 0.2102035880 0.2102035880
0.2104657143 0.2104657143 0.2104657143
0.2107251436 0.2107251436 0.2107251436
0.2109838724 0.2109838724 0.2109838724
0.2112439275 0.2112439275 0.2112439275
0.2115022689 0.2115022689 0.2115022689
0.2117619365 0.2117619365 0.2117619365
0.2120209038 0.2120209038 0.2120209038
0.2122781575 0.2122781575 0.2122781575
0.2125367373 0.2125367373 0.2125367373
0.2127956152 0.2127956152 0.2127956152
0.2130517513 0.2130517513 0.2130517513
0.2133092135 0.2133092135 0.2133092135
0.2135680020 0.2135680020 0.2135680020
0.2138250470 0.2138250470 0.2138250470
0.2140803486 0.2140803486 0.2140803486
0.2143369913 0.2143369913 0.2143369913
0.2145928890 0.2145928890 0.2145928890
0.2148501277 0.2148501277 0.2148501277
0.2151056081 0.2151056081 0.2151056081
0.2153603584 0.2153603584 0.2153603584
0.2156164497 0.2156164497 0.2156164497
0.2158728242 0.2158728242 0.2158728242
