HDR ST 2084/Gamma 2.4 to HDR 500 nits.cube
# DaVinci Resolve Cube (1D shaper LUT).

LUT_1D_SIZE 4096
LUT_1D_INPUT_RANGE 0.0000000000 1.9554085140

0.0000007310 0.0000007310 0.0000007310
0.0001238978 0.0001238978 0.0001238978
0.0003110612 0.0003110612 0.0003110612
0.0005453728 0.0005453728 0.0005453728
0.0008172255 0.0008172255 0.0008172255
0.0011203281 0.0011203281 0.0011203281
0.0014500712 0.0014500712 0.0014500712
0.0018029506 0.0018029506 0.0018029506
0.0021761495 0.0021761495 0.0021761495
0.0025673681 0.0025673681 0.0025673681
0.0029746417 0.0029746417 0.0029746417
0.0033963728 0.0033963728 0.0033963728
0.0038311654 0.0038311654 0.0038311654
0.0042777201 0.0042777201 0.0042777201
0.0047350274 0.0047350274 0.0047350274
0.0052021923 0.0052021923 0.0052021923
0.0056783054 0.0056783054 0.0056783054
0.0061626337 0.0061626337 0.0061626337
0.0066545312 0.0066545312 0.0066545312
0.0071533751 0.0071533751 0.0071533751
0.0076586842 0.0076586842 0.0076586842
0.0081697293 0.0081697293 0.0081697293
0.0086863637 0.0086863637 0.0086863637
0.0092079565 0.0092079565 0.0092079565
0.0097342655 0.0097342655 0.0097342655
0.0102648139 0.0102648139 0.0102648139
0.0107994089 0.0107994089 0.0107994089
0.0113375941 0.0113375941 0.0113375941
0.0118793081 0.0118793081 0.0118793081
0.0124241346 0.0124241346 0.0124241346
0.0129718911 0.0129718911 0.0129718911
0.0135223214 0.0135223214 0.0135223214
0.0140753267 0.0140753267 0.0140753267
0.0146303969 0.0146303969 0.0146303969
0.0151879378 0.0151879378 0.0151879378
0.0157471672 0.0157471672 0.0157471672
0.0163084604 0.0163084604 0.0163084604
0.0168712828 0.0168712828 0.0168712828
0.0174354967 0.0174354967 0.0174354967
0.0180012342 0.0180012342 0.0180012342
0.0185682829 0.0185682829 0.0185682829
0.0191364996 0.0191364996 0.0191364996
0.0197057128 0.0197057128 0.0197057128
0.0202759132 0.0202759132 0.0202759132
0.0208469573 0.0208469573 0.0208469573
0.0214185435 0.0214185435 0.0214185435
0.0219911672 0.0219911672 0.0219911672
0.0225643199 0.0225643199 0.0225643199
0.0231379550 0.0231379550 0.0231379550
0.0237119570 0.0237119570 0.0237119570
0.0242866110 0.0242866110 0.0242866110
0.0248612929 0.0248612929 0.0248612929
0.0254364945 0.0254364945 0.0254364945
0.0260116402 0.0260116402 0.0260116402
0.0265870616 0.0265870616 0.0265870616
0.0271626171 0.0271626171 0.0271626171
0.0277383253 0.0277383253 0.0277383253
0.0283136852 0.0283136852 0.0283136852
0.0288893227 0.0288893227 0.0288893227
0.0294647776 0.0294647776 0.0294647776
0.0300401822 0.0300401822 0.0300401822
0.0306153987 0.0306153987 0.0306153987
0.0311904550 0.0311904550 0.0311904550
0.0317650996 0.0317650996 0.0317650996
0.0323397145 0.0323397145 0.0323397145
0.0329139307 0.0329139307 0.0329139307
0.0334876925 0.0334876925 0.0334876925
0.0340611339 0.0340611339 0.0340611339
0.0346344151 0.0346344151 0.0346344151
0.0352070332 0.0352070332 0.0352070332
0.0357795246 0.0357795246 0.0357795246
0.0363514051 0.0363514051 0.0363514051
0.0369225368 0.0369225368 0.0369225368
0.0374935269 0.0374935269 0.0374935269
0.0380640924 0.0380640924 0.0380640924
0.0386337675 0.0386337675 0.0386337675
0.0392030291 0.0392030291 0.0392030291
0.0397718064 0.0397718064 0.0397718064
0.0403398462 0.0403398462 0.0403398462
0.0409074835 0.0409074835 0.0409074835
0.0414744802 0.0414744802 0.0414744802
0.0420408025 0.0420408025 0.0420408025
0.0426062122 0.0426062122 0.0426062122
0.0431711078 0.0431711078 0.0431711078
0.0437356941 0.0437356941 0.0437356941
0.0442989059 0.0442989059 0.0442989059
0.0448618196 0.0448618196 0.0448618196
0.0454242490 0.0454242490 0.0454242490
0.0459855460 0.0459855460 0.0459855460
0.0465464145 0.0465464145 0.0465464145
0.0471064374 0.0471064374 0.0471064374
0.0476658978 0.0476658978 0.0476658978
0.0482243784 0.0482243784 0.0482243784
0.0487821698 0.0487821698 0.0487821698
0.0493391044 0.0493391044 0.0493391044
0.0498952530 0.0498952530 0.0498952530
0.0504506938 0.0504506938 0.0504506938
0.0510055199 0.0510055199 0.0510055199
0.0515593216 0.0515593216 0.0515593216
0.0521121956 0.0521121956 0.0521121956
0.0526647568 0.0526647568 0.0526647568
0.0532158315 0.0532158315 0.0532158315
0.0537668280 0.0537668280 0.0537668280
0.0543163083 0.0543163083 0.0543163083
0.0548651777 0.0548651777 0.0548651777
0.0554135777 0.0554135777 0.0554135777
0.0559608452 0.0559608452 0.0559608452
0.0565071106 0.0565071106 0.0565071106
0.0570533574 0.0570533574 0.0570533574
0.0575978011 0.0575978011 0.0575978011
0.0581417084 0.0581417084 0.0581417084
0.0586849675 0.0586849675 0.0586849675
0.0592274666 0.0592274666 0.0592274666
0.0597688034 0.0597688034 0.0597688034
0.0603094436 0.0603094436 0.0603094436
0.0608489886 0.0608489886 0.0608489886
0.0613882132 0.0613882132 0.0613882132
0.0619258285 0.0619258285 0.0619258285
0.0624629185 0.0624629185 0.0624629185
0.0629990920 0.0629990920 0.0629990920
0.0635348558 0.0635348558 0.0635348558
0.0640695095 0.0640695095 0.0640695095
0.0646032616 0.0646032616 0.0646032616
0.0651357025 0.0651357025 0.0651357025
0.0656673536 0.0656673536 0.0656673536
0.0661991090 0.0661991090 0.0661991090
0.0667286292 0.0667286292 0.0667286292
0.0672587231 0.0672587231 0.0672587231
0.0677867159 0.0677867159 0.0677867159
0.0683148131 0.0683148131 0.0683148131
0.0688409507 0.0688409507 0.0688409507
0.0693670362 0.0693670362 0.0693670362
0.0698916614 0.0698916614 0.0698916614
0.0704160929 0.0704160929 0.0704160929
0.0709388927 0.0709388927 0.0709388927
0.0714610144 0.0714610144 0.0714610144
0.0719834268 0.0719834268 0.0719834268
0.0725039765 0.0725039765 0.0725039765
0.0730236247 0.0730236247 0.0730236247
0.0735430270 0.0735430270 0.0735430270
0.0740613937 0.0740613937 0.0740613937
0.0745779425 0.0745779425 0.0745779425
0.0750940293 0.0750940293 0.0750940293
0.0756103396 0.0756103396 0.0756103396
0.0761242434 0.0761242434 0.0761242434
0.0766378641 0.0766378641 0.0766378641
0.0771511719 0.0771511719 0.0771511719
0.0776637197 0.0776637197 0.0776637197
0.0781739429 0.0781739429 0.0781739429
0.0786847994 0.0786847994 0.0786847994
0.0791939571 0.0791939571 0.0791939571
0.0797032714 0.0797032714 0.0797032714
0.0802111477 0.0802111477 0.0802111477
0.0807179064 0.0807179064 0.0807179064
0.0812235028 0.0812235028 0.0812235028
0.0817298368 0.0817298368 0.0817298368
0.0822329074 0.0822329074 0.0822329074
0.0827366263 0.0827366263 0.0827366263
0.0832393616 0.0832393616 0.0832393616
0.0837410390 0.0837410390 0.0837410390
0.0842420310 0.0842420310 0.0842420310
0.0847418755 0.0847418755 0.0847418755
0.0852417499 0.0852417499 0.0852417499
0.0857395530 0.0857395530 0.0857395530
0.0862381309 0.0862381309 0.0862381309
0.0867345259 0.0867345259 0.0867345259
0.0872303620 0.0872303620 0.0872303620
0.0877251700 0.0877251700 0.0877251700
0.0882201791 0.0882201791 0.0882201791
0.0887136534 0.0887136534 0.0887136534
0.0892063901 0.0892063901 0.0892063901
0.0896983519 0.0896983519 0.0896983519
0.0901899338 0.0901899338 0.0901899338
0.0906793401 0.0906793401 0.0906793401
0.0911691636 0.0911691636 0.0911691636
0.0916576013 0.0916576013 0.0916576013
0.0921450481 0.0921450481 0.0921450481
0.0926314741 0.0926314741 0.0926314741
0.0931177214 0.0931177214 0.0931177214
0.0936033204 0.0936033204 0.0936033204
0.0940882266 0.0940882266 0.0940882266
0.0945719481 0.0945719481 0.0945719481
0.0950544477 0.0950544477 0.0950544477
0.0955379829 0.0955379829 0.0955379829
0.0960188359 0.0960188359 0.0960188359
0.0964992791 0.0964992791 0.0964992791
0.0969783366 0.0969783366 0.0969783366
0.0974569172 0.0974569172 0.0974569172
0.0979359299 0.0979359299 0.0979359299
0.0984129757 0.0984129757 0.0984129757
0.0988904089 0.0988904089 0.0988904089
0.0993657932 0.0993657932 0.0993657932
0.0998405442 0.0998405442 0.0998405442
0.1003151014 0.1003151014 0.1003151014
0.1007894427 0.1007894427 0.1007894427
0.1012611091 0.1012611091 0.1012611091
0.1017334759 0.1017334759 0.1017334759
0.1022045538 0.1022045538 0.1022045538
0.1026753038 0.1026753038 0.1026753038
0.1031446978 0.1031446978 0.1031446978
0.1036132127 0.1036132127 0.1036132127
0.1040818095 0.1040818095 0.1040818095
0.1045489609 0.1045489609 0.1045489609
0.1050151289 0.1050151289 0.1050151289
0.1054813191 0.1054813191 0.1054813191
0.1059454456 0.1059454456 0.1059454456
0.1064110771 0.1064110771 0.1064110771
0.1068740785 0.1068740785 0.1068740785
0.1073369980 0.1073369980 0.1073369980
0.1077987626 0.1077987626 0.1077987626
0.1082609221 0.1082609221 0.1082609221
0.1087208316 0.1087208316 0.1087208316
0.1091816202 0.1091816202 0.1091816202
0.1096395627 0.1096395627 0.1096395627
0.1100983396 0.1100983396 0.1100983396
0.1105558053 0.1105558053 0.1105558053
0.1110140681 0.1110140681 0.1110140681
0.1114704460 0.1114704460 0.1114704460
0.1119248867 0.1119248867 0.1119248867
0.1123789847 0.1123789847 0.1123789847
0.1128343567 0.1128343567 0.1128343567
0.1132866219 0.1132866219 0.1132866219
0.1137395799 0.1137395799 0.1137395799
0.1141910180 0.1141910180 0.1141910180
0.1146420091 0.1146420091 0.1146420091
0.1150936410 0.1150936410 0.1150936410
0.1155436859 0.1155436859 0.1155436859
0.1159926727 0.1159926727 0.1159926727
0.1164405644 0.1164405644 0.1164405644
0.1168873385 0.1168873385 0.1168873385
0.1173341125 0.1173341125 0.1173341125
0.1177808568 0.1177808568 0.1177808568
0.1182275787 0.1182275787 0.1182275787
0.1186713800 0.1186713800 0.1186713800
0.1191162542 0.1191162542 0.1191162542
0.1195598915 0.1195598915 0.1195598915
0.1200016811 0.1200016811 0.1200016811
0.1204439178 0.1204439178 0.1204439178
0.1208854318 0.1208854318 0.1208854318
0.1213256195 0.1213256195 0.1213256195
0.1217656210 0.1217656210 0.1217656210
0.1222048402 0.1222048402 0.1222048402
0.1226450354 0.1226450354 0.1226450354
0.1230820417 0.1230820417 0.1230820417
0.1235205829 0.1235205829 0.1235205829
0.1239564791 0.1239564791 0.1239564791
0.1243926957 0.1243926957 0.1243926957
0.1248274148 0.1248274148 0.1248274148
0.1252618283 0.1252618283 0.1252618283
0.1256965101 0.1256965101 0.1256965101
0.1261296421 0.1261296421 0.1261296421
0.1265630275 0.1265630275 0.1265630275
0.1269942075 0.1269942075 0.1269942075
0.1274243742 0.1274243742 0.1274243742
0.1278559864 0.1278559864 0.1278559864
0.1282859445 0.1282859445 0.1282859445
0.1287148446 0.1287148446 0.1287148446
0.1291439235 0.1291439235 0.1291439235
0.1295719147 0.1295719147 0.1295719147
0.1300000399 0.1300000399 0.1300000399
0.1304270625 0.1304270625 0.1304270625
0.1308529228 0.1308529228 0.1308529228
0.1312782764 0.1312782764 0.1312782764
0.1317024529 0.1317024529 0.1317024529
0.1321273446 0.1321273446 0.1321273446
0.1325503886 0.1325503886 0.1325503886
0.1329734921 0.1329734921 0.1329734921
0.1333959848 0.1333959848 0.1333959848
0.1338172406 0.1338172406 0.1338172406
0.1342391521 0.1342391521 0.1342391521
0.1346591413 0.1346591413 0.1346591413
0.1350784749 0.1350784749 0.1350784749
0.1354984343 0.1354984343 0.1354984343
0.1359164119 0.1359164119 0.1359164119
0.1363343447 0.1363343447 0.1363343447
0.1367522329 0.1367522329 0.1367522329
0.1371694058 0.1371694058 0.1371694058
0.1375851780 0.1375851780 0.1375851780
0.1380001903 0.1380001903 0.1380001903
0.1384151280 0.1384151280 0.1384151280
0.1388299316 0.1388299316 0.1388299316
0.1392433047 0.1392433047 0.1392433047
0.1396558583 0.1396558583 0.1396558583
0.1400689483 0.1400689483 0.1400689483
0.1404805332 0.1404805332 0.1404805332
0.1408926398 0.1408926398 0.1408926398
0.1413032115 0.1413032115 0.1413032115
0.1417129189 0.1417129189 0.1417129189
0.1421224326 0.1421224326 0.1421224326
0.1425317377 0.1425317377 0.1425317377
0.1429387629 0.1429387629 0.1429387629
0.1433476210 0.1433476210 0.1433476210
0.1437548846 0.1437548846 0.1437548846
0.1441604942 0.1441604942 0.1441604942
0.1445672363 0.1445672363 0.1445672363
0.1449723244 0.1449723244 0.1449723244
0.1453778297 0.1453778297 0.1453778297
0.1457823515 0.1457823515 0.1457823515
0.1461851597 0.1461851597 0.1461851597
0.1465883702 0.1465883702 0.1465883702
0.1469905525 0.1469905525 0.1469905525
0.1473924071 0.1473924071 0.1473924071
0.1477932036 0.1477932036 0.1477932036
0.1481943727 0.1481943727 0.1481943727
0.1485951841 0.1485951841 0.1485951841
0.1489949077 0.1489949077 0.1489949077
0.1493935436 0.1493935436 0.1493935436
0.1497925073 0.1497925073 0.1497925073
0.1501896232 0.1501896232 0.1501896232
0.1505877972 0.1505877972 0.1505877972
0.1509855390 0.1509855390 0.1509855390
0.1513806880 0.1513806880 0.1513806880
0.1517761201 0.1517761201 0.1517761201
0.1521718502 0.1521718502 0.1521718502
0.1525671184 0.1525671184 0.1525671184
0.1529611945 0.1529611945 0.1529611945
0.1533540636 0.1533540636 0.1533540636
0.1537472010 0.1537472010 0.1537472010
0.1541390866 0.1541390866 0.1541390866
0.1545312256 0.1545312256 0.1545312256
0.1549236029 0.1549236029 0.1549236029
0.1553139836 0.1553139836 0.1553139836
0.1557030678 0.1557030678 0.1557030678
0.1560931355 0.1560931355 0.1560931355
0.1564833969 0.1564833969 0.1564833969
0.1568716168 0.1568716168 0.1568716168
0.1572592705 0.1572592705 0.1572592705
0.1576463431 0.1576463431 0.1576463431
0.1580351293 0.1580351293 0.1580351293
0.1584210396 0.1584210396 0.1584210396
0.1588071287 0.1588071287 0.1588071287
0.1591926068 0.1591926068 0.1591926068
0.1595774740 0.1595774740 0.1595774740
0.1599617302 0.1599617302 0.1599617302
0.1603461206 0.1603461206 0.1603461206
0.1607298851 0.1607298851 0.1607298851
0.1611122191 0.1611122191 0.1611122191
0.1614954621 0.1614954621 0.1614954621
0.1618757099 0.1618757099 0.1618757099
0.1622568369 0.1622568369 0.1622568369
0.1626380682 0.1626380682 0.1626380682
0.1630186141 0.1630186141 0.1630186141
0.1633984745 0.1633984745 0.1633984745
0.1637784243 0.1637784243 0.1637784243
0.1641568691 0.1641568691 0.1641568691
0.1645353884 0.1645353884 0.1645353884
0.1649123877 0.1649123877 0.1649123877
0.1652894467 0.1652894467 0.1652894467
0.1656657755 0.1656657755 0.1656657755
0.1660429388 0.1660429388 0.1660429388
0.1664185524 0.1664185524 0.1664185524
0.1667941958 0.1667941958 0.1667941958
0.1671690792 0.1671690792 0.1671690792
0.1675431728 0.1675431728 0.1675431728
0.1679164916 0.1679164916 0.1679164916
0.1682898104 0.1682898104 0.1682898104
0.1686631441 0.1686631441 0.1686631441
0.1690348685 0.1690348685 0.1690348685
0.1694073826 0.1694073826 0.1694073826
0.1697782725 0.1697782725 0.1697782725
0.1701483279 0.1701483279 0.1701483279
0.1705208123 0.1705208123 0.1705208123
0.1708899885 0.1708899885 0.1708899885
0.1712583303 0.1712583303 0.1712583303
0.1716274321 0.1716274321 0.1716274321
0.1719956845 0.1719956845 0.1719956845
0.1723638773 0.1723638773 0.1723638773
0.1727311909 0.1727311909 0.1727311909
0.1730984449 0.1730984449 0.1730984449
0.1734648049 0.1734648049 0.1734648049
0.1738310903 0.1738310903 0.1738310903
0.1741964817 0.1741964817 0.1741964817
0.1745617688 0.1745617688 0.1745617688
0.1749261469 0.1749261469 0.1749261469
0.1752904356 0.1752904356 0.1752904356
0.1756537706 0.1756537706 0.1756537706
0.1760178655 0.1760178655 0.1760178655
0.1763810068 0.1763810068 0.1763810068
0.1767431796 0.1767431796 0.1767431796
0.1771043986 0.1771043986 0.1771043986
0.1774663329 0.1774663329 0.1774663329
0.1778272986 0.1778272986 0.1778272986
0.1781881303 0.1781881303 0.1781881303
0.1785479784 0.1785479784 0.1785479784
0.1789068133 0.1789068133 0.1789068133
0.1792663634 0.1792663634 0.1792663634
0.1796240360 0.1796240360 0.1796240360
0.1799824238 0.1799824238 0.1799824238
0.1803397685 0.1803397685 0.1803397685
0.1806978285 0.1806978285 0.1806978285
0.1810539812 0.1810539812 0.1810539812
0.1814108193 0.1814108193 0.1814108193
0.1817666143 0.1817666143 0.1817666143
0.1821222156 0.1821222156 0.1821222156
0.1824776232 0.1824776232 0.1824776232
0.1828310937 0.1828310937 0.1828310937
0.1831861138 0.1831861138 0.1831861138
0.1835400462 0.1835400462 0.1835400462
0.1838937849 0.1838937849 0.1838937849
0.1842455417 0.1842455417 0.1842455417
0.1845988333 0.1845988333 0.1845988333
0.1849501431 0.1849501431 0.1849501431
0.1853030026 0.1853030026 0.1853030026
0.1856538504 0.1856538504 0.1856538504
0.1860044599 0.1860044599 0.1860044599
0.1863548309 0.1863548309 0.1863548309
0.1867049485 0.1867049485 0.1867049485
0.1870539188 0.1870539188 0.1870539188
0.1874035448 0.1874035448 0.1874035448
0.1877520084 0.1877520084 0.1877520084
0.1880993098 0.1880993098 0.1880993098
0.1884463429 0.1884463429 0.1884463429
0.1887940019 0.1887940019 0.1887940019
0.1891404688 0.1891404688 0.1891404688
0.1894866675 0.1894866675 0.1894866675
0.1898325831 0.1898325831 0.1898325831
0.1901782006 0.1901782006 0.1901782006
0.1905244440 0.1905244440 0.1905244440
0.1908694804 0.1908694804 0.1908694804
0.1912123710 0.1912123710 0.1912123710
0.1915577203 0.1915577203 0.1915577203
0.1918999851 0.1918999851 0.1918999851
0.1922428757 0.1922428757 0.1922428757
0.1925854236 0.1925854236 0.1925854236
0.1929276735 0.1929276735 0.1929276735
0.1932705045 0.1932705045 0.1932705045
0.1936120838 0.1936120838 0.1936120838
0.1939533353 0.1939533353 0.1939533353
0.1942923665 0.1942923665 0.1942923665
0.1946329325 0.1946329325 0.1946329325
0.1949722171 0.1949722171 0.1949722171
0.1953130215 0.1953130215 0.1953130215
0.1956515908 0.1956515908 0.1956515908
0.1959907413 0.1959907413 0.1959907413
0.1963276565 0.1963276565 0.1963276565
0.1966641843 0.1966641843 0.1966641843
0.1970022321 0.1970022321 0.1970022321
0.1973399222 0.1973399222 0.1973399222
0.1976762712 0.1976762712 0.1976762712
0.1980122328 0.1980122328 0.1980122328
0.1983478218 0.1983478218 0.1983478218
0.1986839622 0.1986839622 0.1986839622
0.1990197152 0.1990197152 0.1990197152
0.1993531585 0.1993531585 0.1993531585
0.1996881068 0.1996881068 0.1996881068
0.2000207305 0.2000207305 0.2000207305
0.2003548741 0.2003548741 0.2003548741
0.2006876320 0.2006876320 0.2006876320
0.2010209411 0.2010209411 0.2010209411
0.2013528645 0.2013528645 0.2013528645
0.2016853243 0.2016853243 0.2016853243
0.2020154297 0.2020154297 0.2020154297
0.2023480088 0.2023480088 0.2023480088
0.2026772350 0.2026772350 0.2026772350
0.2030079663 0.2030079663 0.2030079663
0.2033372670 0.2033372670 0.2033372670
0.2036680877 0.2036680877 0.2036680877
0.2039964944 0.2039964944 0.2039964944
0.2043254375 0.2043254375 0.2043254375
0.2046539187 0.2046539187 0.2046539187
0.2049819380 0.2049819380 0.2049819380
0.2053094804 0.2053094804 0.2053094804
0.2056375444 0.2056375444 0.2056375444
0.2059631795 0.2059631795 0.2059631795
0.2062902898 0.2062902898 0.2062902898
0.2066169381 0.2066169381 0.2066169381
0.2069421113 0.2069421113 0.2069421113
0.2072677910 0.2072677910 0.2072677910
0.2075919807 0.2075919807 0.2075919807
0.2079166621 0.2079166621 0.2079166621
0.2082408667 0.2082408667 0.2082408667
0.2085655481 0.2085655481 0.2085655481
0.2088897526 0.2088897526 0.2088897526
0.2092114240 0.2092114240 0.2092114240
0.2095346004 0.2095346004 0.2095346004
0.2098582685 0.2098582685 0.2098582685
0.2101794034 0.2101794034 0.2101794034
0.2105010301 0.2105010301 0.2105010301
0.2108221352 0.2108221352 0.2108221352
0.2111437172 0.2111437172 0.2111437172
0.2114637494 0.2114637494 0.2114637494
0.2117842734 0.2117842734 0.2117842734
0.2121042460 0.2121042460 0.2121042460
0.2124247104 0.2124247104 0.2124247104
0.2127436101 0.2127436101 0.2127436101
0.2130629867 0.2130629867 0.2130629867
0.2133807838 0.2133807838 0.2133807838
0.2136980146 0.2136980146 0.2136980146
0.2140157223 0.2140157223 0.2140157223
0.2143349349 0.2143349349 0.2143349349
0.2146515101 0.2146515101 0.2146515101
0.2149685621 0.2149685621 0.2149685621
0.2152840048 0.2152840048 0.2152840048
0.2155999094 0.2155999094 0.2155999094
0.2159162760 0.2159162760 0.2159162760
0.2162320614 0.2162320614 0.2162320614
0.2165462226 0.2165462226 0.2165462226
0.2168608457 0.2168608457 0.2168608457
0.2171759009 0.2171759009 0.2171759009
0.2174893320 0.2174893320 0.2174893320
0.2178032249 0.2178032249 0.2178032249
0.2181165069 0.2181165069 0.2181165069
0.2184291780 0.2184291780 0.2184291780
0.2187423110 0.2187423110 0.2187423110
0.2190548182 0.2190548182 0.2190548182
0.2193656862 0.2193656862 0.2193656862
0.2196780294 0.2196780294 0.2196780294
0.2199887037 0.2199887037 0.2199887037
0.2202998102 0.2202998102 0.2202998102
0.2206092477 0.2206092477 0.2206092477
0.2209201604 0.2209201604 0.2209201604
0.2212304473 0.2212304473 0.2212304473
0.2215390503 0.2215390503 0.2215390503
0.2218491286 0.2218491286 0.2218491286
0.2221575230 0.2221575230 0.2221575230
0.2224663347 0.2224663347 0.2224663347
0.2227755636 0.2227755636 0.2227755636
0.2230820209 0.2230820209 0.2230820209
0.2233899534 0.2233899534 0.2233899534
0.2236972451 0.2236972451 0.2236972451
0.2240038663 0.2240038663 0.2240038663
0.2243109196 0.2243109196 0.2243109196
0.2246173024 0.2246173024 0.2246173024
0.2249230295 0.2249230295 0.2249230295
0.2252280861 0.2252280861 0.2252280861
0.2255335450 0.2255335450 0.2255335450
0.2258383334 0.2258383334 0.2258383334
0.2261435241 0.2261435241 0.2261435241
0.2264469564 0.2264469564 0.2264469564
0.2267518789 0.2267518789 0.2267518789
0.2270561308 0.2270561308 0.2270561308
0.2273585945 0.2273585945 0.2273585945
0.2276614606 0.2276614606 0.2276614606
0.2279636264 0.2279636264 0.2279636264
0.2282651067 0.2282651067 0.2282651067
0.2285680622 0.2285680622 0.2285680622
0.2288703322 0.2288703322 0.2288703322
0.2291718870 0.2291718870 0.2291718870
0.2294716388 0.2294716388 0.2294716388
0.2297728807 0.2297728807 0.2297728807
0.2300734222 0.2300734222 0.2300734222
0.2303743362 0.2303743362 0.2303743362
0.2306745350 0.2306745350 0.2306745350
0.2309729159 0.2309729159 0.2309729159
0.2312716842 0.2312716842 0.2312716842
0.2315719277 0.2315719277 0.2315719277
0.2318692356 0.2318692356 0.2318692356
0.2321680188 0.2321680188 0.2321680188
0.2324660867 0.2324660867 0.2324660867
0.2327634096 0.2327634096 0.2327634096
0.2330611050 0.2330611050 0.2330611050
0.2333569527 0.2333569527 0.2333569527
0.2336553931 0.2336553931 0.2336553931
0.2339519858 0.2339519858 0.2339519858
0.2342478186 0.2342478186 0.2342478186
0.2345428914 0.2345428914 0.2345428914
0.2348372191 0.2348372191 0.2348372191
0.2351330370 0.2351330370 0.2351330370
0.2354280949 0.2354280949 0.2354280949
0.2357235104 0.2357235104 0.2357235104
0.2360170484 0.2360170484 0.2360170484
0.2363109291 0.2363109291 0.2363109291
0.2366051823 0.2366051823 0.2366051823
0.2368986607 0.2368986607 0.2368986607
0.2371902317 0.2371902317 0.2371902317
0.2374832928 0.2374832928 0.2374832928
0.2377767116 0.2377767116 0.2377767116
0.2380693406 0.2380693406 0.2380693406
0.2383600473 0.2383600473 0.2383600473
0.2386522591 0.2386522591 0.2386522591
0.2389425188 0.2389425188 0.2389425188
0.2392331362 0.2392331362 0.2392331362
0.2395252436 0.2395252436 0.2395252436
0.2398154140 0.2398154140 0.2398154140
0.2401047796 0.2401047796 0.2401047796
0.2403967977 0.2403967977 0.2403967977
0.2406845540 0.2406845540 0.2406845540
0.2409738004 0.2409738004 0.2409738004
0.2412633896 0.2412633896 0.2412633896
0.2415521741 0.2415521741 0.2415521741
0.2418389767 0.2418389767 0.2418389767
0.2421284467 0.2421284467 0.2421284467
0.2424159199 0.2424159199 0.2424159199
0.2427037507 0.2427037507 0.2427037507
0.2429907322 0.2429907322 0.2429907322
0.2432780713 0.2432780713 0.2432780713
0.2435645610 0.2435645610 0.2435645610
0.2438502312 0.2438502312 0.2438502312
0.2441374063 0.2441374063 0.2441374063
0.2444213927 0.2444213927 0.2444213927
0.2447068840 0.2447068840 0.2447068840
0.2449938655 0.2449938655 0.2449938655
0.2452788353 0.2452788353 0.2452788353
0.2455629706 0.2455629706 0.2455629706
0.2458462417 0.2458462417 0.2458462417
0.2461298406 0.2461298406 0.2461298406
0.2464149445 0.2464149445 0.2464149445
0.2466991842 0.2466991842 0.2466991842
0.2469813973 0.2469813973 0.2469813973
0.2472651005 0.2472651005 0.2472651005
0.2475479543 0.2475479543 0.2475479543
0.2478299290 0.2478299290 0.2478299290
0.2481122315 0.2481122315 0.2481122315
0.2483936548 0.2483936548 0.2483936548
0.2486753911 0.2486753911 0.2486753911
0.2489562631 0.2489562631 0.2489562631
0.2492386252 0.2492386252 0.2492386252
0.2495189309 0.2495189309 0.2495189309
0.2497995496 0.2497995496 0.2497995496
0.2500780821 0.2500780821 0.2500780821
0.2503592968 0.2503592968 0.2503592968
0.2506372631 0.2506372631 0.2506372631
