HDR ST 2084/Gamma 2.6 to HDR 500 nits.cube
# DaVinci Resolve Cube (1D shaper LUT).

LUT_1D_SIZE 4096
LUT_1D_INPUT_RANGE 0.0000000000 2.3816600998

0.0000007310 0.0000007310 0.0000007310
0.0000530098 0.0000530098 0.0000530098
0.0001334567 0.0001334567 0.0001334567
0.0002383321 0.0002383321 0.0002383321
0.0003645482 0.0003645482 0.0003645482
0.0005098598 0.0005098598 0.0005098598
0.0006724846 0.0006724846 0.0006724846
0.0008509591 0.0008509591 0.0008509591
0.0010440488 0.0010440488 0.0010440488
0.0012506591 0.0012506591 0.0012506591
0.0014698597 0.0014698597 0.0014698597
0.0017008014 0.0017008014 0.0017008014
0.0019427367 0.0019427367 0.0019427367
0.0021949762 0.0021949762 0.0021949762
0.0024569298 0.0024569298 0.0024569298
0.0027279807 0.0027279807 0.0027279807
0.0030076902 0.0030076902 0.0030076902
0.0032955201 0.0032955201 0.0032955201
0.0035911035 0.0035911035 0.0035911035
0.0038939393 0.0038939393 0.0038939393
0.0042036921 0.0042036921 0.0042036921
0.0045200163 0.0045200163 0.0045200163
0.0048426231 0.0048426231 0.0048426231
0.0051712370 0.0051712370 0.0051712370
0.0055054631 0.0055054631 0.0055054631
0.0058450280 0.0058450280 0.0058450280
0.0061898469 0.0061898469 0.0061898469
0.0065395185 0.0065395185 0.0065395185
0.0068938243 0.0068938243 0.0068938243
0.0072527248 0.0072527248 0.0072527248
0.0076157320 0.0076157320 0.0076157320
0.0079829339 0.0079829339 0.0079829339
0.0083540371 0.0083540371 0.0083540371
0.0087288665 0.0087288665 0.0087288665
0.0091072442 0.0091072442 0.0091072442
0.0094891191 0.0094891191 0.0094891191
0.0098742908 0.0098742908 0.0098742908
0.0102624623 0.0102624623 0.0102624623
0.0106538069 0.0106538069 0.0106538069
0.0110478867 0.0110478867 0.0110478867
0.0114448490 0.0114448490 0.0114448490
0.0118443985 0.0118443985 0.0118443985
0.0122465724 0.0122465724 0.0122465724
0.0126510318 0.0126510318 0.0126510318
0.0130580375 0.0130580375 0.0130580375
0.0134671321 0.0134671321 0.0134671321
0.0138784060 0.0138784060 0.0138784060
0.0142918658 0.0142918658 0.0142918658
0.0147071239 0.0147071239 0.0147071239
0.0151243927 0.0151243927 0.0151243927
0.0155435633 0.0155435633 0.0155435633
0.0159643125 0.0159643125 0.0159643125
0.0163867287 0.0163867287 0.0163867287
0.0168107692 0.0168107692 0.0168107692
0.0172365140 0.0172365140 0.0172365140
0.0176636372 0.0176636372 0.0176636372
0.0180921685 0.0180921685 0.0180921685
0.0185222626 0.0185222626 0.0185222626
0.0189533588 0.0189533588 0.0189533588
0.0193858333 0.0193858333 0.0193858333
0.0198194310 0.0198194310 0.0198194310
0.0202542003 0.0202542003 0.0202542003
0.0206901077 0.0206901077 0.0206901077
0.0211271401 0.0211271401 0.0211271401
0.0215650909 0.0215650909 0.0215650909
0.0220040791 0.0220040791 0.0220040791
0.0224438068 0.0224438068 0.0224438068
0.0228845328 0.0228845328 0.0228845328
0.0233260989 0.0233260989 0.0233260989
0.0237683449 0.0237683449 0.0237683449
0.0242114700 0.0242114700 0.0242114700
0.0246553402 0.0246553402 0.0246553402
0.0250998251 0.0250998251 0.0250998251
0.0255450513 0.0255450513 0.0255450513
0.0259909090 0.0259909090 0.0259909090
0.0264371596 0.0264371596 0.0264371596
0.0268842280 0.0268842280 0.0268842280
0.0273317657 0.0273317657 0.0273317657
0.0277798269 0.0277798269 0.0277798269
0.0282283369 0.0282283369 0.0282283369
0.0286773685 0.0286773685 0.0286773685
0.0291267205 0.0291267205 0.0291267205
0.0295763370 0.0295763370 0.0295763370
0.0300266072 0.0300266072 0.0300266072
0.0304770563 0.0304770563 0.0304770563
0.0309277978 0.0309277978 0.0309277978
0.0313791074 0.0313791074 0.0313791074
0.0318303555 0.0318303555 0.0318303555
0.0322821438 0.0322821438 0.0322821438
0.0327341594 0.0327341594 0.0327341594
0.0331863947 0.0331863947 0.0331863947
0.0336388573 0.0336388573 0.0336388573
0.0340913869 0.0340913869 0.0340913869
0.0345439985 0.0345439985 0.0345439985
0.0349970497 0.0349970497 0.0349970497
0.0354500562 0.0354500562 0.0354500562
0.0359032154 0.0359032154 0.0359032154
0.0363565721 0.0363565721 0.0363565721
0.0368099883 0.0368099883 0.0368099883
0.0372633263 0.0372633263 0.0372633263
0.0377169997 0.0377169997 0.0377169997
0.0381703302 0.0381703302 0.0381703302
0.0386243090 0.0386243090 0.0386243090
0.0390776843 0.0390776843 0.0390776843
0.0395312831 0.0395312831 0.0395312831
0.0399847962 0.0399847962 0.0399847962
0.0404384919 0.0404384919 0.0404384919
0.0408920683 0.0408920683 0.0408920683
0.0413456112 0.0413456112 0.0413456112
0.0417990051 0.0417990051 0.0417990051
0.0422523469 0.0422523469 0.0422523469
0.0427057371 0.0427057371 0.0427057371
0.0431590751 0.0431590751 0.0431590751
0.0436120443 0.0436120443 0.0436120443
0.0440651812 0.0440651812 0.0440651812
0.0445181802 0.0445181802 0.0445181802
0.0449707210 0.0449707210 0.0449707210
0.0454235822 0.0454235822 0.0454235822
0.0458760150 0.0458760150 0.0458760150
0.0463285930 0.0463285930 0.0463285930
0.0467805527 0.0467805527 0.0467805527
0.0472324789 0.0472324789 0.0472324789
0.0476845242 0.0476845242 0.0476845242
0.0481361374 0.0481361374 0.0481361374
0.0485877059 0.0485877059 0.0485877059
0.0490389019 0.0490389019 0.0490389019
0.0494901277 0.0494901277 0.0494901277
0.0499408208 0.0499408208 0.0499408208
0.0503916293 0.0503916293 0.0503916293
0.0508419909 0.0508419909 0.0508419909
0.0512920693 0.0512920693 0.0512920693
0.0517422929 0.0517422929 0.0517422929
0.0521920919 0.0521920919 0.0521920919
0.0526413806 0.0526413806 0.0526413806
0.0530906059 0.0530906059 0.0530906059
0.0535396971 0.0535396971 0.0535396971
0.0539885908 0.0539885908 0.0539885908
0.0544366874 0.0544366874 0.0544366874
0.0548849776 0.0548849776 0.0548849776
0.0553325936 0.0553325936 0.0553325936
0.0557802804 0.0557802804 0.0557802804
0.0562277026 0.0562277026 0.0562277026
0.0566748045 0.0566748045 0.0566748045
0.0571215153 0.0571215153 0.0571215153
0.0575672165 0.0575672165 0.0575672165
0.0580138080 0.0580138080 0.0580138080
0.0584595427 0.0584595427 0.0584595427
0.0589049347 0.0589049347 0.0589049347
0.0593499132 0.0593499132 0.0593499132
0.0597947165 0.0597947165 0.0597947165
0.0602392927 0.0602392927 0.0602392927
0.0606832877 0.0606832877 0.0606832877
0.0611272417 0.0611272417 0.0611272417
0.0615708008 0.0615708008 0.0615708008
0.0620139167 0.0620139167 0.0620139167
0.0624562316 0.0624562316 0.0624562316
0.0628989041 0.0628989041 0.0628989041
0.0633409694 0.0633409694 0.0633409694
0.0637830049 0.0637830049 0.0637830049
0.0642243326 0.0642243326 0.0642243326
0.0646655336 0.0646655336 0.0646655336
0.0651056021 0.0651056021 0.0651056021
0.0655463934 0.0655463934 0.0655463934
0.0659856424 0.0659856424 0.0659856424
0.0664255396 0.0664255396 0.0664255396
0.0668644235 0.0668644235 0.0668644235
0.0673038736 0.0673038736 0.0673038736
0.0677422285 0.0677422285 0.0677422285
0.0681804195 0.0681804195 0.0681804195
0.0686180741 0.0686180741 0.0686180741
0.0690548047 0.0690548047 0.0690548047
0.0694919154 0.0694919154 0.0694919154
0.0699283630 0.0699283630 0.0699283630
0.0703647733 0.0703647733 0.0703647733
0.0708004385 0.0708004385 0.0708004385
0.0712359920 0.0712359920 0.0712359920
0.0716703609 0.0716703609 0.0716703609
0.0721055940 0.0721055940 0.0721055940
0.0725385025 0.0725385025 0.0725385025
0.0729732662 0.0729732662 0.0729732662
0.0734059736 0.0734059736 0.0734059736
0.0738386959 0.0738386959 0.0738386959
0.0742717758 0.0742717758 0.0742717758
0.0747044533 0.0747044533 0.0747044533
0.0751352459 0.0751352459 0.0751352459
0.0755673945 0.0755673945 0.0755673945
0.0759971961 0.0759971961 0.0759971961
0.0764271840 0.0764271840 0.0764271840
0.0768584535 0.0768584535 0.0768584535
0.0772880018 0.0772880018 0.0772880018
0.0777172744 0.0777172744 0.0777172744
0.0781462491 0.0781462491 0.0781462491
0.0785737485 0.0785737485 0.0785737485
0.0790024027 0.0790024027 0.0790024027
0.0794298947 0.0794298947 0.0794298947
0.0798573494 0.0798573494 0.0798573494
0.0802835673 0.0802835673 0.0802835673
0.0807100758 0.0807100758 0.0807100758
0.0811364576 0.0811364576 0.0811364576
0.0815611109 0.0815611109 0.0815611109
0.0819867551 0.0819867551 0.0819867551
0.0824114010 0.0824114010 0.0824114010
0.0828354061 0.0828354061 0.0828354061
0.0832595453 0.0832595453 0.0832595453
0.0836825818 0.0836825818 0.0836825818
0.0841052905 0.0841052905 0.0841052905
0.0845276490 0.0845276490 0.0845276490
0.0849500448 0.0849500448 0.0849500448
0.0853720382 0.0853720382 0.0853720382
0.0857936069 0.0857936069 0.0857936069
0.0862134695 0.0862134695 0.0862134695
0.0866345167 0.0866345167 0.0866345167
0.0870542228 0.0870542228 0.0870542228
0.0874733925 0.0874733925 0.0874733925
0.0878928527 0.0878928527 0.0878928527
0.0883117244 0.0883117244 0.0883117244
0.0887299925 0.0887299925 0.0887299925
0.0891467556 0.0891467556 0.0891467556
0.0895645842 0.0895645842 0.0895645842
0.0899821669 0.0899821669 0.0899821669
0.0903986096 0.0903986096 0.0903986096
0.0908134282 0.0908134282 0.0908134282
0.0912296847 0.0912296847 0.0912296847
0.0916442797 0.0916442797 0.0916442797
0.0920602828 0.0920602828 0.0920602828
0.0924741253 0.0924741253 0.0924741253
0.0928880051 0.0928880051 0.0928880051
0.0933009982 0.0933009982 0.0933009982
0.0937153473 0.0937153473 0.0937153473
0.0941269621 0.0941269621 0.0941269621
0.0945403576 0.0945403576 0.0945403576
0.0949518681 0.0949518681 0.0949518681
0.0953628346 0.0953628346 0.0953628346
0.0957737118 0.0957737118 0.0957737118
0.0961835384 0.0961835384 0.0961835384
0.0965941548 0.0965941548 0.0965941548
0.0970032215 0.0970032215 0.0970032215
0.0974125862 0.0974125862 0.0974125862
0.0978212804 0.0978212804 0.0978212804
0.0982288271 0.0982288271 0.0982288271
0.0986366048 0.0986366048 0.0986366048
0.0990446284 0.0990446284 0.0990446284
0.0994518995 0.0994518995 0.0994518995
0.0998593867 0.0998593867 0.0998593867
0.1002646312 0.1002646312 0.1002646312
0.1006700397 0.1006700397 0.1006700397
0.1010751128 0.1010751128 0.1010751128
0.1014808193 0.1014808193 0.1014808193
0.1018851697 0.1018851697 0.1018851697
0.1022891328 0.1022891328 0.1022891328
0.1026931852 0.1026931852 0.1026931852
0.1030953228 0.1030953228 0.1030953228
0.1034975126 0.1034975126 0.1034975126
0.1039002463 0.1039002463 0.1039002463
0.1043020114 0.1043020114 0.1043020114
0.1047032773 0.1047032773 0.1047032773
0.1051040366 0.1051040366 0.1051040366
0.1055058017 0.1055058017 0.1055058017
0.1059054956 0.1059054956 0.1059054956
0.1063056588 0.1063056588 0.1063056588
0.1067047343 0.1067047343 0.1067047343
0.1071032211 0.1071032211 0.1071032211
0.1075016111 0.1075016111 0.1075016111
0.1078999043 0.1078999043 0.1078999043
0.1082975641 0.1082975641 0.1082975641
0.1086940318 0.1086940318 0.1086940318
0.1090914160 0.1090914160 0.1090914160
0.1094870567 0.1094870567 0.1094870567
0.1098830476 0.1098830476 0.1098830476
0.1102777943 0.1102777943 0.1102777943
0.1106739342 0.1106739342 0.1106739342
0.1110693365 0.1110693365 0.1110693365
0.1114623621 0.1114623621 0.1114623621
0.1118556857 0.1118556857 0.1118556857
0.1122498289 0.1122498289 0.1122498289
0.1126420796 0.1126420796 0.1126420796
0.1130351424 0.1130351424 0.1130351424
0.1134273633 0.1134273633 0.1134273633
0.1138181761 0.1138181761 0.1138181761
0.1142103225 0.1142103225 0.1142103225
0.1146010384 0.1146010384 0.1146010384
0.1149913967 0.1149913967 0.1149913967
0.1153819636 0.1153819636 0.1153819636
0.1157721579 0.1157721579 0.1157721579
0.1161602885 0.1161602885 0.1161602885
0.1165497079 0.1165497079 0.1165497079
0.1169370189 0.1169370189 0.1169370189
0.1173244789 0.1173244789 0.1173244789
0.1177126318 0.1177126318 0.1177126318
0.1180997714 0.1180997714 0.1180997714
0.1184864491 0.1184864491 0.1184864491
0.1188726649 0.1188726649 0.1188726649
0.1192583889 0.1192583889 0.1192583889
0.1196430400 0.1196430400 0.1196430400
0.1200289130 0.1200289130 0.1200289130
0.1204125285 0.1204125285 0.1204125285
0.1207973510 0.1207973510 0.1207973510
0.1211816370 0.1211816370 0.1211816370
0.1215642020 0.1215642020 0.1215642020
0.1219479516 0.1219479516 0.1219479516
0.1223287657 0.1223287657 0.1223287657
0.1227125302 0.1227125302 0.1227125302
0.1230933219 0.1230933219 0.1230933219
0.1234746948 0.1234746948 0.1234746948
0.1238560304 0.1238560304 0.1238560304
0.1242355332 0.1242355332 0.1242355332
0.1246167868 0.1246167868 0.1246167868
0.1249961779 0.1249961779 0.1249961779
0.1253761053 0.1253761053 0.1253761053
0.1257547438 0.1257547438 0.1257547438
0.1261332929 0.1261332929 0.1261332929
0.1265111417 0.1265111417 0.1265111417
0.1268882602 0.1268882602 0.1268882602
0.1272652745 0.1272652745 0.1272652745
0.1276427805 0.1276427805 0.1276427805
0.1280189157 0.1280189157 0.1280189157
0.1283961385 0.1283961385 0.1283961385
0.1287713647 0.1287713647 0.1287713647
0.1291457862 0.1291457862 0.1291457862
0.1295200586 0.1295200586 0.1295200586
0.1298953891 0.1298953891 0.1298953891
0.1302692741 0.1302692741 0.1302692741
0.1306436062 0.1306436062 0.1306436062
0.1310158223 0.1310158223 0.1310158223
0.1313891113 0.1313891113 0.1313891113
0.1317627877 0.1317627877 0.1317627877
0.1321337074 0.1321337074 0.1321337074
0.1325062960 0.1325062960 0.1325062960
0.1328767091 0.1328767091 0.1328767091
0.1332481503 0.1332481503 0.1332481503
0.1336186975 0.1336186975 0.1336186975
0.1339889467 0.1339889467 0.1339889467
0.1343582869 0.1343582869 0.1343582869
0.1347286105 0.1347286105 0.1347286105
0.1350966990 0.1350966990 0.1350966990
0.1354657859 0.1354657859 0.1354657859
0.1358345449 0.1358345449 0.1358345449
0.1362016797 0.1362016797 0.1362016797
0.1365691274 0.1365691274 0.1365691274
0.1369362473 0.1369362473 0.1369362473
0.1373016834 0.1373016834 0.1373016834
0.1376687437 0.1376687437 0.1376687437
0.1380347759 0.1380347759 0.1380347759
0.1384011209 0.1384011209 0.1384011209
0.1387657374 0.1387657374 0.1387657374
0.1391306221 0.1391306221 0.1391306221
0.1394951195 0.1394951195 0.1394951195
0.1398585439 0.1398585439 0.1398585439
0.1402222216 0.1402222216 0.1402222216
0.1405847967 0.1405847967 0.1405847967
0.1409476250 0.1409476250 0.1409476250
0.1413107067 0.1413107067 0.1413107067
0.1416726410 0.1416726410 0.1416726410
0.1420348287 0.1420348287 0.1420348287
0.1423965394 0.1423965394 0.1423965394
0.1427571028 0.1427571028 0.1427571028
0.1431178898 0.1431178898 0.1431178898
0.1434781849 0.1434781849 0.1434781849
0.1438379884 0.1438379884 0.1438379884
0.1441973001 0.1441973001 0.1441973001
0.1445554048 0.1445554048 0.1445554048
0.1449143887 0.1449143887 0.1449143887
0.1452735513 0.1452735513 0.1452735513
0.1456307918 0.1456307918 0.1456307918
0.1459895968 0.1459895968 0.1459895968
0.1463457495 0.1463457495 0.1463457495
0.1467034668 0.1467034668 0.1467034668
0.1470592320 0.1470592320 0.1470592320
0.1474144161 0.1474144161 0.1474144161
0.1477711499 0.1477711499 0.1477711499
0.1481259018 0.1481259018 0.1481259018
0.1484807581 0.1484807581 0.1484807581
0.1488364637 0.1488364637 0.1488364637
0.1491894275 0.1491894275 0.1491894275
0.1495446563 0.1495446563 0.1495446563
0.1498978287 0.1498978287 0.1498978287
0.1502510905 0.1502510905 0.1502510905
0.1506044716 0.1506044716 0.1506044716
0.1509571970 0.1509571970 0.1509571970
0.1513078362 0.1513078362 0.1513078362
0.1516607404 0.1516607404 0.1516607404
0.1520122737 0.1520122737 0.1520122737
0.1523623914 0.1523623914 0.1523623914
0.1527133137 0.1527133137 0.1527133137
0.1530635655 0.1530635655 0.1530635655
0.1534138620 0.1534138620 0.1534138620
0.1537634730 0.1537634730 0.1537634730
0.1541123837 0.1541123837 0.1541123837
0.1544613391 0.1544613391 0.1544613391
0.1548103392 0.1548103392 0.1548103392
0.1551578641 0.1551578641 0.1551578641
0.1555061638 0.1555061638 0.1555061638
0.1558544785 0.1558544785 0.1558544785
0.1561998129 0.1561998129 0.1561998129
0.1565474123 0.1565474123 0.1565474123
0.1568942517 0.1568942517 0.1568942517
0.1572388411 0.1572388411 0.1572388411
0.1575849205 0.1575849205 0.1575849205
0.1579310000 0.1579310000 0.1579310000
0.1582747847 0.1582747847 0.1582747847
0.1586200744 0.1586200744 0.1586200744
0.1589645743 0.1589645743 0.1589645743
0.1593090445 0.1593090445 0.1593090445
0.1596527249 0.1596527249 0.1596527249
0.1599948257 0.1599948257 0.1599948257
0.1603391767 0.1603391767 0.1603391767
0.1606811881 0.1606811881 0.1606811881
0.1610239148 0.1610239148 0.1610239148
0.1613650322 0.1613650322 0.1613650322
0.1617068499 0.1617068499 0.1617068499
0.1620478481 0.1620478481 0.1620478481
0.1623895466 0.1623895466 0.1623895466
0.1627303809 0.1627303809 0.1627303809
0.1630703658 0.1630703658 0.1630703658
0.1634094715 0.1634094715 0.1634094715
0.1637484878 0.1637484878 0.1637484878
0.1640882045 0.1640882045 0.1640882045
0.1644278318 0.1644278318 0.1644278318
0.1647657603 0.1647657603 0.1647657603
0.1651035845 0.1651035845 0.1651035845
0.1654413044 0.1654413044 0.1654413044
0.1657789052 0.1657789052 0.1657789052
0.1661163867 0.1661163867 0.1661163867
0.1664537489 0.1664537489 0.1664537489
0.1667893827 0.1667893827 0.1667893827
0.1671264917 0.1671264917 0.1671264917
0.1674618572 0.1674618572 0.1674618572
0.1677970737 0.1677970737 0.1677970737
0.1681321412 0.1681321412 0.1681321412
0.1684662551 0.1684662551 0.1684662551
0.1688010246 0.1688010246 0.1688010246
0.1691356450 0.1691356450 0.1691356450
0.1694701016 0.1694701016 0.1694701016
0.1698027551 0.1698027551 0.1698027551
0.1701360494 0.1701360494 0.1701360494
0.1704691797 0.1704691797 0.1704691797
0.1708013117 0.1708013117 0.1708013117
0.1711332649 0.1711332649 0.1711332649
0.1714650244 0.1714650244 0.1714650244
0.1717966050 0.1717966050 0.1717966050
0.1721287966 0.1721287966 0.1721287966
0.1724591553 0.1724591553 0.1724591553
0.1727901399 0.1727901399 0.1727901399
0.1731200814 0.1731200814 0.1731200814
0.1734489650 0.1734489650 0.1734489650
0.1737801582 0.1737801582 0.1737801582
0.1741086096 0.1741086096 0.1741086096
0.1744376868 0.1744376868 0.1744376868
0.1747665405 0.1747665405 0.1747665405
0.1750951558 0.1750951558 0.1750951558
0.1754226983 0.1754226983 0.1754226983
0.1757500023 0.1757500023 0.1757500023
0.1760779172 0.1760779172 0.1760779172
0.1764055789 0.1764055789 0.1764055789
0.1767304540 0.1767304540 0.1767304540
0.1770576090 0.1770576090 0.1770576090
0.1773836613 0.1773836613 0.1773836613
0.1777094603 0.1777094603 0.1777094603
0.1780349910 0.1780349910 0.1780349910
0.1783602536 0.1783602536 0.1783602536
0.1786852479 0.1786852479 0.1786852479
0.1790099591 0.1790099591 0.1790099591
0.1793335378 0.1793335378 0.1793335378
0.1796568185 0.1796568185 0.1796568185
0.1799815595 0.1799815595 0.1799815595
0.1803060025 0.1803060025 0.1803060025
0.1806275547 0.1806275547 0.1806275547
0.1809514016 0.1809514016 0.1809514016
0.1812723577 0.1812723577 0.1812723577
0.1815956086 0.1815956086 0.1815956086
0.1819159240 0.1819159240 0.1819159240
0.1822385639 0.1822385639 0.1822385639
0.1825582534 0.1825582534 0.1825582534
0.1828802675 0.1828802675 0.1828802675
0.1832001954 0.1832001954 0.1832001954
0.1835206598 0.1835206598 0.1835206598
0.1838408113 0.1838408113 0.1838408113
0.1841597408 0.1841597408 0.1841597408
0.1844801158 0.1844801158 0.1844801158
0.1847983599 0.1847983599 0.1847983599
0.1851171553 0.1851171553 0.1851171553
0.1854356080 0.1854356080 0.1854356080
0.1857528090 0.1857528090 0.1857528090
0.1860714406 0.1860714406 0.1860714406
0.1863897145 0.1863897145 0.1863897145
0.1867058426 0.1867058426 0.1867058426
0.1870225072 0.1870225072 0.1870225072
0.1873405874 0.1873405874 0.1873405874
0.1876555979 0.1876555979 0.1876555979
0.1879711449 0.1879711449 0.1879711449
0.1882871985 0.1882871985 0.1882871985
0.1886028796 0.1886028796 0.1886028796
0.1889181882 0.1889181882 0.1889181882
0.1892330945 0.1892330945 0.1892330945
0.1895485222 0.1895485222 0.1895485222
0.1898617446 0.1898617446 0.1898617446
0.1901754588 0.1901754588 0.1901754588
0.1904896945 0.1904896945 0.1904896945
0.1908026189 0.1908026189 0.1908026189
0.1911151260 0.1911151260 0.1911151260
0.1914281398 0.1914281398 0.1914281398
0.1917407364 0.1917407364 0.1917407364
0.1920529157 0.1920529157 0.1920529157
0.1923656017 0.1923656017 0.1923656017
0.1926760226 0.1926760226 0.1926760226
0.1929878443 0.1929878443 0.1929878443
0.1932983249 0.1932983249 0.1932983249
0.1936092973 0.1936092973 0.1936092973
0.1939207613 0.1939207613 0.1939207613
0.1942299157 0.1942299157 0.1942299157
0.1945395768 0.1945395768 0.1945395768
0.1948497146 0.1948497146 0.1948497146
0.1951584667 0.1951584667 0.1951584667
0.1954676956 0.1954676956 0.1954676956
0.1957764775 0.1957764775 0.1957764775
0.1960847974 0.1960847974 0.1960847974
0.1963935941 0.1963935941 0.1963935941
0.1967009902 0.1967009902 0.1967009902
0.1970088482 0.1970088482 0.1970088482
0.1973153055 0.1973153055 0.1973153055
0.1976222247 0.1976222247 0.1976222247
0.1979296207 0.1979296207 0.1979296207
0.1982355714 0.1982355714 0.1982355714
0.1985420138 0.1985420138 0.1985420138
0.1988479495 0.1988479495 0.1988479495
0.1991534084 0.1991534084 0.1991534084
0.1994602829 0.1994602829 0.1994602829
0.1997637898 0.1997637898 0.1997637898
0.2000696659 0.2000696659 0.2000696659
0.2003731281 0.2003731281 0.2003731281
0.2006780058 0.2006780058 0.2006780058
0.2009823769 0.2009823769 0.2009823769
0.2012852728 0.2012852728 0.2012852728
0.2015886307 0.2015886307 0.2015886307
0.2018914521 0.2018914521 0.2018914521
0.2021947354 0.2021947354 0.2021947354
0.2024965286 0.2024965286 0.2024965286
0.2027997375 0.2027997375 0.2027997375
0.2031014413 0.2031014413 0.2031014413
0.2034035921 0.2034035921 0.2034035921
0.2037042230 0.2037042230 0.2037042230
0.2040053010 0.2040053010 0.2040053010
0.2043058425 0.2043058425 0.2043058425
0.2046087831 0.2046087831 0.2046087831
0.2049082369 0.2049082369 0.2049082369
0.2052081078 0.2052081078 0.2052081078
0.2055074424 0.2055074424 0.2055074424
0.2058062255 0.2058062255 0.2058062255
0.2061064094 0.2061064094 0.2061064094
0.2064060420 0.2064060420 0.2064060420
0.2067041248 0.2067041248 0.2067041248
0.2070026398 0.2070026398 0.2070026398
0.2073015720 0.2073015720 0.2073015720
0.2075979412 0.2075979412 0.2075979412
0.2078957409 0.2078957409 0.2078957409
0.2081939429 0.2081939429 0.2081939429
0.2084915787 0.2084915787 0.2084915787
0.2087876350 0.2087876350 0.2087876350
0.2090840936 0.2090840936 0.2090840936
0.2093809843 0.2093809843 0.2093809843
0.2096782774 0.2096782774 0.2096782774
0.2099739760 0.2099739760 0.2099739760
0.2102690935 0.2102690935 0.2102690935
0.2105636001 0.2105636001 0.2105636001
0.2108595222 0.2108595222 0.2108595222
0.2111548483 0.2111548483 0.2111548483
0.2114495635 0.2114495635 0.2114495635
0.2117426544 0.2117426544 0.2117426544
0.2120371759 0.2120371759 0.2120371759
0.2123310715 0.2123310715 0.2123310715
0.2126253694 0.2126253694 0.2126253694
0.2129180282 0.2129180282 0.2129180282
0.2132100761 0.2132100761 0.2132100761
0.2135035247 0.2135035247 0.2135035247
0.2137953341 0.2137953341 0.2137953341
0.2140875310 0.2140875310 0.2140875310
0.2143801302 0.2143801302 0.2143801302
0.2146710604 0.2146710604 0.2146710604
0.2149623781 0.2149623781 0.2149623781
0.2152551264 0.2152551264 0.2152551264
0.2155462056 0.2155462056 0.2155462056
0.2158355862 0.2158355862 0.2158355862
0.2161263973 0.2161263973 0.2161263973
0.2164155245 0.2164155245 0.2164155245
0.2167071104 0.2167071104 0.2167071104
0.2169959545 0.2169959545 0.2169959545
0.2172862291 0.2172862291 0.2172862291
0.2175737619 0.2175737619 0.2175737619
0.2178637534 0.2178637534 0.2178637534
0.2181520313 0.2181520313 0.2181520313
0.2184396535 0.2184396535 0.2184396535
0.2187276334 0.2187276334 0.2187276334
0.2190160006 0.2190160006 0.2190160006
0.2193047404 0.2193047404 0.2193047404
0.2195917517 0.2195917517 0.2195917517
0.2198791206 0.2198791206 0.2198791206
0.2201647609 0.2201647609 0.2201647609
0.2204539478 0.2204539478 0.2204539478
0.2207392603 0.2207392603 0.2207392603
0.2210249603 0.2210249603 0.2210249603
0.2213110030 0.2213110030 0.2213110030
0.2215974182 0.2215974182 0.2215974182
0.2218820751 0.2218820751 0.2218820751
0.2221681625 0.2221681625 0.2221681625
0.2224524766 0.2224524766 0.2224524766
0.2227371484 0.2227371484 0.2227371484
0.2230211198 0.2230211198 0.2230211198
0.2233054489 0.2233054489 0.2233054489
0.2235890478 0.2235890478 0.2235890478
0.2238730192 0.2238730192 0.2238730192
0.2241573483 0.2241573483 0.2241573483
0.2244398743 0.2244398743 0.2244398743
