HDR ST 2084/Gamma 2.6 to HDR 800 nits.cube
# DaVinci Resolve Cube (1D shaper LUT).

LUT_1D_SIZE 4096
LUT_1D_INPUT_RANGE 0.0000000000 2.8535630090

0.0000007310 0.0000007310 0.0000007310
0.0000668129 0.0000668129 0.0000668129
0.0001722924 0.0001722924 0.0001722924
0.0003109414 0.0003109414 0.0003109414
0.0004782363 0.0004782363 0.0004782363
0.0006708915 0.0006708915 0.0006708915
0.0008863353 0.0008863353 0.0008863353
0.0011224535 0.0011224535 0.0011224535
0.0013774489 0.0013774489 0.0013774489
0.0016497835 0.0016497835 0.0016497835
0.0019381468 0.0019381468 0.0019381468
0.0022413039 0.0022413039 0.0022413039
0.0025582747 0.0025582747 0.0025582747
0.0028880360 0.0028880360 0.0028880360
0.0032297540 0.0032297540 0.0032297540
0.0035827211 0.0035827211 0.0035827211
0.0039461735 0.0039461735 0.0039461735
0.0043194760 0.0043194760 0.0043194760
0.0047020386 0.0047020386 0.0047020386
0.0050933617 0.0050933617 0.0050933617
0.0054929298 0.0054929298 0.0054929298
0.0059002289 0.0059002289 0.0059002289
0.0063148104 0.0063148104 0.0063148104
0.0067363377 0.0067363377 0.0067363377
0.0071645142 0.0071645142 0.0071645142
0.0075987699 0.0075987699 0.0075987699
0.0080390070 0.0080390070 0.0080390070
0.0084847305 0.0084847305 0.0084847305
0.0089357803 0.0089357803 0.0089357803
0.0093918778 0.0093918778 0.0093918778
0.0098526161 0.0098526161 0.0098526161
0.0103180157 0.0103180157 0.0103180157
0.0107876435 0.0107876435 0.0107876435
0.0112614324 0.0112614324 0.0112614324
0.0117389336 0.0117389336 0.0117389336
0.0122202486 0.0122202486 0.0122202486
0.0127051268 0.0127051268 0.0127051268
0.0131932599 0.0131932599 0.0131932599
0.0136846136 0.0136846136 0.0136846136
0.0141789680 0.0141789680 0.0141789680
0.0146762393 0.0146762393 0.0146762393
0.0151762003 0.0151762003 0.0151762003
0.0156788267 0.0156788267 0.0156788267
0.0161838531 0.0161838531 0.0161838531
0.0166912116 0.0166912116 0.0166912116
0.0172009021 0.0172009021 0.0172009021
0.0177126303 0.0177126303 0.0177126303
0.0182264037 0.0182264037 0.0182264037
0.0187421888 0.0187421888 0.0187421888
0.0192597210 0.0192597210 0.0192597210
0.0197791420 0.0197791420 0.0197791420
0.0202999543 0.0202999543 0.0202999543
0.0208225828 0.0208225828 0.0208225828
0.0213465877 0.0213465877 0.0213465877
0.0218719505 0.0218719505 0.0218719505
0.0223988052 0.0223988052 0.0223988052
0.0229267683 0.0229267683 0.0229267683
0.0234560296 0.0234560296 0.0234560296
0.0239864737 0.0239864737 0.0239864737
0.0245177671 0.0245177671 0.0245177671
0.0250501875 0.0250501875 0.0250501875
0.0255835634 0.0255835634 0.0255835634
0.0261178650 0.0261178650 0.0261178650
0.0266529489 0.0266529489 0.0266529489
0.0271889530 0.0271889530 0.0271889530
0.0277255047 0.0277255047 0.0277255047
0.0282629188 0.0282629188 0.0282629188
0.0288011264 0.0288011264 0.0288011264
0.0293396451 0.0293396451 0.0293396451
0.0298787057 0.0298787057 0.0298787057
0.0304185767 0.0304185767 0.0304185767
0.0309586469 0.0309586469 0.0309586469
0.0314992107 0.0314992107 0.0314992107
0.0320402831 0.0320402831 0.0320402831
0.0325817317 0.0325817317 0.0325817317
0.0331232734 0.0331232734 0.0331232734
0.0336652733 0.0336652733 0.0336652733
0.0342076384 0.0342076384 0.0342076384
0.0347501077 0.0347501077 0.0347501077
0.0352929346 0.0352929346 0.0352929346
0.0358358733 0.0358358733 0.0358358733
0.0363788530 0.0363788530 0.0363788530
0.0369221754 0.0369221754 0.0369221754
0.0374654308 0.0374654308 0.0374654308
0.0380089432 0.0380089432 0.0380089432
0.0385523029 0.0385523029 0.0385523029
0.0390958674 0.0390958674 0.0390958674
0.0396394283 0.0396394283 0.0396394283
0.0401829742 0.0401829742 0.0401829742
0.0407261029 0.0407261029 0.0407261029
0.0412696116 0.0412696116 0.0412696116
0.0418129116 0.0418129116 0.0418129116
0.0423562303 0.0423562303 0.0423562303
0.0428993851 0.0428993851 0.0428993851
0.0434424020 0.0434424020 0.0434424020
0.0439851061 0.0439851061 0.0439851061
0.0445279740 0.0445279740 0.0445279740
0.0450704060 0.0450704060 0.0450704060
0.0456124507 0.0456124507 0.0456124507
0.0461548381 0.0461548381 0.0461548381
0.0466967486 0.0466967486 0.0466967486
0.0472380184 0.0472380184 0.0472380184
0.0477796458 0.0477796458 0.0477796458
0.0483207963 0.0483207963 0.0483207963
0.0488615558 0.0488615558 0.0488615558
0.0494022593 0.0494022593 0.0494022593
0.0499422848 0.0499422848 0.0499422848
0.0504822247 0.0504822247 0.0504822247
0.0510217026 0.0510217026 0.0510217026
0.0515610836 0.0515610836 0.0515610836
0.0521002486 0.0521002486 0.0521002486
0.0526382998 0.0526382998 0.0526382998
0.0531766489 0.0531766489 0.0531766489
0.0537144095 0.0537144095 0.0537144095
0.0542519838 0.0542519838 0.0542519838
0.0547887236 0.0547887236 0.0547887236
0.0553255789 0.0553255789 0.0553255789
0.0558619127 0.0558619127 0.0558619127
0.0563976020 0.0563976020 0.0563976020
0.0569333695 0.0569333695 0.0569333695
0.0574680008 0.0574680008 0.0574680008
0.0580025017 0.0580025017 0.0580025017
0.0585364923 0.0585364923 0.0585364923
0.0590698682 0.0590698682 0.0590698682
0.0596033931 0.0596033931 0.0596033931
0.0601361170 0.0601361170 0.0601361170
0.0606679246 0.0606679246 0.0606679246
0.0612002015 0.0612002015 0.0612002015
0.0617307797 0.0617307797 0.0617307797
0.0622619577 0.0622619577 0.0622619577
0.0627921447 0.0627921447 0.0627921447
0.0633221716 0.0633221716 0.0633221716
0.0638513267 0.0638513267 0.0638513267
0.0643801540 0.0643801540 0.0643801540
0.0649079308 0.0649079308 0.0649079308
0.0654355213 0.0654355213 0.0654355213
0.0659628585 0.0659628585 0.0659628585
0.0664888918 0.0664888918 0.0664888918
0.0670154765 0.0670154765 0.0670154765
0.0675409287 0.0675409287 0.0675409287
0.0680661425 0.0680661425 0.0680661425
0.0685907230 0.0685907230 0.0685907230
0.0691142529 0.0691142529 0.0691142529
0.0696376637 0.0696376637 0.0696376637
0.0701608956 0.0701608956 0.0701608956
0.0706825107 0.0706825107 0.0706825107
0.0712041482 0.0712041482 0.0712041482
0.0717261061 0.0717261061 0.0717261061
0.0722465739 0.0722465739 0.0722465739
0.0727661699 0.0727661699 0.0727661699
0.0732855424 0.0732855424 0.0732855424
0.0738035515 0.0738035515 0.0738035515
0.0743226558 0.0743226558 0.0743226558
0.0748406351 0.0748406351 0.0748406351
0.0753574222 0.0753574222 0.0753574222
0.0758740455 0.0758740455 0.0758740455
0.0763882324 0.0763882324 0.0763882324
0.0769039914 0.0769039914 0.0769039914
0.0774194300 0.0774194300 0.0774194300
0.0779333636 0.0779333636 0.0779333636
0.0784468502 0.0784468502 0.0784468502
0.0789594725 0.0789594725 0.0789594725
0.0794723108 0.0794723108 0.0794723108
0.0799837783 0.0799837783 0.0799837783
0.0804945901 0.0804945901 0.0804945901
0.0810050890 0.0810050890 0.0810050890
0.0815160125 0.0815160125 0.0815160125
0.0820237547 0.0820237547 0.0820237547
0.0825338140 0.0825338140 0.0825338140
0.0830413699 0.0830413699 0.0830413699
0.0835483596 0.0835483596 0.0835483596
0.0840555504 0.0840555504 0.0840555504
0.0845612660 0.0845612660 0.0845612660
0.0850671083 0.0850671083 0.0850671083
0.0855717808 0.0855717808 0.0855717808
0.0860773250 0.0860773250 0.0860773250
0.0865807831 0.0865807831 0.0865807831
0.0870841891 0.0870841891 0.0870841891
0.0875862464 0.0875862464 0.0875862464
0.0880877376 0.0880877376 0.0880877376
0.0885903537 0.0885903537 0.0885903537
0.0890901834 0.0890901834 0.0890901834
0.0895906240 0.0895906240 0.0895906240
0.0900894850 0.0900894850 0.0900894850
0.0905888826 0.0905888826 0.0905888826
0.0910870507 0.0910870507 0.0910870507
0.0915848091 0.0915848091 0.0915848091
0.0920808017 0.0920808017 0.0920808017
0.0925780982 0.0925780982 0.0925780982
0.0930730850 0.0930730850 0.0930730850
0.0935688689 0.0935688689 0.0935688689
0.0940631703 0.0940631703 0.0940631703
0.0945572928 0.0945572928 0.0945572928
0.0950498432 0.0950498432 0.0950498432
0.0955426097 0.0955426097 0.0955426097
0.0960355774 0.0960355774 0.0960355774
0.0965268463 0.0965268463 0.0965268463
0.0970168412 0.0970168412 0.0970168412
0.0975083485 0.0975083485 0.0975083485
0.0979970917 0.0979970917 0.0979970917
0.0984863564 0.0984863564 0.0984863564
0.0989741907 0.0989741907 0.0989741907
0.0994629711 0.0994629711 0.0994629711
0.0999497846 0.0999497846 0.0999497846
0.1004350558 0.1004350558 0.1004350558
0.1009211913 0.1009211913 0.1009211913
0.1014072001 0.1014072001 0.1014072001
0.1018910855 0.1018910855 0.1018910855
0.1023752615 0.1023752615 0.1023752615
0.1028592288 0.1028592288 0.1028592288
0.1033414453 0.1033414453 0.1033414453
0.1038228944 0.1038228944 0.1038228944
0.1043055430 0.1043055430 0.1043055430
0.1047848314 0.1047848314 0.1047848314
0.1052668020 0.1052668020 0.1052668020
0.1057453379 0.1057453379 0.1057453379
0.1062239632 0.1062239632 0.1062239632
0.1067031845 0.1067031845 0.1067031845
0.1071809158 0.1071809158 0.1071809158
0.1076586768 0.1076586768 0.1076586768
0.1081338301 0.1081338301 0.1081338301
0.1086100042 0.1086100042 0.1086100042
0.1090861410 0.1090861410 0.1090861410
0.1095606312 0.1095606312 0.1095606312
0.1100355685 0.1100355685 0.1100355685
0.1105077267 0.1105077267 0.1105077267
0.1109808162 0.1109808162 0.1109808162
0.1114542857 0.1114542857 0.1114542857
0.1119254231 0.1119254231 0.1119254231
0.1123974472 0.1123974472 0.1123974472
0.1128670648 0.1128670648 0.1128670648
0.1133364365 0.1133364365 0.1133364365
0.1138060838 0.1138060838 0.1138060838
0.1142748892 0.1142748892 0.1142748892
0.1147433892 0.1147433892 0.1147433892
0.1152110025 0.1152110025 0.1152110025
0.1156776994 0.1156776994 0.1156776994
0.1161434576 0.1161434576 0.1161434576
0.1166099459 0.1166099459 0.1166099459
0.1170754582 0.1170754582 0.1170754582
0.1175388247 0.1175388247 0.1175388247
0.1180040091 0.1180040091 0.1180040091
0.1184664294 0.1184664294 0.1184664294
0.1189300716 0.1189300716 0.1189300716
0.1193926185 0.1193926185 0.1193926185
0.1198528856 0.1198528856 0.1198528856
0.1203125864 0.1203125864 0.1203125864
0.1207746118 0.1207746118 0.1207746118
0.1212337092 0.1212337092 0.1212337092
0.1216939390 0.1216939390 0.1216939390
0.1221523583 0.1221523583 0.1221523583
0.1226101145 0.1226101145 0.1226101145
0.1230677813 0.1230677813 0.1230677813
0.1235247552 0.1235247552 0.1235247552
0.1239816025 0.1239816025 0.1239816025
0.1244365200 0.1244365200 0.1244365200
0.1248912737 0.1248912737 0.1248912737
0.1253458560 0.1253458560 0.1253458560
0.1258002520 0.1258002520 0.1258002520
0.1262532324 0.1262532324 0.1262532324
0.1267047524 0.1267047524 0.1267047524
0.1271584928 0.1271584928 0.1271584928
0.1276095361 0.1276095361 0.1276095361
0.1280609071 0.1280609071 0.1280609071
0.1285113841 0.1285113841 0.1285113841
0.1289615482 0.1289615482 0.1289615482
0.1294114143 0.1294114143 0.1294114143
0.1298596859 0.1298596859 0.1298596859
0.1303075999 0.1303075999 0.1303075999
0.1307557970 0.1307557970 0.1307557970
0.1312023401 0.1312023401 0.1312023401
0.1316491216 0.1316491216 0.1316491216
0.1320948452 0.1320948452 0.1320948452
0.1325407922 0.1325407922 0.1325407922
0.1329850256 0.1329850256 0.1329850256
0.1334300786 0.1334300786 0.1334300786
0.1338720918 0.1338720918 0.1338720918
0.1343168318 0.1343168318 0.1343168318
0.1347584873 0.1347584873 0.1347584873
0.1352009326 0.1352009326 0.1352009326
0.1356422007 0.1356422007 0.1356422007
0.1360822469 0.1360822469 0.1360822469
0.1365230680 0.1365230680 0.1365230680
0.1369633079 0.1369633079 0.1369633079
0.1374022961 0.1374022961 0.1374022961
0.1378413439 0.1378413439 0.1378413439
0.1382791251 0.1382791251 0.1382791251
0.1387175918 0.1387175918 0.1387175918
0.1391540915 0.1391540915 0.1391540915
0.1395906061 0.1395906061 0.1395906061
0.1400264353 0.1400264353 0.1400264353
0.1404615790 0.1404615790 0.1404615790
0.1408967078 0.1408967078 0.1408967078
0.1413311213 0.1413311213 0.1413311213
0.1417648196 0.1417648196 0.1417648196
0.1421977580 0.1421977580 0.1421977580
0.1426299512 0.1426299512 0.1426299512
0.1430620551 0.1430620551 0.1430620551
0.1434933841 0.1434933841 0.1434933841
0.1439253092 0.1439253092 0.1439253092
0.1443564296 0.1443564296 0.1443564296
0.1447860301 0.1447860301 0.1447860301
0.1452147961 0.1452147961 0.1452147961
0.1456448138 0.1456448138 0.1456448138
0.1460725814 0.1460725814 0.1460725814
0.1465008706 0.1465008706 0.1465008706
0.1469282806 0.1469282806 0.1469282806
0.1473547965 0.1473547965 0.1473547965
0.1477804035 0.1477804035 0.1477804035
0.1482072175 0.1482072175 0.1482072175
0.1486316770 0.1486316770 0.1486316770
0.1490566134 0.1490566134 0.1490566134
0.1494798660 0.1494798660 0.1494798660
0.1499043256 0.1499043256 0.1499043256
0.1503263414 0.1503263414 0.1503263414
0.1507495195 0.1507495195 0.1507495195
0.1511709839 0.1511709839 0.1511709839
0.1515935957 0.1515935957 0.1515935957
0.1520151943 0.1520151943 0.1520151943
0.1524350047 0.1524350047 0.1524350047
0.1528544873 0.1528544873 0.1528544873
0.1532743871 0.1532743871 0.1532743871
0.1536931992 0.1536931992 0.1536931992
0.1541123837 0.1541123837 0.1541123837
0.1545304805 0.1545304805 0.1545304805
0.1549474597 0.1549474597 0.1549474597
0.1553648114 0.1553648114 0.1553648114
0.1557817608 0.1557817608 0.1557817608
0.1561975628 0.1561975628 0.1561975628
0.1566129476 0.1566129476 0.1566129476
0.1570264101 0.1570264101 0.1570264101
0.1574417055 0.1574417055 0.1574417055
0.1578558087 0.1578558087 0.1578558087
0.1582694650 0.1582694650 0.1582694650
0.1586818993 0.1586818993 0.1586818993
0.1590946168 0.1590946168 0.1590946168
0.1595053375 0.1595053375 0.1595053375
0.1599171162 0.1599171162 0.1599171162
0.1603276134 0.1603276134 0.1603276134
0.1607391536 0.1607391536 0.1607391536
0.1611486375 0.1611486375 0.1611486375
0.1615583897 0.1615583897 0.1615583897
0.1619675905 0.1619675905 0.1619675905
0.1623754799 0.1623754799 0.1623754799
0.1627843827 0.1627843827 0.1627843827
0.1631911695 0.1631911695 0.1631911695
0.1635981649 0.1635981649 0.1635981649
0.1640053838 0.1640053838 0.1640053838
0.1644104272 0.1644104272 0.1644104272
0.1648164690 0.1648164690 0.1648164690
0.1652219146 0.1652219146 0.1652219146
0.1656267494 0.1656267494 0.1656267494
0.1660301685 0.1660301685 0.1660301685
0.1664337516 0.1664337516 0.1664337516
0.1668366939 0.1668366939 0.1668366939
0.1672398150 0.1672398150 0.1672398150
0.1676422656 0.1676422656 0.1676422656
0.1680440754 0.1680440754 0.1680440754
0.1684451997 0.1684451997 0.1684451997
0.1688456535 0.1688456535 0.1688456535
0.1692462415 0.1692462415 0.1692462415
0.1696453094 0.1696453094 0.1696453094
0.1700453162 0.1700453162 0.1700453162
0.1704437882 0.1704437882 0.1704437882
0.1708423644 0.1708423644 0.1708423644
0.1712410450 0.1712410450 0.1712410450
0.1716373265 0.1716373265 0.1716373265
0.1720353514 0.1720353514 0.1720353514
0.1724309772 0.1724309772 0.1724309772
0.1728266776 0.1728266776 0.1728266776
0.1732232571 0.1732232571 0.1732232571
0.1736182421 0.1736182421 0.1736182421
0.1740132719 0.1740132719 0.1740132719
0.1744058430 0.1744058430 0.1744058430
0.1748001277 0.1748001277 0.1748001277
0.1751944572 0.1751944572 0.1751944572
0.1755871177 0.1755871177 0.1755871177
0.1759798229 0.1759798229 0.1759798229
0.1763716787 0.1763716787 0.1763716787
0.1767627150 0.1767627150 0.1767627150
0.1771537513 0.1771537513 0.1771537513
0.1775430739 0.1775430739 0.1775430739
0.1779341102 0.1779341102 0.1779341102
0.1783242822 0.1783242822 0.1783242822
0.1787135750 0.1787135750 0.1787135750
0.1791019887 0.1791019887 0.1791019887
0.1794895083 0.1794895083 0.1794895083
0.1798787266 0.1798787266 0.1798787266
0.1802653074 0.1802653074 0.1802653074
0.1806535721 0.1806535721 0.1806535721
0.1810391992 0.1810391992 0.1810391992
0.1814256310 0.1814256310 0.1814256310
0.1818111241 0.1818111241 0.1818111241
0.1821956933 0.1821956933 0.1821956933
0.1825810522 0.1825810522 0.1825810522
0.1829654574 0.1829654574 0.1829654574
0.1833480299 0.1833480299 0.1833480299
0.1837331504 0.1837331504 0.1837331504
0.1841164231 0.1841164231 0.1841164231
0.1844969392 0.1844969392 0.1844969392
0.1848808974 0.1848808974 0.1848808974
0.1852629632 0.1852629632 0.1852629632
0.1856431514 0.1856431514 0.1856431514
0.1860240996 0.1860240996 0.1860240996
0.1864040345 0.1864040345 0.1864040345
0.1867847294 0.1867847294 0.1867847294
0.1871644109 0.1871644109 0.1871644109
0.1875430346 0.1875430346 0.1875430346
0.1879224181 0.1879224181 0.1879224181
0.1882998645 0.1882998645 0.1882998645
0.1886780411 0.1886780411 0.1886780411
0.1890542507 0.1890542507 0.1890542507
0.1894330233 0.1894330233 0.1894330233
0.1898079813 0.1898079813 0.1898079813
0.1901855022 0.1901855022 0.1901855022
0.1905610263 0.1905610263 0.1905610263
0.1909363568 0.1909363568 0.1909363568
0.1913105845 0.1913105845 0.1913105845
0.1916855425 0.1916855425 0.1916855425
0.1920584440 0.1920584440 0.1920584440
0.1924329996 0.1924329996 0.1924329996
0.1928064227 0.1928064227 0.1928064227
0.1931796372 0.1931796372 0.1931796372
0.1935507804 0.1935507804 0.1935507804
0.1939226240 0.1939226240 0.1939226240
0.1942951679 0.1942951679 0.1942951679
0.1946665496 0.1946665496 0.1946665496
0.1950367689 0.1950367689 0.1950367689
0.1954076886 0.1954076886 0.1954076886
0.1957783550 0.1957783550 0.1957783550
0.1961459517 0.1961459517 0.1961459517
0.1965161115 0.1965161115 0.1965161115
0.1968841404 0.1968841404 0.1968841404
0.1972528398 0.1972528398 0.1972528398
0.1976203322 0.1976203322 0.1976203322
0.1979884952 0.1979884952 0.1979884952
0.1983554363 0.1983554363 0.1983554363
0.1987211257 0.1987211257 0.1987211257
0.1990884542 0.1990884542 0.1990884542
0.1994545311 0.1994545311 0.1994545311
0.1998193711 0.1998193711 0.1998193711
0.2001848519 0.2001848519 0.2001848519
0.2005481124 0.2005481124 0.2005481124
0.2009139508 0.2009139508 0.2009139508
0.2012775540 0.2012775540 0.2012775540
0.2016418129 0.2016418129 0.2016418129
0.2020038068 0.2020038068 0.2020038068
0.2023664415 0.2023664415 0.2023664415
0.2027287483 0.2027287483 0.2027287483
0.2030907273 0.2030907273 0.2030907273
0.2034523636 0.2034523636 0.2034523636
0.2038136572 0.2038136572 0.2038136572
0.2041736245 0.2041736245 0.2041736245
0.2045342326 0.2045342326 0.2045342326
0.2048954517 0.2048954517 0.2048954517
0.2052543610 0.2052543610 0.2052543610
0.2056128979 0.2056128979 0.2056128979
0.2059730440 0.2059730440 0.2059730440
0.2063298672 0.2063298672 0.2063298672
0.2066882700 0.2066882700 0.2066882700
0.2070463151 0.2070463151 0.2070463151
0.2074039578 0.2074039578 0.2074039578
0.2077592313 0.2077592313 0.2077592313
0.2081171125 0.2081171125 0.2081171125
0.2084725946 0.2084725946 0.2084725946
0.2088276744 0.2088276744 0.2088276744
0.2091823518 0.2091823518 0.2091823518
0.2095386237 0.2095386237 0.2095386237
0.2098934799 0.2098934799 0.2098934799
0.2102479190 0.2102479190 0.2102479190
0.2106019557 0.2106019557 0.2106019557
0.2109545469 0.2109545469 0.2109545469
0.2113067061 0.2113067061 0.2113067061
0.2116614878 0.2116614878 0.2116614878
0.2120117694 0.2120117694 0.2120117694
0.2123656720 0.2123656720 0.2123656720
0.2127171010 0.2127171010 0.2127171010
0.2130680829 0.2130680829 0.2130680829
0.2134186178 0.2134186178 0.2134186178
0.2137697190 0.2137697190 0.2137697190
0.2141183168 0.2141183168 0.2141183168
0.2144684941 0.2144684941 0.2144684941
0.2148182243 0.2148182243 0.2148182243
0.2151685059 0.2151685059 0.2151685059
0.2155162543 0.2155162543 0.2155162543
0.2158645540 0.2158645540 0.2158645540
0.2162123770 0.2162123770 0.2162123770
0.2165597081 0.2165597081 0.2165597081
0.2169065624 0.2169065624 0.2169065624
0.2172539681 0.2172539681 0.2172539681
0.2176008672 0.2176008672 0.2176008672
0.2179462314 0.2179462314 0.2179462314
0.2182921320 0.2182921320 0.2182921320
0.2186385840 0.2186385840 0.2186385840
0.2189824283 0.2189824283 0.2189824283
0.2193288952 0.2193288952 0.2193288952
0.2196706533 0.2196706533 0.2196706533
0.2200161070 0.2200161070 0.2200161070
0.2203589231 0.2203589231 0.2203589231
0.2207022607 0.2207022607 0.2207022607
0.2210461348 0.2210461348 0.2210461348
0.2213873416 0.2213873416 0.2213873416
0.2217290848 0.2217290848 0.2217290848
0.2220713496 0.2220713496 0.2220713496
0.2224141210 0.2224141210 0.2224141210
0.2227542251 0.2227542251 0.2227542251
0.2230948359 0.2230948359 0.2230948359
0.2234348953 0.2234348953 0.2234348953
0.2237754613 0.2237754613 0.2237754613
0.2241144031 0.2241144031 0.2241144031
0.2244559973 0.2244559973 0.2244559973
0.2247937918 0.2247937918 0.2247937918
0.2251310199 0.2251310199 0.2251310199
0.2254698277 0.2254698277 0.2254698277
0.2258091271 0.2258091271 0.2258091271
0.2261478603 0.2261478603 0.2261478603
0.2264838368 0.2264838368 0.2264838368
0.2268203050 0.2268203050 0.2268203050
0.2271572649 0.2271572649 0.2271572649
0.2274936289 0.2274936289 0.2274936289
0.2278293967 0.2278293967 0.2278293967
0.2281645685 0.2281645685 0.2281645685
0.2285002172 0.2285002172 0.2285002172
0.2288352698 0.2288352698 0.2288352698
0.2291707844 0.2291707844 0.2291707844
0.2295046002 0.2295046002 0.2295046002
0.2298389077 0.2298389077 0.2298389077
0.2301714718 0.2301714718 0.2301714718
0.2305067331 0.2305067331 0.2305067331
0.2308369428 0.2308369428 0.2308369428
0.2311709374 0.2311709374 0.2311709374
0.2315032035 0.2315032035 0.2315032035
0.2318348289 0.2318348289 0.2318348289
0.2321657985 0.2321657985 0.2321657985
0.2324972451 0.2324972451 0.2324972451
0.2328280509 0.2328280509 0.2328280509
0.2331581861 0.2331581861 0.2331581861
0.2334887981 0.2334887981 0.2334887981
0.2338198721 0.2338198721 0.2338198721
0.2341491580 0.2341491580 0.2341491580
0.2344777882 0.2344777882 0.2344777882
0.2348068804 0.2348068804 0.2348068804
0.2351352870 0.2351352870 0.2351352870
0.2354641557 0.2354641557 0.2354641557
0.2357923537 0.2357923537 0.2357923537
0.2361187339 0.2361187339 0.2361187339
0.2364466935 0.2364466935 0.2364466935
0.2367739826 0.2367739826 0.2367739826
0.2371005714 0.2371005714 0.2371005714
0.2374264747 0.2374264747 0.2374264747
0.2377539426 0.2377539426 0.2377539426
0.2380784601 0.2380784601 0.2380784601
0.2384045422 0.2384045422 0.2384045422
0.2387299240 0.2387299240 0.2387299240
0.2390546054 0.2390546054 0.2390546054
0.2393785715 0.2393785715 0.2393785715
0.2397029847 0.2397029847 0.2397029847
0.2400266677 0.2400266677 0.2400266677
0.2403507829 0.2403507829 0.2403507829
0.2406718880 0.2406718880 0.2406718880
0.2409957051 0.2409957051 0.2409957051
0.2413188070 0.2413188070 0.2413188070
0.2416411936 0.2416411936 0.2416411936
0.2419628352 0.2419628352 0.2419628352
0.2422837317 0.2422837317 0.2422837317
0.2426050603 0.2426050603 0.2426050603
0.2429268062 0.2429268062 0.2429268062
0.2432478070 0.2432478070 0.2432478070
0.2435680628 0.2435680628 0.2435680628
0.2438875735 0.2438875735 0.2438875735
0.2442074865 0.2442074865 0.2442074865
0.2445254773 0.2445254773 0.2445254773
0.2448450625 0.2448450625 0.2448450625
0.2451650500 0.2451650500 0.2451650500
0.2454831004 0.2454831004 0.2454831004
0.2458015531 0.2458015531 0.2458015531
0.2461192459 0.2461192459 0.2461192459
0.2464361638 0.2464361638 0.2464361638
0.2467546612 0.2467546612 0.2467546612
0.2470712066 0.2470712066 0.2470712066
0.2473869622 0.2473869622 0.2473869622
0.2477042973 0.2477042973 0.2477042973
0.2480208576 0.2480208576 0.2480208576
0.2483366281 0.2483366281 0.2483366281
0.2486504167 0.2486504167 0.2486504167
0.2489669770 0.2489669770 0.2489669770
0.2492827475 0.2492827475 0.2492827475
0.2495965213 0.2495965213 0.2495965213
0.2499094903 0.2499094903 0.2499094903
0.2502240241 0.2502240241 0.2502240241
0.2505377829 0.2505377829 0.2505377829
0.2508519292 0.2508519292 0.2508519292
0.2511652410 0.2511652410 0.2511652410
0.2514765561 0.2514765561 0.2514765561
0.2517906427 0.2517906427 0.2517906427
0.2521027029 0.2521027029 0.2521027029
0.2524127364 0.2524127364 0.2524127364
0.2527255714 0.2527255714 0.2527255714
0.2530363500 0.2530363500 0.2530363500
0.2533475161 0.2533475161 0.2533475161
0.2536590695 0.2536590695 0.2536590695
0.2539697886 0.2539697886 0.2539697886
0.2542784512 0.2542784512 0.2542784512
0.2545874715 0.2545874715 0.2545874715
0.2548980713 0.2548980713 0.2548980713
0.2552078366 0.2552078366 0.2552078366
0.2555167675 0.2555167675 0.2555167675
0.2558248341 0.2558248341 0.2558248341
0.2561332583 0.2561332583 0.2561332583
0.2564408481 0.2564408481 0.2564408481
0.2567487657 0.2567487657 0.2567487657
0.2570570707 0.2570570707 0.2570570707
