HDR ST 2084/Gamma 2.6 to HDR 300 nits.cube
# DaVinci Resolve Cube (1D shaper LUT).

LUT_1D_SIZE 4096
LUT_1D_INPUT_RANGE 0.0000000000 1.9568310854

0.0000007310 0.0000007310 0.0000007310
0.0000415590 0.0000415590 0.0000415590
0.0001017538 0.0001017538 0.0001017538
0.0001793863 0.0001793863 0.0001793863
0.0002724219 0.0002724219 0.0002724219
0.0003793756 0.0003793756 0.0003793756
0.0004990691 0.0004990691 0.0004990691
0.0006305191 0.0006305191 0.0006305191
0.0007728934 0.0007728934 0.0007728934
0.0009254695 0.0009254695 0.0009254695
0.0010876105 0.0010876105 0.0010876105
0.0012587328 0.0012587328 0.0012587328
0.0014383319 0.0014383319 0.0014383319
0.0016259296 0.0016259296 0.0016259296
0.0018211155 0.0018211155 0.0018211155
0.0020234550 0.0020234550 0.0020234550
0.0022326261 0.0022326261 0.0022326261
0.0024482971 0.0024482971 0.0024482971
0.0026701218 0.0026701218 0.0026701218
0.0028978605 0.0028978605 0.0028978605
0.0031312071 0.0031312071 0.0031312071
0.0033699030 0.0033699030 0.0033699030
0.0036137761 0.0036137761 0.0036137761
0.0038625142 0.0038625142 0.0038625142
0.0041159918 0.0041159918 0.0041159918
0.0043739495 0.0043739495 0.0043739495
0.0046362029 0.0046362029 0.0046362029
0.0049026678 0.0049026678 0.0049026678
0.0051730038 0.0051730038 0.0051730038
0.0054472336 0.0054472336 0.0054472336
0.0057251682 0.0057251682 0.0057251682
0.0060065743 0.0060065743 0.0060065743
0.0062914360 0.0062914360 0.0062914360
0.0065795365 0.0065795365 0.0065795365
0.0068707420 0.0068707420 0.0068707420
0.0071650161 0.0071650161 0.0071650161
0.0074621686 0.0074621686 0.0074621686
0.0077621657 0.0077621657 0.0077621657
0.0080649536 0.0080649536 0.0080649536
0.0083702384 0.0083702384 0.0083702384
0.0086780004 0.0086780004 0.0086780004
0.0089882715 0.0089882715 0.0089882715
0.0093009062 0.0093009062 0.0093009062
0.0096158320 0.0096158320 0.0096158320
0.0099327667 0.0099327667 0.0099327667
0.0102520408 0.0102520408 0.0102520408
0.0105731767 0.0105731767 0.0105731767
0.0108964285 0.0108964285 0.0108964285
0.0112215029 0.0112215029 0.0112215029
0.0115482798 0.0115482798 0.0115482798
0.0118769463 0.0118769463 0.0118769463
0.0122073814 0.0122073814 0.0122073814
0.0125394743 0.0125394743 0.0125394743
0.0128730666 0.0128730666 0.0128730666
0.0132082682 0.0132082682 0.0132082682
0.0135449572 0.0135449572 0.0135449572
0.0138830207 0.0138830207 0.0138830207
0.0142224263 0.0142224263 0.0142224263
0.0145633053 0.0145633053 0.0145633053
0.0149055226 0.0149055226 0.0149055226
0.0152487997 0.0152487997 0.0152487997
0.0155935436 0.0155935436 0.0155935436
0.0159393474 0.0159393474 0.0159393474
0.0162862688 0.0162862688 0.0162862688
0.0166342184 0.0166342184 0.0166342184
0.0169833712 0.0169833712 0.0169833712
0.0173334088 0.0173334088 0.0173334088
0.0176844429 0.0176844429 0.0176844429
0.0180365182 0.0180365182 0.0180365182
0.0183896031 0.0183896031 0.0183896031
0.0187434871 0.0187434871 0.0187434871
0.0190982409 0.0190982409 0.0190982409
0.0194537584 0.0194537584 0.0194537584
0.0198101345 0.0198101345 0.0198101345
0.0201673750 0.0201673750 0.0201673750
0.0205252003 0.0205252003 0.0205252003
0.0208838265 0.0208838265 0.0208838265
0.0212430824 0.0212430824 0.0212430824
0.0216031093 0.0216031093 0.0216031093
0.0219637398 0.0219637398 0.0219637398
0.0223249197 0.0223249197 0.0223249197
0.0226868149 0.0226868149 0.0226868149
0.0230492726 0.0230492726 0.0230492726
0.0234121401 0.0234121401 0.0234121401
0.0237756073 0.0237756073 0.0237756073
0.0241396483 0.0241396483 0.0241396483
0.0245043654 0.0245043654 0.0245043654
0.0248692520 0.0248692520 0.0248692520
0.0252347812 0.0252347812 0.0252347812
0.0256005730 0.0256005730 0.0256005730
0.0259669963 0.0259669963 0.0259669963
0.0263338014 0.0263338014 0.0263338014
0.0267007276 0.0267007276 0.0267007276
0.0270681735 0.0270681735 0.0270681735
0.0274360217 0.0274360217 0.0274360217
0.0278041568 0.0278041568 0.0278041568
0.0281727333 0.0281727333 0.0281727333
0.0285416432 0.0285416432 0.0285416432
0.0289104879 0.0289104879 0.0289104879
0.0292798672 0.0292798672 0.0292798672
0.0296496768 0.0296496768 0.0296496768
0.0300195273 0.0300195273 0.0300195273
0.0303894524 0.0303894524 0.0303894524
0.0307599492 0.0307599492 0.0307599492
0.0311304703 0.0311304703 0.0311304703
0.0315012224 0.0315012224 0.0315012224
0.0318722613 0.0318722613 0.0318722613
0.0322435014 0.0322435014 0.0322435014
0.0326148495 0.0326148495 0.0326148495
0.0329860486 0.0329860486 0.0329860486
0.0333578140 0.0333578140 0.0333578140
0.0337294154 0.0337294154 0.0337294154
0.0341012552 0.0341012552 0.0341012552
0.0344734229 0.0344734229 0.0344734229
0.0348454975 0.0348454975 0.0348454975
0.0352177396 0.0352177396 0.0352177396
0.0355898924 0.0355898924 0.0355898924
0.0359620489 0.0359620489 0.0359620489
0.0363348387 0.0363348387 0.0363348387
0.0367073119 0.0367073119 0.0367073119
0.0370797329 0.0370797329 0.0370797329
0.0374523997 0.0374523997 0.0374523997
0.0378252454 0.0378252454 0.0378252454
0.0381976366 0.0381976366 0.0381976366
0.0385700576 0.0385700576 0.0385700576
0.0389430113 0.0389430113 0.0389430113
0.0393158682 0.0393158682 0.0393158682
0.0396883637 0.0396883637 0.0396883637
0.0400612056 0.0400612056 0.0400612056
0.0404339395 0.0404339395 0.0404339395
0.0408063047 0.0408063047 0.0408063047
0.0411790349 0.0411790349 0.0411790349
0.0415514633 0.0415514633 0.0415514633
0.0419243462 0.0419243462 0.0419243462
0.0422965996 0.0422965996 0.0422965996
0.0426691957 0.0426691957 0.0426691957
0.0430414528 0.0430414528 0.0430414528
0.0434139445 0.0434139445 0.0434139445
0.0437861905 0.0437861905 0.0437861905
0.0441585667 0.0441585667 0.0441585667
0.0445303693 0.0445303693 0.0445303693
0.0449026264 0.0449026264 0.0449026264
0.0452746376 0.0452746376 0.0452746376
0.0456463434 0.0456463434 0.0456463434
0.0460181423 0.0460181423 0.0460181423
0.0463897549 0.0463897549 0.0463897549
0.0467613600 0.0467613600 0.0467613600
0.0471326783 0.0471326783 0.0471326783
0.0475041270 0.0475041270 0.0475041270
0.0478754230 0.0478754230 0.0478754230
0.0482462831 0.0482462831 0.0482462831
0.0486171357 0.0486171357 0.0486171357
0.0489881672 0.0489881672 0.0489881672
0.0493586212 0.0493586212 0.0493586212
0.0497291721 0.0497291721 0.0497291721
0.0500995331 0.0500995331 0.0500995331
0.0504699051 0.0504699051 0.0504699051
0.0508397594 0.0508397594 0.0508397594
0.0512097850 0.0512097850 0.0512097850
0.0515797064 0.0515797064 0.0515797064
0.0519492179 0.0519492179 0.0519492179
0.0523185395 0.0523185395 0.0523185395
0.0526878834 0.0526878834 0.0526878834
0.0530569516 0.0530569516 0.0530569516
0.0534257069 0.0534257069 0.0534257069
0.0537946299 0.0537946299 0.0537946299
0.0541631654 0.0541631654 0.0541631654
0.0545315333 0.0545315333 0.0545315333
0.0548996963 0.0548996963 0.0548996963
0.0552676208 0.0552676208 0.0552676208
0.0556355342 0.0556355342 0.0556355342
0.0560031421 0.0560031421 0.0560031421
0.0563703962 0.0563703962 0.0563703962
0.0567375384 0.0567375384 0.0567375384
0.0571045391 0.0571045391 0.0571045391
0.0574713610 0.0574713610 0.0574713610
0.0578376912 0.0578376912 0.0578376912
0.0582043454 0.0582043454 0.0582043454
0.0585707203 0.0585707203 0.0585707203
0.0589362197 0.0589362197 0.0589362197
0.0593019426 0.0593019426 0.0593019426
0.0596675873 0.0596675873 0.0596675873
0.0600331128 0.0600331128 0.0600331128
0.0603982061 0.0603982061 0.0603982061
0.0607628264 0.0607628264 0.0607628264
0.0611275360 0.0611275360 0.0611275360
0.0614920147 0.0614920147 0.0614920147
0.0618559271 0.0618559271 0.0618559271
0.0622198433 0.0622198433 0.0622198433
0.0625837445 0.0625837445 0.0625837445
0.0629469827 0.0629469827 0.0629469827
0.0633101538 0.0633101538 0.0633101538
0.0636735260 0.0636735260 0.0636735260
0.0640355349 0.0640355349 0.0640355349
0.0643983260 0.0643983260 0.0643983260
0.0647612512 0.0647612512 0.0647612512
0.0651227087 0.0651227087 0.0651227087
0.0654842481 0.0654842481 0.0654842481
0.0658461675 0.0658461675 0.0658461675
0.0662078038 0.0662078038 0.0662078038
0.0665684938 0.0665684938 0.0665684938
0.0669288412 0.0669288412 0.0669288412
0.0672894791 0.0672894791 0.0672894791
0.0676497295 0.0676497295 0.0676497295
0.0680099055 0.0680099055 0.0680099055
0.0683699772 0.0683699772 0.0683699772
0.0687292516 0.0687292516 0.0687292516
0.0690883845 0.0690883845 0.0690883845
0.0694476813 0.0694476813 0.0694476813
0.0698060989 0.0698060989 0.0698060989
0.0701649860 0.0701649860 0.0701649860
0.0705226138 0.0705226138 0.0705226138
0.0708803087 0.0708803087 0.0708803087
0.0712380707 0.0712380707 0.0712380707
0.0715951771 0.0715951771 0.0715951771
0.0719523057 0.0719523057 0.0719523057
0.0723094344 0.0723094344 0.0723094344
0.0726661906 0.0726661906 0.0726661906
0.0730225593 0.0730225593 0.0730225593
0.0733781606 0.0733781606 0.0733781606
0.0737333223 0.0737333223 0.0737333223
0.0740894601 0.0740894601 0.0740894601
0.0744447634 0.0744447634 0.0744447634
0.0747999400 0.0747999400 0.0747999400
0.0751549527 0.0751549527 0.0751549527
0.0755087063 0.0755087063 0.0755087063
0.0758629888 0.0758629888 0.0758629888
0.0762163326 0.0762163326 0.0762163326
0.0765698031 0.0765698031 0.0765698031
0.0769230351 0.0769230351 0.0769230351
0.0772771165 0.0772771165 0.0772771165
0.0776294246 0.0776294246 0.0776294246
0.0779817998 0.0779817998 0.0779817998
0.0783338472 0.0783338472 0.0783338472
0.0786863267 0.0786863267 0.0786863267
0.0790369138 0.0790369138 0.0790369138
0.0793894306 0.0793894306 0.0793894306
0.0797400177 0.0797400177 0.0797400177
0.0800905824 0.0800905824 0.0800905824
0.0804407150 0.0804407150 0.0804407150
0.0807907879 0.0807907879 0.0807907879
0.0811415762 0.0811415762 0.0811415762
0.0814907104 0.0814907104 0.0814907104
0.0818401352 0.0818401352 0.0818401352
0.0821890384 0.0821890384 0.0821890384
0.0825378150 0.0825378150 0.0825378150
0.0828860477 0.0828860477 0.0828860477
0.0832341090 0.0832341090 0.0832341090
0.0835828036 0.0835828036 0.0835828036
0.0839296877 0.0839296877 0.0839296877
0.0842775851 0.0842775851 0.0842775851
0.0846244395 0.0846244395 0.0846244395
0.0849718824 0.0849718824 0.0849718824
0.0853170082 0.0853170082 0.0853170082
0.0856631026 0.0856631026 0.0856631026
0.0860097483 0.0860097483 0.0860097483
0.0863552690 0.0863552690 0.0863552690
0.0867004767 0.0867004767 0.0867004767
0.0870449394 0.0870449394 0.0870449394
0.0873903334 0.0873903334 0.0873903334
0.0877345204 0.0877345204 0.0877345204
0.0880796239 0.0880796239 0.0880796239
0.0884217843 0.0884217843 0.0884217843
0.0887656882 0.0887656882 0.0887656882
0.0891087502 0.0891087502 0.0891087502
0.0894518197 0.0894518197 0.0894518197
0.0897944495 0.0897944495 0.0897944495
0.0901375115 0.0901375115 0.0901375115
0.0904796645 0.0904796645 0.0904796645
0.0908213481 0.0908213481 0.0908213481
0.0911629796 0.0911629796 0.0911629796
0.0915036574 0.0915036574 0.0915036574
0.0918447077 0.0918447077 0.0918447077
0.0921852291 0.0921852291 0.0921852291
0.0925269946 0.0925269946 0.0925269946
0.0928664133 0.0928664133 0.0928664133
0.0932057053 0.0932057053 0.0932057053
0.0935462192 0.0935462192 0.0935462192
0.0938843265 0.0938843265 0.0938843265
0.0942240953 0.0942240953 0.0942240953
0.0945609584 0.0945609584 0.0945609584
0.0948994681 0.0948994681 0.0948994681
0.0952377915 0.0952377915 0.0952377915
0.0955763832 0.0955763832 0.0955763832
0.0959133729 0.0959133729 0.0959133729
0.0962515399 0.0962515399 0.0962515399
0.0965871438 0.0965871438 0.0965871438
0.0969239026 0.0969239026 0.0969239026
0.0972599313 0.0972599313 0.0972599313
0.0975966454 0.0975966454 0.0975966454
0.0979321375 0.0979321375 0.0979321375
0.0982678160 0.0982678160 0.0982678160
0.0986031964 0.0986031964 0.0986031964
0.0989387557 0.0989387557 0.0989387557
0.0992720723 0.0992720723 0.0992720723
0.0996065065 0.0996065065 0.0996065065
0.0999405906 0.0999405906 0.0999405906
0.1002733633 0.1002733633 0.1002733633
0.1006082073 0.1006082073 0.1006082073
0.1009407267 0.1009407267 0.1009407267
0.1012733579 0.1012733579 0.1012733579
0.1016046107 0.1016046107 0.1016046107
0.1019379199 0.1019379199 0.1019379199
0.1022698358 0.1022698358 0.1022698358
0.1026013270 0.1026013270 0.1026013270
0.1029323861 0.1029323861 0.1029323861
0.1032635048 0.1032635048 0.1032635048
0.1035951674 0.1035951674 0.1035951674
0.1039248705 0.1039248705 0.1039248705
0.1042556092 0.1042556092 0.1042556092
0.1045858711 0.1045858711 0.1045858711
0.1049151346 0.1049151346 0.1049151346
0.1052428782 0.1052428782 0.1052428782
0.1055721417 0.1055721417 0.1055721417
0.1059008911 0.1059008911 0.1059008911
0.1062306464 0.1062306464 0.1062306464
0.1065578088 0.1065578088 0.1065578088
0.1068854481 0.1068854481 0.1068854481
0.1072135642 0.1072135642 0.1072135642
0.1075421572 0.1075421572 0.1075421572
0.1078686118 0.1078686118 0.1078686118
0.1081944779 0.1081944779 0.1081944779
0.1085207984 0.1085207984 0.1085207984
0.1088475510 0.1088475510 0.1088475510
0.1091726497 0.1091726497 0.1091726497
0.1094981655 0.1094981655 0.1094981655
0.1098235846 0.1098235846 0.1098235846
0.1101488993 0.1101488993 0.1101488993
0.1104740873 0.1104740873 0.1104740873
0.1107986197 0.1107986197 0.1107986197
0.1111214161 0.1111214161 0.1111214161
0.1114462093 0.1114462093 0.1114462093
0.1117697805 0.1117697805 0.1117697805
0.1120926589 0.1120926589 0.1120926589
0.1124153659 0.1124153659 0.1124153659
0.1127384529 0.1127384529 0.1127384529
0.1130619049 0.1130619049 0.1130619049
0.1133840829 0.1133840829 0.1133840829
0.1137055159 0.1137055159 0.1137055159
0.1140267551 0.1140267551 0.1140267551
0.1143472269 0.1143472269 0.1143472269
0.1146691442 0.1146691442 0.1146691442
0.1149886250 0.1149886250 0.1149886250
0.1153095365 0.1153095365 0.1153095365
0.1156307757 0.1156307757 0.1156307757
0.1159501001 0.1159501001 0.1159501001
0.1162708551 0.1162708551 0.1162708551
0.1165891141 0.1165891141 0.1165891141
0.1169082299 0.1169082299 0.1169082299
0.1172265038 0.1172265038 0.1172265038
0.1175456345 0.1175456345 0.1175456345
0.1178639233 0.1178639233 0.1178639233
0.1181807742 0.1181807742 0.1181807742
0.1184990406 0.1184990406 0.1184990406
0.1188164279 0.1188164279 0.1188164279
0.1191340834 0.1191340834 0.1191340834
0.1194496974 0.1194496974 0.1194496974
0.1197661310 0.1197661310 0.1197661310
0.1200822294 0.1200822294 0.1200822294
0.1203985810 0.1203985810 0.1203985810
0.1207151636 0.1207151636 0.1207151636
0.1210308224 0.1210308224 0.1210308224
0.1213449463 0.1213449463 0.1213449463
0.1216598749 0.1216598749 0.1216598749
0.1219744384 0.1219744384 0.1219744384
0.1222886220 0.1222886220 0.1222886220
0.1226030141 0.1226030141 0.1226030141
0.1229164228 0.1229164228 0.1229164228
0.1232306287 0.1232306287 0.1232306287
0.1235438287 0.1235438287 0.1235438287
0.1238554344 0.1238554344 0.1238554344
0.1241690069 0.1241690069 0.1241690069
0.1244809628 0.1244809628 0.1244809628
0.1247930899 0.1247930899 0.1247930899
0.1251059920 0.1251059920 0.1251059920
0.1254166365 0.1254166365 0.1254166365
0.1257280409 0.1257280409 0.1257280409
0.1260390133 0.1260390133 0.1260390133
0.1263501197 0.1263501197 0.1263501197
0.1266601533 0.1266601533 0.1266601533
0.1269709319 0.1269709319 0.1269709319
0.1272812337 0.1272812337 0.1272812337
0.1275904477 0.1275904477 0.1275904477
0.1278991699 0.1278991699 0.1278991699
0.1282086223 0.1282086223 0.1282086223
0.1285169572 0.1285169572 0.1285169572
0.1288260221 0.1288260221 0.1288260221
0.1291352063 0.1291352063 0.1291352063
0.1294426173 0.1294426173 0.1294426173
0.1297507584 0.1297507584 0.1297507584
0.1300583631 0.1300583631 0.1300583631
0.1303654313 0.1303654313 0.1303654313
0.1306719482 0.1306719482 0.1306719482
0.1309785545 0.1309785545 0.1309785545
0.1312858760 0.1312858760 0.1312858760
0.1315913647 0.1315913647 0.1315913647
0.1318969131 0.1318969131 0.1318969131
0.1322025359 0.1322025359 0.1322025359
0.1325088441 0.1325088441 0.1325088441
0.1328133047 0.1328133047 0.1328133047
0.1331184506 0.1331184506 0.1331184506
0.1334230006 0.1334230006 0.1334230006
0.1337275952 0.1337275952 0.1337275952
0.1340315938 0.1340315938 0.1340315938
0.1343349665 0.1343349665 0.1343349665
0.1346383691 0.1346383691 0.1346383691
0.1349424571 0.1349424571 0.1349424571
0.1352439523 0.1352439523 0.1352439523
0.1355480850 0.1355480850 0.1355480850
0.1358509213 0.1358509213 0.1358509213
0.1361524463 0.1361524463 0.1361524463
0.1364546418 0.1364546418 0.1364546418
0.1367555261 0.1367555261 0.1367555261
0.1370577216 0.1370577216 0.1370577216
0.1373585910 0.1373585910 0.1373585910
0.1376594603 0.1376594603 0.1376594603
0.1379602998 0.1379602998 0.1379602998
0.1382604688 0.1382604688 0.1382604688
0.1385606080 0.1385606080 0.1385606080
0.1388613880 0.1388613880 0.1388613880
0.1391601264 0.1391601264 0.1391601264
0.1394601762 0.1394601762 0.1394601762
0.1397588402 0.1397588402 0.1397588402
0.1400581449 0.1400581449 0.1400581449
0.1403567344 0.1403567344 0.1403567344
0.1406545788 0.1406545788 0.1406545788
0.1409530640 0.1409530640 0.1409530640
0.1412494481 0.1412494481 0.1412494481
0.1415477991 0.1415477991 0.1415477991
0.1418454200 0.1418454200 0.1418454200
0.1421415955 0.1421415955 0.1421415955
0.1424390823 0.1424390823 0.1424390823
0.1427351087 0.1427351087 0.1427351087
0.1430310458 0.1430310458 0.1430310458
0.1433282942 0.1433282942 0.1433282942
0.1436240673 0.1436240673 0.1436240673
0.1439190656 0.1439190656 0.1439190656
0.1442146599 0.1442146599 0.1442146599
0.1445101500 0.1445101500 0.1445101500
0.1448041648 0.1448041648 0.1448041648
0.1450987458 0.1450987458 0.1450987458
0.1453925371 0.1453925371 0.1453925371
0.1456876099 0.1456876099 0.1456876099
0.1459811628 0.1459811628 0.1459811628
0.1462752968 0.1462752968 0.1462752968
0.1465671957 0.1465671957 0.1465671957
0.1468617916 0.1468617916 0.1468617916
0.1471541375 0.1471541375 0.1471541375
0.1474463493 0.1474463493 0.1474463493
0.1477384269 0.1477384269 0.1477384269
0.1480310708 0.1480310708 0.1480310708
0.1483221501 0.1483221501 0.1483221501
0.1486144960 0.1486144960 0.1486144960
0.1489052773 0.1489052773 0.1489052773
0.1491966099 0.1491966099 0.1491966099
0.1494870633 0.1494870633 0.1494870633
0.1497788131 0.1497788131 0.1497788131
0.1500689387 0.1500689387 0.1500689387
0.1503581852 0.1503581852 0.1503581852
0.1506479681 0.1506479681 0.1506479681
0.1509383172 0.1509383172 0.1509383172
0.1512277573 0.1512277573 0.1512277573
0.1515162736 0.1515162736 0.1515162736
0.1518060863 0.1518060863 0.1518060863
0.1520942301 0.1520942301 0.1520942301
0.1523821950 0.1523821950 0.1523821950
0.1526699513 0.1526699513 0.1526699513
0.1529582590 0.1529582590 0.1529582590
0.1532463580 0.1532463580 0.1532463580
0.1535335183 0.1535335183 0.1535335183
0.1538204551 0.1538204551 0.1538204551
0.1541064531 0.1541064531 0.1541064531
0.1543937176 0.1543937176 0.1543937176
0.1546807736 0.1546807736 0.1546807736
0.1549661011 0.1549661011 0.1549661011
0.1552534550 0.1552534550 0.1552534550
0.1555383354 0.1555383354 0.1555383354
0.1558237374 0.1558237374 0.1558237374
0.1561089009 0.1561089009 0.1561089009
0.1563938260 0.1563938260 0.1563938260
0.1566785127 0.1566785127 0.1566785127
0.1569637209 0.1569637209 0.1569637209
0.1572479159 0.1572479159 0.1572479159
0.1575311124 0.1575311124 0.1575311124
0.1578155607 0.1578155607 0.1578155607
0.1580997556 0.1580997556 0.1580997556
0.1583829522 0.1583829522 0.1583829522
0.1586658657 0.1586658657 0.1586658657
0.1589485109 0.1589485109 0.1589485109
0.1592316628 0.1592316628 0.1592316628
0.1595137864 0.1595137864 0.1595137864
0.1597963870 0.1597963870 0.1597963870
0.1600779593 0.1600779593 0.1600779593
0.1603592336 0.1603592336 0.1603592336
0.1606409997 0.1606409997 0.1606409997
0.1609224826 0.1609224826 0.1609224826
0.1612029076 0.1612029076 0.1612029076
0.1614838094 0.1614838094 0.1614838094
0.1617651880 0.1617651880 0.1617651880
0.1620455086 0.1620455086 0.1620455086
0.1623247415 0.1623247415 0.1623247415
0.1626044363 0.1626044363 0.1626044363
0.1628853977 0.1628853977 0.1628853977
0.1631637067 0.1631637067 0.1631637067
0.1634424776 0.1634424776 0.1634424776
0.1637217253 0.1637217253 0.1637217253
0.1640006453 0.1640006453 0.1640006453
0.1642784625 0.1642784625 0.1642784625
0.1645583361 0.1645583361 0.1645583361
0.1648354977 0.1648354977 0.1648354977
0.1651131213 0.1651131213 0.1651131213
0.1653904021 0.1653904021 0.1653904021
0.1656681597 0.1656681597 0.1656681597
0.1659447700 0.1659447700 0.1659447700
0.1662226468 0.1662226468 0.1662226468
0.1664993763 0.1664993763 0.1664993763
0.1667749584 0.1667749584 0.1667749584
0.1670517921 0.1670517921 0.1670517921
0.1673282683 0.1673282683 0.1673282683
0.1676027924 0.1676027924 0.1676027924
0.1678793579 0.1678793579 0.1678793579
0.1681547761 0.1681547761 0.1681547761
0.1684290171 0.1684290171 0.1684290171
0.1687044948 0.1687044948 0.1687044948
0.1689788103 0.1689788103 0.1689788103
0.1692543775 0.1692543775 0.1692543775
0.1695279330 0.1695279330 0.1695279330
0.1698019356 0.1698019356 0.1698019356
0.1700755507 0.1700755507 0.1700755507
0.1703487933 0.1703487933 0.1703487933
0.1706224680 0.1706224680 0.1706224680
0.1708957404 0.1708957404 0.1708957404
0.1711686403 0.1711686403 0.1711686403
0.1714403033 0.1714403033 0.1714403033
0.1717132330 0.1717132330 0.1717132330
0.1719857603 0.1719857603 0.1719857603
0.1722570658 0.1722570658 0.1722570658
0.1725296080 0.1725296080 0.1725296080
0.1728009284 0.1728009284 0.1728009284
0.1730718315 0.1730718315 0.1730718315
0.1733439863 0.1733439863 0.1733439863
0.1736140698 0.1736140698 0.1736140698
0.1738845557 0.1738845557 0.1738845557
0.1741563082 0.1741563082 0.1741563082
0.1744259596 0.1744259596 0.1744259596
0.1746960133 0.1746960133 0.1746960133
0.1749656498 0.1749656498 0.1749656498
0.1752348542 0.1752348542 0.1752348542
0.1755044758 0.1755044758 0.1755044758
0.1757736504 0.1757736504 0.1757736504
0.1760423928 0.1760423928 0.1760423928
0.1763115376 0.1763115376 0.1763115376
0.1765793860 0.1765793860 0.1765793860
0.1768485010 0.1768485010 0.1768485010
0.1771163046 0.1771163046 0.1771163046
0.1773845255 0.1773845255 0.1773845255
0.1776514202 0.1776514202 0.1776514202
0.1779187173 0.1779187173 0.1779187173
0.1781872809 0.1781872809 0.1781872809
0.1784536541 0.1784536541 0.1784536541
0.1787212938 0.1787212938 0.1787212938
0.1789876074 0.1789876074 0.1789876074
0.1792543083 0.1792543083 0.1792543083
0.1795205474 0.1795205474 0.1795205474
0.1797871590 0.1797871590 0.1797871590
0.1800524443 0.1800524443 0.1800524443
0.1803181171 0.1803181171 0.1803181171
0.1805833131 0.1805833131 0.1805833131
0.1808480173 0.1808480173 0.1808480173
0.1811122447 0.1811122447 0.1811122447
0.1813785881 0.1813785881 0.1813785881
0.1816426963 0.1816426963 0.1816426963
0.1819071919 0.1819071919 0.1819071919
0.1821711957 0.1821711957 0.1821711957
0.1824346930 0.1824346930 0.1824346930
0.1826985776 0.1826985776 0.1826985776
0.1829628348 0.1829628348 0.1829628348
0.1832248271 0.1832248271 0.1832248271
0.1834880710 0.1834880710 0.1834880710
0.1837516874 0.1837516874 0.1837516874
0.1840147972 0.1840147972 0.1840147972
0.1842765063 0.1842765063 0.1842765063
0.1845385730 0.1845385730 0.1845385730
0.1848001331 0.1848001331 0.1848001331
0.1850629449 0.1850629449 0.1850629449
0.1853243560 0.1853243560 0.1853243560
0.1855852306 0.1855852306 0.1855852306
0.1858464628 0.1858464628 0.1858464628
0.1861071736 0.1861071736 0.1861071736
0.1863682419 0.1863682419 0.1863682419
0.1866287738 0.1866287738 0.1866287738
0.1868896782 0.1868896782 0.1868896782
0.1871509254 0.1871509254 0.1871509254
0.1874116361 0.1874116361 0.1874116361
0.1876700073 0.1876700073 0.1876700073
0.1879305393 0.1879305393 0.1879305393
0.1881887168 0.1881887168 0.1881887168
0.1884490550 0.1884490550 0.1884490550
0.1887070239 0.1887070239 0.1887070239
0.1889671534 0.1889671534 0.1889671534
0.1892249137 0.1892249137 0.1892249137
0.1894830316 0.1894830316 0.1894830316
0.1897424012 0.1897424012 0.1897424012
0.1900002956 0.1900002956 0.1900002956
0.1902576238 0.1902576238 0.1902576238
0.1905152947 0.1905152947 0.1905152947
0.1907714903 0.1907714903 0.1907714903
0.1910298467 0.1910298467 0.1910298467
0.1912876368 0.1912876368 0.1912876368
0.1915448457 0.1915448457 0.1915448457
0.1918014735 0.1918014735 0.1918014735
0.1920575351 0.1920575351 0.1920575351
