HDR ST 2084/Gamma 2.6 to HDR 2000 nits.cube
# DaVinci Resolve Cube (1D shaper LUT).

LUT_1D_SIZE 4096
LUT_1D_INPUT_RANGE 0.0000000000 4.0592080959

0.0000007310 0.0000007310 0.0000007310
0.0001069575 0.0001069575 0.0001069575
0.0002874844 0.0002874844 0.0002874844
0.0005274057 0.0005274057 0.0005274057
0.0008172550 0.0008172550 0.0008172550
0.0011502296 0.0011502296 0.0011502296
0.0015210832 0.0015210832 0.0015210832
0.0019255872 0.0019255872 0.0019255872
0.0023601856 0.0023601856 0.0023601856
0.0028219218 0.0028219218 0.0028219218
0.0033082662 0.0033082662 0.0033082662
0.0038169136 0.0038169136 0.0038169136
0.0043460266 0.0043460266 0.0043460266
0.0048937537 0.0048937537 0.0048937537
0.0054586497 0.0054586497 0.0054586497
0.0060393722 0.0060393722 0.0060393722
0.0066346321 0.0066346321 0.0066346321
0.0072432617 0.0072432617 0.0072432617
0.0078644725 0.0078644725 0.0078644725
0.0084971515 0.0084971515 0.0084971515
0.0091404198 0.0091404198 0.0091404198
0.0097937761 0.0097937761 0.0097937761
0.0104562230 0.0104562230 0.0104562230
0.0111272726 0.0111272726 0.0111272726
0.0118061854 0.0118061854 0.0118061854
0.0124926539 0.0124926539 0.0124926539
0.0131859919 0.0131859919 0.0131859919
0.0138857756 0.0138857756 0.0138857756
0.0145914946 0.0145914946 0.0145914946
0.0153029235 0.0153029235 0.0153029235
0.0160195157 0.0160195157 0.0160195157
0.0167408567 0.0167408567 0.0167408567
0.0174667500 0.0174667500 0.0174667500
0.0181969590 0.0181969590 0.0181969590
0.0189310797 0.0189310797 0.0189310797
0.0196685661 0.0196685661 0.0196685661
0.0204098020 0.0204098020 0.0204098020
0.0211539529 0.0211539529 0.0211539529
0.0219009910 0.0219009910 0.0219009910
0.0226509348 0.0226509348 0.0226509348
0.0234031416 0.0234031416 0.0234031416
0.0241577327 0.0241577327 0.0241577327
0.0249146111 0.0249146111 0.0249146111
0.0256732702 0.0256732702 0.0256732702
0.0264336467 0.0264336467 0.0264336467
0.0271956418 0.0271956418 0.0271956418
0.0279595088 0.0279595088 0.0279595088
0.0287244935 0.0287244935 0.0287244935
0.0294907093 0.0294907093 0.0294907093
0.0302577671 0.0302577671 0.0302577671
0.0310263801 0.0310263801 0.0310263801
0.0317955241 0.0317955241 0.0317955241
0.0325655825 0.0325655825 0.0325655825
0.0333362184 0.0333362184 0.0333362184
0.0341074467 0.0341074467 0.0341074467
0.0348793492 0.0348793492 0.0348793492
0.0356515348 0.0356515348 0.0356515348
0.0364239924 0.0364239924 0.0364239924
0.0371967442 0.0371967442 0.0371967442
0.0379696749 0.0379696749 0.0379696749
0.0387429036 0.0387429036 0.0387429036
0.0395159982 0.0395159982 0.0395159982
0.0402889326 0.0402889326 0.0402889326
0.0410619192 0.0410619192 0.0410619192
0.0418350138 0.0418350138 0.0418350138
0.0426076725 0.0426076725 0.0426076725
0.0433799885 0.0433799885 0.0433799885
0.0441520922 0.0441520922 0.0441520922
0.0449239239 0.0449239239 0.0449239239
0.0456954502 0.0456954502 0.0456954502
0.0464664288 0.0464664288 0.0464664288
0.0472370945 0.0472370945 0.0472370945
0.0480070114 0.0480070114 0.0480070114
0.0487764552 0.0487764552 0.0487764552
0.0495452471 0.0495452471 0.0495452471
0.0503137223 0.0503137223 0.0503137223
0.0510814935 0.0510814935 0.0510814935
0.0518481843 0.0518481843 0.0518481843
0.0526146814 0.0526146814 0.0526146814
0.0533801243 0.0533801243 0.0533801243
0.0541446805 0.0541446805 0.0541446805
0.0549087971 0.0549087971 0.0549087971
0.0556718893 0.0556718893 0.0556718893
0.0564341731 0.0564341731 0.0564341731
0.0571956076 0.0571956076 0.0571956076
0.0579558909 0.0579558909 0.0579558909
0.0587155633 0.0587155633 0.0587155633
0.0594746359 0.0594746359 0.0594746359
0.0602322519 0.0602322519 0.0602322519
0.0609889962 0.0609889962 0.0609889962
0.0617443062 0.0617443062 0.0617443062
0.0624994151 0.0624994151 0.0624994151
0.0632534847 0.0632534847 0.0632534847
0.0640056282 0.0640056282 0.0640056282
0.0647580996 0.0647580996 0.0647580996
0.0655084625 0.0655084625 0.0655084625
0.0662580654 0.0662580654 0.0662580654
0.0670063570 0.0670063570 0.0670063570
0.0677540898 0.0677540898 0.0677540898
0.0685007423 0.0685007423 0.0685007423
0.0692450777 0.0692450777 0.0692450777
0.0699895695 0.0699895695 0.0699895695
0.0707323402 0.0707323402 0.0707323402
0.0714735165 0.0714735165 0.0714735165
0.0722153410 0.0722153410 0.0722153410
0.0729541257 0.0729541257 0.0729541257
0.0736928582 0.0736928582 0.0736928582
0.0744295791 0.0744295791 0.0744295791
0.0751655400 0.0751655400 0.0751655400
0.0759002045 0.0759002045 0.0759002045
0.0766341463 0.0766341463 0.0766341463
0.0773660764 0.0773660764 0.0773660764
0.0780980885 0.0780980885 0.0780980885
0.0788285211 0.0788285211 0.0788285211
0.0795572028 0.0795572028 0.0795572028
0.0802847371 0.0802847371 0.0802847371
0.0810113773 0.0810113773 0.0810113773
0.0817365795 0.0817365795 0.0817365795
0.0824601874 0.0824601874 0.0824601874
0.0831824541 0.0831824541 0.0831824541
0.0839036405 0.0839036405 0.0839036405
0.0846236199 0.0846236199 0.0846236199
0.0853434876 0.0853434876 0.0853434876
0.0860618874 0.0860618874 0.0860618874
0.0867778435 0.0867778435 0.0867778435
0.0874920487 0.0874920487 0.0874920487
0.0882064998 0.0882064998 0.0882064998
0.0889193863 0.0889193863 0.0889193863
0.0896305740 0.0896305740 0.0896305740
0.0903412476 0.0903412476 0.0903412476
0.0910495520 0.0910495520 0.0910495520
0.0917575508 0.0917575508 0.0917575508
0.0924633741 0.0924633741 0.0924633741
0.0931691453 0.0931691453 0.0931691453
0.0938734114 0.0938734114 0.0938734114
0.0945756137 0.0945756137 0.0945756137
0.0952779204 0.0952779204 0.0952779204
0.0959765464 0.0959765464 0.0959765464
0.0966760218 0.0966760218 0.0966760218
0.0973744020 0.0973744020 0.0973744020
0.0980711132 0.0980711132 0.0980711132
0.0987670124 0.0987670124 0.0987670124
0.0994596034 0.0994596034 0.0994596034
0.1001526266 0.1001526266 0.1001526266
0.1008440778 0.1008440778 0.1008440778
0.1015343443 0.1015343443 0.1015343443
0.1022233441 0.1022233441 0.1022233441
0.1029114798 0.1029114798 0.1029114798
0.1035971716 0.1035971716 0.1035971716
0.1042823344 0.1042823344 0.1042823344
0.1049648672 0.1049648672 0.1049648672
0.1056492552 0.1056492552 0.1056492552
0.1063308492 0.1063308492 0.1063308492
0.1070100591 0.1070100591 0.1070100591
0.1076904237 0.1076904237 0.1076904237
0.1083666831 0.1083666831 0.1083666831
0.1090439707 0.1090439707 0.1090439707
0.1097190753 0.1097190753 0.1097190753
0.1103935018 0.1103935018 0.1103935018
0.1110655814 0.1110655814 0.1110655814
0.1117373854 0.1117373854 0.1117373854
0.1124072224 0.1124072224 0.1124072224
0.1130772009 0.1130772009 0.1130772009
0.1137450710 0.1137450710 0.1137450710
0.1144113168 0.1144113168 0.1144113168
0.1150764078 0.1150764078 0.1150764078
0.1157419682 0.1157419682 0.1157419682
0.1164045781 0.1164045781 0.1164045781
0.1170664132 0.1170664132 0.1170664132
0.1177274138 0.1177274138 0.1177274138
0.1183858067 0.1183858067 0.1183858067
0.1190443933 0.1190443933 0.1190443933
0.1197008118 0.1197008118 0.1197008118
0.1203584820 0.1203584820 0.1203584820
0.1210127100 0.1210127100 0.1210127100
0.1216657534 0.1216657534 0.1216657534
0.1223175451 0.1223175451 0.1223175451
0.1229680479 0.1229680479 0.1229680479
0.1236183792 0.1236183792 0.1236183792
0.1242661104 0.1242661104 0.1242661104
0.1249147803 0.1249147803 0.1249147803
0.1255601346 0.1255601346 0.1255601346
0.1262063384 0.1262063384 0.1262063384
0.1268509328 0.1268509328 0.1268509328
0.1274926215 0.1274926215 0.1274926215
0.1281344295 0.1281344295 0.1281344295
0.1287750900 0.1287750900 0.1287750900
0.1294139028 0.1294139028 0.1294139028
0.1300533414 0.1300533414 0.1300533414
0.1306896061 0.1306896061 0.1306896061
0.1313257664 0.1313257664 0.1313257664
0.1319611669 0.1319611669 0.1319611669
0.1325938553 0.1325938553 0.1325938553
0.1332269609 0.1332269609 0.1332269609
0.1338578910 0.1338578910 0.1338578910
0.1344885230 0.1344885230 0.1344885230
0.1351168901 0.1351168901 0.1351168901
0.1357455403 0.1357455403 0.1357455403
0.1363718063 0.1363718063 0.1363718063
0.1369982958 0.1369982958 0.1369982958
0.1376216412 0.1376216412 0.1376216412
0.1382464767 0.1382464767 0.1382464767
0.1388674080 0.1388674080 0.1388674080
0.1394890696 0.1394890696 0.1394890696
0.1401087642 0.1401087642 0.1401087642
0.1407277882 0.1407277882 0.1407277882
0.1413467824 0.1413467824 0.1413467824
0.1419636756 0.1419636756 0.1419636756
0.1425784379 0.1425784379 0.1425784379
0.1431944221 0.1431944221 0.1431944221
0.1438068151 0.1438068151 0.1438068151
0.1444204003 0.1444204003 0.1444204003
0.1450309902 0.1450309902 0.1450309902
0.1456420124 0.1456420124 0.1456420124
0.1462499350 0.1462499350 0.1462499350
0.1468589604 0.1468589604 0.1468589604
0.1474655271 0.1474655271 0.1474655271
0.1480717063 0.1480717063 0.1480717063
0.1486774832 0.1486774832 0.1486774832
0.1492806673 0.1492806673 0.1492806673
0.1498841196 0.1498841196 0.1498841196
0.1504856199 0.1504856199 0.1504856199
0.1510851383 0.1510851383 0.1510851383
0.1516855657 0.1516855657 0.1516855657
0.1522832215 0.1522832215 0.1522832215
0.1528817117 0.1528817117 0.1528817117
0.1534781009 0.1534781009 0.1534781009
0.1540738344 0.1540738344 0.1540738344
0.1546688527 0.1546688527 0.1546688527
0.1552624255 0.1552624255 0.1552624255
0.1558537334 0.1558537334 0.1558537334
0.1564457566 0.1564457566 0.1564457566
0.1570362300 0.1570362300 0.1570362300
0.1576251090 0.1576251090 0.1576251090
0.1582131237 0.1582131237 0.1582131237
0.1588010192 0.1588010192 0.1588010192
0.1593864709 0.1593864709 0.1593864709
0.1599732786 0.1599732786 0.1599732786
0.1605575830 0.1605575830 0.1605575830
0.1611401141 0.1611401141 0.1611401141
0.1617224067 0.1617224067 0.1617224067
0.1623044461 0.1623044461 0.1623044461
0.1628838331 0.1628838331 0.1628838331
0.1634636968 0.1634636968 0.1634636968
0.1640408784 0.1640408784 0.1640408784
0.1646192670 0.1646192670 0.1646192670
0.1651957035 0.1651957035 0.1651957035
0.1657709330 0.1657709330 0.1657709330
0.1663449556 0.1663449556 0.1663449556
0.1669185311 0.1669185311 0.1669185311
0.1674916446 0.1674916446 0.1674916446
0.1680634618 0.1680634618 0.1680634618
0.1686339676 0.1686339676 0.1686339676
0.1692039371 0.1692039371 0.1692039371
0.1697709262 0.1697709262 0.1697709262
0.1703397930 0.1703397930 0.1703397930
0.1709056050 0.1709056050 0.1709056050
0.1714732647 0.1714732647 0.1714732647
0.1720370054 0.1720370054 0.1720370054
0.1726009250 0.1726009250 0.1726009250
0.1731641740 0.1731641740 0.1731641740
0.1737250537 0.1737250537 0.1737250537
0.1742877364 0.1742877364 0.1742877364
0.1748471707 0.1748471707 0.1748471707
0.1754066944 0.1754066944 0.1754066944
0.1759654433 0.1759654433 0.1759654433
0.1765225679 0.1765225679 0.1765225679
0.1770788729 0.1770788729 0.1770788729
0.1776343584 0.1776343584 0.1776343584
0.1781898439 0.1781898439 0.1781898439
0.1787436157 0.1787436157 0.1787436157
0.1792956442 0.1792956442 0.1792956442
0.1798476279 0.1798476279 0.1798476279
0.1803986728 0.1803986728 0.1803986728
0.1809487939 0.1809487939 0.1809487939
0.1814988256 0.1814988256 0.1814988256
0.1820470095 0.1820470095 0.1820470095
0.1825942099 0.1825942099 0.1825942099
0.1831403822 0.1831403822 0.1831403822
0.1836855263 0.1836855263 0.1836855263
0.1842304915 0.1842304915 0.1842304915
0.1847744137 0.1847744137 0.1847744137
0.1853181273 0.1853181273 0.1853181273
0.1858589649 0.1858589649 0.1858589649
0.1864004582 0.1864004582 0.1864004582
0.1869417131 0.1869417131 0.1869417131
0.1874809265 0.1874809265 0.1874809265
0.1880198717 0.1880198717 0.1880198717
0.1885585338 0.1885585338 0.1885585338
0.1890941858 0.1890941858 0.1890941858
0.1896304190 0.1896304190 0.1896304190
0.1901654154 0.1901654154 0.1901654154
0.1907010078 0.1907010078 0.1907010078
0.1912334859 0.1912334859 0.1912334859
0.1917674243 0.1917674243 0.1917674243
0.1922982335 0.1922982335 0.1922982335
0.1928295642 0.1928295642 0.1928295642
0.1933595538 0.1933595538 0.1933595538
0.1938882023 0.1938882023 0.1938882023
0.1944173276 0.1944173276 0.1944173276
0.1949441582 0.1949441582 0.1949441582
0.1954714507 0.1954714507 0.1954714507
0.1959973276 0.1959973276 0.1959973276
0.1965227127 0.1965227127 0.1965227127
0.1970476061 0.1970476061 0.1970476061
0.1975719929 0.1975719929 0.1975719929
0.1980939358 0.1980939358 0.1980939358
0.1986144036 0.1986144036 0.1986144036
0.1991362125 0.1991362125 0.1991362125
0.1996574551 0.1996574551 0.1996574551
0.2001762092 0.2001762092 0.2001762092
0.2006943673 0.2006943673 0.2006943673
0.2012128830 0.2012128830 0.2012128830
0.2017288655 0.2017288655 0.2017288655
0.2022461444 0.2022461444 0.2022461444
0.2027618140 0.2027618140 0.2027618140
0.2032748759 0.2032748759 0.2032748759
0.2037902027 0.2037902027 0.2037902027
0.2043029070 0.2043029070 0.2043029070
0.2048149109 0.2048149109 0.2048149109
0.2053262144 0.2053262144 0.2053262144
0.2058378011 0.2058378011 0.2058378011
0.2063466758 0.2063466758 0.2063466758
0.2068568021 0.2068568021 0.2068568021
0.2073632032 0.2073632032 0.2073632032
0.2078708261 0.2078708261 0.2078708261
0.2083786726 0.2083786726 0.2083786726
0.2088847458 0.2088847458 0.2088847458
0.2093900144 0.2093900144 0.2093900144
0.2098954916 0.2098954916 0.2098954916
0.2103981376 0.2103981376 0.2103981376
0.2109019756 0.2109019756 0.2109019756
0.2114039660 0.2114039660 0.2114039660
0.2119061053 0.2119061053 0.2119061053
0.2124063820 0.2124063820 0.2124063820
0.2129057795 0.2129057795 0.2129057795
0.2134053260 0.2134053260 0.2134053260
0.2139029354 0.2139029354 0.2139029354
0.2144006789 0.2144006789 0.2144006789
0.2148974985 0.2148974985 0.2148974985
0.2153944224 0.2153944224 0.2153944224
0.2158904076 0.2158904076 0.2158904076
0.2163854539 0.2163854539 0.2163854539
0.2168785036 0.2168785036 0.2168785036
0.2173716128 0.2173716128 0.2173716128
0.2178647965 0.2178647965 0.2178647965
0.2183569819 0.2183569819 0.2183569819
0.2188471258 0.2188471258 0.2188471258
0.2193383574 0.2193383574 0.2193383574
0.2198285758 0.2198285758 0.2198285758
0.2203156352 0.2203156352 0.2203156352
0.2208058983 0.2208058983 0.2208058983
0.2212929875 0.2212929875 0.2212929875
0.2217790037 0.2217790037 0.2217790037
0.2222650200 0.2222650200 0.2222650200
0.2227510214 0.2227510214 0.2227510214
0.2232359350 0.2232359350 0.2232359350
0.2237208188 0.2237208188 0.2237208188
0.2242035121 0.2242035121 0.2242035121
0.2246850878 0.2246850878 0.2246850878
0.2251676768 0.2251676768 0.2251676768
0.2256491482 0.2256491482 0.2256491482
0.2261283696 0.2261283696 0.2261283696
0.2266086042 0.2266086042 0.2266086042
0.2270876616 0.2270876616 0.2270876616
0.2275655419 0.2275655419 0.2275655419
0.2280433327 0.2280433327 0.2280433327
0.2285199165 0.2285199165 0.2285199165
0.2289963812 0.2289963812 0.2289963812
0.2294716388 0.2294716388 0.2294716388
0.2299478799 0.2299478799 0.2299478799
0.2304217666 0.2304217666 0.2304217666
0.2308955193 0.2308955193 0.2308955193
0.2313680202 0.2313680202 0.2313680202
0.2318403721 0.2318403721 0.2318403721
0.2323114425 0.2323114425 0.2323114425
0.2327823490 0.2327823490 0.2327823490
0.2332541943 0.2332541943 0.2332541943
0.2337225080 0.2337225080 0.2337225080
0.2341917604 0.2341917604 0.2341917604
0.2346608043 0.2346608043 0.2346608043
0.2351274192 0.2351274192 0.2351274192
0.2355926782 0.2355926782 0.2355926782
0.2360611111 0.2360611111 0.2360611111
0.2365270555 0.2365270555 0.2365270555
0.2369905263 0.2369905263 0.2369905263
0.2374560088 0.2374560088 0.2374560088
0.2379190028 0.2379190028 0.2379190028
0.2383817285 0.2383817285 0.2383817285
0.2388442010 0.2388442010 0.2388442010
0.2393052727 0.2393052727 0.2393052727
0.2397672236 0.2397672236 0.2397672236
0.2402266115 0.2402266115 0.2402266115
0.2406880111 0.2406880111 0.2406880111
0.2411468178 0.2411468178 0.2411468178
0.2416065037 0.2416065037 0.2416065037
0.2420624197 0.2420624197 0.2420624197
0.2425191700 0.2425191700 0.2425191700
0.2429767847 0.2429767847 0.2429767847
0.2434329242 0.2434329242 0.2434329242
0.2438875735 0.2438875735 0.2438875735
0.2443430573 0.2443430573 0.2443430573
0.2447970361 0.2447970361 0.2447970361
0.2452506870 0.2452506870 0.2452506870
0.2457028031 0.2457028031 0.2457028031
0.2461557388 0.2461557388 0.2461557388
0.2466083318 0.2466083318 0.2466083318
0.2470570207 0.2470570207 0.2470570207
0.2475088686 0.2475088686 0.2475088686
0.2479591817 0.2479591817 0.2479591817
0.2484079152 0.2484079152 0.2484079152
0.2488574386 0.2488574386 0.2488574386
0.2493053973 0.2493053973 0.2493053973
0.2497517616 0.2497517616 0.2497517616
0.2501977086 0.2501977086 0.2501977086
0.2506444454 0.2506444454 0.2506444454
0.2510895729 0.2510895729 0.2510895729
0.2515354753 0.2515354753 0.2515354753
0.2519785464 0.2519785464 0.2519785464
0.2524236143 0.2524236143 0.2524236143
0.2528657913 0.2528657913 0.2528657913
0.2533099651 0.2533099651 0.2533099651
0.2537512779 0.2537512779 0.2537512779
0.2541933358 0.2541933358 0.2541933358
0.2546325028 0.2546325028 0.2546325028
0.2550736368 0.2550736368 0.2550736368
0.2555131018 0.2555131018 0.2555131018
0.2559508383 0.2559508383 0.2559508383
0.2563905716 0.2563905716 0.2563905716
0.2568273544 0.2568273544 0.2568273544
0.2572648525 0.2572648525 0.2572648525
0.2577030957 0.2577030957 0.2577030957
0.2581383884 0.2581383884 0.2581383884
0.2585731745 0.2585731745 0.2585731745
0.2590086758 0.2590086758 0.2590086758
0.2594436407 0.2594436407 0.2594436407
0.2598768473 0.2598768473 0.2598768473
0.2603107989 0.2603107989 0.2603107989
0.2607429326 0.2607429326 0.2607429326
0.2611745596 0.2611745596 0.2611745596
0.2616068721 0.2616068721 0.2616068721
0.2620386481 0.2620386481 0.2620386481
0.2624673545 0.2624673545 0.2624673545
0.2628980279 0.2628980279 0.2628980279
0.2633268535 0.2633268535 0.2633268535
0.2637563944 0.2637563944 0.2637563944
0.2641828358 0.2641828358 0.2641828358
0.2646112144 0.2646112144 0.2646112144
0.2650377452 0.2650377452 0.2650377452
0.2654649615 0.2654649615 0.2654649615
0.2658928633 0.2658928633 0.2658928633
0.2663163543 0.2663163543 0.2663163543
0.2667405009 0.2667405009 0.2667405009
0.2671665847 0.2671665847 0.2671665847
0.2675895095 0.2675895095 0.2675895095
0.2680130899 0.2680130899 0.2680130899
0.2684360743 0.2684360743 0.2684360743
0.2688584030 0.2688584030 0.2688584030
0.2692801356 0.2692801356 0.2692801356
0.2697012126 0.2697012126 0.2697012126
0.2701216340 0.2701216340 0.2701216340
0.2705401480 0.2705401480 0.2705401480
0.2709618807 0.2709618807 0.2709618807
0.2713790536 0.2713790536 0.2713790536
0.2717994750 0.2717994750 0.2717994750
0.2722166479 0.2722166479 0.2722166479
0.2726331353 0.2726331353 0.2726331353
0.2730515599 0.2730515599 0.2730515599
0.2734680176 0.2734680176 0.2734680176
0.2738824487 0.2738824487 0.2738824487
0.2742975354 0.2742975354 0.2742975354
0.2747132480 0.2747132480 0.2747132480
0.2751256227 0.2751256227 0.2751256227
0.2755412459 0.2755412459 0.2755412459
0.2759535313 0.2759535313 0.2759535313
0.2763664126 0.2763664126 0.2763664126
0.2767786086 0.2767786086 0.2767786086
0.2771900594 0.2771900594 0.2771900594
0.2776008248 0.2776008248 0.2776008248
0.2780121565 0.2780121565 0.2780121565
0.2784214616 0.2784214616 0.2784214616
0.2788299918 0.2788299918 0.2788299918
0.2792404890 0.2792404890 0.2792404890
0.2796488702 0.2796488702 0.2796488702
0.2800565362 0.2800565362 0.2800565362
0.2804647684 0.2804647684 0.2804647684
0.2808722556 0.2808722556 0.2808722556
0.2812776268 0.2812776268 0.2812776268
0.2816835940 0.2816835940 0.2816835940
0.2820887864 0.2820887864 0.2820887864
0.2824945748 0.2824945748 0.2824945748
0.2828982174 0.2828982174 0.2828982174
0.2833037674 0.2833037674 0.2833037674
0.2837072015 0.2837072015 0.2837072015
0.2841098607 0.2841098607 0.2841098607
0.2845130563 0.2845130563 0.2845130563
0.2849141061 0.2849141061 0.2849141061
0.2853156924 0.2853156924 0.2853156924
0.2857165039 0.2857165039 0.2857165039
0.2861192226 0.2861192226 0.2861192226
0.2865184247 0.2865184247 0.2865184247
0.2869167626 0.2869167626 0.2869167626
0.2873170376 0.2873170376 0.2873170376
0.2877151370 0.2877151370 0.2877151370
0.2881137729 0.2881137729 0.2881137729
0.2885115445 0.2885115445 0.2885115445
0.2889098823 0.2889098823 0.2889098823
0.2893046439 0.2893046439 0.2893046439
0.2897026539 0.2897026539 0.2897026539
0.2900970876 0.2900970876 0.2900970876
0.2904920280 0.2904920280 0.2904920280
0.2908861339 0.2908861339 0.2908861339
0.2912821472 0.2912821472 0.2912821472
0.2916758955 0.2916758955 0.2916758955
0.2920701802 0.2920701802 0.2920701802
0.2924621999 0.2924621999 0.2924621999
0.2928547561 0.2928547561 0.2928547561
0.2932464182 0.2932464182 0.2932464182
0.2936385870 0.2936385870 0.2936385870
0.2940298915 0.2940298915 0.2940298915
0.2944188714 0.2944188714 0.2944188714
0.2948097885 0.2948097885 0.2948097885
0.2951998115 0.2951998115 0.2951998115
0.2955875099 0.2955875099 0.2955875099
0.2959771156 0.2959771156 0.2959771156
0.2963658273 0.2963658273 0.2963658273
0.2967536151 0.2967536151 0.2967536151
0.2971405089 0.2971405089 0.2971405089
0.2975278795 0.2975278795 0.2975278795
0.2979143560 0.2979143560 0.2979143560
0.2983012795 0.2983012795 0.2983012795
0.2986858785 0.2986858785 0.2986858785
0.2990709841 0.2990709841 0.2990709841
0.2994565666 0.2994565666 0.2994565666
0.2998411953 0.2998411953 0.2998411953
0.3002234399 0.3002234399 0.3002234399
0.3006090522 0.3006090522 0.3006090522
0.3009894192 0.3009894192 0.3009894192
0.3013716638 0.3013716638 0.3013716638
0.3017529845 0.3017529845 0.3017529845
0.3021362126 0.3021362126 0.3021362126
0.3025170267 0.3025170267 0.3025170267
0.3028968573 0.3028968573 0.3028968573
0.3032786250 0.3032786250 0.3032786250
0.3036579788 0.3036579788 0.3036579788
0.3040377796 0.3040377796 0.3040377796
0.3044151664 0.3044151664 0.3044151664
0.3047944605 0.3047944605 0.3047944605
0.3051727414 0.3051727414 0.3051727414
0.3055515289 0.3055515289 0.3055515289
0.3059278429 0.3059278429 0.3059278429
0.3063046038 0.3063046038 0.3063046038
0.3066803515 0.3066803515 0.3066803515
0.3070565760 0.3070565760 0.3070565760
0.3074317873 0.3074317873 0.3074317873
0.3078074455 0.3078074455 0.3078074455
0.3081820905 0.3081820905 0.3081820905
0.3085542321 0.3085542321 0.3085542321
0.3089283109 0.3089283109 0.3089283109
0.3093028069 0.3093028069 0.3093028069
0.3096748292 0.3096748292 0.3096748292
0.3100472689 0.3100472689 0.3100472689
0.3104186952 0.3104186952 0.3104186952
0.3107920289 0.3107920289 0.3107920289
0.3111628294 0.3111628294 0.3111628294
0.3115340769 0.3115340769 0.3115340769
0.3119042814 0.3119042814 0.3119042814
0.3122734129 0.3122734129 0.3122734129
0.3126444817 0.3126444817 0.3126444817
0.3130129874 0.3130129874 0.3130129874
0.3133819401 0.3133819401 0.3133819401
0.3137498200 0.3137498200 0.3137498200
0.3141165972 0.3141165972 0.3141165972
0.3144838214 0.3144838214 0.3144838214
0.3148514926 0.3148514926 0.3148514926
0.3152180612 0.3152180612 0.3152180612
0.3155850470 0.3155850470 0.3155850470
0.3159509599 0.3159509599 0.3159509599
0.3163142800 0.3163142800 0.3163142800
0.3166795075 0.3166795075 0.3166795075
0.3170451522 0.3170451522 0.3170451522
0.3174096942 0.3174096942 0.3174096942
0.3177716434 0.3177716434 0.3177716434
0.3181370199 0.3181370199 0.3181370199
0.3184997737 0.3184997737 0.3184997737
0.3188613951 0.3188613951 0.3188613951
0.3192234635 0.3192234635 0.3192234635
0.3195859194 0.3195859194 0.3195859194
0.3199472427 0.3199472427 0.3199472427
0.3203074634 0.3203074634 0.3203074634
0.3206695914 0.3206695914 0.3206695914
0.3210290670 0.3210290670 0.3210290670
0.3213889599 0.3213889599 0.3213889599
0.3217461705 0.3217461705 0.3217461705
0.3221083879 0.3221083879 0.3221083879
0.3224648535 0.3224648535 0.3224648535
0.3228232265 0.3228232265 0.3228232265
0.3231820166 0.3231820166 0.3231820166
0.3235396445 0.3235396445 0.3235396445
0.3238976896 0.3238976896 0.3238976896
0.3242514729 0.3242514729 0.3242514729
0.3246102631 0.3246102631 0.3246102631
0.3249648213 0.3249648213 0.3249648213
0.3253197372 0.3253197372 0.3253197372
0.3256766200 0.3256766200 0.3256766200
0.3260292113 0.3260292113 0.3260292113
0.3263852894 0.3263852894 0.3263852894
0.3267386258 0.3267386258 0.3267386258
0.3270923495 0.3270923495 0.3270923495
0.3274449110 0.3274449110 0.3274449110
0.3277978301 0.3277978301 0.3277978301
0.3281495571 0.3281495571 0.3281495571
