HDR ST 2084/Gamma 2.4 to HDR 2000 nits.cube
# DaVinci Resolve Cube (1D shaper LUT).

LUT_1D_SIZE 4096
LUT_1D_INPUT_RANGE 0.0000000000 3.4841418771

0.0000007310 0.0000007310 0.0000007310
0.0002657637 0.0002657637 0.0002657637
0.0006944234 0.0006944234 0.0006944234
0.0012313974 0.0012313974 0.0012313974
0.0018493467 0.0018493467 0.0018493467
0.0025310563 0.0025310563 0.0025310563
0.0032644938 0.0032644938 0.0032644938
0.0040407958 0.0040407958 0.0040407958
0.0048529822 0.0048529822 0.0048529822
0.0056957128 0.0056957128 0.0056957128
0.0065644933 0.0065644933 0.0065644933
0.0074556414 0.0074556414 0.0074556414
0.0083662691 0.0083662691 0.0083662691
0.0092935804 0.0092935804 0.0092935804
0.0102356123 0.0102356123 0.0102356123
0.0111902840 0.0111902840 0.0111902840
0.0121561047 0.0121561047 0.0121561047
0.0131315058 0.0131315058 0.0131315058
0.0141153904 0.0141153904 0.0141153904
0.0151064880 0.0151064880 0.0151064880
0.0161038302 0.0161038302 0.0161038302
0.0171068553 0.0171068553 0.0171068553
0.0181141905 0.0181141905 0.0181141905
0.0191258173 0.0191258173 0.0191258173
0.0201406050 0.0201406050 0.0201406050
0.0211584419 0.0211584419 0.0211584419
0.0221784152 0.0221784152 0.0221784152
0.0232003126 0.0232003126 0.0232003126
0.0242234003 0.0242234003 0.0242234003
0.0252478328 0.0252478328 0.0252478328
0.0262728315 0.0262728315 0.0262728315
0.0272983108 0.0272983108 0.0272983108
0.0283239894 0.0283239894 0.0283239894
0.0293493085 0.0293493085 0.0293493085
0.0303745270 0.0303745270 0.0303745270
0.0313991457 0.0313991457 0.0313991457
0.0324226841 0.0324226841 0.0324226841
0.0334456563 0.0334456563 0.0334456563
0.0344671682 0.0344671682 0.0344671682
0.0354876183 0.0354876183 0.0354876183
0.0365067385 0.0365067385 0.0365067385
0.0375242159 0.0375242159 0.0375242159
0.0385402218 0.0385402218 0.0385402218
0.0395541303 0.0395541303 0.0395541303
0.0405665562 0.0405665562 0.0405665562
0.0415766798 0.0415766798 0.0415766798
0.0425849594 0.0425849594 0.0425849594
0.0435913615 0.0435913615 0.0435913615
0.0445955060 0.0445955060 0.0445955060
0.0455970727 0.0455970727 0.0455970727
0.0465966985 0.0465966985 0.0465966985
0.0475940071 0.0475940071 0.0475940071
0.0485888906 0.0485888906 0.0485888906
0.0495813005 0.0495813005 0.0495813005
0.0505712517 0.0505712517 0.0505712517
0.0515585691 0.0515585691 0.0515585691
0.0525433756 0.0525433756 0.0525433756
0.0535256006 0.0535256006 0.0535256006
0.0545054786 0.0545054786 0.0545054786
0.0554827787 0.0554827787 0.0554827787
0.0564572811 0.0564572811 0.0564572811
0.0574288107 0.0574288107 0.0574288107
0.0583980605 0.0583980605 0.0583980605
0.0593646578 0.0593646578 0.0593646578
0.0603279509 0.0603279509 0.0603279509
0.0612890646 0.0612890646 0.0612890646
0.0622477159 0.0622477159 0.0622477159
0.0632030144 0.0632030144 0.0632030144
0.0641559288 0.0641559288 0.0641559288
0.0651062354 0.0651062354 0.0651062354
0.0660534054 0.0660534054 0.0660534054
0.0669978783 0.0669978783 0.0669978783
0.0679398328 0.0679398328 0.0679398328
0.0688784420 0.0688784420 0.0688784420
0.0698149279 0.0698149279 0.0698149279
0.0707485005 0.0707485005 0.0707485005
0.0716794208 0.0716794208 0.0716794208
0.0726072565 0.0726072565 0.0726072565
0.0735330209 0.0735330209 0.0735330209
0.0744548887 0.0744548887 0.0744548887
0.0753749833 0.0753749833 0.0753749833
0.0762922317 0.0762922317 0.0762922317
0.0772069991 0.0772069991 0.0772069991
0.0781181827 0.0781181827 0.0781181827
0.0790269449 0.0790269449 0.0790269449
0.0799329504 0.0799329504 0.0799329504
0.0808362663 0.0808362663 0.0808362663
0.0817377642 0.0817377642 0.0817377642
0.0826355591 0.0826355591 0.0826355591
0.0835305303 0.0835305303 0.0835305303
0.0844227895 0.0844227895 0.0844227895
0.0853137001 0.0853137001 0.0853137001
0.0862009302 0.0862009302 0.0862009302
0.0870854557 0.0870854557 0.0870854557
0.0879678577 0.0879678577 0.0879678577
0.0888474509 0.0888474509 0.0888474509
0.0897248685 0.0897248685 0.0897248685
0.0905985385 0.0905985385 0.0905985385
0.0914699808 0.0914699808 0.0914699808
0.0923394039 0.0923394039 0.0923394039
0.0932061523 0.0932061523 0.0932061523
0.0940695480 0.0940695480 0.0940695480
0.0949311778 0.0949311778 0.0949311778
0.0957899392 0.0957899392 0.0957899392
0.0966470093 0.0966470093 0.0966470093
0.0975003242 0.0975003242 0.0975003242
0.0983525068 0.0983525068 0.0983525068
0.0992005244 0.0992005244 0.0992005244
0.1000475213 0.1000475213 0.1000475213
0.1008909270 0.1008909270 0.1008909270
0.1017319933 0.1017319933 0.1017319933
0.1025715545 0.1025715545 0.1025715545
0.1034079492 0.1034079492 0.1034079492
0.1042419970 0.1042419970 0.1042419970
0.1050730348 0.1050730348 0.1050730348
0.1059039608 0.1059039608 0.1059039608
0.1067300141 0.1067300141 0.1067300141
0.1075551584 0.1075551584 0.1075551584
0.1083766371 0.1083766371 0.1083766371
0.1091969237 0.1091969237 0.1091969237
0.1100148335 0.1100148335 0.1100148335
0.1108307540 0.1108307540 0.1108307540
0.1116423979 0.1116423979 0.1116423979
0.1124533936 0.1124533936 0.1124533936
0.1132619977 0.1132619977 0.1132619977
0.1140669733 0.1140669733 0.1140669733
0.1148714870 0.1148714870 0.1148714870
0.1156732291 0.1156732291 0.1156732291
0.1164714918 0.1164714918 0.1164714918
0.1172683984 0.1172683984 0.1172683984
0.1180644184 0.1180644184 0.1180644184
0.1188560203 0.1188560203 0.1188560203
0.1196476594 0.1196476594 0.1196476594
0.1204340383 0.1204340383 0.1204340383
0.1212208346 0.1212208346 0.1212208346
0.1220044643 0.1220044643 0.1220044643
0.1227865815 0.1227865815 0.1227865815
0.1235646978 0.1235646978 0.1235646978
0.1243428886 0.1243428886 0.1243428886
0.1251186728 0.1251186728 0.1251186728
0.1258925498 0.1258925498 0.1258925498
0.1266632080 0.1266632080 0.1266632080
0.1274323761 0.1274323761 0.1274323761
0.1281981170 0.1281981170 0.1281981170
0.1289634109 0.1289634109 0.1289634109
0.1297257245 0.1297257245 0.1297257245
0.1304874569 0.1304874569 0.1304874569
0.1312453598 0.1312453598 0.1312453598
0.1320025325 0.1320025325 0.1320025325
0.1327569634 0.1327569634 0.1327569634
0.1335098743 0.1335098743 0.1335098743
0.1342611611 0.1342611611 0.1342611611
0.1350094676 0.1350094676 0.1350094676
0.1357560009 0.1357560009 0.1357560009
0.1365013570 0.1365013570 0.1365013570
0.1372434646 0.1372434646 0.1372434646
0.1379842311 0.1379842311 0.1379842311
0.1387229413 0.1387229413 0.1387229413
0.1394601762 0.1394601762 0.1394601762
0.1401952058 0.1401952058 0.1401952058
0.1409272552 0.1409272552 0.1409272552
0.1416596770 0.1416596770 0.1416596770
0.1423889995 0.1423889995 0.1423889995
0.1431165040 0.1431165040 0.1431165040
0.1438414603 0.1438414603 0.1438414603
0.1445651501 0.1445651501 0.1445651501
0.1452875435 0.1452875435 0.1452875435
0.1460078806 0.1460078806 0.1460078806
0.1467260867 0.1467260867 0.1467260867
0.1474428028 0.1474428028 0.1474428028
0.1481572837 0.1481572837 0.1481572837
0.1488694400 0.1488694400 0.1488694400
0.1495799273 0.1495799273 0.1495799273
0.1502908766 0.1502908766 0.1502908766
0.1509971768 0.1509971768 0.1509971768
0.1517030895 0.1517030895 0.1517030895
0.1524071246 0.1524071246 0.1524071246
0.1531092376 0.1531092376 0.1531092376
0.1538093537 0.1538093537 0.1538093537
0.1545081735 0.1545081735 0.1545081735
0.1552056521 0.1552056521 0.1552056521
0.1559009850 0.1559009850 0.1559009850
0.1565941125 0.1565941125 0.1565941125
0.1572865099 0.1572865099 0.1572865099
0.1579765975 0.1579765975 0.1579765975
0.1586651057 0.1586651057 0.1586651057
0.1593519747 0.1593519747 0.1593519747
0.1600363851 0.1600363851 0.1600363851
0.1607198268 0.1607198268 0.1607198268
0.1614022851 0.1614022851 0.1614022851
0.1620829105 0.1620829105 0.1620829105
0.1627608985 0.1627608985 0.1627608985
0.1634385437 0.1634385437 0.1634385437
0.1641134620 0.1641134620 0.1641134620
0.1647871584 0.1647871584 0.1647871584
0.1654596031 0.1654596031 0.1654596031
0.1661299765 0.1661299765 0.1661299765
0.1667990088 0.1667990088 0.1667990088
0.1674666852 0.1674666852 0.1674666852
0.1681321412 0.1681321412 0.1681321412
0.1687969714 0.1687969714 0.1687969714
0.1694595069 0.1694595069 0.1694595069
0.1701205224 0.1701205224 0.1701205224
0.1707799733 0.1707799733 0.1707799733
0.1714386642 0.1714386642 0.1714386642
0.1720957160 0.1720957160 0.1720957160
0.1727502793 0.1727502793 0.1727502793
0.1734031439 0.1734031439 0.1734031439
0.1740559191 0.1740559191 0.1740559191
0.1747069359 0.1747069359 0.1747069359
0.1753544509 0.1753544509 0.1753544509
0.1760026515 0.1760026515 0.1760026515
0.1766489595 0.1766489595 0.1766489595
0.1772942245 0.1772942245 0.1772942245
0.1779375225 0.1779375225 0.1779375225
0.1785779893 0.1785779893 0.1785779893
0.1792190075 0.1792190075 0.1792190075
0.1798571199 0.1798571199 0.1798571199
0.1804957390 0.1804957390 0.1804957390
0.1811305135 0.1811305135 0.1811305135
0.1817666143 0.1817666143 0.1817666143
0.1823996603 0.1823996603 0.1823996603
0.1830304861 0.1830304861 0.1830304861
0.1836608350 0.1836608350 0.1836608350
0.1842906624 0.1842906624 0.1842906624
0.1849164069 0.1849164069 0.1849164069
0.1855424643 0.1855424643 0.1855424643
0.1861679405 0.1861679405 0.1861679405
0.1867928058 0.1867928058 0.1867928058
0.1874134392 0.1874134392 0.1874134392
0.1880334020 0.1880334020 0.1880334020
0.1886526793 0.1886526793 0.1886526793
0.1892712414 0.1892712414 0.1892712414
0.1898881644 0.1898881644 0.1898881644
0.1905034184 0.1905034184 0.1905034184
0.1911169589 0.1911169589 0.1911169589
0.1917296946 0.1917296946 0.1917296946
0.1923406869 0.1923406869 0.1923406869
0.1929508150 0.1929508150 0.1929508150
0.1935609877 0.1935609877 0.1935609877
0.1941674948 0.1941674948 0.1941674948
0.1947730631 0.1947730631 0.1947730631
0.1953786165 0.1953786165 0.1953786165
0.1959813386 0.1959813386 0.1959813386
0.1965830624 0.1965830624 0.1965830624
0.1971856654 0.1971856654 0.1971856654
0.1977853477 0.1977853477 0.1977853477
0.1983820796 0.1983820796 0.1983820796
0.1989796162 0.1989796162 0.1989796162
0.1995751113 0.1995751113 0.1995751113
0.2001704574 0.2001704574 0.2001704574
0.2007646561 0.2007646561 0.2007646561
0.2013557553 0.2013557553 0.2013557553
0.2019476295 0.2019476295 0.2019476295
0.2025373131 0.2025373131 0.2025373131
0.2031267583 0.2031267583 0.2031267583
0.2037130147 0.2037130147 0.2037130147
0.2042999715 0.2042999715 0.2042999715
0.2048846483 0.2048846483 0.2048846483
0.2054680288 0.2054680288 0.2054680288
0.2060510814 0.2060510814 0.2060510814
0.2066317946 0.2066317946 0.2066317946
0.2072121501 0.2072121501 0.2072121501
0.2077921033 0.2077921033 0.2077921033
0.2083696723 0.2083696723 0.2083696723
0.2089458257 0.2089458257 0.2089458257
0.2095205337 0.2095205337 0.2095205337
0.2100958079 0.2100958079 0.2100958079
0.2106695920 0.2106695920 0.2106695920
0.2112408876 0.2112408876 0.2112408876
0.2118126899 0.2118126899 0.2118126899
0.2123819590 0.2123819590 0.2123819590
0.2129496634 0.2129496634 0.2129496634
0.2135178447 0.2135178447 0.2135178447
0.2140834332 0.2140834332 0.2140834332
0.2146504819 0.2146504819 0.2146504819
0.2152138650 0.2152138650 0.2152138650
0.2157776803 0.2157776803 0.2157776803
0.2163387984 0.2163387984 0.2163387984
0.2168992907 0.2168992907 0.2168992907
0.2174591273 0.2174591273 0.2174591273
0.2180172503 0.2180172503 0.2180172503
0.2185736448 0.2185736448 0.2185736448
0.2191324979 0.2191324979 0.2191324979
0.2196874917 0.2196874917 0.2196874917
0.2202417701 0.2202417701 0.2202417701
0.2207942605 0.2207942605 0.2207942605
0.2213459909 0.2213459909 0.2213459909
0.2218980193 0.2218980193 0.2218980193
0.2224471569 0.2224471569 0.2224471569
0.2229976207 0.2229976207 0.2229976207
0.2235440761 0.2235440761 0.2235440761
0.2240907848 0.2240907848 0.2240907848
0.2246377468 0.2246377468 0.2246377468
0.2251816988 0.2251816988 0.2251816988
0.2257248014 0.2257248014 0.2257248014
0.2262691855 0.2262691855 0.2262691855
0.2268105298 0.2268105298 0.2268105298
0.2273509800 0.2273509800 0.2273509800
0.2278894186 0.2278894186 0.2278894186
0.2284302115 0.2284302115 0.2284302115
0.2289667875 0.2289667875 0.2289667875
0.2295035124 0.2295035124 0.2295035124
0.2300392687 0.2300392687 0.2300392687
0.2305729538 0.2305729538 0.2305729538
0.2311078608 0.2311078608 0.2311078608
0.2316406667 0.2316406667 0.2316406667
0.2321702540 0.2321702540 0.2321702540
0.2327021360 0.2327021360 0.2327021360
0.2332329899 0.2332329899 0.2332329899
0.2337605506 0.2337605506 0.2337605506
0.2342881858 0.2342881858 0.2342881858
0.2348147482 0.2348147482 0.2348147482
0.2353402227 0.2353402227 0.2353402227
0.2358657271 0.2358657271 0.2358657271
0.2363889962 0.2363889962 0.2363889962
0.2369122654 0.2369122654 0.2369122654
0.2374344170 0.2374344170 0.2374344170
0.2379542887 0.2379542887 0.2379542887
0.2384752929 0.2384752929 0.2384752929
0.2389939874 0.2389939874 0.2389939874
0.2395126373 0.2395126373 0.2395126373
0.2400301099 0.2400301099 0.2400301099
0.2405463904 0.2405463904 0.2405463904
0.2410614491 0.2410614491 0.2410614491
0.2415764481 0.2415764481 0.2415764481
0.2420890629 0.2420890629 0.2420890629
0.2426027358 0.2426027358 0.2426027358
0.2431140095 0.2431140095 0.2431140095
0.2436240017 0.2436240017 0.2436240017
0.2441350669 0.2441350669 0.2441350669
0.2446436733 0.2446436733 0.2446436733
0.2451509684 0.2451509684 0.2451509684
0.2456593215 0.2456593215 0.2456593215
0.2461663485 0.2461663485 0.2461663485
0.2466708720 0.2466708720 0.2466708720
0.2471752316 0.2471752316 0.2471752316
0.2476782352 0.2476782352 0.2476782352
0.2481810749 0.2481810749 0.2481810749
0.2486837208 0.2486837208 0.2486837208
0.2491849959 0.2491849959 0.2491849959
0.2496836782 0.2496836782 0.2496836782
0.2501833439 0.2501833439 0.2501833439
0.2506828010 0.2506828010 0.2506828010
0.2511808574 0.2511808574 0.2511808574
0.2516762614 0.2516762614 0.2516762614
0.2521726489 0.2521726489 0.2521726489
0.2526675761 0.2526675761 0.2526675761
0.2531610131 0.2531610131 0.2531610131
0.2536542118 0.2536542118 0.2536542118
0.2541471422 0.2541471422 0.2541471422
0.2546386123 0.2546386123 0.2546386123
0.2551297545 0.2551297545 0.2551297545
0.2556181848 0.2556181848 0.2556181848
0.2561075389 0.2561075389 0.2561075389
0.2565978169 0.2565978169 0.2565978169
0.2570853531 0.2570853531 0.2570853531
0.2575713098 0.2575713098 0.2575713098
0.2580569685 0.2580569685 0.2580569685
0.2585410178 0.2585410178 0.2585410178
0.2590259910 0.2590259910 0.2590259910
0.2595093846 0.2595093846 0.2595093846
0.2599911690 0.2599911690 0.2599911690
0.2604738474 0.2604738474 0.2604738474
0.2609536648 0.2609536648 0.2609536648
0.2614343762 0.2614343762 0.2614343762
0.2619146705 0.2619146705 0.2619146705
0.2623933554 0.2623933554 0.2623933554
0.2628703713 0.2628703713 0.2628703713
0.2633482516 0.2633482516 0.2633482516
0.2638232112 0.2638232112 0.2638232112
0.2642990351 0.2642990351 0.2642990351
0.2647731602 0.2647731602 0.2647731602
0.2652481198 0.2652481198 0.2652481198
0.2657200992 0.2657200992 0.2657200992
0.2661929131 0.2661929131 0.2661929131
0.2666627467 0.2666627467 0.2666627467
0.2671346664 0.2671346664 0.2671346664
0.2676035762 0.2676035762 0.2676035762
0.2680745721 0.2680745721 0.2680745721
0.2685412765 0.2685412765 0.2685412765
0.2690087557 0.2690087557 0.2690087557
0.2694770694 0.2694770694 0.2694770694
0.2699422836 0.2699422836 0.2699422836
0.2704083323 0.2704083323 0.2704083323
0.2708738446 0.2708738446 0.2708738446
0.2713362575 0.2713362575 0.2713362575
0.2717994750 0.2717994750 0.2717994750
0.2722608745 0.2722608745 0.2722608745
0.2727243304 0.2727243304 0.2727243304
0.2731846571 0.2731846571 0.2731846571
0.2736457288 0.2736457288 0.2736457288
0.2741049826 0.2741049826 0.2741049826
0.2745649815 0.2745649815 0.2745649815
0.2750218213 0.2750218213 0.2750218213
0.2754780650 0.2754780650 0.2754780650
0.2759350836 0.2759350836 0.2759350836
0.2763915062 0.2763915062 0.2763915062
0.2768460512 0.2768460512 0.2768460512
0.2773013115 0.2773013115 0.2773013115
0.2777533531 0.2777533531 0.2777533531
0.2782074213 0.2782074213 0.2782074213
0.2786609232 0.2786609232 0.2786609232
0.2791111469 0.2791111469 0.2791111469
0.2795620859 0.2795620859 0.2795620859
0.2800137401 0.2800137401 0.2800137401
0.2804620862 0.2804620862 0.2804620862
0.2809111476 0.2809111476 0.2809111476
0.2813569009 0.2813569009 0.2813569009
0.2818060517 0.2818060517 0.2818060517
0.2822518349 0.2822518349 0.2822518349
0.2826983333 0.2826983333 0.2826983333
0.2831441760 0.2831441760 0.2831441760
0.2835893631 0.2835893631 0.2835893631
0.2840325236 0.2840325236 0.2840325236
0.2844777405 0.2844777405 0.2844777405
0.2849181890 0.2849181890 0.2849181890
0.2853620350 0.2853620350 0.2853620350
0.2858011127 0.2858011127 0.2858011127
0.2862422168 0.2862422168 0.2862422168
0.2866826057 0.2866826057 0.2866826057
0.2871209681 0.2871209681 0.2871209681
0.2875599563 0.2875599563 0.2875599563
0.2879968584 0.2879968584 0.2879968584
0.2884344459 0.2884344459 0.2884344459
0.2888712883 0.2888712883 0.2888712883
0.2893087864 0.2893087864 0.2893087864
0.2897427678 0.2897427678 0.2897427678
0.2901760340 0.2901760340 0.2901760340
0.2906113267 0.2906113267 0.2906113267
0.2910444736 0.2910444736 0.2910444736
0.2914782763 0.2914782763 0.2914782763
0.2919085026 0.2919085026 0.2919085026
0.2923407853 0.2923407853 0.2923407853
0.2927722931 0.2927722931 0.2927722931
0.2932016253 0.2932016253 0.2932016253
0.2936315835 0.2936315835 0.2936315835
0.2940593660 0.2940593660 0.2940593660
0.2944891453 0.2944891453 0.2944891453
0.2949153483 0.2949153483 0.2949153483
0.2953421474 0.2953421474 0.2953421474
0.2957695425 0.2957695425 0.2957695425
0.2961947322 0.2961947322 0.2961947322
0.2966191173 0.2966191173 0.2966191173
0.2970440984 0.2970440984 0.2970440984
0.2974682450 0.2974682450 0.2974682450
0.2978915870 0.2978915870 0.2978915870
0.2983140945 0.2983140945 0.2983140945
0.2987357676 0.2987357676 0.2987357676
0.2991566062 0.2991566062 0.2991566062
0.2995780408 0.2995780408 0.2995780408
0.2999971807 0.2999971807 0.2999971807
0.3004169166 0.3004169166 0.3004169166
0.3008357882 0.3008357882 0.3008357882
0.3012537956 0.3012537956 0.3012537956
0.3016723692 0.3016723692 0.3016723692
0.3020886481 0.3020886481 0.3020886481
0.3025054634 0.3025054634 0.3025054634
0.3029199839 0.3029199839 0.3029199839
0.3033365309 0.3033365309 0.3033365309
0.3037521541 0.3037521541 0.3037521541
0.3041654527 0.3041654527 0.3041654527
0.3045807779 0.3045807779 0.3045807779
0.3049922884 0.3049922884 0.3049922884
0.3054057956 0.3054057956 0.3054057956
0.3058154583 0.3058154583 0.3058154583
0.3062286377 0.3062286377 0.3062286377
0.3066379428 0.3066379428 0.3066379428
0.3070477843 0.3070477843 0.3070477843
0.3074567318 0.3074567318 0.3074567318
0.3078647256 0.3078647256 0.3078647256
0.3082761765 0.3082761765 0.3082761765
0.3086823225 0.3086823225 0.3086823225
0.3090904355 0.3090904355 0.3090904355
0.3094946742 0.3094946742 0.3094946742
0.3099009097 0.3099009097 0.3099009097
0.3103076518 0.3103076518 0.3103076518
0.3107119799 0.3107119799 0.3107119799
0.3111168444 0.3111168444 0.3111168444
0.3115206957 0.3115206957 0.3115206957
0.3119251132 0.3119251132 0.3119251132
0.3123270273 0.3123270273 0.3123270273
0.3127279878 0.3127279878 0.3127279878
0.3131294549 0.3131294549 0.3131294549
0.3135299385 0.3135299385 0.3135299385
0.3139308989 0.3139308989 0.3139308989
0.3143309057 0.3143309057 0.3143309057
0.3147313893 0.3147313893 0.3147313893
0.3151293695 0.3151293695 0.3151293695
0.3155278563 0.3155278563 0.3155278563
0.3159238398 0.3159238398 0.3159238398
0.3163218200 0.3163218200 0.3163218200
0.3167187572 0.3167187572 0.3167187572
0.3171147108 0.3171147108 0.3171147108
0.3175096214 0.3175096214 0.3175096214
0.3179050088 0.3179050088 0.3179050088
0.3182993531 0.3182993531 0.3182993531
0.3186942041 0.3186942041 0.3186942041
0.3190864921 0.3190864921 0.3190864921
0.3194792569 0.3194792569 0.3194792569
0.3198709786 0.3198709786 0.3198709786
0.3202616274 0.3202616274 0.3202616274
0.3206558228 0.3206558228 0.3206558228
0.3210459054 0.3210459054 0.3210459054
0.3214364648 0.3214364648 0.3214364648
0.3218259513 0.3218259513 0.3218259513
0.3222143650 0.3222143650 0.3222143650
0.3226016760 0.3226016760 0.3226016760
0.3229910135 0.3229910135 0.3229910135
0.3233777285 0.3233777285 0.3233777285
0.3237649202 0.3237649202 0.3237649202
0.3241525590 0.3241525590 0.3241525590
0.3245375454 0.3245375454 0.3245375454
0.3249245286 0.3249245286 0.3249245286
0.3253104389 0.3253104389 0.3253104389
0.3256936967 0.3256936967 0.3256936967
0.3260789514 0.3260789514 0.3260789514
0.3264615238 0.3264615238 0.3264615238
0.3268445432 0.3268445432 0.3268445432
0.3272264600 0.3272264600 0.3272264600
0.3276072741 0.3276072741 0.3276072741
0.3279884756 0.3279884756 0.3279884756
0.3283701539 0.3283701539 0.3283701539
0.3287506998 0.3287506998 0.3287506998
0.3291316628 0.3291316628 0.3291316628
0.3295099437 0.3295099437 0.3295099437
0.3298902214 0.3298902214 0.3298902214
0.3302677572 0.3302677572 0.3302677572
0.3306457400 0.3306457400 0.3306457400
0.3310225904 0.3310225904 0.3310225904
0.3313998282 0.3313998282 0.3313998282
0.3317775130 0.3317775130 0.3317775130
0.3321540356 0.3321540356 0.3321540356
0.3325278163 0.3325278163 0.3325278163
0.3329020143 0.3329020143 0.3329020143
0.3332782090 0.3332782090 0.3332782090
0.3336516321 0.3336516321 0.3336516321
0.3340255022 0.3340255022 0.3340255022
0.3343997598 0.3343997598 0.3343997598
0.3347696364 0.3347696364 0.3347696364
0.3351415396 0.3351415396 0.3351415396
0.3355154395 0.3355154395 0.3355154395
0.3358865380 0.3358865380 0.3358865380
0.3362580538 0.3362580538 0.3362580538
0.3366283774 0.3366283774 0.3366283774
0.3369974792 0.3369974792 0.3369974792
0.3373669982 0.3373669982 0.3373669982
0.3377352953 0.3377352953 0.3377352953
0.3381023705 0.3381023705 0.3381023705
0.3384730816 0.3384730816 0.3384730816
0.3388393521 0.3388393521 0.3388393521
0.3392060101 0.3392060101 0.3392060101
0.3395730555 0.3395730555 0.3395730555
0.3399388790 0.3399388790 0.3399388790
0.3403034806 0.3403034806 0.3403034806
0.3406700790 0.3406700790 0.3406700790
0.3410354257 0.3410354257 0.3410354257
0.3413995504 0.3413995504 0.3413995504
0.3417624235 0.3417624235 0.3417624235
0.3421256840 0.3421256840 0.3421256840
0.3424893320 0.3424893320 0.3424893320
0.3428517282 0.3428517282 0.3428517282
0.3432145119 0.3432145119 0.3432145119
0.3435743749 0.3435743749 0.3435743749
0.3439362645 0.3439362645 0.3439362645
0.3442968726 0.3442968726 0.3442968726
0.3446562290 0.3446562290 0.3446562290
0.3450159431 0.3450159431 0.3450159431
0.3453760445 0.3453760445 0.3453760445
0.3457348645 0.3457348645 0.3457348645
0.3460940421 0.3460940421 0.3460940421
0.3464519680 0.3464519680 0.3464519680
0.3468085825 0.3468085825 0.3468085825
0.3471672237 0.3471672237 0.3471672237
0.3475229144 0.3475229144 0.3475229144
0.3478789628 0.3478789628 0.3478789628
0.3482336998 0.3482336998 0.3482336998
0.3485904634 0.3485904634 0.3485904634
0.3489442766 0.3489442766 0.3489442766
0.3492984474 0.3492984474 0.3492984474
0.3496529460 0.3496529460 0.3496529460
0.3500078321 0.3500078321 0.3500078321
0.3503597081 0.3503597081 0.3503597081
0.3507136106 0.3507136106 0.3507136106
0.3510645330 0.3510645330 0.3510645330
0.3514158130 0.3514158130 0.3514158130
0.3517690897 0.3517690897 0.3517690897
0.3521193862 0.3521193862 0.3521193862
0.3524700105 0.3524700105 0.3524700105
0.3528192937 0.3528192937 0.3528192937
0.3531706035 0.3531706035 0.3531706035
0.3535206020 0.3535206020 0.3535206020
0.3538692296 0.3538692296 0.3538692296
0.3542165160 0.3542165160 0.3542165160
0.3545658290 0.3545658290 0.3545658290
0.3549138010 0.3549138010 0.3549138010
0.3552604020 0.3552604020 0.3552604020
0.3556090295 0.3556090295 0.3556090295
0.3559529185 0.3559529185 0.3559529185
0.3562988341 0.3562988341 0.3562988341
0.3566450775 0.3566450775 0.3566450775
0.3569899499 0.3569899499 0.3569899499
0.3573351800 0.3573351800 0.3573351800
0.3576790094 0.3576790094 0.3576790094
0.3580214679 0.3580214679 0.3580214679
0.3583676517 0.3583676517 0.3583676517
0.3587107658 0.3587107658 0.3587107658
0.3590524793 0.3590524793 0.3590524793
0.3593962491 0.3593962491 0.3593962491
0.3597368896 0.3597368896 0.3597368896
0.3600795865 0.3600795865 0.3600795865
0.3604208827 0.3604208827 0.3604208827
