HDR ST 2084/HDR 2000 nits to Gamma 2.6.cube
# DaVinci Resolve Cube (1D shaper LUT).

LUT_1D_SIZE 4096
LUT_1D_INPUT_RANGE 0.0000000000 1.0000000000

0.0000000000 0.0000000000 0.0000000000
0.0017740953 0.0017740953 0.0017740953
0.0028264574 0.0028264574 0.0028264574
0.0036911458 0.0036911458 0.0036911458
0.0044550074 0.0044550074 0.0044550074
0.0051531197 0.0051531197 0.0051531197
0.0058039727 0.0058039727 0.0058039727
0.0064187496 0.0064187496 0.0064187496
0.0070047591 0.0070047591 0.0070047591
0.0075671956 0.0075671956 0.0075671956
0.0081098399 0.0081098399 0.0081098399
0.0086355848 0.0086355848 0.0086355848
0.0091466570 0.0091466570 0.0091466570
0.0096448549 0.0096448549 0.0096448549
0.0101316279 0.0101316279 0.0101316279
0.0106082208 0.0106082208 0.0106082208
0.0110756199 0.0110756199 0.0110756199
0.0115347281 0.0115347281 0.0115347281
0.0119862451 0.0119862451 0.0119862451
0.0124308083 0.0124308083 0.0124308083
0.0128689845 0.0128689845 0.0128689845
0.0133012769 0.0133012769 0.0133012769
0.0137281043 0.0137281043 0.0137281043
0.0141498384 0.0141498384 0.0141498384
0.0145667832 0.0145667832 0.0145667832
0.0149793498 0.0149793498 0.0149793498
0.0153877597 0.0153877597 0.0153877597
0.0157922176 0.0157922176 0.0157922176
0.0161930741 0.0161930741 0.0161930741
0.0165903946 0.0165903946 0.0165903946
0.0169845242 0.0169845242 0.0169845242
0.0173754902 0.0173754902 0.0173754902
0.0177635119 0.0177635119 0.0177635119
0.0181487209 0.0181487209 0.0181487209
0.0185312920 0.0185312920 0.0185312920
0.0189114065 0.0189114065 0.0189114065
0.0192890513 0.0192890513 0.0192890513
0.0196644378 0.0196644378 0.0196644378
0.0200375508 0.0200375508 0.0200375508
0.0204086861 0.0204086861 0.0204086861
0.0207777204 0.0207777204 0.0207777204
0.0211448880 0.0211448880 0.0211448880
0.0215101981 0.0215101981 0.0215101981
0.0218737832 0.0218737832 0.0218737832
0.0222356475 0.0222356475 0.0222356475
0.0225957735 0.0225957735 0.0225957735
0.0229544689 0.0229544689 0.0229544689
0.0233116051 0.0233116051 0.0233116051
0.0236672729 0.0236672729 0.0236672729
0.0240216770 0.0240216770 0.0240216770
0.0243745374 0.0243745374 0.0243745374
0.0247262851 0.0247262851 0.0247262851
0.0250767320 0.0250767320 0.0250767320
0.0254258475 0.0254258475 0.0254258475
0.0257739556 0.0257739556 0.0257739556
0.0261208004 0.0261208004 0.0261208004
0.0264667284 0.0264667284 0.0264667284
0.0268114871 0.0268114871 0.0268114871
0.0271552160 0.0271552160 0.0271552160
0.0274979908 0.0274979908 0.0274979908
0.0278397929 0.0278397929 0.0278397929
0.0281806822 0.0281806822 0.0281806822
0.0285207344 0.0285207344 0.0285207344
0.0288599090 0.0288599090 0.0288599090
0.0291982111 0.0291982111 0.0291982111
0.0295357411 0.0295357411 0.0295357411
0.0298724432 0.0298724432 0.0298724432
0.0302084652 0.0302084652 0.0302084652
0.0305435915 0.0305435915 0.0305435915
0.0308782007 0.0308782007 0.0308782007
0.0312120057 0.0312120057 0.0312120057
0.0315451340 0.0315451340 0.0315451340
0.0318776063 0.0318776063 0.0318776063
0.0322095356 0.0322095356 0.0322095356
0.0325406721 0.0325406721 0.0325406721
0.0328714079 0.0328714079 0.0328714079
0.0332013641 0.0332013641 0.0332013641
0.0335309514 0.0335309514 0.0335309514
0.0338599321 0.0338599321 0.0338599321
0.0341882565 0.0341882565 0.0341882565
0.0345161678 0.0345161678 0.0345161678
0.0348436226 0.0348436226 0.0348436226
0.0351703846 0.0351703846 0.0351703846
0.0354969060 0.0354969060 0.0354969060
0.0358229711 0.0358229711 0.0358229711
0.0361483311 0.0361483311 0.0361483311
0.0364734697 0.0364734697 0.0364734697
0.0367981075 0.0367981075 0.0367981075
0.0371224273 0.0371224273 0.0371224273
0.0374464058 0.0374464058 0.0374464058
0.0377697545 0.0377697545 0.0377697545
0.0380927853 0.0380927853 0.0380927853
0.0384156510 0.0384156510 0.0384156510
0.0387379877 0.0387379877 0.0387379877
0.0390600241 0.0390600241 0.0390600241
0.0393818033 0.0393818033 0.0393818033
0.0397030329 0.0397030329 0.0397030329
0.0400241030 0.0400241030 0.0400241030
0.0403447335 0.0403447335 0.0403447335
0.0406653159 0.0406653159 0.0406653159
0.0409853927 0.0409853927 0.0409853927
0.0413053227 0.0413053227 0.0413053227
0.0416250919 0.0416250919 0.0416250919
0.0419442389 0.0419442389 0.0419442389
0.0422633130 0.0422633130 0.0422633130
0.0425821361 0.0425821361 0.0425821361
0.0429007889 0.0429007889 0.0429007889
0.0432191469 0.0432191469 0.0432191469
0.0435372947 0.0435372947 0.0435372947
0.0438550360 0.0438550360 0.0438550360
0.0441727354 0.0441727354 0.0441727354
0.0444903906 0.0444903906 0.0444903906
0.0448075075 0.0448075075 0.0448075075
0.0451247001 0.0451247001 0.0451247001
0.0454415276 0.0454415276 0.0454415276
0.0457581949 0.0457581949 0.0457581949
0.0460746664 0.0460746664 0.0460746664
0.0463911112 0.0463911112 0.0463911112
0.0467072859 0.0467072859 0.0467072859
0.0470231891 0.0470231891 0.0470231891
0.0473392358 0.0473392358 0.0473392358
0.0476549426 0.0476549426 0.0476549426
0.0479704359 0.0479704359 0.0479704359
0.0482858437 0.0482858437 0.0482858437
0.0486012543 0.0486012543 0.0486012543
0.0489164499 0.0489164499 0.0489164499
0.0492314026 0.0492314026 0.0492314026
0.0495463688 0.0495463688 0.0495463688
0.0498612497 0.0498612497 0.0498612497
0.0501758324 0.0501758324 0.0501758324
0.0504905772 0.0504905772 0.0504905772
0.0508052006 0.0508052006 0.0508052006
0.0511194285 0.0511194285 0.0511194285
0.0514337109 0.0514337109 0.0514337109
0.0517479037 0.0517479037 0.0517479037
0.0520620867 0.0520620867 0.0520620867
0.0523759995 0.0523759995 0.0523759995
0.0526900383 0.0526900383 0.0526900383
0.0530039889 0.0530039889 0.0530039889
0.0533176929 0.0533176929 0.0533176929
0.0536315659 0.0536315659 0.0536315659
0.0539451397 0.0539451397 0.0539451397
0.0542589108 0.0542589108 0.0542589108
0.0545722955 0.0545722955 0.0545722955
0.0548858277 0.0548858277 0.0548858277
0.0551995473 0.0551995473 0.0551995473
0.0555128027 0.0555128027 0.0555128027
0.0558261145 0.0558261145 0.0558261145
0.0561395404 0.0561395404 0.0561395404
0.0564527595 0.0564527595 0.0564527595
0.0567663204 0.0567663204 0.0567663204
0.0570793449 0.0570793449 0.0570793449
0.0573926630 0.0573926630 0.0573926630
0.0577056767 0.0577056767 0.0577056767
0.0580189965 0.0580189965 0.0580189965
0.0583322718 0.0583322718 0.0583322718
0.0586452292 0.0586452292 0.0586452292
0.0589584261 0.0589584261 0.0589584261
0.0592715036 0.0592715036 0.0592715036
0.0595844863 0.0595844863 0.0595844863
0.0598980360 0.0598980360 0.0598980360
0.0602107889 0.0602107889 0.0602107889
0.0605240459 0.0605240459 0.0605240459
0.0608371447 0.0608371447 0.0608371447
0.0611503350 0.0611503350 0.0611503350
0.0614633955 0.0614633955 0.0614633955
0.0617762087 0.0617762087 0.0617762087
0.0620894454 0.0620894454 0.0620894454
0.0624027935 0.0624027935 0.0624027935
0.0627159029 0.0627159029 0.0627159029
0.0630290749 0.0630290749 0.0630290749
0.0633423030 0.0633423030 0.0633423030
0.0636554641 0.0636554641 0.0636554641
0.0639687173 0.0639687173 0.0639687173
0.0642820378 0.0642820378 0.0642820378
0.0645952416 0.0645952416 0.0645952416
0.0649088160 0.0649088160 0.0649088160
0.0652220590 0.0652220590 0.0652220590
0.0655355584 0.0655355584 0.0655355584
0.0658489484 0.0658489484 0.0658489484
0.0661627206 0.0661627206 0.0661627206
0.0664759908 0.0664759908 0.0664759908
0.0667895366 0.0667895366 0.0667895366
0.0671033286 0.0671033286 0.0671033286
0.0674170112 0.0674170112 0.0674170112
0.0677308970 0.0677308970 0.0677308970
0.0680442109 0.0680442109 0.0680442109
0.0683585766 0.0683585766 0.0683585766
0.0686723233 0.0686723233 0.0686723233
0.0689862869 0.0689862869 0.0689862869
0.0693004113 0.0693004113 0.0693004113
0.0696142923 0.0696142923 0.0696142923
0.0699283574 0.0699283574 0.0699283574
0.0702425298 0.0702425298 0.0702425298
0.0705568638 0.0705568638 0.0705568638
0.0708713312 0.0708713312 0.0708713312
0.0711854881 0.0711854881 0.0711854881
0.0715001399 0.0715001399 0.0715001399
0.0718145211 0.0718145211 0.0718145211
0.0721288945 0.0721288945 0.0721288945
0.0724438218 0.0724438218 0.0724438218
0.0727583348 0.0727583348 0.0727583348
0.0730733792 0.0730733792 0.0730733792
0.0733883755 0.0733883755 0.0733883755
0.0737034613 0.0737034613 0.0737034613
0.0740185622 0.0740185622 0.0740185622
0.0743336550 0.0743336550 0.0743336550
0.0746487327 0.0746487327 0.0746487327
0.0749641720 0.0749641720 0.0749641720
0.0752796394 0.0752796394 0.0752796394
0.0755950473 0.0755950473 0.0755950473
0.0759108758 0.0759108758 0.0759108758
0.0762266305 0.0762266305 0.0762266305
0.0765422707 0.0765422707 0.0765422707
0.0768578768 0.0768578768 0.0768578768
0.0771742652 0.0771742652 0.0771742652
0.0774901151 0.0774901151 0.0774901151
0.0778063108 0.0778063108 0.0778063108
0.0781223296 0.0781223296 0.0781223296
0.0784387612 0.0784387612 0.0784387612
0.0787554203 0.0787554203 0.0787554203
0.0790719806 0.0790719806 0.0790719806
0.0793888330 0.0793888330 0.0793888330
0.0797054473 0.0797054473 0.0797054473
0.0800224206 0.0800224206 0.0800224206
0.0803391448 0.0803391448 0.0803391448
0.0806562220 0.0806562220 0.0806562220
0.0809735372 0.0809735372 0.0809735372
0.0812909901 0.0812909901 0.0812909901
0.0816083083 0.0816083083 0.0816083083
0.0819258522 0.0819258522 0.0819258522
0.0822436192 0.0822436192 0.0822436192
0.0825611092 0.0825611092 0.0825611092
0.0828793289 0.0828793289 0.0828793289
0.0831972664 0.0831972664 0.0831972664
0.0835153670 0.0835153670 0.0835153670
0.0838336408 0.0838336408 0.0838336408
0.0841521346 0.0841521346 0.0841521346
0.0844702981 0.0844702981 0.0844702981
0.0847891482 0.0847891482 0.0847891482
0.0851081356 0.0851081356 0.0851081356
0.0854267434 0.0854267434 0.0854267434
0.0857455340 0.0857455340 0.0857455340
0.0860649820 0.0860649820 0.0860649820
0.0863840199 0.0863840199 0.0863840199
0.0867037290 0.0867037290 0.0867037290
0.0870229751 0.0870229751 0.0870229751
0.0873423952 0.0873423952 0.0873423952
0.0876624151 0.0876624151 0.0876624151
0.0879819696 0.0879819696 0.0879819696
0.0883027401 0.0883027401 0.0883027401
0.0886224287 0.0886224287 0.0886224287
0.0889428157 0.0889428157 0.0889428157
0.0892632739 0.0892632739 0.0892632739
0.0895837202 0.0895837202 0.0895837202
0.0899047372 0.0899047372 0.0899047372
0.0902252943 0.0902252943 0.0902252943
0.0905464372 0.0905464372 0.0905464372
0.0908676140 0.0908676140 0.0908676140
0.0911888075 0.0911888075 0.0911888075
0.0915105611 0.0915105611 0.0915105611
0.0918317081 0.0918317081 0.0918317081
0.0921534713 0.0921534713 0.0921534713
0.0924752370 0.0924752370 0.0924752370
0.0927975143 0.0927975143 0.0927975143
0.0931192316 0.0931192316 0.0931192316
0.0934414724 0.0934414724 0.0934414724
0.0937641810 0.0937641810 0.0937641810
0.0940869594 0.0940869594 0.0940869594
0.0944090315 0.0944090315 0.0944090315
0.0947322318 0.0947322318 0.0947322318
0.0950553666 0.0950553666 0.0950553666
0.0953790632 0.0953790632 0.0953790632
0.0957020164 0.0957020164 0.0957020164
0.0960255039 0.0960255039 0.0960255039
0.0963488941 0.0963488941 0.0963488941
0.0966727092 0.0966727092 0.0966727092
0.0969970786 0.0969970786 0.0969970786
0.0973207432 0.0973207432 0.0973207432
0.0976455122 0.0976455122 0.0976455122
0.0979694219 0.0979694219 0.0979694219
0.0982945605 0.0982945605 0.0982945605
0.0986188093 0.0986188093 0.0986188093
0.0989435770 0.0989435770 0.0989435770
0.0992688390 0.0992688390 0.0992688390
0.0995938956 0.0995938956 0.0995938956
0.0999194404 0.0999194404 0.0999194404
0.1002453714 0.1002453714 0.1002453714
0.1005704704 0.1005704704 0.1005704704
0.1008967356 0.1008967356 0.1008967356
0.1012226632 0.1012226632 0.1012226632
0.1015491606 0.1015491606 0.1015491606
0.1018753825 0.1018753825 0.1018753825
0.1022019528 0.1022019528 0.1022019528
0.1025283523 0.1025283523 0.1025283523
0.1028551593 0.1028551593 0.1028551593
0.1031824225 0.1031824225 0.1031824225
0.1035099916 0.1035099916 0.1035099916
0.1038373503 0.1038373503 0.1038373503
0.1041644129 0.1041644129 0.1041644129
0.1044918549 0.1044918549 0.1044918549
0.1048204514 0.1048204514 0.1048204514
0.1051479468 0.1051479468 0.1051479468
0.1054765706 0.1054765706 0.1054765706
0.1058048620 0.1058048620 0.1058048620
0.1061335043 0.1061335043 0.1061335043
0.1064618743 0.1064618743 0.1064618743
0.1067912635 0.1067912635 0.1067912635
0.1071203698 0.1071203698 0.1071203698
0.1074490818 0.1074490818 0.1074490818
0.1077788826 0.1077788826 0.1077788826
0.1081089340 0.1081089340 0.1081089340
0.1084386747 0.1084386747 0.1084386747
0.1087680756 0.1087680756 0.1087680756
0.1090984693 0.1090984693 0.1090984693
0.1094291783 0.1094291783 0.1094291783
0.1097595383 0.1097595383 0.1097595383
0.1100902315 0.1100902315 0.1100902315
0.1104212129 0.1104212129 0.1104212129
0.1107517024 0.1107517024 0.1107517024
0.1110832949 0.1110832949 0.1110832949
0.1114151436 0.1114151436 0.1114151436
0.1117466366 0.1117466366 0.1117466366
0.1120784005 0.1120784005 0.1120784005
0.1124104179 0.1124104179 0.1124104179
0.1127427365 0.1127427365 0.1127427365
0.1130752811 0.1130752811 0.1130752811
0.1134074260 0.1134074260 0.1134074260
0.1137397911 0.1137397911 0.1137397911
0.1140732422 0.1140732422 0.1140732422
0.1144061176 0.1144061176 0.1144061176
0.1147400343 0.1147400343 0.1147400343
0.1150735102 0.1150735102 0.1150735102
0.1154063580 0.1154063580 0.1154063580
0.1157402390 0.1157402390 0.1157402390
0.1160744977 0.1160744977 0.1160744977
0.1164088293 0.1164088293 0.1164088293
0.1167434816 0.1167434816 0.1167434816
0.1170783224 0.1170783224 0.1170783224
0.1174126624 0.1174126624 0.1174126624
0.1177479148 0.1177479148 0.1177479148
0.1180834635 0.1180834635 0.1180834635
0.1184183378 0.1184183378 0.1184183378
0.1187542420 0.1187542420 0.1187542420
0.1190904645 0.1190904645 0.1190904645
0.1194259522 0.1194259522 0.1194259522
0.1197617573 0.1197617573 0.1197617573
0.1200984450 0.1200984450 0.1200984450
0.1204353991 0.1204353991 0.1204353991
0.1207717535 0.1207717535 0.1207717535
0.1211089953 0.1211089953 0.1211089953
0.1214456287 0.1214456287 0.1214456287
0.1217832455 0.1217832455 0.1217832455
0.1221210201 0.1221210201 0.1221210201
0.1224590329 0.1224590329 0.1224590329
0.1227971529 0.1227971529 0.1227971529
0.1231346018 0.1231346018 0.1231346018
0.1234738329 0.1234738329 0.1234738329
0.1238123965 0.1238123965 0.1238123965
0.1241502743 0.1241502743 0.1241502743
0.1244899186 0.1244899186 0.1244899186
0.1248290033 0.1248290033 0.1248290033
0.1251680353 0.1251680353 0.1251680353
0.1255082000 0.1255082000 0.1255082000
0.1258474993 0.1258474993 0.1258474993
0.1261877825 0.1261877825 0.1261877825
0.1265282512 0.1265282512 0.1265282512
0.1268679750 0.1268679750 0.1268679750
0.1272094955 0.1272094955 0.1272094955
0.1275502636 0.1275502636 0.1275502636
0.1278902455 0.1278902455 0.1278902455
0.1282320010 0.1282320010 0.1282320010
0.1285731184 0.1285731184 0.1285731184
0.1289150690 0.1289150690 0.1289150690
0.1292572042 0.1292572042 0.1292572042
0.1295993123 0.1295993123 0.1295993123
0.1299416032 0.1299416032 0.1299416032
0.1302838671 0.1302838671 0.1302838671
0.1306262554 0.1306262554 0.1306262554
0.1309696244 0.1309696244 0.1309696244
0.1313129904 0.1313129904 0.1313129904
0.1316554926 0.1316554926 0.1316554926
0.1319989445 0.1319989445 0.1319989445
0.1323433544 0.1323433544 0.1323433544
0.1326870456 0.1326870456 0.1326870456
0.1330315370 0.1330315370 0.1330315370
0.1333761184 0.1333761184 0.1333761184
0.1337206607 0.1337206607 0.1337206607
0.1340652929 0.1340652929 0.1340652929
0.1344098761 0.1344098761 0.1344098761
0.1347555116 0.1347555116 0.1347555116
0.1351011076 0.1351011076 0.1351011076
0.1354466300 0.1354466300 0.1354466300
0.1357922327 0.1357922327 0.1357922327
0.1361387634 0.1361387634 0.1361387634
0.1364853453 0.1364853453 0.1364853453
0.1368318226 0.1368318226 0.1368318226
0.1371783731 0.1371783731 0.1371783731
0.1375258470 0.1375258470 0.1375258470
0.1378723335 0.1378723335 0.1378723335
0.1382207653 0.1382207653 0.1382207653
0.1385671511 0.1385671511 0.1385671511
0.1389155405 0.1389155405 0.1389155405
0.1392637582 0.1392637582 0.1392637582
0.1396121670 0.1396121670 0.1396121670
0.1399602792 0.1399602792 0.1399602792
0.1403094746 0.1403094746 0.1403094746
0.1406585219 0.1406585219 0.1406585219
0.1410075514 0.1410075514 0.1410075514
0.1413565864 0.1413565864 0.1413565864
0.1417065226 0.1417065226 0.1417065226
0.1420563288 0.1420563288 0.1420563288
0.1424071726 0.1424071726 0.1424071726
0.1427569050 0.1427569050 0.1427569050
0.1431075652 0.1431075652 0.1431075652
0.1434580103 0.1434580103 0.1434580103
0.1438095419 0.1438095419 0.1438095419
0.1441599223 0.1441599223 0.1441599223
0.1445112032 0.1445112032 0.1445112032
0.1448633866 0.1448633866 0.1448633866
0.1452155101 0.1452155101 0.1452155101
0.1455675725 0.1455675725 0.1455675725
0.1459194345 0.1459194345 0.1459194345
0.1462721680 0.1462721680 0.1462721680
0.1466249959 0.1466249959 0.1466249959
0.1469785692 0.1469785692 0.1469785692
0.1473320430 0.1473320430 0.1473320430
0.1476843098 0.1476843098 0.1476843098
0.1480385865 0.1480385865 0.1480385865
0.1483927908 0.1483927908 0.1483927908
0.1487467323 0.1487467323 0.1487467323
0.1491017088 0.1491017088 0.1491017088
0.1494564194 0.1494564194 0.1494564194
0.1498110204 0.1498110204 0.1498110204
0.1501655202 0.1501655202 0.1501655202
0.1505208556 0.1505208556 0.1505208556
0.1508771010 0.1508771010 0.1508771010
0.1512321900 0.1512321900 0.1512321900
0.1515892014 0.1515892014 0.1515892014
0.1519448547 0.1519448547 0.1519448547
0.1523015501 0.1523015501 0.1523015501
0.1526581008 0.1526581008 0.1526581008
0.1530153931 0.1530153931 0.1530153931
0.1533726478 0.1533726478 0.1533726478
0.1537295788 0.1537295788 0.1537295788
0.1540875578 0.1540875578 0.1540875578
0.1544452151 0.1544452151 0.1544452151
0.1548036958 0.1548036958 0.1548036958
0.1551621906 0.1551621906 0.1551621906
0.1555203280 0.1555203280 0.1555203280
0.1558793178 0.1558793178 0.1558793178
0.1562382869 0.1562382869 0.1562382869
0.1565979606 0.1565979606 0.1565979606
0.1569574230 0.1569574230 0.1569574230
0.1573179027 0.1573179027 0.1573179027
0.1576769184 0.1576769184 0.1576769184
0.1580368137 0.1580368137 0.1580368137
0.1583975524 0.1583975524 0.1583975524
0.1587593105 0.1587593105 0.1587593105
0.1591195722 0.1591195722 0.1591195722
0.1594808830 0.1594808830 0.1594808830
0.1598417610 0.1598417610 0.1598417610
0.1602047672 0.1602047672 0.1602047672
0.1605662375 0.1605662375 0.1605662375
0.1609287506 0.1609287506 0.1609287506
0.1612908337 0.1612908337 0.1612908337
0.1616539080 0.1616539080 0.1616539080
0.1620167089 0.1620167089 0.1620167089
0.1623803971 0.1623803971 0.1623803971
0.1627424667 0.1627424667 0.1627424667
0.1631067017 0.1631067017 0.1631067017
0.1634706361 0.1634706361 0.1634706361
0.1638356003 0.1638356003 0.1638356003
0.1641989571 0.1641989571 0.1641989571
0.1645631367 0.1645631367 0.1645631367
0.1649281367 0.1649281367 0.1649281367
0.1652941532 0.1652941532 0.1652941532
0.1656585667 0.1656585667 0.1656585667
0.1660250978 0.1660250978 0.1660250978
0.1663901921 0.1663901921 0.1663901921
0.1667572387 0.1667572387 0.1667572387
0.1671228056 0.1671228056 0.1671228056
0.1674903618 0.1674903618 0.1674903618
0.1678564037 0.1678564037 0.1678564037
0.1682232884 0.1682232884 0.1682232884
0.1685911792 0.1685911792 0.1685911792
0.1689585053 0.1689585053 0.1689585053
0.1693268692 0.1693268692 0.1693268692
0.1696948377 0.1696948377 0.1696948377
0.1700624580 0.1700624580 0.1700624580
0.1704308681 0.1704308681 0.1704308681
0.1708001249 0.1708001249 0.1708001249
0.1711691782 0.1711691782 0.1711691782
0.1715388368 0.1715388368 0.1715388368
0.1719083165 0.1719083165 0.1719083165
0.1722774058 0.1722774058 0.1722774058
0.1726484930 0.1726484930 0.1726484930
0.1730193739 0.1730193739 0.1730193739
0.1733896735 0.1733896735 0.1733896735
0.1737609440 0.1737609440 0.1737609440
0.1741304185 0.1741304185 0.1741304185
0.1745020753 0.1745020753 0.1745020753
0.1748747432 0.1748747432 0.1748747432
0.1752455695 0.1752455695 0.1752455695
0.1756184145 0.1756184145 0.1756184145
0.1759910061 0.1759910061 0.1759910061
0.1763631765 0.1763631765 0.1763631765
0.1767361194 0.1767361194 0.1767361194
0.1771100699 0.1771100699 0.1771100699
0.1774821210 0.1774821210 0.1774821210
0.1778564173 0.1778564173 0.1778564173
0.1782302318 0.1782302318 0.1782302318
0.1786048422 0.1786048422 0.1786048422
0.1789789825 0.1789789825 0.1789789825
0.1793528406 0.1793528406 0.1793528406
0.1797287436 0.1797287436 0.1797287436
0.1801041610 0.1801041610 0.1801041610
0.1804791300 0.1804791300 0.1804791300
0.1808550312 0.1808550312 0.1808550312
0.1812317393 0.1812317393 0.1812317393
0.1816079232 0.1816079232 0.1816079232
0.1819836066 0.1819836066 0.1819836066
0.1823600990 0.1823600990 0.1823600990
0.1827375305 0.1827375305 0.1827375305
0.1831144602 0.1831144602 0.1831144602
0.1834921586 0.1834921586 0.1834921586
0.1838695115 0.1838695115 0.1838695115
0.1842476615 0.1842476615 0.1842476615
0.1846265730 0.1846265730 0.1846265730
0.1850049412 0.1850049412 0.1850049412
0.1853842693 0.1853842693 0.1853842693
0.1857615443 0.1857615443 0.1857615443
0.1861426468 0.1861426468 0.1861426468
0.1865216308 0.1865216308 0.1865216308
0.1869015906 0.1869015906 0.1869015906
0.1872823493 0.1872823493 0.1872823493
0.1876625037 0.1876625037 0.1876625037
0.1880420834 0.1880420834 0.1880420834
0.1884239763 0.1884239763 0.1884239763
0.1888039477 0.1888039477 0.1888039477
0.1891862247 0.1891862247 0.1891862247
0.1895676956 0.1895676956 0.1895676956
0.1899501460 0.1899501460 0.1899501460
0.1903321711 0.1903321711 0.1903321711
0.1907147722 0.1907147722 0.1907147722
0.1910969468 0.1910969468 0.1910969468
0.1914814526 0.1914814526 0.1914814526
0.1918637685 0.1918637685 0.1918637685
0.1922470312 0.1922470312 0.1922470312
0.1926310533 0.1926310533 0.1926310533
0.1930160389 0.1930160389 0.1930160389
0.1933987747 0.1933987747 0.1933987747
0.1937854784 0.1937854784 0.1937854784
0.1941699447 0.1941699447 0.1941699447
0.1945553239 0.1945553239 0.1945553239
0.1949400724 0.1949400724 0.1949400724
0.1953257652 0.1953257652 0.1953257652
0.1957120109 0.1957120109 0.1957120109
0.1960994080 0.1960994080 0.1960994080
0.1964844963 0.1964844963 0.1964844963
0.1968719477 0.1968719477 0.1968719477
0.1972587294 0.1972587294 0.1972587294
0.1976464693 0.1976464693 0.1976464693
0.1980332996 0.1980332996 0.1980332996
0.1984212884 0.1984212884 0.1984212884
0.1988098142 0.1988098142 0.1988098142
0.1991978522 0.1991978522 0.1991978522
0.1995868129 0.1995868129 0.1995868129
0.1999748289 0.1999748289 0.1999748289
0.2003653012 0.2003653012 0.2003653012
0.2007552397 0.2007552397 0.2007552397
0.2011444259 0.2011444259 0.2011444259
0.2015343702 0.2015343702 0.2015343702
0.2019250246 0.2019250246 0.2019250246
0.2023151789 0.2023151789 0.2023151789
0.2027060293 0.2027060293 0.2027060293
0.2030978483 0.2030978483 0.2030978483
0.2034889033 0.2034889033 0.2034889033
0.2038809171 0.2038809171 0.2038809171
0.2042719064 0.2042719064 0.2042719064
0.2046655914 0.2046655914 0.2046655914
0.2050567705 0.2050567705 0.2050567705
0.2054503827 0.2054503827 0.2054503827
0.2058432257 0.2058432257 0.2058432257
0.2062370348 0.2062370348 0.2062370348
0.2066299990 0.2066299990 0.2066299990
0.2070239362 0.2070239362 0.2070239362
0.2074185704 0.2074185704 0.2074185704
0.2078124179 0.2078124179 0.2078124179
0.2082072039 0.2082072039 0.2082072039
0.2086026930 0.2086026930 0.2086026930
0.2089991239 0.2089991239 0.2089991239
0.2093932014 0.2093932014 0.2093932014
0.2097895416 0.2097895416 0.2097895416
0.2101852289 0.2101852289 0.2101852289
0.2105834441 0.2105834441 0.2105834441
0.2109790331 0.2109790331 0.2109790331
0.2113755278 0.2113755278 0.2113755278
0.2117729922 0.2117729922 0.2117729922
0.2121711600 0.2121711600 0.2121711600
0.2125684644 0.2125684644 0.2125684644
0.2129667002 0.2129667002 0.2129667002
0.2133656452 0.2133656452 0.2133656452
0.2137639223 0.2137639223 0.2137639223
0.2141629273 0.2141629273 0.2141629273
0.2145628476 0.2145628476 0.2145628476
0.2149618861 0.2149618861 0.2149618861
0.2153616325 0.2153616325 0.2153616325
0.2157623184 0.2157623184 0.2157623184
0.2161623250 0.2161623250 0.2161623250
0.2165628008 0.2165628008 0.2165628008
0.2169644520 0.2169644520 0.2169644520
