HDR ST 2084/HDR 500 nits to Gamma 2.4.cube
# DaVinci Resolve Cube (1D shaper LUT).

LUT_1D_SIZE 4096
LUT_1D_INPUT_RANGE 0.0000000000 1.0000000000

0.0000000000 0.0000000000 0.0000000000
0.0007992379 0.0007992379 0.0007992379
0.0013237228 0.0013237228 0.0013237228
0.0017675663 0.0017675663 0.0017675663
0.0021670563 0.0021670563 0.0021670563
0.0025372338 0.0025372338 0.0025372338
0.0028861587 0.0028861587 0.0028861587
0.0032187633 0.0032187633 0.0032187633
0.0035382923 0.0035382923 0.0035382923
0.0038470747 0.0038470747 0.0038470747
0.0041468123 0.0041468123 0.0041468123
0.0044388160 0.0044388160 0.0044388160
0.0047240955 0.0047240955 0.0047240955
0.0050034713 0.0050034713 0.0050034713
0.0052776053 0.0052776053 0.0052776053
0.0055470724 0.0055470724 0.0055470724
0.0058123236 0.0058123236 0.0058123236
0.0060737799 0.0060737799 0.0060737799
0.0063317607 0.0063317607 0.0063317607
0.0065865611 0.0065865611 0.0065865611
0.0068384452 0.0068384452 0.0068384452
0.0070876487 0.0070876487 0.0070876487
0.0073343650 0.0073343650 0.0073343650
0.0075787662 0.0075787662 0.0075787662
0.0078209895 0.0078209895 0.0078209895
0.0080612387 0.0080612387 0.0080612387
0.0082996113 0.0082996113 0.0082996113
0.0085361975 0.0085361975 0.0085361975
0.0087711758 0.0087711758 0.0087711758
0.0090045604 0.0090045604 0.0090045604
0.0092365313 0.0092365313 0.0092365313
0.0094670839 0.0094670839 0.0094670839
0.0096963282 0.0096963282 0.0096963282
0.0099243239 0.0099243239 0.0099243239
0.0101511578 0.0101511578 0.0101511578
0.0103769221 0.0103769221 0.0103769221
0.0106015943 0.0106015943 0.0106015943
0.0108252865 0.0108252865 0.0108252865
0.0110479770 0.0110479770 0.0110479770
0.0112698302 0.0112698302 0.0112698302
0.0114907611 0.0114907611 0.0114907611
0.0117108992 0.0117108992 0.0117108992
0.0119302401 0.0119302401 0.0119302401
0.0121488536 0.0121488536 0.0121488536
0.0123667335 0.0123667335 0.0123667335
0.0125838603 0.0125838603 0.0125838603
0.0128004113 0.0128004113 0.0128004113
0.0130163015 0.0130163015 0.0130163015
0.0132315780 0.0132315780 0.0132315780
0.0134463581 0.0134463581 0.0134463581
0.0136604651 0.0136604651 0.0136604651
0.0138741542 0.0138741542 0.0138741542
0.0140873051 0.0140873051 0.0140873051
0.0142998933 0.0142998933 0.0142998933
0.0145121103 0.0145121103 0.0145121103
0.0147237949 0.0147237949 0.0147237949
0.0149351534 0.0149351534 0.0149351534
0.0151460267 0.0151460267 0.0151460267
0.0153564951 0.0153564951 0.0153564951
0.0155666006 0.0155666006 0.0155666006
0.0157763272 0.0157763272 0.0157763272
0.0159857077 0.0159857077 0.0159857077
0.0161947844 0.0161947844 0.0161947844
0.0164035285 0.0164035285 0.0164035285
0.0166119394 0.0166119394 0.0166119394
0.0168200752 0.0168200752 0.0168200752
0.0170278982 0.0170278982 0.0170278982
0.0172354961 0.0172354961 0.0172354961
0.0174427324 0.0174427324 0.0174427324
0.0176498380 0.0176498380 0.0176498380
0.0178566323 0.0178566323 0.0178566323
0.0180631913 0.0180631913 0.0180631913
0.0182695248 0.0182695248 0.0182695248
0.0184757003 0.0184757003 0.0184757003
0.0186815598 0.0186815598 0.0186815598
0.0188873446 0.0188873446 0.0188873446
0.0190928163 0.0190928163 0.0190928163
0.0192982283 0.0192982283 0.0192982283
0.0195034300 0.0195034300 0.0195034300
0.0197083881 0.0197083881 0.0197083881
0.0199132521 0.0199132521 0.0199132521
0.0201179928 0.0201179928 0.0201179928
0.0203224603 0.0203224603 0.0203224603
0.0205269353 0.0205269353 0.0205269353
0.0207312812 0.0207312812 0.0207312812
0.0209353397 0.0209353397 0.0209353397
0.0211394123 0.0211394123 0.0211394123
0.0213433218 0.0213433218 0.0213433218
0.0215471814 0.0215471814 0.0215471814
0.0217509747 0.0217509747 0.0217509747
0.0219545184 0.0219545184 0.0219545184
0.0221580070 0.0221580070 0.0221580070
0.0223615354 0.0223615354 0.0223615354
0.0225648725 0.0225648725 0.0225648725
0.0227681611 0.0227681611 0.0227681611
0.0229714268 0.0229714268 0.0229714268
0.0231744835 0.0231744835 0.0231744835
0.0233775762 0.0233775762 0.0233775762
0.0235805263 0.0235805263 0.0235805263
0.0237835804 0.0237835804 0.0237835804
0.0239864475 0.0239864475 0.0239864475
0.0241893534 0.0241893534 0.0241893534
0.0243922883 0.0243922883 0.0243922883
0.0245949579 0.0245949579 0.0245949579
0.0247977097 0.0247977097 0.0247977097
0.0250004295 0.0250004295 0.0250004295
0.0252031674 0.0252031674 0.0252031674
0.0254058431 0.0254058431 0.0254058431
0.0256085093 0.0256085093 0.0256085093
0.0258110398 0.0258110398 0.0258110398
0.0260136659 0.0260136659 0.0260136659
0.0262163852 0.0262163852 0.0262163852
0.0264188813 0.0264188813 0.0264188813
0.0266215453 0.0266215453 0.0266215453
0.0268240946 0.0268240946 0.0268240946
0.0270266591 0.0270266591 0.0270266591
0.0272292151 0.0272292151 0.0272292151
0.0274318699 0.0274318699 0.0274318699
0.0276344669 0.0276344669 0.0276344669
0.0278370040 0.0278370040 0.0278370040
0.0280397467 0.0280397467 0.0280397467
0.0282423839 0.0282423839 0.0282423839
0.0284449959 0.0284449959 0.0284449959
0.0286476640 0.0286476640 0.0286476640
0.0288504444 0.0288504444 0.0288504444
0.0290531960 0.0290531960 0.0290531960
0.0292559002 0.0292559002 0.0292559002
0.0294587211 0.0294587211 0.0294587211
0.0296615946 0.0296615946 0.0296615946
0.0298643826 0.0298643826 0.0298643826
0.0300673811 0.0300673811 0.0300673811
0.0302704068 0.0302704068 0.0302704068
0.0304732818 0.0304732818 0.0304732818
0.0306762960 0.0306762960 0.0306762960
0.0308793557 0.0308793557 0.0308793557
0.0310825119 0.0310825119 0.0310825119
0.0312855953 0.0312855953 0.0312855953
0.0314888618 0.0314888618 0.0314888618
0.0316921722 0.0316921722 0.0316921722
0.0318954231 0.0318954231 0.0318954231
0.0320988832 0.0320988832 0.0320988832
0.0323022486 0.0323022486 0.0323022486
0.0325058405 0.0325058405 0.0325058405
0.0327092796 0.0327092796 0.0327092796
0.0329129120 0.0329129120 0.0329129120
0.0331167631 0.0331167631 0.0331167631
0.0333204089 0.0333204089 0.0333204089
0.0335241873 0.0335241873 0.0335241873
0.0337281352 0.0337281352 0.0337281352
0.0339320433 0.0339320433 0.0339320433
0.0341362684 0.0341362684 0.0341362684
0.0343402380 0.0343402380 0.0343402380
0.0345444923 0.0345444923 0.0345444923
0.0347486408 0.0347486408 0.0347486408
0.0349530815 0.0349530815 0.0349530815
0.0351575852 0.0351575852 0.0351575852
0.0353619727 0.0353619727 0.0353619727
0.0355666077 0.0355666077 0.0355666077
0.0357712552 0.0357712552 0.0357712552
0.0359759308 0.0359759308 0.0359759308
0.0361810670 0.0361810670 0.0361810670
0.0363857711 0.0363857711 0.0363857711
0.0365908940 0.0365908940 0.0365908940
0.0367960017 0.0367960017 0.0367960017
0.0370012574 0.0370012574 0.0370012574
0.0372065157 0.0372065157 0.0372065157
0.0374116987 0.0374116987 0.0374116987
0.0376172463 0.0376172463 0.0376172463
0.0378229536 0.0378229536 0.0378229536
0.0380285901 0.0380285901 0.0380285901
0.0382343534 0.0382343534 0.0382343534
0.0384402387 0.0384402387 0.0384402387
0.0386461648 0.0386461648 0.0386461648
0.0388522360 0.0388522360 0.0388522360
0.0390584356 0.0390584356 0.0390584356
0.0392646421 0.0392646421 0.0392646421
0.0394711761 0.0394711761 0.0394711761
0.0396775749 0.0396775749 0.0396775749
0.0398842252 0.0398842252 0.0398842252
0.0400908859 0.0400908859 0.0400908859
0.0402978807 0.0402978807 0.0402978807
0.0405046260 0.0405046260 0.0405046260
0.0407116344 0.0407116344 0.0407116344
0.0409188866 0.0409188866 0.0409188866
0.0411261472 0.0411261472 0.0411261472
0.0413336225 0.0413336225 0.0413336225
0.0415407997 0.0415407997 0.0415407997
0.0417487523 0.0417487523 0.0417487523
0.0419563750 0.0419563750 0.0419563750
0.0421642203 0.0421642203 0.0421642203
0.0423722509 0.0423722509 0.0423722509
0.0425801989 0.0425801989 0.0425801989
0.0427883471 0.0427883471 0.0427883471
0.0429966443 0.0429966443 0.0429966443
0.0432051264 0.0432051264 0.0432051264
0.0434137745 0.0434137745 0.0434137745
0.0436222935 0.0436222935 0.0436222935
0.0438312179 0.0438312179 0.0438312179
0.0440400392 0.0440400392 0.0440400392
0.0442489315 0.0442489315 0.0442489315
0.0444582680 0.0444582680 0.0444582680
0.0446674047 0.0446674047 0.0446674047
0.0448769703 0.0448769703 0.0448769703
0.0450865793 0.0450865793 0.0450865793
0.0452963228 0.0452963228 0.0452963228
0.0455061511 0.0455061511 0.0455061511
0.0457160485 0.0457160485 0.0457160485
0.0459260099 0.0459260099 0.0459260099
0.0461362863 0.0461362863 0.0461362863
0.0463466552 0.0463466552 0.0463466552
0.0465570579 0.0465570579 0.0465570579
0.0467678144 0.0467678144 0.0467678144
0.0469785948 0.0469785948 0.0469785948
0.0471893715 0.0471893715 0.0471893715
0.0474001978 0.0474001978 0.0474001978
0.0476116191 0.0476116191 0.0476116191
0.0478227527 0.0478227527 0.0478227527
0.0480341892 0.0480341892 0.0480341892
0.0482455791 0.0482455791 0.0482455791
0.0484573164 0.0484573164 0.0484573164
0.0486692773 0.0486692773 0.0486692773
0.0488812430 0.0488812430 0.0488812430
0.0490934751 0.0490934751 0.0490934751
0.0493056183 0.0493056183 0.0493056183
0.0495180724 0.0495180724 0.0495180724
0.0497304296 0.0497304296 0.0497304296
0.0499430933 0.0499430933 0.0499430933
0.0501559864 0.0501559864 0.0501559864
0.0503690415 0.0503690415 0.0503690415
0.0505820755 0.0505820755 0.0505820755
0.0507953302 0.0507953302 0.0507953302
0.0510088036 0.0510088036 0.0510088036
0.0512221596 0.0512221596 0.0512221596
0.0514360745 0.0514360745 0.0514360745
0.0516498682 0.0516498682 0.0516498682
0.0518638397 0.0518638397 0.0518638397
0.0520779956 0.0520779956 0.0520779956
0.0522923674 0.0522923674 0.0522923674
0.0525065844 0.0525065844 0.0525065844
0.0527213312 0.0527213312 0.0527213312
0.0529362378 0.0529362378 0.0529362378
0.0531509556 0.0531509556 0.0531509556
0.0533658635 0.0533658635 0.0533658635
0.0535812813 0.0535812813 0.0535812813
0.0537964891 0.0537964891 0.0537964891
0.0540122161 0.0540122161 0.0540122161
0.0542276968 0.0542276968 0.0542276968
0.0544433610 0.0544433610 0.0544433610
0.0546594960 0.0546594960 0.0546594960
0.0548753824 0.0548753824 0.0548753824
0.0550921559 0.0550921559 0.0550921559
0.0553082636 0.0553082636 0.0553082636
0.0555249086 0.0555249086 0.0555249086
0.0557416669 0.0557416669 0.0557416669
0.0559584819 0.0559584819 0.0559584819
0.0561757479 0.0561757479 0.0561757479
0.0563927671 0.0563927671 0.0563927671
0.0566102474 0.0566102474 0.0566102474
0.0568278149 0.0568278149 0.0568278149
0.0570454579 0.0570454579 0.0570454579
0.0572635444 0.0572635444 0.0572635444
0.0574812835 0.0574812835 0.0574812835
0.0576995040 0.0576995040 0.0576995040
0.0579177897 0.0579177897 0.0579177897
0.0581364860 0.0581364860 0.0581364860
0.0583548653 0.0583548653 0.0583548653
0.0585736631 0.0585736631 0.0585736631
0.0587928415 0.0587928415 0.0587928415
0.0590121303 0.0590121303 0.0590121303
0.0592310016 0.0592310016 0.0592310016
0.0594507022 0.0594507022 0.0594507022
0.0596704208 0.0596704208 0.0596704208
0.0598905837 0.0598905837 0.0598905837
0.0601103031 0.0601103031 0.0601103031
0.0603304480 0.0603304480 0.0603304480
0.0605505884 0.0605505884 0.0605505884
0.0607710798 0.0607710798 0.0607710798
0.0609920103 0.0609920103 0.0609920103
0.0612125221 0.0612125221 0.0612125221
0.0614338478 0.0614338478 0.0614338478
0.0616546490 0.0616546490 0.0616546490
0.0618763492 0.0618763492 0.0618763492
0.0620975034 0.0620975034 0.0620975034
0.0623190724 0.0623190724 0.0623190724
0.0625410392 0.0625410392 0.0625410392
0.0627629265 0.0627629265 0.0627629265
0.0629852076 0.0629852076 0.0629852076
0.0632078127 0.0632078127 0.0632078127
0.0634299098 0.0634299098 0.0634299098
0.0636528638 0.0636528638 0.0636528638
0.0638756470 0.0638756470 0.0638756470
0.0640988796 0.0640988796 0.0640988796
0.0643219836 0.0643219836 0.0643219836
0.0645453856 0.0645453856 0.0645453856
0.0647687301 0.0647687301 0.0647687301
0.0649924128 0.0649924128 0.0649924128
0.0652164671 0.0652164671 0.0652164671
0.0654407903 0.0654407903 0.0654407903
0.0656650284 0.0656650284 0.0656650284
0.0658891225 0.0658891225 0.0658891225
0.0661135353 0.0661135353 0.0661135353
0.0663387983 0.0663387983 0.0663387983
0.0665633650 0.0665633650 0.0665633650
0.0667887640 0.0667887640 0.0667887640
0.0670139936 0.0670139936 0.0670139936
0.0672395221 0.0672395221 0.0672395221
0.0674649220 0.0674649220 0.0674649220
0.0676910796 0.0676910796 0.0676910796
0.0679171011 0.0679171011 0.0679171011
0.0681429096 0.0681429096 0.0681429096
0.0683695239 0.0683695239 0.0683695239
0.0685963682 0.0685963682 0.0685963682
0.0688230566 0.0688230566 0.0688230566
0.0690495688 0.0690495688 0.0690495688
0.0692768211 0.0692768211 0.0692768211
0.0695043477 0.0695043477 0.0695043477
0.0697316915 0.0697316915 0.0697316915
0.0699593216 0.0699593216 0.0699593216
0.0701872072 0.0701872072 0.0701872072
0.0704148109 0.0704148109 0.0704148109
0.0706432311 0.0706432311 0.0706432311
0.0708718847 0.0708718847 0.0708718847
0.0711003499 0.0711003499 0.0711003499
0.0713290583 0.0713290583 0.0713290583
0.0715579980 0.0715579980 0.0715579980
0.0717872018 0.0717872018 0.0717872018
0.0720166178 0.0720166178 0.0720166178
0.0722458143 0.0722458143 0.0722458143
0.0724752186 0.0724752186 0.0724752186
0.0727054287 0.0727054287 0.0727054287
0.0729352973 0.0729352973 0.0729352973
0.0731659410 0.0731659410 0.0731659410
0.0733963360 0.0733963360 0.0733963360
0.0736263526 0.0736263526 0.0736263526
0.0738571387 0.0738571387 0.0738571387
0.0740882415 0.0740882415 0.0740882415
0.0743194501 0.0743194501 0.0743194501
0.0745509359 0.0745509359 0.0745509359
0.0747826075 0.0747826075 0.0747826075
0.0750139877 0.0750139877 0.0750139877
0.0752460545 0.0752460545 0.0752460545
0.0754783815 0.0754783815 0.0754783815
0.0757102964 0.0757102964 0.0757102964
0.0759429795 0.0759429795 0.0759429795
0.0761759380 0.0761759380 0.0761759380
0.0764084420 0.0764084420 0.0764084420
0.0766412205 0.0766412205 0.0766412205
0.0768746654 0.0768746654 0.0768746654
0.0771083497 0.0771083497 0.0771083497
0.0773416724 0.0773416724 0.0773416724
0.0775756650 0.0775756650 0.0775756650
0.0778092897 0.0778092897 0.0778092897
0.0780436510 0.0780436510 0.0780436510
0.0782781761 0.0782781761 0.0782781761
0.0785129207 0.0785129207 0.0785129207
0.0787477937 0.0787477937 0.0787477937
0.0789822543 0.0789822543 0.0789822543
0.0792180072 0.0792180072 0.0792180072
0.0794533500 0.0794533500 0.0794533500
0.0796882696 0.0796882696 0.0796882696
0.0799244711 0.0799244711 0.0799244711
0.0801603369 0.0801603369 0.0801603369
0.0803962195 0.0803962195 0.0803962195
0.0806329438 0.0806329438 0.0806329438
0.0808691190 0.0808691190 0.0808691190
0.0811060324 0.0811060324 0.0811060324
0.0813431283 0.0813431283 0.0813431283
0.0815797583 0.0815797583 0.0815797583
0.0818176931 0.0818176931 0.0818176931
0.0820551568 0.0820551568 0.0820551568
0.0822921253 0.0822921253 0.0822921253
0.0825303829 0.0825303829 0.0825303829
0.0827682484 0.0827682484 0.0827682484
0.0830067478 0.0830067478 0.0830067478
0.0832454286 0.0832454286 0.0832454286
0.0834841432 0.0834841432 0.0834841432
0.0837230379 0.0837230379 0.0837230379
0.0839619662 0.0839619662 0.0839619662
0.0842010336 0.0842010336 0.0842010336
0.0844408383 0.0844408383 0.0844408383
0.0846806933 0.0846806933 0.0846806933
0.0849199970 0.0849199970 0.0849199970
0.0851600163 0.0851600163 0.0851600163
0.0854007574 0.0854007574 0.0854007574
0.0856410481 0.0856410481 0.0856410481
0.0858819504 0.0858819504 0.0858819504
0.0861229676 0.0861229676 0.0861229676
0.0863640093 0.0863640093 0.0863640093
0.0866051657 0.0866051657 0.0866051657
0.0868463395 0.0868463395 0.0868463395
0.0870883016 0.0870883016 0.0870883016
0.0873302877 0.0873302877 0.0873302877
0.0875722739 0.0875722739 0.0875722739
0.0878143677 0.0878143677 0.0878143677
0.0880571632 0.0880571632 0.0880571632
0.0883000461 0.0883000461 0.0883000461
0.0885429071 0.0885429071 0.0885429071
0.0887858707 0.0887858707 0.0887858707
0.0890295329 0.0890295329 0.0890295329
0.0892725539 0.0892725539 0.0892725539
0.0895169906 0.0895169906 0.0895169906
0.0897600428 0.0897600428 0.0897600428
0.0900045520 0.0900045520 0.0900045520
0.0902489919 0.0902489919 0.0902489919
0.0904936168 0.0904936168 0.0904936168
0.0907380843 0.0907380843 0.0907380843
0.0909833634 0.0909833634 0.0909833634
0.0912285893 0.0912285893 0.0912285893
0.0914738534 0.0914738534 0.0914738534
0.0917191720 0.0917191720 0.0917191720
0.0919651747 0.0919651747 0.0919651747
0.0922111366 0.0922111366 0.0922111366
0.0924578787 0.0924578787 0.0924578787
0.0927038897 0.0927038897 0.0927038897
0.0929506037 0.0929506037 0.0929506037
0.0931972167 0.0931972167 0.0931972167
0.0934446447 0.0934446447 0.0934446447
0.0936913127 0.0936913127 0.0936913127
0.0939386647 0.0939386647 0.0939386647
0.0941867025 0.0941867025 0.0941867025
0.0944347484 0.0944347484 0.0944347484
0.0946828013 0.0946828013 0.0946828013
0.0949307631 0.0949307631 0.0949307631
0.0951793890 0.0951793890 0.0951793890
0.0954281314 0.0954281314 0.0954281314
0.0956774494 0.0956774494 0.0956774494
0.0959267471 0.0959267471 0.0959267471
0.0961752432 0.0961752432 0.0961752432
0.0964252070 0.0964252070 0.0964252070
0.0966751695 0.0966751695 0.0966751695
0.0969249961 0.0969249961 0.0969249961
0.0971756032 0.0971756032 0.0971756032
0.0974260722 0.0974260722 0.0974260722
0.0976765132 0.0976765132 0.0976765132
0.0979269322 0.0979269322 0.0979269322
0.0981779909 0.0981779909 0.0981779909
0.0984297422 0.0984297422 0.0984297422
0.0986807255 0.0986807255 0.0986807255
0.0989331171 0.0989331171 0.0989331171
0.0991845979 0.0991845979 0.0991845979
0.0994368649 0.0994368649 0.0994368649
0.0996890786 0.0996890786 0.0996890786
0.0999418663 0.0999418663 0.0999418663
0.1001946765 0.1001946765 0.1001946765
0.1004473067 0.1004473067 0.1004473067
0.1007007276 0.1007007276 0.1007007276
0.1009539699 0.1009539699 0.1009539699
0.1012078442 0.1012078442 0.1012078442
0.1014617776 0.1014617776 0.1014617776
0.1017155066 0.1017155066 0.1017155066
0.1019698883 0.1019698883 0.1019698883
0.1022243042 0.1022243042 0.1022243042
0.1024792684 0.1024792684 0.1024792684
0.1027341315 0.1027341315 0.1027341315
0.1029897647 0.1029897647 0.1029897647
0.1032444083 0.1032444083 0.1032444083
0.1034997243 0.1034997243 0.1034997243
0.1037556872 0.1037556872 0.1037556872
0.1040124222 0.1040124222 0.1040124222
0.1042681437 0.1042681437 0.1042681437
0.1045246583 0.1045246583 0.1045246583
0.1047809141 0.1047809141 0.1047809141
0.1050387296 0.1050387296 0.1050387296
0.1052955027 0.1052955027 0.1052955027
0.1055530650 0.1055530650 0.1055530650
0.1058103700 0.1058103700 0.1058103700
0.1060684278 0.1060684278 0.1060684278
0.1063263394 0.1063263394 0.1063263394
0.1065849301 0.1065849301 0.1065849301
0.1068424180 0.1068424180 0.1068424180
0.1071014939 0.1071014939 0.1071014939
0.1073604042 0.1073604042 0.1073604042
0.1076200953 0.1076200953 0.1076200953
0.1078786906 0.1078786906 0.1078786906
0.1081379193 0.1081379193 0.1081379193
0.1083977799 0.1083977799 0.1083977799
0.1086584124 0.1086584124 0.1086584124
0.1089179513 0.1089179513 0.1089179513
0.1091790462 0.1091790462 0.1091790462
0.1094391654 0.1094391654 0.1094391654
0.1097007236 0.1097007236 0.1097007236
0.1099612750 0.1099612750 0.1099612750
0.1102232921 0.1102232921 0.1102232921
0.1104842774 0.1104842774 0.1104842774
0.1107459111 0.1107459111 0.1107459111
0.1110083101 0.1110083101 0.1110083101
0.1112703540 0.1112703540 0.1112703540
0.1115331858 0.1115331858 0.1115331858
0.1117957831 0.1117957831 0.1117957831
0.1120581793 0.1120581793 0.1120581793
0.1123211867 0.1123211867 0.1123211867
0.1125848461 0.1125848461 0.1125848461
0.1128484076 0.1128484076 0.1128484076
0.1131124489 0.1131124489 0.1131124489
0.1133764098 0.1133764098 0.1133764098
0.1136401390 0.1136401390 0.1136401390
0.1139053432 0.1139053432 0.1139053432
0.1141704475 0.1141704475 0.1141704475
0.1144351835 0.1144351835 0.1144351835
0.1147006609 0.1147006609 0.1147006609
0.1149649011 0.1149649011 0.1149649011
0.1152307491 0.1152307491 0.1152307491
0.1154973677 0.1154973677 0.1154973677
0.1157627158 0.1157627158 0.1157627158
0.1160295556 0.1160295556 0.1160295556
0.1162962612 0.1162962612 0.1162962612
0.1165627122 0.1165627122 0.1165627122
0.1168297634 0.1168297634 0.1168297634
0.1170975831 0.1170975831 0.1170975831
0.1173640894 0.1173640894 0.1173640894
0.1176322509 0.1176322509 0.1176322509
0.1179001141 0.1179001141 0.1179001141
0.1181685946 0.1181685946 0.1181685946
0.1184367851 0.1184367851 0.1184367851
0.1187048199 0.1187048199 0.1187048199
0.1189743678 0.1189743678 0.1189743678
0.1192436143 0.1192436143 0.1192436143
0.1195125860 0.1195125860 0.1195125860
0.1197822731 0.1197822731 0.1197822731
0.1200525859 0.1200525859 0.1200525859
0.1203225693 0.1203225693 0.1203225693
0.1205922400 0.1205922400 0.1205922400
0.1208625381 0.1208625381 0.1208625381
0.1211335570 0.1211335570 0.1211335570
0.1214042621 0.1214042621 0.1214042621
0.1216755658 0.1216755658 0.1216755658
0.1219466679 0.1219466679 0.1219466679
0.1222183892 0.1222183892 0.1222183892
0.1224907043 0.1224907043 0.1224907043
0.1227626754 0.1227626754 0.1227626754
0.1230353829 0.1230353829 0.1230353829
0.1233066606 0.1233066606 0.1233066606
0.1235807371 0.1235807371 0.1235807371
0.1238533363 0.1238533363 0.1238533363
0.1241266839 0.1241266839 0.1241266839
0.1244006526 0.1244006526 0.1244006526
0.1246742327 0.1246742327 0.1246742327
0.1249474454 0.1249474454 0.1249474454
0.1252223695 0.1252223695 0.1252223695
0.1254959564 0.1254959564 0.1254959564
0.1257712495 0.1257712495 0.1257712495
0.1260460085 0.1260460085 0.1260460085
0.1263215192 0.1263215192 0.1263215192
0.1265967697 0.1265967697 0.1265967697
0.1268724813 0.1268724813 0.1268724813
0.1271479316 0.1271479316 0.1271479316
0.1274251085 0.1274251085 0.1274251085
0.1277007527 0.1277007527 0.1277007527
0.1279771255 0.1279771255 0.1279771255
0.1282540919 0.1282540919 0.1282540919
0.1285317995 0.1285317995 0.1285317995
0.1288079298 0.1288079298 0.1288079298
0.1290869692 0.1290869692 0.1290869692
0.1293644401 0.1293644401 0.1293644401
0.1296426158 0.1296426158 0.1296426158
0.1299203821 0.1299203821 0.1299203821
0.1301988759 0.1301988759 0.1301988759
0.1304778149 0.1304778149 0.1304778149
0.1307576315 0.1307576315 0.1307576315
0.1310358261 0.1310358261 0.1310358261
0.1313157737 0.1313157737 0.1313157737
0.1315952832 0.1315952832 0.1315952832
0.1318755310 0.1318755310 0.1318755310
0.1321551671 0.1321551671 0.1321551671
0.1324356864 0.1324356864 0.1324356864
0.1327166397 0.1327166397 0.1327166397
0.1329972859 0.1329972859 0.1329972859
0.1332786451 0.1332786451 0.1332786451
0.1335593666 0.1335593666 0.1335593666
0.1338419110 0.1338419110 0.1338419110
0.1341241149 0.1341241149 0.1341241149
0.1344058199 0.1344058199 0.1344058199
0.1346881192 0.1346881192 0.1346881192
0.1349709782 0.1349709782 0.1349709782
0.1352535207 0.1352535207 0.1352535207
0.1355366128 0.1355366128 0.1355366128
0.1358204521 0.1358204521 0.1358204521
0.1361037834 0.1361037834 0.1361037834
0.1363878550 0.1363878550 0.1363878550
0.1366712295 0.1366712295 0.1366712295
0.1369566034 0.1369566034 0.1369566034
0.1372402062 0.1372402062 0.1372402062
0.1375256184 0.1375256184 0.1375256184
0.1378105184 0.1378105184 0.1378105184
0.1380961644 0.1380961644 0.1380961644
0.1383812429 0.1383812429 0.1383812429
0.1386670727 0.1386670727 0.1386670727
0.1389534536 0.1389534536 0.1389534536
0.1392393089 0.1392393089 0.1392393089
0.1395258907 0.1395258907 0.1395258907
0.1398130283 0.1398130283 0.1398130283
0.1401008952 0.1401008952 0.1401008952
0.1403870983 0.1403870983 0.1403870983
0.1406749899 0.1406749899 0.1406749899
0.1409624525 0.1409624525 0.1409624525
0.1412517972 0.1412517972 0.1412517972
0.1415392787 0.1415392787 0.1415392787
0.1418274636 0.1418274636 0.1418274636
0.1421163985 0.1421163985 0.1421163985
0.1424058900 0.1424058900 0.1424058900
0.1426947989 0.1426947989 0.1426947989
0.1429844303 0.1429844303 0.1429844303
0.1432746228 0.1432746228 0.1432746228
0.1435643744 0.1435643744 0.1435643744
0.1438547008 0.1438547008 0.1438547008
0.1441457384 0.1441457384 0.1441457384
0.1444361793 0.1444361793 0.1444361793
0.1447271805 0.1447271805 0.1447271805
0.1450189109 0.1450189109 0.1450189109
0.1453101917 0.1453101917 0.1453101917
0.1456018591 0.1456018591 0.1456018591
0.1458944278 0.1458944278 0.1458944278
