Sony/SLog3SGamut3.CineToLC-709TypeA.cube
#Sony LookProfile LUT, SLog3SGamut3.CineToLC_709TypeA full in full out v1.04.04
TITLE 	SLog3SGamut3.CineToLC_709TypeA
LUT_3D_SIZE 9
0.008058 0.007525 0.007094
0.071909 0.015222 0.015730
0.175330 0.036715 0.036868
0.381217 0.079827 0.080027
0.641214 0.134281 0.135907
0.884370 0.185235 0.191586
0.966443 0.202474 0.215141
0.966447 0.202502 0.218427
0.966447 0.202508 0.219135
0.023832 0.070677 0.023970
0.058674 0.063927 0.023548
0.170441 0.057959 0.038005
0.380765 0.079745 0.079825
0.641460 0.134333 0.135961
0.884443 0.185250 0.191603
0.966443 0.202474 0.215142
0.966447 0.202502 0.218427
0.966447 0.202508 0.219135
0.059535 0.176563 0.059528
0.058001 0.171705 0.057892
0.154088 0.163924 0.060312
0.376087 0.141767 0.085647
0.640843 0.134199 0.135314
0.884558 0.185275 0.191630
0.966443 0.202474 0.215143
0.966447 0.202502 0.218427
0.966447 0.202508 0.219135
0.129951 0.385400 0.129937
0.129021 0.382642 0.129007
0.127527 0.377940 0.127423
0.346033 0.364024 0.134248
0.628962 0.318376 0.157099
0.883017 0.184930 0.188634
0.966443 0.202474 0.215146
0.966447 0.202502 0.218427
0.966447 0.202508 0.219135
0.214574 0.636369 0.214550
0.214260 0.635437 0.214236
0.213712 0.633813 0.213688
0.240271 0.628364 0.212527
0.586543 0.615579 0.227133
0.856509 0.568795 0.243193
0.967178 0.274124 0.210314
0.966447 0.202502 0.218428
0.966447 0.202508 0.219135
0.290927 0.862812 0.290895
0.290818 0.862487 0.290785
0.290622 0.861905 0.290589
0.289952 0.859919 0.289919
0.512384 0.856110 0.296256
0.811718 0.846274 0.312696
0.983248 0.805064 0.317452
0.972639 0.527514 0.249948
0.966447 0.202508 0.219135
0.333070 0.987776 0.333963
0.333067 0.987766 0.333977
0.333062 0.987749 0.333988
0.333043 0.987695 0.333942
0.446953 0.988235 0.336668
0.768505 0.991478 0.352873
0.964171 0.994075 0.368199
0.996328 0.987889 0.369174
0.982915 0.773652 0.309172
0.335747 0.988480 0.555432
0.335744 0.988479 0.555224
0.335739 0.988478 0.554883
0.339278 0.988492 0.553803
0.519141 0.989796 0.553005
0.767097 0.992937 0.547194
0.942121 0.996092 0.501917
0.996995 0.997004 0.371838
0.996995 0.997004 0.371838
0.576271 0.991455 0.792342
0.584375 0.991545 0.792410
0.595827 0.991674 0.792502
0.624384 0.992012 0.792699
0.699637 0.993009 0.793178
0.824856 0.995018 0.792781
0.939658 0.997224 0.784000
0.996478 0.998246 0.737398
0.996995 0.997004 0.371838
0.008939 0.007636 0.056923
0.068719 0.015517 0.056513
0.174128 0.036763 0.062034
0.380845 0.079837 0.090323
0.641134 0.134285 0.138495
0.884375 0.185236 0.191587
0.966443 0.202474 0.215141
0.966447 0.202502 0.218427
0.966447 0.202508 0.219135
0.021371 0.061606 0.055522
0.054355 0.054419 0.054405
0.168012 0.050452 0.059277
0.378013 0.079240 0.089241
0.641378 0.134339 0.138935
0.884448 0.185252 0.191604
0.966443 0.202474 0.215142
0.966447 0.202502 0.218427
0.966447 0.202508 0.219135
0.058364 0.172896 0.066472
0.056781 0.168060 0.064516
0.150032 0.160572 0.066336
0.361603 0.142244 0.088209
0.640772 0.134209 0.138399
0.884563 0.185276 0.191631
0.966443 0.202474 0.215143
0.966447 0.202502 0.218427
0.966447 0.202508 0.219135
0.129488 0.384025 0.129473
0.128571 0.381306 0.128556
0.127033 0.376566 0.126960
0.345197 0.362835 0.133834
0.628705 0.317853 0.156959
0.882992 0.184925 0.188591
0.966443 0.202474 0.215146
0.966447 0.202502 0.218427
0.966447 0.202508 0.219135
0.214180 0.635201 0.214157
0.213877 0.634302 0.213853
0.213355 0.632754 0.213331
0.238928 0.627355 0.212161
0.586184 0.614923 0.226913
0.856488 0.569019 0.243243
0.967187 0.274840 0.210355
0.966447 0.202502 0.218428
0.966447 0.202508 0.219135
0.290527 0.861626 0.290495
0.290420 0.861307 0.290387
0.290224 0.860725 0.290191
0.289576 0.858804 0.289544
0.511436 0.855093 0.295888
0.811450 0.845740 0.312519
0.983249 0.805126 0.317469
0.972648 0.527785 0.250005
0.966447 0.202508 0.219135
0.333088 0.987748 0.337669
0.333083 0.987736 0.337528
0.333075 0.987716 0.337296
0.333048 0.987653 0.336556
0.445088 0.988149 0.339170
0.767899 0.991319 0.352786
0.963958 0.993902 0.368131
0.996329 0.987902 0.369178
0.982919 0.773726 0.309192
0.335892 0.988511 0.564326
0.335889 0.988511 0.564126
0.335883 0.988510 0.563795
0.339340 0.988524 0.562748
0.518493 0.989821 0.561990
0.766694 0.992961 0.556423
0.941811 0.996121 0.513834
0.996995 0.997004 0.371838
0.996995 0.997004 0.371838
0.576015 0.991466 0.794720
0.584127 0.991555 0.794788
0.595586 0.991685 0.794881
0.624155 0.992023 0.795080
0.699443 0.993019 0.795564
0.824702 0.995029 0.795202
0.939519 0.997236 0.786566
0.996339 0.998261 0.740917
0.996995 0.997004 0.371838
0.019964 0.019938 0.149758
0.059761 0.022118 0.148581
0.170395 0.038886 0.148577
0.379605 0.080490 0.154798
0.640709 0.134520 0.172506
0.884297 0.185240 0.193969
0.966443 0.202474 0.215142
0.966447 0.202502 0.218427
0.966447 0.202508 0.219135
0.021182 0.032577 0.149013
0.043362 0.027214 0.147814
0.164549 0.038332 0.147885
0.379001 0.080378 0.155364
0.640934 0.134581 0.173890
0.884363 0.185256 0.194338
0.966443 0.202474 0.215142
0.966447 0.202502 0.218427
0.966447 0.202508 0.219135
0.055707 0.160198 0.149076
0.053976 0.154927 0.147591
0.145774 0.146482 0.146692
0.372046 0.124804 0.151508
0.638755 0.134097 0.170846
0.882757 0.184920 0.194000
0.966443 0.202474 0.215143
0.966447 0.202502 0.218427
0.966447 0.202508 0.219135
0.128226 0.379571 0.156168
0.127293 0.376819 0.154691
0.125697 0.372065 0.152573
0.341095 0.358652 0.156234
0.616464 0.322423 0.168882
0.871190 0.182949 0.189009
0.966443 0.202474 0.215146
0.966447 0.202502 0.218427
0.966447 0.202508 0.219135
0.213297 0.632580 0.213355
0.212996 0.631687 0.213049
0.212470 0.630127 0.212516
0.235736 0.624799 0.211280
0.584829 0.612675 0.226148
0.856235 0.568354 0.243054
0.967201 0.275973 0.210423
0.966447 0.202502 0.218428
0.966447 0.202508 0.219135
0.289749 0.859317 0.289737
0.289644 0.859005 0.289623
0.289468 0.858483 0.289439
0.288811 0.856537 0.288779
0.509518 0.852907 0.295103
0.810774 0.844217 0.312021
0.983251 0.805226 0.317495
0.972661 0.528201 0.250092
0.966447 0.202508 0.219135
0.333315 0.987748 0.366253
0.333305 0.987731 0.365715
0.333290 0.987705 0.364859
0.333240 0.987623 0.362211
0.442270 0.988040 0.357129
0.766790 0.991043 0.357221
0.963460 0.993435 0.367954
0.996330 0.987923 0.369184
0.982925 0.773844 0.309224
0.336118 0.988561 0.577878
0.336115 0.988560 0.577687
0.336109 0.988559 0.577372
0.339443 0.988573 0.576372
0.517527 0.989861 0.575674
0.766095 0.993001 0.570468
0.941358 0.996168 0.532021
0.996995 0.997004 0.371838
0.996995 0.997004 0.371838
0.575618 0.991483 0.798427
0.583743 0.991572 0.798496
0.595210 0.991702 0.798589
0.623798 0.992039 0.798790
0.699140 0.993036 0.799283
0.824462 0.995046 0.798975
0.939304 0.997253 0.790560
0.996125 0.998284 0.746371
0.996995 0.997004 0.371838
0.044761 0.044704 0.335781
0.044865 0.044590 0.334888
0.149059 0.051184 0.334091
0.372571 0.085500 0.334137
0.637615 0.136886 0.333225
0.882942 0.186345 0.310306
0.966444 0.202480 0.215909
0.966447 0.202502 0.218427
0.966447 0.202508 0.219135
0.044765 0.044708 0.335811
0.044659 0.044602 0.335017
0.141789 0.050458 0.334197
0.371671 0.085362 0.334649
0.637832 0.136959 0.334332
0.883004 0.186374 0.311335
0.966444 0.202483 0.216236
0.966447 0.202502 0.218427
0.966447 0.202508 0.219135
0.046892 0.067980 0.334536
0.046244 0.063256 0.333756
0.112449 0.057504 0.332819
0.365467 0.084185 0.333751
0.636993 0.136812 0.335109
0.883086 0.186421 0.313213
0.966445 0.202488 0.216764
0.966447 0.202502 0.218427
0.966447 0.202508 0.219135
0.123728 0.355361 0.335972
0.122765 0.352430 0.335101
0.121105 0.347358 0.333808
0.331218 0.332367 0.332984
0.621943 0.286847 0.329072
0.879864 0.185653 0.306557
0.966444 0.202478 0.215682
0.966447 0.202502 0.218427
0.966447 0.202508 0.219135
0.210749 0.620667 0.344212
0.210440 0.619771 0.343382
0.209896 0.618188 0.342091
0.226304 0.612719 0.338655
0.579679 0.600618 0.338089
0.842915 0.567527 0.304000
0.968032 0.332957 0.217067
0.966447 0.202502 0.218428
0.966447 0.202508 0.219135
0.287806 0.851223 0.374622
0.287703 0.850934 0.373983
0.287504 0.850367 0.373012
0.286839 0.848463 0.370181
0.502519 0.844797 0.366794
0.806672 0.836644 0.346246
0.980739 0.813664 0.319473
0.972701 0.529494 0.250363
0.966447 0.202508 0.219135
0.334284 0.987830 0.460925
0.334272 0.987806 0.460556
0.334252 0.987769 0.459912
0.334188 0.987647 0.457832
0.436728 0.987891 0.452941
0.763989 0.990439 0.441544
0.961202 0.991349 0.372607
0.996335 0.987989 0.369203
0.982944 0.774212 0.309321
0.336739 0.988698 0.613047
0.336736 0.988697 0.612908
0.336732 0.988697 0.612676
0.339656 0.988709 0.611940
0.514428 0.989968 0.611800
0.764352 0.993115 0.608756
0.939917 0.996295 0.578280
0.996998 0.997008 0.373696
0.996995 0.997004 0.371838
0.574436 0.991534 0.809558
0.582598 0.991624 0.809629
0.594091 0.991753 0.809725
0.622736 0.992091 0.809930
0.698239 0.993088 0.810447
0.823745 0.995098 0.810292
0.938665 0.997307 0.802513
0.995494 0.998353 0.762530
0.997152 0.997161 0.441515
0.075695 0.075599 0.567839
0.075659 0.075563 0.567566
0.081881 0.075673 0.567237
0.351020 0.098888 0.568057
0.627800 0.144440 0.570052
0.876787 0.191569 0.565801
0.967068 0.207927 0.516872
0.966447 0.202502 0.218427
0.966447 0.202508 0.219135
0.075657 0.075561 0.567552
0.075633 0.075536 0.567369
0.079576 0.075591 0.567055
0.349224 0.098637 0.567993
0.628031 0.144501 0.570410
0.876850 0.191594 0.566174
0.967070 0.207940 0.517353
0.966447 0.202502 0.218427
0.966447 0.202508 0.219135
0.075519 0.075423 0.566520
0.075503 0.075407 0.566397
0.075602 0.075374 0.566124
0.341416 0.097500 0.567135
0.626784 0.144270 0.570344
0.876948 0.191634 0.566765
0.967072 0.207962 0.518112
0.966447 0.202502 0.218427
0.966447 0.202508 0.219135
0.111097 0.273906 0.563764
0.109848 0.269125 0.563501
0.107726 0.260896 0.563090
0.295026 0.234945 0.563109
0.610134 0.169136 0.565844
0.874740 0.191213 0.567092
0.967080 0.208029 0.520463
0.966447 0.202502 0.218427
0.966447 0.202508 0.219135
0.205068 0.588148 0.565639
0.204744 0.587158 0.565384
0.204163 0.585378 0.564990
0.207657 0.579305 0.564019
0.564854 0.565412 0.565790
0.844226 0.518500 0.558520
0.967089 0.213270 0.508514
0.966447 0.202502 0.218417
0.966447 0.202508 0.219135
0.284393 0.831814 0.574986
0.284277 0.831472 0.574758
0.284069 0.830859 0.574423
0.283368 0.828780 0.573480
0.485008 0.824440 0.572970
0.797960 0.815253 0.569640
0.978908 0.788298 0.515295
0.974637 0.586790 0.262878
0.966447 0.202508 0.219135
0.336162 0.987099 0.610167
0.336130 0.987008 0.610021
0.336081 0.986870 0.609826
0.335938 0.986472 0.609146
0.425211 0.986104 0.607780
0.757104 0.986452 0.605806
0.955137 0.984758 0.574791
0.995997 0.983175 0.373814
0.983004 0.775340 0.309621
0.338360 0.989057 0.694047
0.338359 0.989057 0.693978
0.338356 0.989056 0.693860
0.340285 0.989064 0.693453
0.506517 0.990249 0.693823
0.759866 0.993405 0.693276
0.936338 0.996616 0.676419
0.997552 0.997581 0.577319
0.996995 0.997004 0.371838
0.571372 0.991658 0.836020
0.579635 0.991749 0.836109
0.591190 0.991878 0.836233
0.619989 0.992216 0.836531
0.695924 0.993215 0.837335
0.821893 0.995230 0.838136
0.936968 0.997454 0.833804
0.993647 0.998535 0.803350
0.997686 0.997693 0.606653
0.105060 0.104927 0.788123
0.105060 0.104926 0.788120
0.105053 0.104920 0.788071
0.307996 0.116571 0.788834
0.610937 0.155858 0.791956
0.866240 0.199730 0.794686
0.968292 0.218084 0.784646
0.967989 0.215633 0.730904
0.966447 0.202508 0.219135
0.105007 0.104873 0.787722
0.105002 0.104869 0.787692
0.105001 0.104868 0.787681
0.303535 0.116131 0.788494
0.610707 0.155822 0.791950
0.866306 0.199748 0.794789
0.968293 0.218090 0.784760
0.967990 0.215640 0.731060
0.966447 0.202508 0.219135
0.104876 0.104742 0.786740
0.104876 0.104742 0.786740
0.104882 0.104748 0.786784
0.291220 0.114952 0.787600
0.607860 0.155335 0.791444
0.866408 0.199775 0.794951
0.968294 0.218098 0.784941
0.967992 0.215651 0.731307
0.966447 0.202508 0.219135
0.104564 0.107354 0.782641
0.104461 0.106001 0.782633
0.104373 0.104682 0.782708
0.216887 0.108983 0.783282
0.588121 0.151956 0.787525
0.862741 0.199059 0.794004
0.968297 0.218125 0.785502
0.967996 0.215684 0.732074
0.966447 0.202508 0.219135
0.195560 0.528814 0.781771
0.195203 0.527610 0.781714
0.194583 0.525515 0.781628
0.192440 0.518043 0.781495
0.537132 0.500368 0.783797
0.829749 0.438264 0.786783
0.968283 0.218010 0.783078
0.968008 0.215787 0.734421
0.966447 0.202508 0.219135
0.278302 0.796659 0.783426
0.278176 0.796268 0.783380
0.277961 0.795600 0.783301
0.277198 0.793213 0.783205
0.451564 0.787975 0.784059
0.783436 0.777003 0.786856
0.977153 0.735760 0.776451
0.971437 0.434721 0.719327
0.966450 0.202534 0.222009
0.332536 0.964346 0.793682
0.332468 0.964138 0.793662
0.332353 0.963784 0.793630
0.332027 0.962792 0.793464
0.397338 0.960676 0.793379
0.742166 0.959539 0.795772
0.943842 0.955666 0.789636
0.994657 0.947477 0.729893
0.982796 0.771030 0.320972
0.341556 0.989771 0.824677
0.341556 0.989771 0.824675
0.341556 0.989771 0.824667
0.341693 0.989772 0.824634
0.490044 0.990806 0.825774
0.750686 0.993978 0.828351
0.929124 0.997233 0.824682
0.996311 0.998528 0.791067
0.997521 0.997528 0.562640
0.565121 0.991921 0.887883
0.573606 0.992012 0.887987
0.585224 0.992141 0.888133
0.614353 0.992478 0.888511
0.691196 0.993480 0.889574
0.818082 0.995499 0.891245
0.933583 0.997738 0.890354
0.989725 0.998898 0.877928
0.998623 0.998627 0.799271
0.124780 0.124622 0.936056
0.124784 0.124626 0.936086
0.124800 0.124641 0.936203
0.243978 0.129449 0.936900
0.592364 0.165290 0.940721
0.856438 0.206973 0.946095
0.969399 0.226744 0.947669
0.969348 0.226355 0.941003
0.969129 0.224676 0.911646
0.124690 0.124532 0.935383
0.124696 0.124537 0.935422
0.124716 0.124558 0.935579
0.229046 0.128560 0.936281
0.589530 0.164857 0.940270
0.856508 0.206986 0.946114
0.969399 0.226745 0.947686
0.969348 0.226356 0.941021
0.969130 0.224678 0.911678
0.124547 0.124389 0.934310
0.124553 0.124395 0.934351
0.124564 0.124406 0.934435
0.192534 0.126691 0.935075
0.583410 0.163924 0.939279
0.856262 0.206940 0.946041
0.969399 0.226747 0.947712
0.969348 0.226358 0.941049
0.969130 0.224680 0.911727
0.124082 0.123943 0.930805
0.124092 0.123935 0.930897
0.124110 0.123952 0.931028
0.147543 0.124637 0.931544
0.559262 0.160306 0.935526
0.846730 0.205151 0.943410
0.969400 0.226751 0.947795
0.969349 0.226363 0.941138
0.969131 0.224689 0.911881
0.191773 0.484552 0.928562
0.191442 0.483316 0.928557
0.190835 0.481032 0.928589
0.188498 0.472187 0.928751
0.505487 0.449522 0.930997
0.812418 0.378698 0.936093
0.969365 0.226482 0.943179
0.969351 0.226379 0.941413
0.969135 0.224716 0.912353
0.273435 0.764648 0.927341
0.273304 0.764222 0.927348
0.273082 0.763493 0.927405
0.272284 0.760879 0.927593
0.413001 0.754712 0.928818
0.767187 0.742283 0.933765
0.970352 0.694370 0.937377
0.970236 0.305633 0.932306
0.969145 0.224797 0.913799
0.327994 0.938535 0.927084
0.327928 0.938324 0.927114
0.327808 0.937939 0.927199
0.327488 0.936916 0.927385
0.367472 0.934489 0.927960
0.727291 0.932669 0.932377
0.932775 0.926519 0.935850
0.993025 0.905604 0.929333
0.980274 0.669632 0.907052
0.344627 0.990228 0.931249
0.344624 0.990216 0.931286
0.344620 0.990199 0.931340
0.344603 0.990130 0.931488
0.473774 0.990730 0.932820
0.741505 0.992837 0.936695
0.921596 0.994349 0.939682
0.988902 0.993831 0.936854
0.998840 0.992219 0.914298
0.558571 0.992259 0.946592
0.567361 0.992352 0.946708
0.578644 0.992475 0.946867
0.608128 0.992812 0.947306
0.685813 0.993814 0.948580
0.813596 0.995835 0.951125
0.929442 0.998086 0.953295
0.985316 0.999295 0.950988
0.998832 0.999511 0.937504
0.127986 0.127824 0.960109
0.127986 0.127824 0.960109
0.127986 0.127824 0.960109
0.149756 0.128396 0.960143
0.558554 0.162708 0.962588
0.844173 0.206277 0.966893
0.969570 0.228044 0.969579
0.969570 0.228044 0.969579
0.969570 0.228044 0.969579
0.127986 0.127824 0.960109
0.127986 0.127824 0.960109
0.127986 0.127824 0.960109
0.139634 0.128115 0.960127
0.553757 0.162077 0.962536
0.841566 0.205838 0.966843
0.969570 0.228044 0.969579
0.969570 0.228044 0.969579
0.969570 0.228044 0.969579
0.127986 0.127824 0.960109
0.127986 0.127824 0.960109
0.127986 0.127824 0.960109
0.130161 0.127876 0.960112
0.546295 0.161105 0.962456
0.836949 0.205061 0.966754
0.969570 0.228044 0.969579
0.969570 0.228044 0.969579
0.969570 0.228044 0.969579
0.144953 0.264846 0.961214
0.144183 0.260307 0.961159
0.142959 0.252934 0.961074
0.139340 0.229729 0.960827
0.524699 0.190529 0.962445
0.823801 0.202859 0.966504
0.969570 0.228044 0.969579
0.969570 0.228044 0.969579
0.969570 0.228044 0.969579
0.209190 0.539479 0.967219
0.208862 0.538295 0.967181
0.208308 0.536293 0.967116
0.206457 0.529585 0.966902
0.482682 0.513053 0.967840
0.798014 0.465032 0.970379
0.969528 0.232562 0.969621
0.969570 0.228044 0.969579
0.969570 0.228044 0.969579
0.277265 0.770565 0.975580
0.277130 0.770122 0.975579
0.276898 0.769356 0.975618
0.276134 0.766844 0.975695
0.394795 0.760758 0.976451
0.758059 0.748958 0.979947
0.963108 0.706774 0.982025
0.972737 0.424506 0.972745
0.969570 0.228044 0.969579
0.326726 0.929585 0.975000
0.326653 0.929351 0.975034
0.326553 0.929028 0.975082
0.326215 0.927936 0.975288
0.356427 0.925464 0.975873
0.722469 0.924125 0.980396
0.927775 0.918176 0.984937
0.992562 0.895355 0.986561
0.980953 0.673434 0.980958
0.344812 0.986617 0.975043
0.344763 0.986461 0.975066
0.344691 0.986230 0.975102
0.344496 0.985602 0.975240
0.470898 0.984872 0.976463
0.738516 0.984873 0.980373
0.917675 0.984460 0.984296
0.984751 0.983006 0.985620
0.998248 0.977227 0.984478
0.560614 0.992512 0.977963
0.568970 0.992601 0.978076
0.578796 0.992709 0.978221
0.608269 0.993046 0.978668
0.685220 0.994035 0.979952
0.812206 0.995866 0.982513
0.927292 0.997243 0.985310
0.982735 0.997316 0.986567
0.996309 0.996985 0.985857
0.208238 0.536039 0.967108
0.207868 0.534701 0.967065
0.207280 0.532573 0.966997
0.205398 0.525732 0.966780
0.506552 0.509817 0.967948
0.802288 0.461060 0.970348
0.969495 0.233777 0.969632
0.969570 0.228044 0.969579
0.969570 0.228044 0.969579
0.211060 0.546207 0.967440
0.210735 0.545038 0.967401
0.210221 0.543193 0.967341
0.208426 0.536720 0.967130
0.504593 0.521239 0.968271
0.800983 0.473898 0.970659
0.969532 0.244593 0.969743
0.969570 0.228044 0.969579
0.969570 0.228044 0.969579
0.214825 0.559656 0.967892
0.214529 0.558604 0.967856
0.214061 0.556938 0.967799
0.212507 0.551390 0.967612
0.501729 0.538678 0.968786
0.799055 0.493488 0.971158
0.969727 0.271045 0.970045
0.969570 0.228044 0.969579
0.969570 0.228044 0.969579
0.225045 0.595586 0.969174
0.224773 0.594642 0.969139
0.224340 0.593134 0.969083
0.222951 0.588287 0.968905
0.491039 0.577661 0.969990
0.793642 0.547481 0.972691
0.970404 0.377903 0.971722
0.969570 0.228044 0.969579
0.969570 0.228044 0.969579
0.249934 0.680354 0.972640
0.249741 0.679709 0.972612
0.249408 0.678595 0.972562
0.248353 0.675065 0.972406
0.465366 0.667383 0.973247
0.779903 0.647986 0.976121
0.972202 0.570969 0.976855
0.969570 0.228044 0.969579
0.969570 0.228044 0.969579
0.292108 0.818307 0.979656
0.291986 0.817914 0.979633
0.291791 0.817287 0.979598
0.291203 0.815398 0.979490
0.413088 0.811155 0.979890
0.751375 0.803850 0.983064
0.952336 0.777493 0.985247
0.979259 0.632802 0.979264
0.969570 0.228044 0.969579
0.328752 0.934931 0.984915
0.328682 0.934706 0.984954
0.328579 0.934374 0.985008
0.328274 0.933389 0.985177
0.371350 0.931168 0.985711
0.726849 0.930092 0.989687
0.925949 0.925725 0.993269
0.992782 0.907140 0.993560
0.984802 0.755158 0.984806
0.344591 0.984963 0.984644
0.344553 0.984839 0.984682
0.344487 0.984628 0.984726
0.344291 0.984001 0.984822
0.490622 0.983481 0.986225
0.745076 0.983534 0.989970
0.917498 0.983099 0.993814
0.983745 0.981593 0.995601
0.998016 0.976260 0.995902
0.576703 0.992740 0.987060
0.582838 0.992800 0.987150
0.592401 0.992896 0.987292
0.621097 0.993199 0.987733
0.693585 0.993997 0.988954
0.815931 0.995385 0.991441
0.927321 0.995460 0.994073
0.982059 0.995283 0.995497
0.995405 0.994788 0.995736
