Sony/SLog3SGamut3.CineToSLog2-709.cube
#Sony LookProfile LUT, SLog3SGamut3.CineToSLog2-709 full in full out v1.04.04
TITLE 	SLog3SGamut3.CineToSLog2-709
LUT_3D_SIZE 33
0.041033 0.041033 0.041033
0.062173 0.038275 0.040764
0.081106 0.034035 0.040525
0.099236 0.027164 0.040322
0.116776 0.011288 0.040156
0.132918 0.000000 0.040014
0.151353 0.000000 0.039865
0.174577 0.000000 0.039697
0.201660 0.000000 0.039535
0.232669 0.000000 0.039397
0.267519 0.000000 0.039309
0.305986 0.000000 0.039307
0.347737 0.000000 0.039448
0.392371 0.000000 0.039824
0.439461 0.000000 0.040595
0.488593 0.000000 0.042024
0.539380 0.000000 0.044471
0.591489 0.000000 0.048220
0.644658 0.000000 0.052555
0.698662 0.000000 0.056957
0.753313 0.000000 0.061413
0.808463 0.000000 0.065909
0.863995 0.000000 0.070436
0.919820 0.000000 0.074987
0.975867 0.000000 0.079556
1.000000 0.000000 0.084139
1.000000 0.000000 0.088732
1.000000 0.000000 0.093334
1.000000 0.000000 0.097941
1.000000 0.000000 0.102553
1.000000 0.000000 0.107168
1.000000 0.000000 0.111786
1.000000 0.000000 0.116406
0.029418 0.061657 0.039302
0.058040 0.059872 0.039041
0.079356 0.057427 0.038813
0.098741 0.054138 0.038624
0.116886 0.049809 0.038472
0.133297 0.044339 0.038345
0.151912 0.034956 0.038214
0.175248 0.000000 0.038075
0.202371 0.000000 0.037952
0.233365 0.000000 0.037868
0.268163 0.000000 0.037855
0.306560 0.000000 0.037955
0.348235 0.000000 0.038232
0.392800 0.000000 0.038786
0.439834 0.000000 0.039782
0.488924 0.000000 0.041478
0.539682 0.000000 0.044209
0.591767 0.000000 0.048186
0.644887 0.000000 0.052573
0.698837 0.000000 0.056972
0.753446 0.000000 0.061423
0.808564 0.000000 0.065917
0.864072 0.000000 0.070442
0.919878 0.000000 0.074992
0.975911 0.000000 0.079560
1.000000 0.000000 0.084142
1.000000 0.000000 0.088734
1.000000 0.000000 0.093335
1.000000 0.000000 0.097942
1.000000 0.000000 0.102554
1.000000 0.000000 0.107169
1.000000 0.000000 0.111787
1.000000 0.000000 0.116407
0.000000 0.081321 0.036751
0.048510 0.079924 0.036493
0.074759 0.078105 0.036273
0.096277 0.075787 0.036096
0.115412 0.072963 0.035958
0.132357 0.069709 0.035845
0.151369 0.064980 0.035735
0.175014 0.056833 0.035627
0.202342 0.041414 0.035550
0.233456 0.000000 0.035532
0.268314 0.000000 0.035613
0.306730 0.000000 0.035844
0.348403 0.000000 0.036298
0.392959 0.000000 0.037085
0.439986 0.000000 0.038377
0.489077 0.000000 0.040429
0.539847 0.000000 0.043548
0.591950 0.000000 0.047879
0.645087 0.000000 0.052512
0.699011 0.000000 0.056986
0.753579 0.000000 0.061434
0.808665 0.000000 0.065925
0.864149 0.000000 0.070448
0.919936 0.000000 0.074996
0.975956 0.000000 0.079563
1.000000 0.000000 0.084144
1.000000 0.000000 0.088737
1.000000 0.000000 0.093337
1.000000 0.000000 0.097944
1.000000 0.000000 0.102555
1.000000 0.000000 0.107170
1.000000 0.000000 0.111787
1.000000 0.000000 0.116407
0.000000 0.100591 0.033028
0.023324 0.099412 0.032762
0.066093 0.097925 0.032542
0.091368 0.096087 0.032373
0.112077 0.093941 0.032244
0.129902 0.091547 0.032146
0.149579 0.088215 0.032057
0.173765 0.082896 0.031986
0.201486 0.074548 0.031967
0.232873 0.060264 0.032039
0.267912 0.022916 0.032249
0.306446 0.000000 0.032663
0.348197 0.000000 0.033367
0.392808 0.000000 0.034481
0.439883 0.000000 0.036183
0.489021 0.000000 0.038717
0.539841 0.000000 0.042359
0.592001 0.000000 0.047175
0.645197 0.000000 0.052186
0.699167 0.000000 0.056945
0.753712 0.000000 0.061445
0.808766 0.000000 0.065933
0.864226 0.000000 0.070455
0.919995 0.000000 0.075001
0.976000 0.000000 0.079567
1.000000 0.000000 0.084147
1.000000 0.000000 0.088739
1.000000 0.000000 0.093338
1.000000 0.000000 0.097945
1.000000 0.000000 0.102556
1.000000 0.000000 0.107170
1.000000 0.000000 0.111788
1.000000 0.000000 0.116407
0.000000 0.118413 0.027765
0.000000 0.117392 0.027459
0.051727 0.116129 0.027212
0.084029 0.114596 0.027029
0.107101 0.112854 0.026895
0.126162 0.110944 0.026797
0.146747 0.108336 0.026719
0.171666 0.104297 0.026677
0.199923 0.098277 0.026716
0.231694 0.089037 0.026890
0.267001 0.073837 0.027266
0.305723 0.041211 0.027929
0.347609 0.000000 0.028986
0.392326 0.000000 0.030575
0.439496 0.000000 0.032881
0.488727 0.000000 0.036124
0.539640 0.000000 0.040496
0.591894 0.000000 0.045969
0.645186 0.000000 0.051495
0.699246 0.000000 0.056682
0.753842 0.000000 0.061448
0.808868 0.000000 0.065942
0.864303 0.000000 0.070461
0.920053 0.000000 0.075006
0.976044 0.000000 0.079570
1.000000 0.000000 0.084150
1.000000 0.000000 0.088741
1.000000 0.000000 0.093340
1.000000 0.000000 0.097946
1.000000 0.000000 0.102557
1.000000 0.000000 0.107171
1.000000 0.000000 0.111788
1.000000 0.000000 0.116408
0.000000 0.134565 0.019634
0.000000 0.133651 0.019183
0.018762 0.132532 0.018825
0.074133 0.131198 0.018569
0.100754 0.129709 0.018387
0.121455 0.128095 0.018266
0.143184 0.125915 0.018186
0.169001 0.122592 0.018188
0.197908 0.117757 0.018347
0.230143 0.110628 0.018753
0.265779 0.099824 0.019508
0.304729 0.082270 0.020716
0.346779 0.044668 0.022480
0.391617 0.000000 0.024913
0.438884 0.000000 0.028156
0.488206 0.000000 0.032383
0.539226 0.000000 0.037754
0.591608 0.000000 0.044134
0.645030 0.000000 0.050351
0.699219 0.000000 0.056102
0.753926 0.000000 0.061315
0.808969 0.000000 0.065950
0.864379 0.000000 0.070467
0.920111 0.000000 0.075011
0.976088 0.000000 0.079574
1.000000 0.000000 0.084153
1.000000 0.000000 0.088743
1.000000 0.000000 0.093342
1.000000 0.000000 0.097947
1.000000 0.000000 0.102558
1.000000 0.000000 0.107172
1.000000 0.000000 0.111789
1.000000 0.000000 0.116408
0.000000 0.152876 0.000000
0.000000 0.152053 0.000000
0.000000 0.151058 0.000000
0.055941 0.149895 0.000000
0.090686 0.148618 0.000000
0.114261 0.147245 0.000000
0.137818 0.145410 0.000000
0.165001 0.142647 0.000000
0.194873 0.138692 0.000000
0.227792 0.133004 0.000000
0.263909 0.124741 0.000000
0.303201 0.112423 0.000000
0.345494 0.092790 0.000000
0.390512 0.052275 0.010393
0.437920 0.000000 0.018584
0.487363 0.000000 0.025639
0.538498 0.000000 0.032991
0.591007 0.000000 0.040799
0.644607 0.000000 0.048123
0.699005 0.000000 0.054818
0.753908 0.000000 0.060790
0.809086 0.000000 0.065932
0.864476 0.000000 0.070475
0.920184 0.000000 0.075017
0.976143 0.000000 0.079579
1.000000 0.000000 0.084156
1.000000 0.000000 0.088745
1.000000 0.000000 0.093344
1.000000 0.000000 0.097949
1.000000 0.000000 0.102559
1.000000 0.000000 0.107173
1.000000 0.000000 0.111790
1.000000 0.000000 0.116409
0.000000 0.175724 0.000000
0.000000 0.174987 0.000000
0.000000 0.174105 0.000000
0.000000 0.173105 0.000000
0.070907 0.172022 0.000000
0.101542 0.170869 0.000000
0.128715 0.169341 0.000000
0.158344 0.167064 0.000000
0.189854 0.163850 0.000000
0.223904 0.159313 0.000000
0.260812 0.152900 0.000000
0.300661 0.143768 0.000000
0.343353 0.130493 0.000000
0.388664 0.110106 0.000000
0.436299 0.072527 0.000000
0.485928 0.000000 0.000000
0.537229 0.000000 0.022246
0.589903 0.000000 0.034168
0.643683 0.000000 0.043510
0.698330 0.000000 0.051718
0.753586 0.000000 0.059142
0.809093 0.000000 0.065450
0.864610 0.000000 0.070486
0.920286 0.000000 0.075025
0.976221 0.000000 0.079585
1.000000 0.000000 0.084161
1.000000 0.000000 0.088749
1.000000 0.000000 0.093346
1.000000 0.000000 0.097951
1.000000 0.000000 0.102560
1.000000 0.000000 0.107174
1.000000 0.000000 0.111790
1.000000 0.000000 0.116409
0.000000 0.202063 0.000000
0.000000 0.201397 0.000000
0.000000 0.200616 0.000000
0.000000 0.199757 0.000000
0.000000 0.198838 0.000000
0.077939 0.197867 0.000000
0.113698 0.196592 0.000000
0.147887 0.194709 0.000000
0.182136 0.192081 0.000000
0.217979 0.188421 0.000000
0.256110 0.183340 0.000000
0.296810 0.176292 0.000000
0.340107 0.166477 0.000000
0.385861 0.152591 0.000000
0.433831 0.132088 0.000000
0.483730 0.097854 0.000000
0.535260 0.000000 0.000000
0.588145 0.000000 0.017541
0.642137 0.000000 0.034459
0.697021 0.000000 0.045561
0.752597 0.000000 0.054992
0.808633 0.000000 0.063384
0.864661 0.000000 0.070129
0.920422 0.000000 0.075036
0.976323 0.000000 0.079593
1.000000 0.000000 0.084167
1.000000 0.000000 0.088754
1.000000 0.000000 0.093350
1.000000 0.000000 0.097953
1.000000 0.000000 0.102562
1.000000 0.000000 0.107175
1.000000 0.000000 0.111792
1.000000 0.000000 0.116410
0.000000 0.231842 0.000000
0.000000 0.231233 0.000000
0.000000 0.230546 0.000000
0.000000 0.229807 0.000000
0.000000 0.229024 0.000000
0.000000 0.228205 0.000000
0.086377 0.227137 0.000000
0.131213 0.225573 0.000000
0.170414 0.223411 0.000000
0.209180 0.220432 0.000000
0.249203 0.216348 0.000000
0.291187 0.210778 0.000000
0.335383 0.203207 0.000000
0.381786 0.192897 0.000000
0.430243 0.178690 0.000000
0.480522 0.158470 0.000000
0.532367 0.127209 0.000000
0.585526 0.058816 0.000000
0.639773 0.000000 0.000000
0.694915 0.000000 0.032763
0.750785 0.000000 0.046655
0.807224 0.000000 0.057799
0.864011 0.000000 0.067488
0.920521 0.000000 0.074818
0.976459 0.000000 0.079604
1.000000 0.000000 0.084175
1.000000 0.000000 0.088760
1.000000 0.000000 0.093355
1.000000 0.000000 0.097957
1.000000 0.000000 0.102565
1.000000 0.000000 0.107177
1.000000 0.000000 0.111793
1.000000 0.000000 0.116411
0.000000 0.264878 0.000000
0.000000 0.264321 0.000000
0.000000 0.263719 0.000000
0.000000 0.263081 0.000000
0.000000 0.262412 0.000000
0.000000 0.261717 0.000000
0.000000 0.260818 0.000000
0.102491 0.259512 0.000000
0.152507 0.257722 0.000000
0.196337 0.255278 0.000000
0.239339 0.251960 0.000000
0.283250 0.247487 0.000000
0.328760 0.241499 0.000000
0.376094 0.233519 0.000000
0.425237 0.222879 0.000000
0.476045 0.208564 0.000000
0.528314 0.188832 0.000000
0.581830 0.160039 0.000000
0.636393 0.110560 0.000000
0.691829 0.000000 0.000000
0.747995 0.000000 0.027310
0.804776 0.000000 0.046345
0.862056 0.000000 0.059947
0.919617 0.000000 0.071403
0.976599 0.000000 0.079503
1.000000 0.000000 0.084187
1.000000 0.000000 0.088768
1.000000 0.000000 0.093361
1.000000 0.000000 0.097962
1.000000 0.000000 0.102569
1.000000 0.000000 0.107180
1.000000 0.000000 0.111795
1.000000 0.000000 0.116413
0.000000 0.300882 0.000000
0.000000 0.300382 0.000000
0.000000 0.299852 0.000000
0.000000 0.299298 0.000000
0.000000 0.298723 0.000000
0.000000 0.298130 0.000000
0.000000 0.297370 0.000000
0.000000 0.296273 0.000000
0.123663 0.294781 0.000000
0.177640 0.292761 0.000000
0.225549 0.290040 0.000000
0.272374 0.286405 0.000000
0.319782 0.281589 0.000000
0.368426 0.275257 0.000000
0.418516 0.266971 0.000000
0.470038 0.256134 0.000000
0.522870 0.241859 0.000000
0.576849 0.222705 0.000000
0.631807 0.195923 0.000000
0.687591 0.154627 0.000000
0.744078 0.054241 0.000000
0.801178 0.000000 0.000000
0.858825 0.000000 0.043892
0.916953 0.000000 0.061180
0.975362 0.000000 0.075061
1.000000 0.000000 0.084168
1.000000 0.000000 0.088780
1.000000 0.000000 0.093369
1.000000 0.000000 0.097968
1.000000 0.000000 0.102573
1.000000 0.000000 0.107184
1.000000 0.000000 0.111798
1.000000 0.000000 0.116415
0.000000 0.339507 0.000000
0.000000 0.339058 0.000000
0.000000 0.338590 0.000000
0.000000 0.338106 0.000000
0.000000 0.337609 0.000000
0.000000 0.337101 0.000000
0.000000 0.336454 0.000000
0.000000 0.335527 0.000000
0.061786 0.334276 0.000000
0.149595 0.332593 0.000000
0.206460 0.330344 0.000000
0.257819 0.327360 0.000000
0.307971 0.323439 0.000000
0.358431 0.318329 0.000000
0.409797 0.311722 0.000000
0.462263 0.303221 0.000000
0.515827 0.292289 0.000000
0.570395 0.278156 0.000000
0.625845 0.259598 0.000000
0.682050 0.234439 0.000000
0.738907 0.197995 0.000000
0.796340 0.134844 0.000000
0.854307 0.000000 0.000000
0.912796 0.000000 0.037734
0.971800 0.000000 0.061147
1.000000 0.000000 0.078357
1.000000 0.000000 0.088794
1.000000 0.000000 0.093381
1.000000 0.000000 0.097977
1.000000 0.000000 0.102580
1.000000 0.000000 0.107189
1.000000 0.000000 0.111802
1.000000 0.000000 0.116418
0.000000 0.380361 0.000000
0.000000 0.379959 0.000000
0.000000 0.379544 0.000000
0.000000 0.379121 0.000000
0.000000 0.378690 0.000000
0.000000 0.378252 0.000000
0.000000 0.377698 0.000000
0.000000 0.376910 0.000000
0.000000 0.375854 0.000000
0.101255 0.374444 0.000000
0.179749 0.372571 0.000000
0.238651 0.370101 0.000000
0.292825 0.366875 0.000000
0.345782 0.362700 0.000000
0.398838 0.357345 0.000000
0.452521 0.350527 0.000000
0.507010 0.341887 0.000000
0.562314 0.330944 0.000000
0.618367 0.317008 0.000000
0.675083 0.299018 0.000000
0.732378 0.275177 0.000000
0.790188 0.241982 0.000000
0.848483 0.190500 0.000000
0.907266 0.057115 0.000000
0.966580 0.000000 0.021471
1.000000 0.000000 0.059334
1.000000 0.000000 0.081159
1.000000 0.000000 0.093395
1.000000 0.000000 0.097988
1.000000 0.000000 0.102588
1.000000 0.000000 0.107195
1.000000 0.000000 0.111806
1.000000 0.000000 0.116421
0.000000 0.423054 0.000000
0.000000 0.422694 0.000000
0.000000 0.422328 0.000000
0.000000 0.421957 0.000000
0.000000 0.421582 0.000000
0.000000 0.421204 0.000000
0.000000 0.420728 0.000000
0.000000 0.420056 0.000000
0.000000 0.419160 0.000000
0.000000 0.417971 0.000000
0.139954 0.416401 0.000000
0.213510 0.414343 0.000000
0.273801 0.411667 0.000000
0.330198 0.408222 0.000000
0.385457 0.403828 0.000000
0.440674 0.398275 0.000000
0.496301 0.391305 0.000000
0.552495 0.382589 0.000000
0.609274 0.371686 0.000000
0.666598 0.357973 0.000000
0.724410 0.340507 0.000000
0.782662 0.317750 0.000000
0.841328 0.286888 0.000000
0.900415 0.241707 0.000000
0.959972 0.160749 0.000000
1.000000 0.000000 0.000000
1.000000 0.000000 0.054875
1.000000 0.000000 0.083296
1.000000 0.000000 0.098002
1.000000 0.000000 0.102599
1.000000 0.000000 0.107203
1.000000 0.000000 0.111813
1.000000 0.000000 0.116426
0.000000 0.467220 0.000000
0.000000 0.466901 0.000000
0.000000 0.466579 0.000000
0.000000 0.466255 0.000000
0.000000 0.465929 0.000000
0.000000 0.465602 0.000000
0.000000 0.465193 0.000000
0.000000 0.464618 0.000000
0.000000 0.463855 0.000000
0.000000 0.462849 0.000000
0.053826 0.461527 0.000000
0.179903 0.459802 0.000000
0.250270 0.457569 0.000000
0.311462 0.454705 0.000000
0.369562 0.451068 0.000000
0.426667 0.446494 0.000000
0.483653 0.440787 0.000000
0.540891 0.433710 0.000000
0.598512 0.424960 0.000000
0.656540 0.414130 0.000000
0.714953 0.400647 0.000000
0.773720 0.383660 0.000000
0.832821 0.361805 0.000000
0.892261 0.332703 0.000000
0.952083 0.291543 0.000000
1.000000 0.225339 0.000000
1.000000 0.000000 0.000000
1.000000 0.000000 0.045862
1.000000 0.000000 0.084558
1.000000 0.000000 0.102614
1.000000 0.000000 0.107215
1.000000 0.000000 0.111821
1.000000 0.000000 0.116433
0.000000 0.512538 0.000000
0.000000 0.512257 0.000000
0.000000 0.511976 0.000000
0.000000 0.511695 0.000000
0.000000 0.511413 0.000000
0.000000 0.511132 0.000000
0.000000 0.510781 0.000000
0.000000 0.510289 0.000000
0.000000 0.509640 0.000000
0.000000 0.508788 0.000000
0.000000 0.507672 0.000000
0.131054 0.506222 0.000000
0.221392 0.504350 0.000000
0.289473 0.501957 0.000000
0.351200 0.498926 0.000000
0.410567 0.495125 0.000000
0.469120 0.490402 0.000000
0.527533 0.484576 0.000000
0.586093 0.477427 0.000000
0.644906 0.468673 0.000000
0.703993 0.457935 0.000000
0.763344 0.444682 0.000000
0.822946 0.428125 0.000000
0.882805 0.407030 0.000000
0.942951 0.379306 0.000000
1.000000 0.340959 0.000000
1.000000 0.282552 0.000000
1.000000 0.164494 0.000000
1.000000 0.000000 0.023411
1.000000 0.000000 0.084683
1.000000 0.000000 0.107229
1.000000 0.000000 0.111832
1.000000 0.000000 0.116441
0.000000 0.558739 0.000000
0.000000 0.558496 0.000000
0.000000 0.558254 0.000000
0.000000 0.558012 0.000000
0.000000 0.557770 0.000000
0.000000 0.557530 0.000000
0.000000 0.557230 0.000000
0.000000 0.556811 0.000000
0.000000 0.556261 0.000000
0.000000 0.555540 0.000000
0.000000 0.554599 0.000000
0.000000 0.553378 0.000000
0.185778 0.551806 0.000000
0.264312 0.549799 0.000000
0.330626 0.547261 0.000000
0.392614 0.544083 0.000000
0.452892 0.540142 0.000000
0.512561 0.535296 0.000000
0.572113 0.529379 0.000000
0.631755 0.522185 0.000000
0.691563 0.513449 0.000000
0.751549 0.502814 0.000000
0.811711 0.489780 0.000000
0.872051 0.473611 0.000000
0.932592 0.453165 0.000000
0.993385 0.426551 0.000000
1.000000 0.390291 0.000000
1.000000 0.336815 0.000000
1.000000 0.242121 0.000000
1.000000 0.000000 0.000000
1.000000 0.000000 0.083329
1.000000 0.000000 0.111847
1.000000 0.000000 0.116452
0.000000 0.605607 0.000000
0.000000 0.605399 0.000000
0.000000 0.605193 0.000000
0.000000 0.604987 0.000000
0.000000 0.604782 0.000000
0.000000 0.604578 0.000000
0.000000 0.604323 0.000000
0.000000 0.603969 0.000000
0.000000 0.603505 0.000000
0.000000 0.602897 0.000000
0.000000 0.602105 0.000000
0.000000 0.601078 0.000000
0.140136 0.599758 0.000000
0.236425 0.598073 0.000000
0.308433 0.595943 0.000000
0.373306 0.593276 0.000000
0.435355 0.589970 0.000000
0.496264 0.585910 0.000000
0.556780 0.580966 0.000000
0.617234 0.574980 0.000000
0.677759 0.567760 0.000000
0.738397 0.559056 0.000000
0.799151 0.548528 0.000000
0.860021 0.535702 0.000000
0.921016 0.519881 0.000000
0.982173 0.499994 0.000000
1.000000 0.474294 0.000000
1.000000 0.439653 0.000000
1.000000 0.389610 0.000000
1.000000 0.306420 0.000000
1.000000 0.000000 0.000000
1.000000 0.000000 0.080016
1.000000 0.000000 0.116467
0.000000 0.652965 0.000000
0.000000 0.652790 0.000000
0.000000 0.652616 0.000000
0.000000 0.652443 0.000000
0.000000 0.652271 0.000000
0.000000 0.652100 0.000000
0.000000 0.651886 0.000000
0.000000 0.651589 0.000000
0.000000 0.651200 0.000000
0.000000 0.650690 0.000000
0.000000 0.650027 0.000000
0.000000 0.649167 0.000000
0.067509 0.648061 0.000000
0.207012 0.646649 0.000000
0.285758 0.644861 0.000000
0.353511 0.642619 0.000000
0.417162 0.639838 0.000000
0.479130 0.636421 0.000000
0.540455 0.632262 0.000000
0.601603 0.627237 0.000000
0.662768 0.621201 0.000000
0.724015 0.613970 0.000000
0.785349 0.605306 0.000000
0.846763 0.594885 0.000000
0.908253 0.582253 0.000000
0.969835 0.566745 0.000000
1.000000 0.547344 0.000000
1.000000 0.522411 0.000000
1.000000 0.489066 0.000000
1.000000 0.441568 0.000000
1.000000 0.365450 0.000000
1.000000 0.187888 0.000000
1.000000 0.000000 0.073967
0.000000 0.700679 0.000000
0.000000 0.700534 0.000000
0.000000 0.700389 0.000000
0.000000 0.700246 0.000000
0.000000 0.700102 0.000000
0.000000 0.699960 0.000000
0.000000 0.699783 0.000000
0.000000 0.699536 0.000000
0.000000 0.699212 0.000000
0.000000 0.698789 0.000000
0.000000 0.698237 0.000000
0.000000 0.697521 0.000000
0.000000 0.696599 0.000000
0.178938 0.695419 0.000000
0.264588 0.693922 0.000000
0.334617 0.692040 0.000000
0.399326 0.689700 0.000000
0.461914 0.686818 0.000000
0.523703 0.683306 0.000000
0.585282 0.679064 0.000000
0.646895 0.673975 0.000000
0.708619 0.667902 0.000000
0.770455 0.660670 0.000000
0.832378 0.652051 0.000000
0.894362 0.641735 0.000000
0.956400 0.629282 0.000000
1.000000 0.614054 0.000000
1.000000 0.595079 0.000000
1.000000 0.570799 0.000000
1.000000 0.538517 0.000000
1.000000 0.492992 0.000000
1.000000 0.421724 0.000000
1.000000 0.275773 0.000000
0.000000 0.748647 0.000000
0.000000 0.748528 0.000000
0.000000 0.748409 0.000000
0.000000 0.748291 0.000000
0.000000 0.748173 0.000000
0.000000 0.748056 0.000000
0.000000 0.747910 0.000000
0.000000 0.747707 0.000000
0.000000 0.747441 0.000000
0.000000 0.747092 0.000000
0.000000 0.746636 0.000000
0.000000 0.746045 0.000000
0.000000 0.745281 0.000000
0.158383 0.744300 0.000000
0.248047 0.743053 0.000000
0.318651 0.741479 0.000000
0.383296 0.739514 0.000000
0.445692 0.737086 0.000000
0.507336 0.734117 0.000000
0.568883 0.730523 0.000000
0.630597 0.726210 0.000000
0.692546 0.721070 0.000000
0.754709 0.714970 0.000000
0.817030 0.707745 0.000000
0.879452 0.699174 0.000000
0.941933 0.688957 0.000000
1.000000 0.676670 0.000000
1.000000 0.661695 0.000000
1.000000 0.643095 0.000000
1.000000 0.619377 0.000000
1.000000 0.587985 0.000000
1.000000 0.544038 0.000000
1.000000 0.476332 0.000000
0.000000 0.796792 0.000000
0.000000 0.796695 0.000000
0.000000 0.796599 0.000000
0.000000 0.796503 0.000000
0.000000 0.796407 0.000000
0.000000 0.796312 0.000000
0.000000 0.796194 0.000000
0.000000 0.796028 0.000000
0.000000 0.795811 0.000000
0.000000 0.795526 0.000000
0.000000 0.795153 0.000000
0.000000 0.794668 0.000000
0.000000 0.794040 0.000000
0.154941 0.793232 0.000000
0.240229 0.792198 0.000000
0.308234 0.790889 0.000000
0.370962 0.789247 0.000000
0.431897 0.787207 0.000000
0.492457 0.784701 0.000000
0.553257 0.781656 0.000000
0.614524 0.777992 0.000000
0.676285 0.773621 0.000000
0.738472 0.768438 0.000000
0.800981 0.762320 0.000000
0.863703 0.755106 0.000000
0.926552 0.746583 0.000000
0.989469 0.736460 0.000000
1.000000 0.724325 0.000000
1.000000 0.709578 0.000000
1.000000 0.691310 0.000000
1.000000 0.668082 0.000000
1.000000 0.637446 0.000000
1.000000 0.594794 0.000000
0.000000 0.845060 0.000000
0.000000 0.844982 0.000000
0.000000 0.844905 0.000000
0.000000 0.844827 0.000000
0.000000 0.844750 0.000000
0.000000 0.844674 0.000000
0.000000 0.844578 0.000000
0.000000 0.844445 0.000000
0.000000 0.844269 0.000000
0.000000 0.844038 0.000000
0.000000 0.843736 0.000000
0.000000 0.843342 0.000000
0.013229 0.842830 0.000000
0.173811 0.842169 0.000000
0.244819 0.841319 0.000000
0.306127 0.840238 0.000000
0.364483 0.838874 0.000000
0.422249 0.837169 0.000000
0.480445 0.835063 0.000000
0.539504 0.832489 0.000000
0.599543 0.829377 0.000000
0.660508 0.825653 0.000000
0.722256 0.821231 0.000000
0.784608 0.816015 0.000000
0.847389 0.809884 0.000000
0.910446 0.802684 0.000000
0.973663 0.794209 0.000000
1.000000 0.784175 0.000000
1.000000 0.772179 0.000000
1.000000 0.757637 0.000000
1.000000 0.739665 0.000000
1.000000 0.716866 0.000000
1.000000 0.686882 0.000000
0.000000 0.893410 0.000000
0.000000 0.893348 0.000000
0.000000 0.893286 0.000000
0.000000 0.893224 0.000000
0.000000 0.893163 0.000000
0.000000 0.893102 0.000000
0.000000 0.893025 0.000000
0.000000 0.892918 0.000000
0.000000 0.892778 0.000000
0.000000 0.892593 0.000000
0.000000 0.892350 0.000000
0.020064 0.892032 0.000000
0.148645 0.891618 0.000000
0.209664 0.891082 0.000000
0.262956 0.890390 0.000000
0.314313 0.889504 0.000000
0.365851 0.888379 0.000000
0.418549 0.886965 0.000000
0.472862 0.885205 0.000000
0.528941 0.883039 0.000000
0.586742 0.880405 0.000000
0.646093 0.877235 0.000000
0.706750 0.873458 0.000000
0.768442 0.868995 0.000000
0.830904 0.863751 0.000000
0.893900 0.857612 0.000000
0.957238 0.850428 0.000000
1.000000 0.841999 0.000000
1.000000 0.832046 0.000000
1.000000 0.820179 0.000000
1.000000 0.805822 0.000000
1.000000 0.788115 0.000000
1.000000 0.765695 0.000000
0.000000 0.941813 0.000000
0.000000 0.941764 0.000000
0.000000 0.941715 0.000000
0.000000 0.941666 0.000000
0.000000 0.941618 0.000000
0.000000 0.941569 0.000000
0.000000 0.941508 0.000000
0.000000 0.941423 0.000000
0.060815 0.941312 0.000000
0.111420 0.941164 0.000000
0.148915 0.940971 0.000000
0.183777 0.940717 0.000000
0.218639 0.940385 0.000000
0.254719 0.939953 0.000000
0.292736 0.939394 0.000000
0.333161 0.938674 0.000000
0.376297 0.937755 0.000000
0.422310 0.936591 0.000000
0.471236 0.935132 0.000000
0.522989 0.933322 0.000000
0.577374 0.931104 0.000000
0.634103 0.928417 0.000000
0.692830 0.925196 0.000000
0.753181 0.921373 0.000000
0.814790 0.916873 0.000000
0.877321 0.911607 0.000000
0.940488 0.905463 0.000000
1.000000 0.898296 0.000000
1.000000 0.889911 0.000000
1.000000 0.880035 0.000000
1.000000 0.868284 0.000000
1.000000 0.854096 0.000000
1.000000 0.836626 0.000000
0.173458 0.990250 0.000000
0.178759 0.990211 0.000000
0.183838 0.990173 0.000000
0.188717 0.990134 0.000000
0.193416 0.990096 0.000000
0.197951 0.990057 0.000000
0.203416 0.990010 0.000000
0.210729 0.989943 0.000000
0.219866 0.989854 0.000000
0.231150 0.989738 0.000000
0.244912 0.989584 0.000000
0.261476 0.989383 0.000000
0.281153 0.989119 0.000000
0.304221 0.988774 0.000000
0.330919 0.988326 0.000000
0.361437 0.987746 0.000000
0.395900 0.987002 0.000000
0.434354 0.986052 0.000000
0.476758 0.984853 0.000000
0.522969 0.983353 0.000000
0.572740 0.981499 0.000000
0.625734 0.979234 0.000000
0.681538 0.976499 0.000000
0.739698 0.973232 0.000000
0.799752 0.969370 0.000000
0.861260 0.964839 0.000000
