Sony/SLog3SGamut3.CineToLC-709.cube
#Sony LookProfile LUT, SLog3SGamut3.CineToLC_709 full in full out v1.08.04
TITLE 	SLog3SGamut3.CineToLC_709
LUT_3D_SIZE 9
0.006644 0.007144 0.000000
0.044643 0.000000 0.000109
0.162394 0.000000 0.000575
0.378761 0.000000 0.003005
0.673222 0.000000 0.011169
0.949412 0.000000 0.025744
1.000000 0.000000 0.041676
1.000000 0.000000 0.048722
1.000000 0.000000 0.050188
0.000000 0.046953 0.000000
0.035966 0.041709 0.000000
0.165427 0.023195 0.000000
0.382680 0.000000 0.001582
0.674722 0.000000 0.010400
0.950049 0.000000 0.025787
1.000000 0.000000 0.041685
1.000000 0.000000 0.048723
1.000000 0.000000 0.050188
0.000000 0.168925 0.000000
0.000000 0.165546 0.000000
0.143556 0.156459 0.000000
0.379559 0.108961 0.000000
0.673156 0.000000 0.003650
0.950056 0.000000 0.023464
1.000000 0.000000 0.041699
1.000000 0.000000 0.048724
1.000000 0.000000 0.050188
0.000000 0.383853 0.000000
0.000000 0.381741 0.000000
0.000000 0.377745 0.000000
0.339587 0.361648 0.000000
0.653267 0.306985 0.000000
0.937487 0.098680 0.000000
1.000000 0.000000 0.028614
1.000000 0.000000 0.048728
1.000000 0.000000 0.050188
0.000000 0.644690 0.000000
0.000000 0.643460 0.000000
0.000000 0.641343 0.000000
0.185170 0.633857 0.000000
0.586724 0.614595 0.000000
0.890287 0.570795 0.000000
1.000000 0.483582 0.000000
1.000000 0.000000 0.000000
1.000000 0.000000 0.050189
0.000000 0.883911 0.000000
0.000000 0.883152 0.000000
0.000000 0.881986 0.000000
0.000000 0.878589 0.000000
0.497250 0.869750 0.000000
0.817139 0.850340 0.000000
1.000000 0.820749 0.000000
1.000000 0.773342 0.000000
1.000000 0.567575 0.000000
0.289281 1.000000 0.000000
0.314758 1.000000 0.000000
0.349710 1.000000 0.000000
0.433272 1.000000 0.000000
0.587171 1.000000 0.000000
0.800755 1.000000 0.000000
0.970855 1.000000 0.000000
1.000000 0.993039 0.000000
1.000000 0.975095 0.000000
0.797515 1.000000 0.000000
0.799735 1.000000 0.000000
0.803178 1.000000 0.000000
0.813383 1.000000 0.000000
0.840559 1.000000 0.000000
0.897718 1.000000 0.000000
0.973101 1.000000 0.000000
1.000000 1.000000 0.000000
1.000000 1.000000 0.000000
0.979389 1.000000 0.000000
0.979606 1.000000 0.000000
0.979947 1.000000 0.000000
0.980990 1.000000 0.000000
0.984025 1.000000 0.000000
0.991925 1.000000 0.000000
1.000000 1.000000 0.000000
1.000000 1.000000 0.000000
1.000000 1.000000 0.000000
0.000000 0.000000 0.037894
0.040483 0.000000 0.036645
0.160026 0.000000 0.035060
0.377729 0.000000 0.031807
0.672907 0.000000 0.027702
0.949340 0.000000 0.025739
1.000000 0.000000 0.041675
1.000000 0.000000 0.048722
1.000000 0.000000 0.050188
0.000000 0.037956 0.034259
0.033118 0.033160 0.033110
0.162766 0.015680 0.031259
0.379413 0.000000 0.028646
0.674456 0.000000 0.026224
0.949978 0.000000 0.025782
1.000000 0.000000 0.041684
1.000000 0.000000 0.048723
1.000000 0.000000 0.050188
0.000000 0.164368 0.022974
0.000000 0.161036 0.022082
0.139941 0.152355 0.020870
0.364277 0.112422 0.018116
0.673030 0.000000 0.018513
0.950057 0.000000 0.023631
1.000000 0.000000 0.041698
1.000000 0.000000 0.048724
1.000000 0.000000 0.050188
0.000000 0.381924 0.000000
0.000000 0.379825 0.000000
0.000000 0.375843 0.000000
0.339254 0.359745 0.000000
0.653280 0.304864 0.000000
0.937585 0.092522 0.000000
1.000000 0.000000 0.028907
1.000000 0.000000 0.048728
1.000000 0.000000 0.050188
0.000000 0.644165 0.000000
0.000000 0.642940 0.000000
0.000000 0.640829 0.000000
0.184012 0.633357 0.000000
0.586696 0.614163 0.000000
0.890340 0.570291 0.000000
1.000000 0.482877 0.000000
1.000000 0.000000 0.000000
1.000000 0.000000 0.050189
0.000000 0.883803 0.000000
0.000000 0.883044 0.000000
0.000000 0.881877 0.000000
0.000000 0.878478 0.000000
0.497103 0.869633 0.000000
0.817130 0.850213 0.000000
1.000000 0.820603 0.000000
1.000000 0.773161 0.000000
1.000000 0.567106 0.000000
0.288758 1.000000 0.000000
0.314297 1.000000 0.000000
0.349318 1.000000 0.000000
0.433000 1.000000 0.000000
0.587033 1.000000 0.000000
0.800710 1.000000 0.000000
0.970854 1.000000 0.000000
1.000000 0.993019 0.000000
1.000000 0.975068 0.000000
0.797468 1.000000 0.000000
0.799689 1.000000 0.000000
0.803133 1.000000 0.000000
0.813342 1.000000 0.000000
0.840526 1.000000 0.000000
0.897699 1.000000 0.000000
0.973096 1.000000 0.000000
1.000000 1.000000 0.000000
1.000000 1.000000 0.000000
0.979385 1.000000 0.000000
0.979602 1.000000 0.000000
0.979943 1.000000 0.000000
0.980986 1.000000 0.000000
0.984021 1.000000 0.000000
0.991922 1.000000 0.000000
1.000000 1.000000 0.000000
1.000000 1.000000 0.000000
1.000000 1.000000 0.000000
0.000000 0.000000 0.147644
0.025930 0.000000 0.146541
0.152745 0.000000 0.144919
0.374896 0.000000 0.140287
0.671919 0.000000 0.126163
0.949090 0.000000 0.073187
1.000000 0.000000 0.041673
1.000000 0.000000 0.048722
1.000000 0.000000 0.050188
0.000000 0.008046 0.145388
0.020422 0.003773 0.144302
0.157526 0.000000 0.142727
0.379327 0.000000 0.138198
0.673546 0.000000 0.124239
0.949734 0.000000 0.071299
1.000000 0.000000 0.041682
1.000000 0.000000 0.048723
1.000000 0.000000 0.050188
0.000000 0.149876 0.139028
0.000000 0.146412 0.137964
0.136325 0.136476 0.136250
0.375098 0.083019 0.129451
0.670751 0.000000 0.112276
0.947988 0.000000 0.062226
1.000000 0.000000 0.041697
1.000000 0.000000 0.048724
1.000000 0.000000 0.050188
0.000000 0.376469 0.107358
0.000000 0.374375 0.106178
0.000000 0.370386 0.104386
0.335393 0.354674 0.098518
0.640078 0.308745 0.069854
0.924234 0.131806 0.013184
1.000000 0.000000 0.029366
1.000000 0.000000 0.048728
1.000000 0.000000 0.050188
0.000000 0.642346 0.000000
0.000000 0.641136 0.000000
0.000000 0.639049 0.000000
0.179737 0.631643 0.000000
0.585950 0.612647 0.000000
0.890374 0.569288 0.000000
1.000000 0.481756 0.000000
1.000000 0.000000 0.000000
1.000000 0.000000 0.050189
0.000000 0.883492 0.000000
0.000000 0.882736 0.000000
0.000000 0.881575 0.000000
0.000000 0.878193 0.000000
0.496796 0.869384 0.000000
0.817115 0.850011 0.000000
1.000000 0.820373 0.000000
1.000000 0.772874 0.000000
1.000000 0.566361 0.000000
0.287927 1.000000 0.000000
0.313565 1.000000 0.000000
0.348696 1.000000 0.000000
0.432570 1.000000 0.000000
0.586813 1.000000 0.000000
0.800639 1.000000 0.000000
0.970852 1.000000 0.000000
1.000000 0.992988 0.000000
1.000000 0.975025 0.000000
0.797395 1.000000 0.000000
0.799617 1.000000 0.000000
0.803062 1.000000 0.000000
0.813277 1.000000 0.000000
0.840474 1.000000 0.000000
0.897669 1.000000 0.000000
0.973087 1.000000 0.000000
1.000000 1.000000 0.000000
1.000000 1.000000 0.000000
0.979378 1.000000 0.000000
0.979595 1.000000 0.000000
0.979936 1.000000 0.000000
0.980979 1.000000 0.000000
0.984015 1.000000 0.000000
0.991917 1.000000 0.000000
1.000000 1.000000 0.000000
1.000000 1.000000 0.000000
1.000000 1.000000 0.000000
0.000000 0.000000 0.345615
0.000000 0.000000 0.344998
0.114436 0.000000 0.344066
0.362156 0.000000 0.341317
0.667006 0.000000 0.332861
0.946775 0.000000 0.303725
1.000000 0.000000 0.189870
1.000000 0.000000 0.048721
1.000000 0.000000 0.050188
0.000000 0.000000 0.344605
0.000000 0.000000 0.343993
0.123432 0.000000 0.343076
0.367452 0.000000 0.340356
0.668821 0.000000 0.331939
0.947430 0.000000 0.302812
1.000000 0.000000 0.188627
1.000000 0.000000 0.048722
1.000000 0.000000 0.050188
0.000000 0.050927 0.342051
0.000000 0.044170 0.341456
0.101130 0.023687 0.340564
0.366404 0.000000 0.337910
0.668322 0.000000 0.329677
0.947890 0.000000 0.301100
1.000000 0.000000 0.186649
1.000000 0.000000 0.048724
1.000000 0.000000 0.050188
0.000000 0.350845 0.330801
0.000000 0.348631 0.330226
0.000000 0.344351 0.329338
0.326637 0.326714 0.326592
0.647572 0.267252 0.313721
0.934538 0.000000 0.277972
1.000000 0.000000 0.159490
1.000000 0.000000 0.048728
1.000000 0.000000 0.050188
0.000000 0.632408 0.293913
0.000000 0.631195 0.293273
0.000000 0.629096 0.292275
0.151832 0.621614 0.289224
0.581670 0.602322 0.279216
0.876176 0.568075 0.221629
1.000000 0.490807 0.019413
1.000000 0.000000 0.000000
1.000000 0.000000 0.050189
0.000000 0.878878 0.182226
0.000000 0.878132 0.181165
0.000000 0.876987 0.179464
0.000000 0.873660 0.173992
0.491718 0.865062 0.155534
0.814544 0.846756 0.074487
1.000000 0.827293 0.000000
1.000000 0.771979 0.000000
1.000000 0.564023 0.000000
0.283636 1.000000 0.000000
0.309796 1.000000 0.000000
0.345517 1.000000 0.000000
0.430403 1.000000 0.000000
0.585771 1.000000 0.000000
0.800376 1.000000 0.000000
0.970844 1.000000 0.000000
1.000000 0.992891 0.000000
1.000000 0.974891 0.000000
0.797165 1.000000 0.000000
0.799391 1.000000 0.000000
0.802842 1.000000 0.000000
0.813073 1.000000 0.000000
0.840310 1.000000 0.000000
0.897576 1.000000 0.000000
0.973061 1.000000 0.000000
1.000000 1.000000 0.000000
1.000000 1.000000 0.000000
0.979355 1.000000 0.000000
0.979572 1.000000 0.000000
0.979913 1.000000 0.000000
0.980957 1.000000 0.000000
0.983995 1.000000 0.000000
0.991902 1.000000 0.000000
1.000000 1.000000 0.000000
1.000000 1.000000 0.000000
1.000000 1.000000 0.000000
0.000000 0.000000 0.589319
0.000000 0.000000 0.589132
0.000000 0.000000 0.588858
0.320278 0.000000 0.588090
0.651668 0.000000 0.585781
0.938808 0.000000 0.577613
1.000000 0.000000 0.547340
1.000000 0.000000 0.398258
1.000000 0.000000 0.050188
0.000000 0.000000 0.589041
0.000000 0.000000 0.588857
0.000000 0.000000 0.588587
0.328107 0.000000 0.587847
0.653914 0.000000 0.585533
0.939470 0.000000 0.577351
1.000000 0.000000 0.547032
1.000000 0.000000 0.397546
1.000000 0.000000 0.050188
0.000000 0.000000 0.588288
0.000000 0.000000 0.588112
0.000000 0.000000 0.587858
0.331867 0.000000 0.587136
0.655442 0.000000 0.584936
0.940326 0.000000 0.576902
1.000000 0.000000 0.546544
1.000000 0.000000 0.396417
1.000000 0.000000 0.050188
0.000000 0.253685 0.584028
0.000000 0.250629 0.583870
0.000000 0.244248 0.583634
0.291284 0.216026 0.582954
0.638175 0.072689 0.580829
0.930570 0.000000 0.573227
1.000000 0.000000 0.544422
1.000000 0.000000 0.392874
1.000000 0.000000 0.050188
0.000000 0.600030 0.570293
0.000000 0.598736 0.570139
0.000000 0.596478 0.569901
0.000000 0.588351 0.569192
0.566833 0.566835 0.566833
0.880647 0.520223 0.553935
1.000000 0.426331 0.515014
1.000000 0.000000 0.338435
1.000000 0.000000 0.050189
0.000000 0.861454 0.540189
0.000000 0.860671 0.540017
0.000000 0.859469 0.539740
0.000000 0.855977 0.538858
0.470110 0.846952 0.535988
0.805361 0.827755 0.525867
1.000000 0.807142 0.466491
1.000000 0.774756 0.196361
1.000000 0.556659 0.000000
0.229083 1.000000 0.474005
0.262459 1.000000 0.473739
0.305706 1.000000 0.473316
0.402291 1.000000 0.471984
0.568872 1.000000 0.467752
0.790938 1.000000 0.453676
0.965265 0.992935 0.399946
1.000000 0.994499 0.000000
1.000000 0.974475 0.000000
0.794439 1.000000 0.000000
0.796698 1.000000 0.000000
0.800200 1.000000 0.000000
0.810580 1.000000 0.000000
0.838208 1.000000 0.000000
0.896300 1.000000 0.000000
0.972936 1.000000 0.000000
1.000000 1.000000 0.000000
1.000000 1.000000 0.000000
0.979285 1.000000 0.000000
0.979502 1.000000 0.000000
0.979844 1.000000 0.000000
0.980890 1.000000 0.000000
0.983934 1.000000 0.000000
0.991854 1.000000 0.000000
1.000000 1.000000 0.000000
1.000000 1.000000 0.000000
1.000000 1.000000 0.000000
0.000000 0.000000 0.816447
0.000000 0.000000 0.816391
0.000000 0.000000 0.816308
0.196691 0.000000 0.816125
0.618704 0.000000 0.815652
0.923648 0.000000 0.813669
1.000000 0.000000 0.805888
1.000000 0.000000 0.776817
1.000000 0.000000 0.634018
0.000000 0.000000 0.816373
0.000000 0.000000 0.816317
0.000000 0.000000 0.816236
0.209940 0.000000 0.816057
0.621174 0.000000 0.815582
0.924328 0.000000 0.813595
1.000000 0.000000 0.805809
1.000000 0.000000 0.776723
1.000000 0.000000 0.633817
0.000000 0.000000 0.816257
0.000000 0.000000 0.816202
0.000000 0.000000 0.816124
0.229362 0.000000 0.815948
0.625033 0.000000 0.815471
0.925400 0.000000 0.813480
1.000000 0.000000 0.805684
1.000000 0.000000 0.776574
1.000000 0.000000 0.633497
0.000000 0.000000 0.814657
0.000000 0.000000 0.814614
0.000000 0.000000 0.814560
0.208101 0.000000 0.814435
0.618796 0.000000 0.814078
0.922284 0.000000 0.812434
1.000000 0.000000 0.805277
1.000000 0.000000 0.776110
1.000000 0.000000 0.632497
0.000000 0.526678 0.807422
0.000000 0.525226 0.807391
0.000000 0.522617 0.807346
0.000000 0.512858 0.807232
0.540100 0.484979 0.806819
0.871751 0.418837 0.805074
1.000000 0.252765 0.798172
1.000000 0.000000 0.772868
1.000000 0.000000 0.629384
0.000000 0.828493 0.793683
0.000000 0.827598 0.793654
0.000000 0.826270 0.793606
0.000000 0.822415 0.793445
0.426641 0.812456 0.792878
0.790745 0.790803 0.790702
1.000000 0.759948 0.778476
1.000000 0.712727 0.740852
1.000000 0.478230 0.606688
0.000000 0.995249 0.772640
0.104001 0.994897 0.772591
0.195930 0.994349 0.772513
0.336962 0.992707 0.772268
0.533537 0.988267 0.771478
0.771769 0.978434 0.768821
0.952131 0.966813 0.759230
1.000000 0.963979 0.703566
1.000000 0.955371 0.541480
0.771103 1.000000 0.726374
0.773488 1.000000 0.726297
0.777184 1.000000 0.726174
0.788120 1.000000 0.725790
0.817125 1.000000 0.724590
0.877666 1.000000 0.720769
0.956921 1.000000 0.708110
1.000000 1.000000 0.660970
1.000000 1.000000 0.323102
0.972985 1.000000 0.432022
0.973214 1.000000 0.431659
0.973574 1.000000 0.431081
0.974678 1.000000 0.429270
0.977896 1.000000 0.423582
0.986329 1.000000 0.404948
1.000000 1.000000 0.333175
1.000000 1.000000 0.000000
1.000000 1.000000 0.000000
0.000000 0.000000 0.963479
0.000000 0.000000 0.963471
0.000000 0.000000 0.963459
0.000000 0.000000 0.963448
0.552334 0.000000 0.963631
0.901216 0.000000 0.963833
1.000000 0.000000 0.963319
1.000000 0.000000 0.959955
1.000000 0.000000 0.946462
0.000000 0.000000 0.963469
0.000000 0.000000 0.963461
0.000000 0.000000 0.963450
0.000000 0.000000 0.963441
0.555452 0.000000 0.963624
0.901940 0.000000 0.963824
1.000000 0.000000 0.963309
1.000000 0.000000 0.959943
1.000000 0.000000 0.946447
0.000000 0.000000 0.963453
0.000000 0.000000 0.963446
0.000000 0.000000 0.963434
0.000000 0.000000 0.963430
0.560307 0.000000 0.963614
0.903083 0.000000 0.963811
1.000000 0.000000 0.963294
1.000000 0.000000 0.959926
1.000000 0.000000 0.946423
0.000000 0.000000 0.963405
0.000000 0.000000 0.963398
0.000000 0.000000 0.963386
0.000000 0.000000 0.963397
0.574858 0.000000 0.963581
0.906610 0.000000 0.963770
1.000000 0.000000 0.963245
1.000000 0.000000 0.959871
1.000000 0.000000 0.946349
0.000000 0.339010 0.959197
0.000000 0.337924 0.959199
0.000000 0.334664 0.959212
0.000000 0.318227 0.959291
0.513691 0.252246 0.959565
0.870590 0.000000 0.960035
1.000000 0.000000 0.960506
1.000000 0.000000 0.959702
1.000000 0.000000 0.946121
0.000000 0.781919 0.950071
0.000000 0.780880 0.950088
0.000000 0.779183 0.950117
0.000000 0.774483 0.950192
0.356948 0.762697 0.950355
0.775364 0.737154 0.950587
1.000000 0.697202 0.950370
1.000000 0.629220 0.948226
1.000000 0.060315 0.940318
0.000000 0.972661 0.941154
0.000000 0.972273 0.941159
0.000000 0.971670 0.941166
0.188492 0.969866 0.941187
0.478947 0.964961 0.941228
0.748477 0.954073 0.941207
0.940446 0.940468 0.940427
1.000000 0.929959 0.934860
1.000000 0.909885 0.922913
0.745104 1.000000 0.933907
0.747707 1.000000 0.933903
0.751735 1.000000 0.933895
0.763623 1.000000 0.933871
0.794943 1.000000 0.933788
0.859466 1.000000 0.933484
0.942267 1.000000 0.932307
0.995216 1.000000 0.927938
1.000000 1.000000 0.910903
0.950404 1.000000 0.913499
0.950638 1.000000 0.913485
0.951006 1.000000 0.913465
0.952131 1.000000 0.913399
0.955406 1.000000 0.913196
0.963917 1.000000 0.912562
0.980460 1.000000 0.910535
0.997987 1.000000 0.903691
1.000000 1.000000 0.876289
0.000000 0.000000 1.000000
0.000000 0.000000 1.000000
0.000000 0.000000 1.000000
0.000000 0.000000 1.000000
0.264979 0.000000 1.000000
0.857184 0.000000 1.000000
1.000000 0.000000 1.000000
1.000000 0.000000 1.000000
1.000000 0.000000 1.000000
0.000000 0.000000 1.000000
0.000000 0.000000 1.000000
0.000000 0.000000 1.000000
0.000000 0.000000 1.000000
0.275534 0.000000 1.000000
0.858061 0.000000 1.000000
1.000000 0.000000 1.000000
1.000000 0.000000 1.000000
1.000000 0.000000 1.000000
0.000000 0.000000 1.000000
0.000000 0.000000 1.000000
0.000000 0.000000 1.000000
0.000000 0.000000 1.000000
0.291372 0.000000 1.000000
0.859441 0.000000 1.000000
1.000000 0.000000 1.000000
1.000000 0.000000 1.000000
1.000000 0.000000 1.000000
0.000000 0.000000 1.000000
0.000000 0.000000 1.000000
0.000000 0.000000 1.000000
0.000000 0.000000 1.000000
0.335426 0.000000 1.000000
0.863687 0.000000 1.000000
1.000000 0.000000 1.000000
1.000000 0.000000 1.000000
1.000000 0.000000 1.000000
0.000000 0.000000 1.000000
0.000000 0.000000 1.000000
0.000000 0.000000 1.000000
0.000000 0.000000 1.000000
0.435855 0.000000 1.000000
0.876255 0.000000 1.000000
1.000000 0.000000 1.000000
1.000000 0.000000 1.000000
1.000000 0.000000 1.000000
0.000000 0.683493 1.000000
0.000000 0.683285 1.000000
0.000000 0.682522 1.000000
0.000000 0.677538 1.000000
0.165208 0.659191 1.000000
0.770845 0.621149 1.000000
1.000000 0.556832 1.000000
1.000000 0.415450 1.000000
1.000000 0.000000 1.000000
0.000000 0.959032 0.993062
0.000000 0.958567 0.993076
0.000000 0.957848 0.993097
0.000000 0.955716 0.993159
0.350839 0.949971 0.993324
0.716410 0.937415 0.993674
0.935902 0.921565 0.994067
1.000000 0.907892 0.994258
1.000000 0.880863 0.994375
0.711620 1.000000 0.990446
0.714773 1.000000 0.990450
0.719638 1.000000 0.990457
0.733881 1.000000 0.990475
0.770714 1.000000 0.990526
0.844261 1.000000 0.990630
0.934885 0.994966 0.990736
0.990611 0.990611 0.990611
1.000000 0.988390 0.989795
0.942223 1.000000 0.989256
0.942472 1.000000 0.989256
0.942864 1.000000 0.989256
0.944061 1.000000 0.989255
0.947539 1.000000 0.989253
0.956546 1.000000 0.989241
0.973881 1.000000 0.989181
0.991744 1.000000 0.988906
1.000000 1.000000 0.987856
0.000000 0.000000 1.000000
0.000000 0.000000 1.000000
0.000000 0.000000 1.000000
0.000000 0.000000 1.000000
0.000000 0.000000 1.000000
0.654114 0.000000 1.000000
1.000000 0.000000 1.000000
1.000000 0.000000 1.000000
1.000000 0.000000 1.000000
0.000000 0.000000 1.000000
0.000000 0.000000 1.000000
0.000000 0.000000 1.000000
0.000000 0.000000 1.000000
0.000000 0.000000 1.000000
0.656149 0.000000 1.000000
1.000000 0.000000 1.000000
1.000000 0.000000 1.000000
1.000000 0.000000 1.000000
0.000000 0.000000 1.000000
0.000000 0.000000 1.000000
0.000000 0.000000 1.000000
0.000000 0.000000 1.000000
0.000000 0.000000 1.000000
0.659337 0.000000 1.000000
1.000000 0.000000 1.000000
1.000000 0.000000 1.000000
1.000000 0.000000 1.000000
0.000000 0.000000 1.000000
0.000000 0.000000 1.000000
0.000000 0.000000 1.000000
0.000000 0.000000 1.000000
0.000000 0.000000 1.000000
0.669023 0.000000 1.000000
1.000000 0.000000 1.000000
1.000000 0.000000 1.000000
1.000000 0.000000 1.000000
0.000000 0.000000 1.000000
0.000000 0.000000 1.000000
0.000000 0.000000 1.000000
0.000000 0.000000 1.000000
0.000000 0.000000 1.000000
0.696709 0.000000 1.000000
1.000000 0.000000 1.000000
1.000000 0.000000 1.000000
1.000000 0.000000 1.000000
0.000000 0.000000 1.000000
0.000000 0.000000 1.000000
0.000000 0.000000 1.000000
0.000000 0.000000 1.000000
0.000000 0.000000 1.000000
0.766657 0.000000 1.000000
1.000000 0.000000 1.000000
1.000000 0.000000 1.000000
1.000000 0.000000 1.000000
0.000000 0.926607 1.000000
0.000000 0.926582 1.000000
0.000000 0.926503 1.000000
0.000000 0.924400 1.000000
0.000000 0.913960 1.000000
0.603435 0.894172 1.000000
0.939677 0.869316 1.000000
1.000000 0.846087 1.000000
1.000000 0.783430 1.000000
0.581751 1.000000 0.999693
0.587923 1.000000 0.999700
0.597368 1.000000 0.999711
0.624498 1.000000 0.999742
0.690676 1.000000 0.999827
0.804712 0.999422 1.000000
0.924589 0.991926 1.000000
0.989831 0.986749 1.000000
1.000000 0.983923 1.000000
0.933360 1.000000 0.999691
0.933660 1.000000 0.999692
0.934130 1.000000 0.999693
0.935566 1.000000 0.999696
0.939722 1.000000 0.999705
0.950375 1.000000 0.999729
0.970429 1.000000 0.999775
0.990372 1.000000 0.999822
0.999845 0.999845 0.999845
