Sony/SLog3SGamut3.CineToLC-709.cube
#Sony LookProfile LUT, SLog3SGamut3.CineToLC_709 full in full out v1.08.04
TITLE 	SLog3SGamut3.CineToLC_709
LUT_3D_SIZE 33
0.006644 0.007144 0.000000
0.015137 0.000000 0.000037
0.021711 0.000000 0.000053
0.031136 0.000000 0.000076
0.044643 0.000000 0.000109
0.063677 0.000000 0.000156
0.092521 0.000000 0.000245
0.124903 0.000000 0.000376
0.162394 0.000000 0.000575
0.205780 0.000000 0.000877
0.255833 0.000000 0.001331
0.313296 0.000000 0.002008
0.378761 0.000000 0.003005
0.452498 0.000000 0.004450
0.530630 0.000000 0.006393
0.602331 0.000000 0.008585
0.673222 0.000000 0.011169
0.743513 0.000000 0.014170
0.813358 0.000000 0.017613
0.882705 0.000000 0.021514
0.949412 0.000000 0.025744
1.000000 0.000000 0.030291
1.000000 0.000000 0.034663
1.000000 0.000000 0.038466
1.000000 0.000000 0.041676
1.000000 0.000000 0.044265
1.000000 0.000000 0.046261
1.000000 0.000000 0.047720
1.000000 0.000000 0.048722
1.000000 0.000000 0.049363
1.000000 0.000000 0.049747
1.000000 0.000000 0.049992
1.000000 0.000000 0.050188
0.005171 0.011604 0.000000
0.010139 0.011109 0.000000
0.017237 0.010451 0.000000
0.027386 0.009562 0.000000
0.041905 0.008340 0.000000
0.062454 0.006640 0.000000
0.092342 0.003642 0.000000
0.125208 0.000000 0.000000
0.163036 0.000000 0.000111
0.206624 0.000000 0.000429
0.256781 0.000000 0.000904
0.314275 0.000000 0.001606
0.379717 0.000000 0.002635
0.453391 0.000000 0.004117
0.531577 0.000000 0.006420
0.603037 0.000000 0.008609
0.673749 0.000000 0.011190
0.743908 0.000000 0.014188
0.813655 0.000000 0.017629
0.882925 0.000000 0.021527
0.949571 0.000000 0.025755
1.000000 0.000000 0.030299
1.000000 0.000000 0.034668
1.000000 0.000000 0.038470
1.000000 0.000000 0.041678
1.000000 0.000000 0.044266
1.000000 0.000000 0.046262
1.000000 0.000000 0.047721
1.000000 0.000000 0.048722
1.000000 0.000000 0.049363
1.000000 0.000000 0.049747
1.000000 0.000000 0.049993
1.000000 0.000000 0.050188
0.002490 0.018624 0.000000
0.007839 0.018033 0.000000
0.015468 0.017271 0.000000
0.026364 0.016260 0.000000
0.041937 0.014894 0.000000
0.063867 0.013017 0.000000
0.093907 0.009883 0.000000
0.126835 0.005336 0.000000
0.164657 0.000000 0.000000
0.208191 0.000000 0.000183
0.258260 0.000000 0.000671
0.315641 0.000000 0.001389
0.380952 0.000000 0.002436
0.454481 0.000000 0.003941
0.532012 0.000000 0.005942
0.603381 0.000000 0.008203
0.674030 0.000000 0.010864
0.744302 0.000000 0.014206
0.813951 0.000000 0.017644
0.883144 0.000000 0.021540
0.949731 0.000000 0.025765
1.000000 0.000000 0.030308
1.000000 0.000000 0.034674
1.000000 0.000000 0.038473
1.000000 0.000000 0.041680
1.000000 0.000000 0.044267
1.000000 0.000000 0.046263
1.000000 0.000000 0.047721
1.000000 0.000000 0.048722
1.000000 0.000000 0.049363
1.000000 0.000000 0.049747
1.000000 0.000000 0.049993
1.000000 0.000000 0.050188
0.000000 0.029652 0.000000
0.003667 0.028927 0.000000
0.011881 0.028018 0.000000
0.023592 0.026845 0.000000
0.040309 0.025291 0.000000
0.063853 0.023193 0.000000
0.094252 0.019897 0.000000
0.127540 0.015116 0.000000
0.165582 0.008031 0.000000
0.209236 0.000000 0.000000
0.259350 0.000000 0.000293
0.316720 0.000000 0.001034
0.381978 0.000000 0.002110
0.455421 0.000000 0.003647
0.532665 0.000000 0.005682
0.603879 0.000000 0.007983
0.674416 0.000000 0.010688
0.744447 0.000000 0.013815
0.814247 0.000000 0.017660
0.883364 0.000000 0.021553
0.949890 0.000000 0.025776
1.000000 0.000000 0.030316
1.000000 0.000000 0.034680
1.000000 0.000000 0.038477
1.000000 0.000000 0.041683
1.000000 0.000000 0.044269
1.000000 0.000000 0.046263
1.000000 0.000000 0.047721
1.000000 0.000000 0.048723
1.000000 0.000000 0.049363
1.000000 0.000000 0.049747
1.000000 0.000000 0.049993
1.000000 0.000000 0.050188
0.000000 0.046953 0.000000
0.000000 0.046031 0.000000
0.005391 0.044913 0.000000
0.018000 0.043514 0.000000
0.035966 0.041709 0.000000
0.061438 0.039323 0.000000
0.092662 0.035815 0.000000
0.126802 0.030702 0.000000
0.165427 0.023195 0.000000
0.209472 0.012167 0.000000
0.259838 0.000000 0.000000
0.317355 0.000000 0.000464
0.382680 0.000000 0.001582
0.456130 0.000000 0.003171
0.533153 0.000000 0.005259
0.604261 0.000000 0.007625
0.674722 0.000000 0.010400
0.744699 0.000000 0.013601
0.814308 0.000000 0.017235
0.883583 0.000000 0.021566
0.950049 0.000000 0.025787
1.000000 0.000000 0.030324
1.000000 0.000000 0.034685
1.000000 0.000000 0.038481
1.000000 0.000000 0.041685
1.000000 0.000000 0.044270
1.000000 0.000000 0.046264
1.000000 0.000000 0.047722
1.000000 0.000000 0.048723
1.000000 0.000000 0.049363
1.000000 0.000000 0.049747
1.000000 0.000000 0.049993
1.000000 0.000000 0.050188
0.000000 0.072517 0.000000
0.000000 0.071491 0.000000
0.000000 0.070277 0.000000
0.007918 0.068786 0.000000
0.027259 0.066888 0.000000
0.054796 0.064386 0.000000
0.087876 0.060837 0.000000
0.123743 0.055359 0.000000
0.163560 0.047233 0.000000
0.208439 0.035415 0.000000
0.259387 0.018240 0.000000
0.317299 0.000000 0.000000
0.382880 0.000000 0.000741
0.456479 0.000000 0.002408
0.533383 0.000000 0.004583
0.604461 0.000000 0.007050
0.674903 0.000000 0.009938
0.744870 0.000000 0.013254
0.814471 0.000000 0.017000
0.883605 0.000000 0.021159
0.950208 0.000000 0.025797
1.000000 0.000000 0.030333
1.000000 0.000000 0.034691
1.000000 0.000000 0.038484
1.000000 0.000000 0.041687
1.000000 0.000000 0.044271
1.000000 0.000000 0.046265
1.000000 0.000000 0.047722
1.000000 0.000000 0.048723
1.000000 0.000000 0.049363
1.000000 0.000000 0.049747
1.000000 0.000000 0.049993
1.000000 0.000000 0.050188
0.000000 0.098898 0.000000
0.000000 0.098117 0.000000
0.000000 0.097177 0.000000
0.000000 0.096006 0.000000
0.015105 0.094499 0.000000
0.045033 0.092500 0.000000
0.080064 0.089898 0.000000
0.118565 0.085841 0.000000
0.160114 0.079650 0.000000
0.206183 0.069899 0.000000
0.257960 0.053670 0.000000
0.316450 0.028545 0.000000
0.382427 0.000000 0.000000
0.456290 0.000000 0.000953
0.533123 0.000000 0.003191
0.604295 0.000000 0.005834
0.674846 0.000000 0.008957
0.744898 0.000000 0.012518
0.814563 0.000000 0.016497
0.883729 0.000000 0.020858
0.950247 0.000000 0.025429
1.000000 0.000000 0.030343
1.000000 0.000000 0.034698
1.000000 0.000000 0.038489
1.000000 0.000000 0.041690
1.000000 0.000000 0.044273
1.000000 0.000000 0.046266
1.000000 0.000000 0.047723
1.000000 0.000000 0.048723
1.000000 0.000000 0.049364
1.000000 0.000000 0.049747
1.000000 0.000000 0.049993
1.000000 0.000000 0.050188
0.000000 0.131326 0.000000
0.000000 0.130647 0.000000
0.000000 0.129830 0.000000
0.000000 0.128817 0.000000
0.000000 0.127518 0.000000
0.027316 0.125899 0.000000
0.065702 0.123860 0.000000
0.109448 0.120698 0.000000
0.154139 0.115983 0.000000
0.202268 0.108812 0.000000
0.255448 0.097576 0.000000
0.314898 0.079008 0.000000
0.381522 0.044985 0.000000
0.455799 0.000000 0.000000
0.532532 0.000000 0.001017
0.603677 0.000000 0.003670
0.674244 0.000000 0.006849
0.744402 0.000000 0.010606
0.814307 0.000000 0.015070
0.883698 0.000000 0.019995
0.950334 0.000000 0.024989
1.000000 0.000000 0.030007
1.000000 0.000000 0.034708
1.000000 0.000000 0.038495
1.000000 0.000000 0.041694
1.000000 0.000000 0.044275
1.000000 0.000000 0.046267
1.000000 0.000000 0.047723
1.000000 0.000000 0.048724
1.000000 0.000000 0.049364
1.000000 0.000000 0.049747
1.000000 0.000000 0.049993
1.000000 0.000000 0.050188
0.000000 0.168925 0.000000
0.000000 0.168323 0.000000
0.000000 0.167599 0.000000
0.000000 0.166699 0.000000
0.000000 0.165546 0.000000
0.000000 0.164276 0.000000
0.038630 0.162638 0.000000
0.092839 0.160132 0.000000
0.143556 0.156459 0.000000
0.195290 0.150999 0.000000
0.250823 0.142735 0.000000
0.311862 0.129890 0.000000
0.379559 0.108961 0.000000
0.454542 0.070890 0.000000
0.531238 0.002335 0.000000
0.602487 0.000000 0.000365
0.673156 0.000000 0.003650
0.743427 0.000000 0.007557
0.813421 0.000000 0.012151
0.883008 0.000000 0.017470
0.950056 0.000000 0.023464
1.000000 0.000000 0.029378
1.000000 0.000000 0.034721
1.000000 0.000000 0.038504
1.000000 0.000000 0.041699
1.000000 0.000000 0.044279
1.000000 0.000000 0.046269
1.000000 0.000000 0.047724
1.000000 0.000000 0.048724
1.000000 0.000000 0.049364
1.000000 0.000000 0.049747
1.000000 0.000000 0.049993
1.000000 0.000000 0.050188
0.000000 0.212384 0.000000
0.000000 0.211838 0.000000
0.000000 0.211177 0.000000
0.000000 0.210350 0.000000
0.000000 0.209346 0.000000
0.000000 0.208349 0.000000
0.000000 0.207018 0.000000
0.059428 0.205006 0.000000
0.124432 0.202096 0.000000
0.183032 0.197843 0.000000
0.242665 0.191550 0.000000
0.306365 0.182096 0.000000
0.375837 0.167576 0.000000
0.451996 0.144403 0.000000
0.528786 0.107323 0.000000
0.600282 0.040342 0.000000
0.671162 0.000000 0.000000
0.741637 0.000000 0.002711
0.811840 0.000000 0.007527
0.881644 0.000000 0.013171
0.948893 0.000000 0.019552
1.000000 0.000000 0.026622
1.000000 0.000000 0.033482
1.000000 0.000000 0.038515
1.000000 0.000000 0.041706
1.000000 0.000000 0.044283
1.000000 0.000000 0.046271
1.000000 0.000000 0.047726
1.000000 0.000000 0.048725
1.000000 0.000000 0.049364
1.000000 0.000000 0.049747
1.000000 0.000000 0.049993
1.000000 0.000000 0.050188
0.000000 0.262372 0.000000
0.000000 0.261859 0.000000
0.000000 0.261229 0.000000
0.000000 0.260440 0.000000
0.000000 0.259659 0.000000
0.000000 0.258833 0.000000
0.000000 0.257741 0.000000
0.000000 0.256107 0.000000
0.086548 0.253771 0.000000
0.161152 0.250403 0.000000
0.228518 0.245501 0.000000
0.296820 0.238300 0.000000
0.369252 0.227598 0.000000
0.447354 0.211448 0.000000
0.524474 0.188518 0.000000
0.596464 0.156612 0.000000
0.667744 0.105208 0.000000
0.738571 0.000000 0.000000
0.809106 0.000000 0.000229
0.879225 0.000000 0.006193
0.946794 0.000000 0.013048
1.000000 0.000000 0.020844
1.000000 0.000000 0.029029
1.000000 0.000000 0.036830
1.000000 0.000000 0.041716
1.000000 0.000000 0.044288
1.000000 0.000000 0.046274
1.000000 0.000000 0.047727
1.000000 0.000000 0.048726
1.000000 0.000000 0.049365
1.000000 0.000000 0.049747
1.000000 0.000000 0.049993
1.000000 0.000000 0.050188
0.000000 0.319439 0.000000
0.000000 0.318928 0.000000
0.000000 0.318297 0.000000
0.000000 0.317673 0.000000
0.000000 0.317015 0.000000
0.000000 0.316326 0.000000
0.000000 0.315422 0.000000
0.000000 0.314081 0.000000
0.000000 0.312185 0.000000
0.118791 0.309483 0.000000
0.203728 0.305603 0.000000
0.280580 0.299994 0.000000
0.358077 0.291836 0.000000
0.439393 0.279906 0.000000
0.517250 0.263976 0.000000
0.590149 0.243302 0.000000
0.662137 0.214888 0.000000
0.733558 0.173396 0.000000
0.804621 0.101830 0.000000
0.875210 0.000000 0.000000
0.943221 0.000000 0.002590
1.000000 0.000000 0.011059
1.000000 0.000000 0.020295
1.000000 0.000000 0.029866
1.000000 0.000000 0.039190
1.000000 0.000000 0.044296
1.000000 0.000000 0.046279
1.000000 0.000000 0.047730
1.000000 0.000000 0.048727
1.000000 0.000000 0.049365
1.000000 0.000000 0.049747
1.000000 0.000000 0.049993
1.000000 0.000000 0.050188
0.000000 0.383853 0.000000
0.000000 0.383342 0.000000
0.000000 0.382833 0.000000
0.000000 0.382299 0.000000
0.000000 0.381741 0.000000
0.000000 0.381162 0.000000
0.000000 0.380407 0.000000
0.000000 0.379298 0.000000
0.000000 0.377745 0.000000
0.007361 0.375553 0.000000
0.157312 0.372442 0.000000
0.252891 0.368003 0.000000
0.339587 0.361648 0.000000
0.426313 0.352543 0.000000
0.505584 0.340925 0.000000
0.580076 0.326198 0.000000
0.653267 0.306985 0.000000
0.725661 0.281465 0.000000
0.797555 0.246291 0.000000
0.868848 0.194007 0.000000
0.937487 0.098680 0.000000
1.000000 0.000000 0.000000
1.000000 0.000000 0.005688
1.000000 0.000000 0.016745
1.000000 0.000000 0.028614
1.000000 0.000000 0.040308
1.000000 0.000000 0.046284
1.000000 0.000000 0.047733
1.000000 0.000000 0.048728
1.000000 0.000000 0.049366
1.000000 0.000000 0.049748
1.000000 0.000000 0.049993
1.000000 0.000000 0.050188
0.000000 0.454498 0.000000
0.000000 0.454094 0.000000
0.000000 0.453672 0.000000
0.000000 0.453233 0.000000
0.000000 0.452777 0.000000
0.000000 0.452306 0.000000
0.000000 0.451697 0.000000
0.000000 0.450806 0.000000
0.000000 0.449568 0.000000
0.000000 0.447834 0.000000
0.037519 0.445393 0.000000
0.204202 0.441942 0.000000
0.309597 0.437057 0.000000
0.405620 0.430155 0.000000
0.487315 0.421685 0.000000
0.564525 0.410727 0.000000
0.639705 0.396765 0.000000
0.713655 0.378880 0.000000
0.786829 0.355660 0.000000
0.859169 0.324849 0.000000
0.928703 0.282953 0.000000
0.995847 0.220510 0.000000
1.000000 0.106123 0.000000
1.000000 0.000000 0.000000
1.000000 0.000000 0.009070
1.000000 0.000000 0.024526
1.000000 0.000000 0.040232
1.000000 0.000000 0.047736
1.000000 0.000000 0.048730
1.000000 0.000000 0.049367
1.000000 0.000000 0.049748
1.000000 0.000000 0.049993
1.000000 0.000000 0.050188
0.000000 0.518689 0.000000
0.000000 0.518332 0.000000
0.000000 0.517962 0.000000
0.000000 0.517580 0.000000
0.000000 0.517186 0.000000
0.000000 0.516782 0.000000
0.000000 0.516262 0.000000
0.000000 0.515507 0.000000
0.000000 0.514463 0.000000
0.000000 0.513014 0.000000
0.000000 0.510990 0.000000
0.136953 0.508155 0.000000
0.275995 0.504180 0.000000
0.382151 0.498721 0.000000
0.467341 0.492231 0.000000
0.547302 0.484063 0.000000
0.624389 0.473830 0.000000
0.699759 0.461020 0.000000
0.774046 0.444910 0.000000
0.847210 0.424524 0.000000
0.917390 0.398789 0.000000
0.985015 0.365233 0.000000
1.000000 0.321744 0.000000
1.000000 0.260781 0.000000
1.000000 0.141050 0.000000
1.000000 0.000000 0.000000
1.000000 0.000000 0.016613
1.000000 0.000000 0.038565
1.000000 0.000000 0.048733
1.000000 0.000000 0.049368
1.000000 0.000000 0.049749
1.000000 0.000000 0.049994
1.000000 0.000000 0.050189
0.000000 0.582039 0.000000
0.000000 0.581716 0.000000
0.000000 0.581383 0.000000
0.000000 0.581042 0.000000
0.000000 0.580694 0.000000
0.000000 0.580337 0.000000
0.000000 0.579880 0.000000
0.000000 0.579222 0.000000
0.000000 0.578319 0.000000
0.000000 0.577074 0.000000
0.000000 0.575351 0.000000
0.000000 0.572959 0.000000
0.234690 0.569638 0.000000
0.352655 0.565328 0.000000
0.443816 0.560150 0.000000
0.527304 0.553674 0.000000
0.606776 0.545628 0.000000
0.683910 0.535667 0.000000
0.759586 0.523338 0.000000
0.833771 0.508099 0.000000
0.904779 0.489478 0.000000
0.972993 0.466351 0.000000
1.000000 0.438653 0.000000
1.000000 0.404864 0.000000
1.000000 0.360344 0.000000
1.000000 0.293986 0.000000
1.000000 0.154342 0.000000
1.000000 0.000000 0.003546
1.000000 0.000000 0.034865
1.000000 0.000000 0.049369
1.000000 0.000000 0.049749
1.000000 0.000000 0.049994
1.000000 0.000000 0.050189
0.000000 0.644690 0.000000
0.000000 0.644392 0.000000
0.000000 0.644087 0.000000
0.000000 0.643776 0.000000
0.000000 0.643460 0.000000
0.000000 0.643139 0.000000
0.000000 0.642729 0.000000
0.000000 0.642142 0.000000
0.000000 0.641343 0.000000
0.000000 0.640250 0.000000
0.000000 0.638751 0.000000
0.000000 0.636689 0.000000
0.185170 0.633857 0.000000
0.317693 0.630492 0.000000
0.416743 0.626295 0.000000
0.504497 0.621064 0.000000
0.586724 0.614595 0.000000
0.665849 0.606641 0.000000
0.743076 0.596890 0.000000
0.818353 0.585022 0.000000
0.890287 0.570795 0.000000
0.959130 0.553616 0.000000
1.000000 0.533899 0.000000
1.000000 0.511169 0.000000
1.000000 0.483582 0.000000
1.000000 0.447741 0.000000
1.000000 0.396372 0.000000
1.000000 0.309739 0.000000
1.000000 0.000000 0.000000
1.000000 0.000000 0.028473
1.000000 0.000000 0.049750
1.000000 0.000000 0.049995
1.000000 0.000000 0.050189
0.000000 0.706722 0.000000
0.000000 0.706443 0.000000
0.000000 0.706160 0.000000
0.000000 0.705873 0.000000
0.000000 0.705582 0.000000
0.000000 0.705287 0.000000
0.000000 0.704914 0.000000
0.000000 0.704381 0.000000
0.000000 0.703662 0.000000
0.000000 0.702687 0.000000
0.000000 0.701361 0.000000
0.000000 0.699556 0.000000
0.101638 0.697321 0.000000
0.276766 0.694587 0.000000
0.386371 0.691151 0.000000
0.479172 0.686873 0.000000
0.564468 0.681595 0.000000
0.645742 0.675128 0.000000
0.724624 0.667246 0.000000
0.800986 0.657762 0.000000
0.873914 0.646526 0.000000
0.943377 0.633223 0.000000
1.000000 0.618402 0.000000
1.000000 0.601908 0.000000
1.000000 0.582796 0.000000
1.000000 0.559462 0.000000
1.000000 0.528944 0.000000
1.000000 0.485452 0.000000
1.000000 0.415332 0.000000
1.000000 0.267046 0.000000
1.000000 0.000000 0.018429
1.000000 0.000000 0.049995
1.000000 0.000000 0.050189
0.000000 0.768140 0.000000
0.000000 0.767877 0.000000
0.000000 0.767612 0.000000
0.000000 0.767345 0.000000
0.000000 0.767075 0.000000
0.000000 0.766803 0.000000
0.000000 0.766460 0.000000
0.000000 0.765973 0.000000
0.000000 0.765320 0.000000
0.000000 0.764441 0.000000
0.000000 0.763257 0.000000
0.000000 0.761862 0.000000
0.000000 0.760091 0.000000
0.229433 0.757841 0.000000
0.353399 0.755013 0.000000
0.451951 0.751490 0.000000
0.540478 0.747143 0.000000
0.623928 0.741825 0.000000
0.704462 0.735361 0.000000
0.781773 0.727658 0.000000
0.855705 0.718588 0.000000
0.925687 0.708018 0.000000
0.985417 0.696512 0.000000
1.000000 0.684026 0.000000
1.000000 0.670027 0.000000
1.000000 0.653621 0.000000
1.000000 0.633243 0.000000
1.000000 0.606192 0.000000
1.000000 0.567403 0.000000
1.000000 0.505741 0.000000
1.000000 0.386604 0.000000
1.000000 0.000000 0.003418
1.000000 0.000000 0.050190
0.000000 0.827181 0.000000
0.000000 0.826935 0.000000
0.000000 0.826688 0.000000
0.000000 0.826439 0.000000
0.000000 0.826190 0.000000
0.000000 0.825939 0.000000
0.000000 0.825624 0.000000
0.000000 0.825179 0.000000
0.000000 0.824658 0.000000
0.000000 0.823981 0.000000
0.000000 0.823102 0.000000
0.000000 0.821968 0.000000
0.000000 0.820513 0.000000
0.182365 0.818664 0.000000
0.322630 0.816335 0.000000
0.426205 0.813429 0.000000
0.517252 0.809839 0.000000
0.602317 0.805446 0.000000
0.684033 0.800115 0.000000
0.761814 0.793825 0.000000
0.836509 0.786441 0.000000
0.906641 0.777978 0.000000
0.966134 0.768976 0.000000
1.000000 0.759430 0.000000
1.000000 0.749042 0.000000
1.000000 0.737280 0.000000
1.000000 0.723199 0.000000
1.000000 0.705203 0.000000
1.000000 0.680612 0.000000
1.000000 0.644807 0.000000
1.000000 0.588110 0.000000
1.000000 0.482555 0.000000
1.000000 0.028968 0.000000
0.000000 0.883911 0.000000
0.000000 0.883720 0.000000
0.000000 0.883529 0.000000
0.000000 0.883340 0.000000
0.000000 0.883152 0.000000
0.000000 0.882965 0.000000
0.000000 0.882733 0.000000
0.000000 0.882409 0.000000
0.000000 0.881986 0.000000
0.000000 0.881433 0.000000
0.000000 0.880714 0.000000
0.000000 0.879784 0.000000
0.000000 0.878589 0.000000
0.148534 0.877067 0.000000
0.299769 0.875142 0.000000
0.405446 0.872734 0.000000
0.497250 0.869750 0.000000
0.582747 0.866088 0.000000
0.664610 0.861652 0.000000
0.742168 0.856451 0.000000
0.817139 0.850340 0.000000
0.886820 0.843447 0.000000
0.945684 0.836246 0.000000
0.994483 0.828732 0.000000
1.000000 0.820749 0.000000
1.000000 0.811974 0.000000
1.000000 0.801840 0.000000
1.000000 0.789442 0.000000
1.000000 0.773342 0.000000
1.000000 0.751160 0.000000
1.000000 0.718511 0.000000
1.000000 0.665395 0.000000
1.000000 0.567575 0.000000
0.000000 0.934856 0.000000
0.000000 0.934702 0.000000
0.000000 0.934549 0.000000
0.000000 0.934396 0.000000
0.000000 0.934244 0.000000
0.000000 0.934094 0.000000
0.000000 0.933906 0.000000
0.000000 0.933645 0.000000
0.000000 0.933302 0.000000
0.000000 0.932854 0.000000
0.000000 0.932271 0.000000
0.000000 0.931515 0.000000
0.000000 0.930541 0.000000
0.170852 0.929296 0.000000
0.302029 0.927716 0.000000
0.400669 0.925731 0.000000
0.488434 0.923263 0.000000
0.571303 0.920226 0.000000
0.650640 0.916576 0.000000
0.726595 0.912294 0.000000
0.800516 0.907277 0.000000
0.868442 0.901745 0.000000
0.925860 0.896087 0.000000
0.973845 0.890313 0.000000
1.000000 0.884374 0.000000
1.000000 0.878093 0.000000
1.000000 0.871117 0.000000
1.000000 0.862861 0.000000
1.000000 0.852394 0.000000
1.000000 0.838227 0.000000
1.000000 0.817910 0.000000
1.000000 0.787218 0.000000
1.000000 0.737988 0.000000
0.000000 0.975551 0.000000
0.000000 0.975426 0.000000
0.000000 0.975301 0.000000
0.000000 0.975178 0.000000
0.000000 0.975054 0.000000
0.000000 0.974932 0.000000
0.000000 0.974779 0.000000
0.000000 0.974566 0.000000
0.000000 0.974287 0.000000
0.000000 0.973921 0.000000
0.000000 0.973444 0.000000
0.000000 0.972824 0.000000
0.141210 0.972022 0.000000
0.256779 0.970992 0.000000
0.345210 0.969680 0.000000
0.425052 0.968024 0.000000
0.501547 0.965954 0.000000
0.576439 0.963409 0.000000
0.649229 0.960379 0.000000
0.721207 0.956779 0.000000
0.791652 0.952597 0.000000
0.855775 0.948102 0.000000
0.910547 0.943573 0.000000
0.956877 0.939044 0.000000
0.994967 0.934544 0.000000
1.000000 0.930010 0.000000
1.000000 0.925270 0.000000
1.000000 0.920016 0.000000
1.000000 0.913750 0.000000
1.000000 0.905685 0.000000
1.000000 0.894537 0.000000
1.000000 0.877991 0.000000
1.000000 0.851474 0.000000
0.000000 1.000000 0.000000
0.000000 1.000000 0.000000
0.000000 1.000000 0.000000
0.000000 1.000000 0.000000
0.000000 1.000000 0.000000
0.000000 1.000000 0.000000
0.000000 1.000000 0.000000
0.000000 1.000000 0.000000
0.070070 1.000000 0.000000
0.140386 1.000000 0.000000
0.197833 1.000000 0.000000
0.251755 1.000000 0.000000
0.305268 1.000000 0.000000
0.359868 1.000000 0.000000
0.416382 1.000000 0.000000
0.475256 1.000000 0.000000
0.536254 0.999380 0.000000
0.598511 0.997264 0.000000
0.662359 0.994704 0.000000
0.727640 0.991639 0.000000
0.791674 0.988139 0.000000
0.849831 0.984462 0.000000
0.900674 0.980766 0.000000
0.944390 0.977115 0.000000
0.980737 0.973577 0.000000
1.000000 0.970150 0.000000
1.000000 0.966760 0.000000
1.000000 0.963245 0.000000
1.000000 0.959327 0.000000
1.000000 0.954578 0.000000
1.000000 0.948337 0.000000
1.000000 0.939529 0.000000
1.000000 0.926349 0.000000
0.289281 1.000000 0.000000
0.295952 1.000000 0.000000
0.302413 1.000000 0.000000
0.308677 1.000000 0.000000
0.314758 1.000000 0.000000
0.320669 1.000000 0.000000
0.327841 1.000000 0.000000
0.337515 1.000000 0.000000
0.349710 1.000000 0.000000
0.364903 1.000000 0.000000
0.383590 1.000000 0.000000
0.406246 1.000000 0.000000
0.433272 1.000000 0.000000
0.464923 1.000000 0.000000
0.501239 1.000000 0.000000
0.542014 1.000000 0.000000
0.587171 1.000000 0.000000
0.636736 1.000000 0.000000
0.690218 1.000000 0.000000
0.745999 1.000000 0.000000
0.800755 1.000000 0.000000
0.851260 1.000000 0.000000
0.896914 1.000000 0.000000
0.936982 1.000000 0.000000
0.970855 1.000000 0.000000
0.998493 1.000000 0.000000
1.000000 0.998013 0.000000
1.000000 0.995564 0.000000
1.000000 0.993039 0.000000
1.000000 0.990195 0.000000
1.000000 0.986675 0.000000
1.000000 0.981918 0.000000
1.000000 0.975095 0.000000
0.470862 1.000000 0.000000
0.473756 1.000000 0.000000
0.476614 1.000000 0.000000
0.479438 1.000000 0.000000
0.482227 1.000000 0.000000
0.484983 1.000000 0.000000
0.488385 1.000000 0.000000
0.493076 1.000000 0.000000
0.499150 1.000000 0.000000
0.506964 1.000000 0.000000
0.516936 1.000000 0.000000
0.529541 1.000000 0.000000
0.545295 1.000000 0.000000
0.564740 1.000000 0.000000
0.588403 1.000000 0.000000
0.616709 1.000000 0.000000
0.649905 1.000000 0.000000
0.687906 1.000000 0.000000
0.729857 1.000000 0.000000
0.773963 1.000000 0.000000
0.817732 1.000000 0.000000
0.859867 1.000000 0.000000
0.899307 1.000000 0.000000
0.934788 1.000000 0.000000
0.965458 1.000000 0.000000
0.990920 1.000000 0.000000
1.000000 1.000000 0.000000
1.000000 1.000000 0.000000
1.000000 1.000000 0.000000
1.000000 1.000000 0.000000
1.000000 1.000000 0.000000
1.000000 1.000000 0.000000
1.000000 1.000000 0.000000
0.601471 1.000000 0.000000
0.603126 1.000000 0.000000
0.604770 1.000000 0.000000
0.606404 1.000000 0.000000
0.608027 1.000000 0.000000
0.609640 1.000000 0.000000
0.611643 1.000000 0.000000
0.614427 1.000000 0.000000
0.618069 1.000000 0.000000
0.622815 1.000000 0.000000
0.628968 1.000000 0.000000
0.636895 1.000000 0.000000
0.647020 1.000000 0.000000
0.659810 1.000000 0.000000
0.675737 1.000000 0.000000
0.695212 1.000000 0.000000
0.718470 1.000000 0.000000
0.745423 1.000000 0.000000
0.775450 1.000000 0.000000
0.807593 1.000000 0.000000
0.841035 1.000000 0.000000
0.874722 1.000000 0.000000
0.907334 1.000000 0.000000
0.937552 1.000000 0.000000
0.964392 1.000000 0.000000
0.987166 1.000000 0.000000
