Sony/SLog3SGamut3.CineToLC-709TypeA.cube
#Sony LookProfile LUT, SLog3SGamut3.CineToLC_709TypeA full in full out v1.04.04
TITLE 	SLog3SGamut3.CineToLC_709TypeA
LUT_3D_SIZE 33
0.008058 0.007525 0.007094
0.021047 0.007353 0.007646
0.036793 0.008892 0.009509
0.054272 0.011811 0.012409
0.071909 0.015222 0.015730
0.090110 0.018923 0.019335
0.113419 0.023759 0.024073
0.142287 0.029796 0.030021
0.175330 0.036715 0.036868
0.214331 0.044881 0.044987
0.261931 0.054848 0.054925
0.318634 0.066722 0.066824
0.381217 0.079827 0.080027
0.446347 0.093467 0.093837
0.511727 0.107159 0.107795
0.576737 0.120775 0.121817
0.641214 0.134281 0.135907
0.704964 0.147637 0.150072
0.767657 0.160773 0.164303
0.826437 0.173092 0.177946
0.884370 0.185235 0.191586
0.939337 0.196758 0.204638
0.963748 0.201883 0.211404
0.966442 0.202461 0.213656
0.966443 0.202474 0.215141
0.966445 0.202484 0.216345
0.966445 0.202492 0.217287
0.966446 0.202498 0.217952
0.966447 0.202502 0.218427
0.966447 0.202505 0.218730
0.966447 0.202506 0.218903
0.966447 0.202507 0.219017
0.966447 0.202508 0.219135
0.008404 0.020357 0.008854
0.017794 0.019041 0.008806
0.033231 0.018182 0.009921
0.050683 0.018160 0.012282
0.068938 0.019166 0.015419
0.087729 0.021164 0.018978
0.111553 0.024714 0.023711
0.140860 0.030034 0.029700
0.174507 0.036688 0.036671
0.214014 0.044830 0.044910
0.262035 0.054870 0.054953
0.318875 0.066772 0.066875
0.381410 0.079868 0.080068
0.446494 0.093497 0.093868
0.511838 0.107182 0.107819
0.576819 0.120792 0.121835
0.641276 0.134294 0.135921
0.705009 0.147646 0.150083
0.767691 0.160780 0.164311
0.826461 0.173097 0.177951
0.884388 0.185239 0.191590
0.939350 0.196760 0.204641
0.963752 0.201884 0.211406
0.966442 0.202461 0.213656
0.966443 0.202474 0.215142
0.966445 0.202484 0.216346
0.966445 0.202492 0.217287
0.966446 0.202498 0.217952
0.966447 0.202502 0.218427
0.966447 0.202505 0.218730
0.966447 0.202506 0.218903
0.966447 0.202507 0.219017
0.966447 0.202508 0.219135
0.012171 0.035554 0.012827
0.016260 0.033962 0.012412
0.029966 0.032530 0.012668
0.046984 0.031400 0.013995
0.065702 0.030756 0.016393
0.085055 0.030841 0.019523
0.109465 0.031873 0.023954
0.139265 0.034322 0.029718
0.173288 0.038589 0.036548
0.213106 0.045194 0.044728
0.261401 0.054750 0.054794
0.318603 0.066715 0.066789
0.381528 0.079892 0.080085
0.446641 0.093528 0.093899
0.511948 0.107205 0.107843
0.576902 0.120810 0.121852
0.641337 0.134307 0.135934
0.705055 0.147656 0.150093
0.767724 0.160787 0.164319
0.826485 0.173102 0.177957
0.884406 0.185243 0.191594
0.939363 0.196763 0.204645
0.963756 0.201884 0.211407
0.966442 0.202461 0.213656
0.966443 0.202474 0.215142
0.966445 0.202484 0.216346
0.966445 0.202492 0.217287
0.966446 0.202498 0.217952
0.966447 0.202502 0.218427
0.966447 0.202505 0.218730
0.966447 0.202506 0.218903
0.966447 0.202507 0.219017
0.966447 0.202508 0.219135
0.017689 0.052451 0.018045
0.018297 0.050686 0.017484
0.027731 0.048961 0.017232
0.043403 0.047482 0.017706
0.062252 0.046273 0.019167
0.082153 0.045358 0.021505
0.107169 0.044724 0.025242
0.137481 0.044630 0.030456
0.171937 0.045705 0.036898
0.212099 0.048928 0.044802
0.260686 0.055747 0.054704
0.318100 0.066682 0.066656
0.381187 0.079821 0.079960
0.446641 0.093528 0.093872
0.512058 0.107228 0.107866
0.576984 0.120827 0.121870
0.641399 0.134320 0.135948
0.705101 0.147665 0.150103
0.767758 0.160794 0.164327
0.826509 0.173107 0.177962
0.884425 0.185247 0.191599
0.939376 0.196766 0.204648
0.963760 0.201885 0.211408
0.966442 0.202461 0.213656
0.966443 0.202474 0.215142
0.966445 0.202484 0.216346
0.966445 0.202492 0.217287
0.966446 0.202498 0.217952
0.966447 0.202502 0.218427
0.966447 0.202505 0.218730
0.966447 0.202506 0.218903
0.966447 0.202507 0.219017
0.966447 0.202508 0.219135
0.023832 0.070677 0.023970
0.023566 0.068902 0.023385
0.027701 0.067179 0.022928
0.040463 0.065482 0.022869
0.058674 0.063927 0.023548
0.078981 0.062510 0.025060
0.104654 0.061007 0.027896
0.135531 0.059358 0.032254
0.170441 0.057959 0.038005
0.211000 0.057606 0.045376
0.259887 0.060338 0.054895
0.317532 0.067696 0.066600
0.380765 0.079745 0.079825
0.446356 0.093468 0.093738
0.512048 0.107226 0.107834
0.577066 0.120844 0.121888
0.641460 0.134333 0.135961
0.705146 0.147675 0.150114
0.767792 0.160801 0.164334
0.826533 0.173112 0.177968
0.884443 0.185250 0.191603
0.939389 0.196768 0.204651
0.963764 0.201886 0.211409
0.966442 0.202461 0.213657
0.966443 0.202474 0.215142
0.966445 0.202484 0.216346
0.966445 0.202492 0.217287
0.966446 0.202498 0.217952
0.966447 0.202502 0.218427
0.966447 0.202505 0.218730
0.966447 0.202506 0.218903
0.966447 0.202507 0.219017
0.966447 0.202508 0.219135
0.030414 0.090199 0.030444
0.029845 0.088418 0.029848
0.030421 0.086593 0.029264
0.038609 0.084764 0.028896
0.054674 0.083016 0.029025
0.075146 0.081348 0.029874
0.101608 0.079413 0.031863
0.133238 0.076960 0.035271
0.168750 0.074120 0.040130
0.209754 0.071323 0.046725
0.258969 0.069946 0.055588
0.316894 0.072126 0.066805
0.380278 0.080307 0.079730
0.446021 0.093397 0.093601
0.511761 0.107165 0.107677
0.577149 0.120861 0.121906
0.641522 0.134346 0.135975
0.705192 0.147684 0.150124
0.767826 0.160808 0.164342
0.826556 0.173117 0.177974
0.884461 0.185254 0.191607
0.939402 0.196771 0.204654
0.963768 0.201887 0.211410
0.966442 0.202461 0.213657
0.966443 0.202474 0.215142
0.966445 0.202484 0.216346
0.966445 0.202492 0.217287
0.966446 0.202498 0.217952
0.966447 0.202502 0.218427
0.966447 0.202505 0.218730
0.966447 0.202506 0.218903
0.966447 0.202507 0.219017
0.966447 0.202508 0.219135
0.038412 0.113920 0.038408
0.037881 0.112345 0.037877
0.037468 0.110732 0.037337
0.039534 0.109100 0.036847
0.050288 0.107430 0.036613
0.069529 0.105802 0.036926
0.096672 0.103830 0.038133
0.129400 0.101181 0.040537
0.165861 0.097755 0.044285
0.207719 0.093376 0.049731
0.257516 0.088838 0.057508
0.315888 0.084837 0.067745
0.379609 0.085025 0.079922
0.445518 0.093534 0.093433
0.511396 0.107088 0.107485
0.576884 0.120805 0.121708
0.641599 0.134362 0.135992
0.705249 0.147696 0.150137
0.767868 0.160817 0.164352
0.826586 0.173123 0.177981
0.884484 0.185259 0.191613
0.939418 0.196775 0.204658
0.963773 0.201888 0.211411
0.966442 0.202461 0.213657
0.966443 0.202474 0.215142
0.966445 0.202484 0.216346
0.966445 0.202492 0.217287
0.966446 0.202498 0.217952
0.966447 0.202502 0.218427
0.966447 0.202505 0.218730
0.966447 0.202506 0.218903
0.966447 0.202507 0.219017
0.966447 0.202508 0.219135
0.048214 0.142990 0.048209
0.047752 0.141619 0.047747
0.047286 0.140230 0.047278
0.046940 0.138821 0.046806
0.049708 0.137331 0.046379
0.062850 0.135880 0.046280
0.089046 0.134108 0.046849
0.123284 0.131719 0.048420
0.161088 0.128622 0.051147
0.204061 0.124527 0.055412
0.255029 0.119208 0.061853
0.314010 0.113363 0.070799
0.378221 0.106259 0.081584
0.444559 0.100928 0.093720
0.510750 0.107123 0.107203
0.576400 0.120702 0.121393
0.641436 0.134326 0.135798
0.705329 0.147713 0.150155
0.767927 0.160830 0.164366
0.826628 0.173132 0.177990
0.884516 0.185266 0.191620
0.939441 0.196779 0.204663
0.963779 0.201889 0.211413
0.966442 0.202461 0.213658
0.966443 0.202474 0.215143
0.966445 0.202484 0.216346
0.966445 0.202492 0.217287
0.966446 0.202498 0.217952
0.966447 0.202502 0.218427
0.966447 0.202505 0.218730
0.966447 0.202506 0.218903
0.966447 0.202507 0.219017
0.966447 0.202508 0.219135
0.059535 0.176563 0.059528
0.059145 0.175407 0.059138
0.058743 0.174215 0.058736
0.058326 0.172977 0.058319
0.058001 0.171705 0.057892
0.061061 0.170394 0.057530
0.079463 0.168787 0.057535
0.114212 0.166649 0.058411
0.154088 0.163924 0.060312
0.198754 0.160314 0.063530
0.251078 0.155490 0.068688
0.311325 0.149168 0.076169
0.376087 0.141767 0.085647
0.442849 0.131702 0.096311
0.509439 0.120753 0.107827
0.575517 0.120806 0.120923
0.640843 0.134199 0.135314
0.705193 0.147683 0.149962
0.768005 0.160846 0.164384
0.826684 0.173144 0.178003
0.884558 0.185275 0.191630
0.939471 0.196786 0.204670
0.963789 0.201891 0.211416
0.966442 0.202461 0.213658
0.966443 0.202474 0.215143
0.966445 0.202484 0.216346
0.966445 0.202492 0.217287
0.966446 0.202498 0.217952
0.966447 0.202502 0.218427
0.966447 0.202505 0.218730
0.966447 0.202506 0.218903
0.966447 0.202507 0.219017
0.966447 0.202508 0.219135
0.073114 0.216837 0.073106
0.072760 0.215788 0.072752
0.072400 0.214720 0.072392
0.072029 0.213618 0.072021
0.071641 0.212468 0.071633
0.071347 0.211284 0.071236
0.075184 0.209773 0.070826
0.100458 0.207726 0.070901
0.142960 0.205207 0.072056
0.190499 0.201890 0.074340
0.245055 0.197449 0.078275
0.306918 0.191523 0.084293
0.373049 0.183711 0.092198
0.440355 0.174425 0.101545
0.507413 0.161423 0.111574
0.573804 0.145030 0.122242
0.639610 0.135239 0.134565
0.704525 0.147539 0.149215
0.767915 0.160826 0.164192
0.826757 0.173159 0.178021
0.884614 0.185286 0.191643
0.939511 0.196794 0.204680
0.963801 0.201894 0.211420
0.966442 0.202461 0.213659
0.966443 0.202474 0.215143
0.966445 0.202484 0.216347
0.966445 0.202492 0.217287
0.966446 0.202498 0.217952
0.966447 0.202502 0.218427
0.966447 0.202505 0.218730
0.966447 0.202506 0.218903
0.966447 0.202507 0.219017
0.966447 0.202508 0.219135
0.089843 0.266451 0.089833
0.089509 0.265459 0.089499
0.089173 0.264463 0.089163
0.088833 0.263453 0.088823
0.088482 0.262415 0.088473
0.088114 0.261323 0.088104
0.087766 0.259948 0.087643
0.092296 0.257966 0.087093
0.123410 0.255484 0.087197
0.176282 0.252369 0.088643
0.235012 0.248244 0.091471
0.299725 0.242741 0.096065
0.367786 0.235292 0.102336
0.436640 0.225526 0.109940
0.504351 0.213548 0.118491
0.571383 0.196590 0.127512
0.637511 0.174632 0.137092
0.702744 0.152201 0.148184
0.767017 0.160630 0.163000
0.826752 0.173157 0.177871
0.884688 0.185302 0.191661
0.939564 0.196805 0.204692
0.963817 0.201897 0.211424
0.966442 0.202461 0.213660
0.966443 0.202474 0.215144
0.966445 0.202484 0.216347
0.966445 0.202492 0.217288
0.966446 0.202498 0.217952
0.966447 0.202502 0.218427
0.966447 0.202505 0.218730
0.966447 0.202506 0.218903
0.966447 0.202507 0.219017
0.966447 0.202508 0.219135
0.109151 0.323712 0.109138
0.108860 0.322851 0.108848
0.108569 0.321987 0.108557
0.108283 0.321139 0.108271
0.107996 0.320288 0.107984
0.107678 0.319345 0.107666
0.107286 0.318180 0.107274
0.106834 0.316533 0.106720
0.111822 0.314317 0.106103
0.150751 0.311509 0.106329
0.218117 0.308028 0.108363
0.287888 0.303375 0.111841
0.359051 0.297103 0.116752
0.430020 0.288595 0.122815
0.499412 0.277113 0.129631
0.567274 0.261880 0.136990
0.634299 0.240050 0.144589
0.700153 0.211227 0.152624
0.764737 0.175421 0.161995
0.825519 0.172885 0.175938
0.884728 0.185310 0.191589
0.939634 0.196820 0.204709
0.963838 0.201902 0.211430
0.966442 0.202461 0.213661
0.966443 0.202474 0.215145
0.966445 0.202484 0.216347
0.966445 0.202492 0.217288
0.966446 0.202498 0.217953
0.966447 0.202502 0.218427
0.966447 0.202505 0.218730
0.966447 0.202506 0.218903
0.966447 0.202507 0.219017
0.966447 0.202508 0.219135
0.129951 0.385400 0.129937
0.129731 0.384747 0.129716
0.129494 0.384044 0.129480
0.129259 0.383347 0.129245
0.129021 0.382642 0.129007
0.128775 0.381912 0.128761
0.128469 0.381004 0.128454
0.128031 0.379705 0.128016
0.127527 0.377940 0.127423
0.135516 0.375554 0.126820
0.189217 0.372588 0.127503
0.269801 0.368930 0.130294
0.346033 0.364024 0.134248
0.419997 0.357400 0.139211
0.491551 0.348363 0.144860
0.561000 0.335817 0.150883
0.628962 0.318376 0.157099
0.695871 0.293212 0.163252
0.761250 0.257554 0.169317
0.822562 0.208189 0.175723
0.883017 0.184930 0.188634
0.939727 0.196839 0.204731
0.963867 0.201908 0.211439
0.966442 0.202461 0.213663
0.966443 0.202474 0.215146
0.966445 0.202484 0.216348
0.966445 0.202492 0.217288
0.966446 0.202498 0.217953
0.966447 0.202502 0.218427
0.966447 0.202505 0.218730
0.966447 0.202506 0.218903
0.966447 0.202507 0.219017
0.966447 0.202508 0.219135
0.151235 0.448522 0.151218
0.151063 0.448011 0.151046
0.150888 0.447493 0.150871
0.150706 0.446954 0.150689
0.150527 0.446423 0.150510
0.150344 0.445879 0.150327
0.150106 0.445174 0.150089
0.149773 0.444188 0.149757
0.149318 0.442836 0.149301
0.148973 0.440983 0.148682
0.167896 0.438521 0.148323
0.242639 0.435633 0.149940
0.327948 0.432001 0.153311
0.406377 0.427098 0.157541
0.480617 0.420444 0.162410
0.552159 0.411257 0.167694
0.621590 0.398257 0.173093
0.689282 0.379754 0.178351
0.755715 0.352977 0.183232
0.817873 0.313056 0.186955
0.879190 0.251857 0.190370
0.937435 0.196378 0.200469
0.963904 0.201916 0.211449
0.966442 0.202461 0.213665
0.966443 0.202474 0.215147
0.966445 0.202484 0.216349
0.966445 0.202492 0.217289
0.966446 0.202498 0.217953
0.966447 0.202502 0.218427
0.966447 0.202505 0.218730
0.966447 0.202506 0.218903
0.966447 0.202507 0.219017
0.966447 0.202508 0.219135
0.172497 0.511579 0.172478
0.172371 0.511207 0.172352
0.172245 0.510833 0.172226
0.172099 0.510399 0.172080
0.171976 0.510034 0.171957
0.171834 0.509615 0.171815
0.171648 0.509062 0.171629
0.171393 0.508305 0.171374
0.171041 0.507262 0.171022
0.170569 0.505861 0.170550
0.171578 0.503928 0.169934
0.210343 0.501504 0.170133
0.303404 0.498765 0.172829
0.388826 0.495174 0.176563
0.466831 0.490355 0.180896
0.540789 0.483724 0.185658
0.612129 0.474534 0.190660
0.681036 0.461482 0.195563
0.748154 0.442878 0.200127
0.811199 0.415841 0.203632
0.873193 0.374025 0.205857
0.932380 0.305928 0.206206
0.963594 0.203108 0.205998
0.966442 0.202461 0.213668
0.966443 0.202474 0.215149
0.966445 0.202484 0.216350
0.966445 0.202492 0.217289
0.966446 0.202498 0.217953
0.966447 0.202502 0.218428
0.966447 0.202505 0.218730
0.966447 0.202506 0.218903
0.966447 0.202507 0.219017
0.966447 0.202508 0.219135
0.193643 0.574292 0.193621
0.193544 0.573999 0.193522
0.193441 0.573693 0.193419
0.193334 0.573377 0.193312
0.193229 0.573064 0.193207
0.193117 0.572734 0.193096
0.192980 0.572326 0.192958
0.192786 0.571751 0.192764
0.192522 0.570968 0.192500
0.192163 0.569904 0.192142
0.191663 0.568422 0.191642
0.198506 0.566443 0.191143
0.265572 0.564158 0.192306
0.366411 0.561551 0.195828
0.449826 0.558000 0.199744
0.526952 0.553212 0.204108
0.600400 0.546642 0.208772
0.671193 0.537492 0.213522
0.739278 0.524512 0.218009
0.802872 0.506024 0.221648
0.865541 0.479099 0.224423
0.925104 0.437106 0.225211
0.964855 0.365421 0.219980
0.966656 0.227103 0.207574
0.966443 0.202474 0.215152
0.966445 0.202484 0.216352
0.966445 0.202492 0.217290
0.966446 0.202498 0.217954
0.966447 0.202502 0.218428
0.966447 0.202505 0.218730
0.966447 0.202506 0.218903
0.966447 0.202507 0.219017
0.966447 0.202508 0.219135
0.214574 0.636369 0.214550
0.214493 0.636129 0.214469
0.214422 0.635919 0.214398
0.214345 0.635689 0.214321
0.214260 0.635437 0.214236
0.214174 0.635182 0.214150
0.214070 0.634874 0.214046
0.213918 0.634423 0.213894
0.213712 0.633813 0.213688
0.213452 0.633040 0.213428
0.213054 0.631861 0.213030
0.212739 0.630319 0.212515
0.240271 0.628364 0.212527
0.336886 0.626347 0.215082
0.428919 0.623795 0.218719
0.510373 0.620287 0.222750
0.586543 0.615579 0.227133
0.659211 0.609153 0.231712
0.728927 0.599996 0.236181
0.793324 0.587100 0.239983
0.856509 0.568795 0.243193
0.916707 0.542081 0.245089
0.965722 0.500295 0.243451
0.969892 0.426646 0.230538
0.967178 0.274124 0.210314
0.966445 0.202484 0.216353
0.966445 0.202492 0.217291
0.966446 0.202498 0.217954
0.966447 0.202502 0.218428
0.966447 0.202505 0.218730
0.966447 0.202506 0.218903
0.966447 0.202507 0.219017
0.966447 0.202508 0.219135
0.235213 0.697577 0.235186
0.235154 0.697402 0.235127
0.235093 0.697222 0.235066
0.235030 0.697034 0.235003
0.234962 0.696835 0.234936
0.234902 0.696657 0.234876
0.234831 0.696446 0.234805
0.234715 0.696102 0.234689
0.234556 0.695629 0.234530
0.234337 0.694980 0.234311
0.234039 0.694097 0.234013
0.233635 0.692897 0.233608
0.237570 0.691286 0.233164
0.296078 0.689496 0.234113
0.403190 0.687684 0.237584
0.490738 0.685192 0.241371
0.570396 0.681796 0.245499
0.645397 0.677199 0.249881
0.716742 0.670869 0.254323
0.782567 0.661825 0.258283
0.846465 0.649136 0.261832
0.906963 0.631030 0.264411
0.958380 0.604690 0.264728
0.972791 0.561941 0.257198
0.971499 0.489137 0.242149
0.968036 0.333238 0.216191
0.966445 0.202492 0.217293
0.966446 0.202498 0.217955
0.966447 0.202502 0.218429
0.966447 0.202505 0.218731
0.966447 0.202506 0.218903
0.966447 0.202507 0.219017
0.966447 0.202508 0.219135
0.254811 0.755701 0.254783
0.254768 0.755572 0.254739
0.254730 0.755461 0.254702
0.254692 0.755346 0.254663
0.254646 0.755212 0.254618
0.254599 0.755073 0.254571
0.254544 0.754908 0.254515
0.254469 0.754686 0.254440
0.254354 0.754346 0.254326
0.254199 0.753885 0.254170
0.253990 0.753267 0.253962
0.253692 0.752381 0.253663
0.253284 0.751171 0.253255
0.275460 0.749739 0.253296
0.371028 0.748439 0.255786
0.468161 0.746865 0.259474
0.552208 0.744695 0.263465
0.629878 0.741733 0.267749
0.703015 0.737722 0.272209
0.770312 0.731612 0.276306
0.835286 0.722693 0.280080
0.896440 0.710215 0.283177
0.947876 0.692423 0.284463
0.974680 0.665908 0.281192
0.976027 0.623618 0.271393
0.973431 0.552060 0.255179
0.969246 0.397575 0.225641
0.966446 0.202498 0.217956
0.966447 0.202502 0.218429
0.966447 0.202505 0.218731
0.966447 0.202506 0.218903
0.966447 0.202507 0.219018
0.966447 0.202508 0.219135
0.273004 0.809657 0.272974
0.272975 0.809571 0.272945
0.272953 0.809504 0.272922
0.272914 0.809389 0.272883
0.272876 0.809278 0.272846
0.272841 0.809172 0.272810
0.272798 0.809045 0.272767
0.272730 0.808843 0.272699
0.272638 0.808569 0.272607
0.272511 0.808193 0.272480
0.272341 0.807691 0.272311
0.272114 0.807017 0.272084
0.271800 0.806085 0.271769
0.277087 0.804835 0.271474
0.338332 0.803619 0.272661
0.444023 0.802553 0.276103
0.533494 0.801073 0.279929
0.614307 0.798947 0.284031
0.689380 0.796076 0.288339
0.757996 0.792122 0.292540
0.823958 0.786427 0.296637
0.885739 0.778340 0.300263
0.937189 0.767121 0.302520
0.975319 0.751145 0.302510
0.980521 0.726247 0.296764
0.978600 0.684936 0.286286
0.975684 0.614831 0.269330
0.970784 0.462742 0.237072
0.966447 0.202502 0.218430
0.966447 0.202505 0.218731
0.966447 0.202506 0.218903
0.966447 0.202507 0.219018
0.966447 0.202508 0.219135
0.290927 0.862812 0.290895
0.290901 0.862734 0.290868
0.290872 0.862648 0.290839
0.290844 0.862566 0.290812
0.290818 0.862487 0.290785
0.290792 0.862411 0.290760
0.290751 0.862289 0.290719
0.290693 0.862117 0.290660
0.290622 0.861905 0.290589
0.290534 0.861647 0.290502
0.290391 0.861221 0.290358
0.290201 0.860657 0.290168
0.289952 0.859919 0.289919
0.289641 0.858997 0.289609
0.318052 0.857930 0.289918
0.414831 0.857055 0.292544
0.512384 0.856110 0.296256
0.596905 0.854735 0.300212
0.674269 0.852857 0.304403
0.744506 0.850183 0.308551
0.811718 0.846274 0.312696
0.874567 0.840572 0.316505
0.926366 0.832517 0.319105
0.968994 0.821421 0.320332
0.983248 0.805064 0.317452
0.983309 0.781086 0.311152
0.981412 0.744354 0.301458
0.978253 0.677087 0.284334
0.972639 0.527514 0.249948
0.966447 0.202505 0.218732
0.966447 0.202506 0.218903
0.966447 0.202507 0.219018
0.966447 0.202508 0.219135
0.307711 0.912589 0.307677
0.307693 0.912533 0.307658
0.307672 0.912472 0.307638
0.307653 0.912415 0.307618
0.307626 0.912337 0.307592
0.307601 0.912262 0.307567
0.307571 0.912173 0.307537
0.307530 0.912052 0.307496
0.307480 0.911902 0.307445
0.307402 0.911671 0.307368
0.307291 0.911341 0.307256
0.307156 0.910941 0.307121
0.306984 0.910430 0.306949
0.306755 0.909753 0.306721
0.313124 0.908867 0.306570
0.383315 0.908219 0.308179
0.490016 0.907726 0.311777
0.578649 0.907014 0.315621
0.658295 0.906009 0.319716
0.730289 0.904511 0.323858
0.798862 0.901925 0.328010
0.862558 0.898234 0.331979
0.915046 0.892799 0.334928
0.957755 0.885172 0.336691
0.984613 0.874367 0.336283
0.987721 0.858641 0.332296
0.986333 0.835271 0.325836
0.984279 0.799016 0.315963
0.981086 0.737804 0.299753
0.974814 0.591670 0.263986
0.966447 0.202506 0.218904
0.966447 0.202507 0.219018
0.966447 0.202508 0.219135
0.321665 0.953970 0.321629
0.321651 0.953931 0.321615
0.321638 0.953893 0.321602
0.321626 0.953857 0.321590
0.321614 0.953821 0.321578
0.321596 0.953767 0.321560
0.321575 0.953703 0.321539
0.321546 0.953620 0.321511
0.321500 0.953482 0.321464
0.321435 0.953290 0.321399
0.321354 0.953048 0.321318
0.321250 0.952741 0.321214
0.321114 0.952339 0.321079
0.320950 0.951851 0.320914
0.320742 0.951235 0.320706
0.369663 0.950725 0.321717
0.470550 0.950564 0.324839
0.562839 0.950244 0.328557
0.644236 0.949754 0.332521
0.717720 0.948911 0.336589
0.787254 0.947585 0.340815
0.851550 0.945727 0.345001
0.904662 0.942899 0.348421
0.947352 0.938422 0.350768
0.980936 0.932049 0.351967
0.990919 0.922693 0.350266
0.990923 0.909558 0.346607
0.989526 0.887811 0.340457
0.987404 0.853376 0.330835
0.983943 0.792869 0.314308
0.977301 0.654950 0.278898
0.966447 0.202507 0.219018
0.966447 0.202508 0.219135
0.332564 0.986295 0.332527
0.332553 0.986262 0.332516
0.332542 0.986231 0.332505
0.332533 0.986203 0.332496
0.332524 0.986177 0.332487
0.332516 0.986153 0.332479
0.332500 0.986105 0.332463
0.332479 0.986043 0.332442
0.332454 0.985970 0.332417
0.332419 0.985865 0.332382
0.332372 0.985727 0.332335
0.332315 0.985555 0.332277
0.332241 0.985338 0.332204
0.332143 0.985046 0.332106
0.332712 0.984713 0.332008
0.365494 0.984350 0.332654
0.456313 0.984242 0.335265
0.551120 0.984247 0.338892
0.633285 0.984064 0.342713
0.707608 0.983795 0.346737
0.777767 0.983457 0.351033
0.842272 0.982811 0.355328
0.895868 0.981682 0.359046
0.938592 0.979737 0.361917
0.972554 0.976219 0.363771
0.991811 0.970904 0.363937
0.994569 0.963315 0.362029
0.993831 0.952752 0.358975
0.992559 0.934173 0.353631
0.990655 0.905440 0.345438
0.987063 0.847673 0.329255
0.980080 0.717041 0.294401
0.966447 0.202508 0.219136
0.333070 0.987776 0.333963
0.333069 0.987773 0.333968
0.333069 0.987771 0.333972
0.333068 0.987768 0.333975
0.333067 0.987766 0.333977
0.333066 0.987763 0.333979
0.333065 0.987760 0.333980
0.333064 0.987756 0.333984
0.333062 0.987749 0.333988
0.333059 0.987741 0.333988
0.333055 0.987730 0.333984
0.333050 0.987715 0.333973
0.333043 0.987695 0.333942
0.333032 0.987665 0.333881
0.333269 0.987628 0.333780
0.341268 0.987620 0.333798
0.446953 0.988235 0.336668
0.541332 0.988981 0.340153
0.623283 0.989776 0.344012
0.698060 0.990608 0.348294
0.768505 0.991478 0.352873
0.833066 0.992360 0.357528
0.886914 0.993124 0.361730
0.929969 0.993701 0.365279
0.964171 0.994075 0.368199
0.989343 0.993831 0.370268
0.996149 0.992739 0.370544
0.996558 0.991045 0.370096
0.996328 0.987889 0.369174
0.995237 0.972747 0.364764
0.993590 0.949271 0.357971
0.990310 0.900100 0.343926
0.982915 0.773652 0.309172
0.333321 0.987949 0.358768
0.333319 0.987948 0.358570
0.333317 0.987948 0.358371
0.333315 0.987948 0.358171
0.333314 0.987947 0.357971
0.333312 0.987947 0.357771
0.333310 0.987946 0.357520
0.333307 0.987946 0.357168
0.333303 0.987945 0.356766
0.333299 0.987944 0.356265
0.333293 0.987943 0.355594
0.333286 0.987941 0.354739
0.333276 0.987939 0.353679
0.333265 0.987936 0.352295
0.333250 0.987933 0.350554
0.347855 0.988006 0.348693
0.451374 0.988686 0.348951
0.539840 0.989470 0.349229
0.618339 0.990334 0.349590
0.692226 0.991300 0.350578
0.761988 0.992358 0.354154
0.825695 0.993449 0.357816
0.879066 0.994458 0.361529
0.922379 0.995342 0.365151
0.956484 0.996080 0.368139
0.983113 0.996681 0.370552
0.995041 0.996958 0.371656
0.996995 0.997004 0.371838
0.996995 0.997004 0.371838
0.996946 0.996349 0.371647
0.996700 0.992990 0.370664
0.996114 0.984944 0.368315
0.993267 0.944568 0.356617
0.334006 0.988098 0.427344
0.334005 0.988098 0.427243
0.334003 0.988098 0.427140
0.334002 0.988097 0.427036
0.334001 0.988097 0.426931
0.334000 0.988097 0.426825
0.333998 0.988096 0.426690
0.333996 0.988096 0.426499
0.333993 0.988095 0.426240
0.333990 0.988095 0.425900
0.333985 0.988093 0.425447
0.333978 0.988092 0.424827
0.333968 0.988090 0.423998
0.333956 0.988087 0.422911
0.334512 0.988087 0.421433
0.374001 0.988302 0.420165
0.458028 0.988883 0.419413
0.546929 0.989683 0.418466
0.620427 0.990495 0.416330
0.691445 0.991416 0.412978
0.759384 0.992425 0.407933
0.821229 0.993435 0.391330
0.873371 0.994370 0.373723
0.916226 0.995215 0.365538
0.950183 0.995941 0.367579
