Sony/SLog3SGamut3.CineToLC-709TypeA.cube
#Sony LookProfile LUT, SLog3SGamut3.CineToLC_709TypeA full in full out v1.04.04
TITLE 	SLog3SGamut3.CineToLC_709TypeA
LUT_3D_SIZE 5
0.008058 0.007525 0.007094
0.175330 0.036715 0.036868
0.641214 0.134281 0.135907
0.966443 0.202474 0.215141
0.966447 0.202508 0.219135
0.059535 0.176563 0.059528
0.154088 0.163924 0.060312
0.640843 0.134199 0.135314
0.966443 0.202474 0.215143
0.966447 0.202508 0.219135
0.214574 0.636369 0.214550
0.213712 0.633813 0.213688
0.586543 0.615579 0.227133
0.967178 0.274124 0.210314
0.966447 0.202508 0.219135
0.333070 0.987776 0.333963
0.333062 0.987749 0.333988
0.446953 0.988235 0.336668
0.964171 0.994075 0.368199
0.982915 0.773652 0.309172
0.576271 0.991455 0.792342
0.595827 0.991674 0.792502
0.699637 0.993009 0.793178
0.939658 0.997224 0.784000
0.996995 0.997004 0.371838
0.019964 0.019938 0.149758
0.170395 0.038886 0.148577
0.640709 0.134520 0.172506
0.966443 0.202474 0.215142
0.966447 0.202508 0.219135
0.055707 0.160198 0.149076
0.145774 0.146482 0.146692
0.638755 0.134097 0.170846
0.966443 0.202474 0.215143
0.966447 0.202508 0.219135
0.213297 0.632580 0.213355
0.212470 0.630127 0.212516
0.584829 0.612675 0.226148
0.967201 0.275973 0.210423
0.966447 0.202508 0.219135
0.333315 0.987748 0.366253
0.333290 0.987705 0.364859
0.442270 0.988040 0.357129
0.963460 0.993435 0.367954
0.982925 0.773844 0.309224
0.575618 0.991483 0.798427
0.595210 0.991702 0.798589
0.699140 0.993036 0.799283
0.939304 0.997253 0.790560
0.996995 0.997004 0.371838
0.075695 0.075599 0.567839
0.081881 0.075673 0.567237
0.627800 0.144440 0.570052
0.967068 0.207927 0.516872
0.966447 0.202508 0.219135
0.075519 0.075423 0.566520
0.075602 0.075374 0.566124
0.626784 0.144270 0.570344
0.967072 0.207962 0.518112
0.966447 0.202508 0.219135
0.205068 0.588148 0.565639
0.204163 0.585378 0.564990
0.564854 0.565412 0.565790
0.967089 0.213270 0.508514
0.966447 0.202508 0.219135
0.336162 0.987099 0.610167
0.336081 0.986870 0.609826
0.425211 0.986104 0.607780
0.955137 0.984758 0.574791
0.983004 0.775340 0.309621
0.571372 0.991658 0.836020
0.591190 0.991878 0.836233
0.695924 0.993215 0.837335
0.936968 0.997454 0.833804
0.997686 0.997693 0.606653
0.124780 0.124622 0.936056
0.124800 0.124641 0.936203
0.592364 0.165290 0.940721
0.969399 0.226744 0.947669
0.969129 0.224676 0.911646
0.124547 0.124389 0.934310
0.124564 0.124406 0.934435
0.583410 0.163924 0.939279
0.969399 0.226747 0.947712
0.969130 0.224680 0.911727
0.191773 0.484552 0.928562
0.190835 0.481032 0.928589
0.505487 0.449522 0.930997
0.969365 0.226482 0.943179
0.969135 0.224716 0.912353
0.327994 0.938535 0.927084
0.327808 0.937939 0.927199
0.367472 0.934489 0.927960
0.932775 0.926519 0.935850
0.980274 0.669632 0.907052
0.558571 0.992259 0.946592
0.578644 0.992475 0.946867
0.685813 0.993814 0.948580
0.929442 0.998086 0.953295
0.998832 0.999511 0.937504
0.208238 0.536039 0.967108
0.207280 0.532573 0.966997
0.506552 0.509817 0.967948
0.969495 0.233777 0.969632
0.969570 0.228044 0.969579
0.214825 0.559656 0.967892
0.214061 0.556938 0.967799
0.501729 0.538678 0.968786
0.969727 0.271045 0.970045
0.969570 0.228044 0.969579
0.249934 0.680354 0.972640
0.249408 0.678595 0.972562
0.465366 0.667383 0.973247
0.972202 0.570969 0.976855
0.969570 0.228044 0.969579
0.328752 0.934931 0.984915
0.328579 0.934374 0.985008
0.371350 0.931168 0.985711
0.925949 0.925725 0.993269
0.984802 0.755158 0.984806
0.576703 0.992740 0.987060
0.592401 0.992896 0.987292
0.693585 0.993997 0.988954
0.927321 0.995460 0.994073
0.995405 0.994788 0.995736
