Sony/SLog3SGamut3.CineToLC-709.cube
#Sony LookProfile LUT, SLog3SGamut3.CineToLC_709 full in full out v1.08.04
TITLE 	SLog3SGamut3.CineToLC_709
LUT_3D_SIZE 5
0.006644 0.007144 0.000000
0.162394 0.000000 0.000575
0.673222 0.000000 0.011169
1.000000 0.000000 0.041676
1.000000 0.000000 0.050188
0.000000 0.168925 0.000000
0.143556 0.156459 0.000000
0.673156 0.000000 0.003650
1.000000 0.000000 0.041699
1.000000 0.000000 0.050188
0.000000 0.644690 0.000000
0.000000 0.641343 0.000000
0.586724 0.614595 0.000000
1.000000 0.483582 0.000000
1.000000 0.000000 0.050189
0.289281 1.000000 0.000000
0.349710 1.000000 0.000000
0.587171 1.000000 0.000000
0.970855 1.000000 0.000000
1.000000 0.975095 0.000000
0.979389 1.000000 0.000000
0.979947 1.000000 0.000000
0.984025 1.000000 0.000000
1.000000 1.000000 0.000000
1.000000 1.000000 0.000000
0.000000 0.000000 0.147644
0.152745 0.000000 0.144919
0.671919 0.000000 0.126163
1.000000 0.000000 0.041673
1.000000 0.000000 0.050188
0.000000 0.149876 0.139028
0.136325 0.136476 0.136250
0.670751 0.000000 0.112276
1.000000 0.000000 0.041697
1.000000 0.000000 0.050188
0.000000 0.642346 0.000000
0.000000 0.639049 0.000000
0.585950 0.612647 0.000000
1.000000 0.481756 0.000000
1.000000 0.000000 0.050189
0.287927 1.000000 0.000000
0.348696 1.000000 0.000000
0.586813 1.000000 0.000000
0.970852 1.000000 0.000000
1.000000 0.975025 0.000000
0.979378 1.000000 0.000000
0.979936 1.000000 0.000000
0.984015 1.000000 0.000000
1.000000 1.000000 0.000000
1.000000 1.000000 0.000000
0.000000 0.000000 0.589319
0.000000 0.000000 0.588858
0.651668 0.000000 0.585781
1.000000 0.000000 0.547340
1.000000 0.000000 0.050188
0.000000 0.000000 0.588288
0.000000 0.000000 0.587858
0.655442 0.000000 0.584936
1.000000 0.000000 0.546544
1.000000 0.000000 0.050188
0.000000 0.600030 0.570293
0.000000 0.596478 0.569901
0.566833 0.566835 0.566833
1.000000 0.426331 0.515014
1.000000 0.000000 0.050189
0.229083 1.000000 0.474005
0.305706 1.000000 0.473316
0.568872 1.000000 0.467752
0.965265 0.992935 0.399946
1.000000 0.974475 0.000000
0.979285 1.000000 0.000000
0.979844 1.000000 0.000000
0.983934 1.000000 0.000000
1.000000 1.000000 0.000000
1.000000 1.000000 0.000000
0.000000 0.000000 0.963479
0.000000 0.000000 0.963459
0.552334 0.000000 0.963631
1.000000 0.000000 0.963319
1.000000 0.000000 0.946462
0.000000 0.000000 0.963453
0.000000 0.000000 0.963434
0.560307 0.000000 0.963614
1.000000 0.000000 0.963294
1.000000 0.000000 0.946423
0.000000 0.339010 0.959197
0.000000 0.334664 0.959212
0.513691 0.252246 0.959565
1.000000 0.000000 0.960506
1.000000 0.000000 0.946121
0.000000 0.972661 0.941154
0.000000 0.971670 0.941166
0.478947 0.964961 0.941228
0.940446 0.940468 0.940427
1.000000 0.909885 0.922913
0.950404 1.000000 0.913499
0.951006 1.000000 0.913465
0.955406 1.000000 0.913196
0.980460 1.000000 0.910535
1.000000 1.000000 0.876289
0.000000 0.000000 1.000000
0.000000 0.000000 1.000000
0.000000 0.000000 1.000000
1.000000 0.000000 1.000000
1.000000 0.000000 1.000000
0.000000 0.000000 1.000000
0.000000 0.000000 1.000000
0.000000 0.000000 1.000000
1.000000 0.000000 1.000000
1.000000 0.000000 1.000000
0.000000 0.000000 1.000000
0.000000 0.000000 1.000000
0.000000 0.000000 1.000000
1.000000 0.000000 1.000000
1.000000 0.000000 1.000000
0.000000 0.926607 1.000000
0.000000 0.926503 1.000000
0.000000 0.913960 1.000000
0.939677 0.869316 1.000000
1.000000 0.783430 1.000000
0.933360 1.000000 0.999691
0.934130 1.000000 0.999693
0.939722 1.000000 0.999705
0.970429 1.000000 0.999775
0.999845 0.999845 0.999845
