Sony/SLog3SGamut3.CineToSLog2-709.cube
#Sony LookProfile LUT, SLog3SGamut3.CineToSLog2-709 full in full out v1.04.04
TITLE 	SLog3SGamut3.CineToSLog2-709
LUT_3D_SIZE 5
0.041033 0.041033 0.041033
0.201660 0.000000 0.039535
0.539380 0.000000 0.044471
0.975867 0.000000 0.079556
1.000000 0.000000 0.116406
0.000000 0.202063 0.000000
0.182136 0.192081 0.000000
0.535260 0.000000 0.000000
0.976323 0.000000 0.079593
1.000000 0.000000 0.116410
0.000000 0.512538 0.000000
0.000000 0.509640 0.000000
0.469120 0.490402 0.000000
0.942951 0.379306 0.000000
1.000000 0.000000 0.116441
0.000000 0.893410 0.000000
0.000000 0.892778 0.000000
0.365851 0.888379 0.000000
0.830904 0.863751 0.000000
1.000000 0.765695 0.000000
0.607693 1.000000 0.000000
0.610733 1.000000 0.000000
0.633295 1.000000 0.000000
0.784253 1.000000 0.000000
1.000000 1.000000 0.000000
0.000000 0.000000 0.184564
0.194502 0.000000 0.182752
0.537921 0.000000 0.168426
0.975816 0.000000 0.079552
1.000000 0.000000 0.116406
0.000000 0.186946 0.177908
0.176094 0.176198 0.176042
0.533186 0.000000 0.157794
0.976272 0.000000 0.079589
1.000000 0.000000 0.116410
0.000000 0.509790 0.095551
0.000000 0.506941 0.091599
0.468121 0.488151 0.043325
0.943083 0.377976 0.000000
1.000000 0.000000 0.116441
0.000000 0.893332 0.000000
0.000000 0.892699 0.000000
0.365560 0.888297 0.000000
0.830898 0.863659 0.000000
1.000000 0.765564 0.000000
0.607642 1.000000 0.000000
0.610682 1.000000 0.000000
0.633249 1.000000 0.000000
0.784230 1.000000 0.000000
1.000000 1.000000 0.000000
0.000000 0.000000 0.470644
0.098828 0.000000 0.470333
0.522804 0.000000 0.468120
0.970814 0.000000 0.440914
1.000000 0.000000 0.116402
0.000000 0.000000 0.469563
0.095689 0.000000 0.469292
0.523235 0.000000 0.467271
0.971289 0.000000 0.440351
1.000000 0.000000 0.116406
0.000000 0.477999 0.456186
0.000000 0.474842 0.455922
0.453688 0.453689 0.453687
0.938053 0.334584 0.417279
1.000000 0.000000 0.116437
0.000000 0.882889 0.377289
0.000000 0.882268 0.376801
0.345947 0.877980 0.372880
0.826023 0.855212 0.326843
1.000000 0.764536 0.000000
0.607243 1.000000 0.000000
0.610289 1.000000 0.000000
0.632893 1.000000 0.000000
0.784051 1.000000 0.000000
1.000000 1.000000 0.000000
0.000000 0.000000 0.828666
0.000000 0.000000 0.828626
0.439739 0.000000 0.828558
0.950150 0.000000 0.826511
1.000000 0.000000 0.796479
0.000000 0.000000 0.828613
0.000000 0.000000 0.828573
0.445474 0.000000 0.828511
0.950634 0.000000 0.826458
1.000000 0.000000 0.796414
0.000000 0.253728 0.825050
0.000000 0.248195 0.825045
0.401446 0.177768 0.825088
0.933697 0.000000 0.823878
1.000000 0.000000 0.795905
0.000000 0.836949 0.806303
0.000000 0.836220 0.806286
0.220329 0.831200 0.806125
0.803838 0.803883 0.803801
1.000000 0.697622 0.773682
0.565804 1.000000 0.732236
0.569197 1.000000 0.732183
0.594237 1.000000 0.731766
0.757103 1.000000 0.727684
1.000000 1.000000 0.680216
0.000000 0.000000 1.000000
0.000000 0.000000 1.000000
0.000000 0.000000 1.000000
0.873999 0.000000 1.000000
1.000000 0.000000 1.000000
0.000000 0.000000 1.000000
0.000000 0.000000 1.000000
0.000000 0.000000 1.000000
0.874622 0.000000 1.000000
1.000000 0.000000 1.000000
0.000000 0.000000 1.000000
0.000000 0.000000 1.000000
0.000000 0.000000 1.000000
0.879418 0.000000 1.000000
1.000000 0.000000 1.000000
0.000000 0.667567 1.000000
0.000000 0.667388 1.000000
0.000000 0.654898 1.000000
0.762351 0.602225 1.000000
1.000000 0.345442 1.000000
0.433121 1.000000 1.000000
0.438421 1.000000 1.000000
0.476176 1.000000 1.000000
0.688560 1.000000 1.000000
1.000000 1.000000 1.000000
