Sony/SLog3SGamut3.CineToSLog2-709.cube
#Sony LookProfile LUT, SLog3SGamut3.CineToSLog2-709 full in full out v1.04.04
TITLE 	SLog3SGamut3.CineToSLog2-709
LUT_3D_SIZE 9
0.041033 0.041033 0.041033
0.116776 0.011288 0.040156
0.201660 0.000000 0.039535
0.347737 0.000000 0.039448
0.539380 0.000000 0.044471
0.753313 0.000000 0.061413
0.975867 0.000000 0.079556
1.000000 0.000000 0.097941
1.000000 0.000000 0.116406
0.000000 0.118413 0.027765
0.107101 0.112854 0.026895
0.199923 0.098277 0.026716
0.347609 0.000000 0.028986
0.539640 0.000000 0.040496
0.753842 0.000000 0.061448
0.976044 0.000000 0.079570
1.000000 0.000000 0.097946
1.000000 0.000000 0.116408
0.000000 0.202063 0.000000
0.000000 0.198838 0.000000
0.182136 0.192081 0.000000
0.340107 0.166477 0.000000
0.535260 0.000000 0.000000
0.752597 0.000000 0.054992
0.976323 0.000000 0.079593
1.000000 0.000000 0.097953
1.000000 0.000000 0.116410
0.000000 0.339507 0.000000
0.000000 0.337609 0.000000
0.061786 0.334276 0.000000
0.307971 0.323439 0.000000
0.515827 0.292289 0.000000
0.738907 0.197995 0.000000
0.971800 0.000000 0.061147
1.000000 0.000000 0.097977
1.000000 0.000000 0.116418
0.000000 0.512538 0.000000
0.000000 0.511413 0.000000
0.000000 0.509640 0.000000
0.221392 0.504350 0.000000
0.469120 0.490402 0.000000
0.703993 0.457935 0.000000
0.942951 0.379306 0.000000
1.000000 0.000000 0.023411
1.000000 0.000000 0.116441
0.000000 0.700679 0.000000
0.000000 0.700102 0.000000
0.000000 0.699212 0.000000
0.000000 0.696599 0.000000
0.399326 0.689700 0.000000
0.646895 0.673975 0.000000
0.894362 0.641735 0.000000
1.000000 0.570799 0.000000
1.000000 0.275773 0.000000
0.000000 0.893410 0.000000
0.000000 0.893163 0.000000
0.000000 0.892778 0.000000
0.148645 0.891618 0.000000
0.365851 0.888379 0.000000
0.586742 0.880405 0.000000
0.830904 0.863751 0.000000
1.000000 0.832046 0.000000
1.000000 0.765695 0.000000
0.360447 1.000000 0.000000
0.365813 1.000000 0.000000
0.374034 1.000000 0.000000
0.397794 1.000000 0.000000
0.458106 1.000000 0.000000
0.581948 1.000000 0.000000
0.776496 1.000000 0.000000
1.000000 1.000000 0.000000
1.000000 1.000000 0.000000
0.607693 1.000000 0.000000
0.608874 1.000000 0.000000
0.610733 1.000000 0.000000
0.616445 1.000000 0.000000
0.633295 1.000000 0.000000
0.679220 1.000000 0.000000
0.784253 1.000000 0.000000
0.966287 1.000000 0.000000
1.000000 1.000000 0.000000
0.023557 0.000000 0.108722
0.112848 0.000000 0.107599
0.199632 0.000000 0.105982
0.346829 0.000000 0.101124
0.539045 0.000000 0.085748
0.753252 0.000000 0.061932
0.975847 0.000000 0.079554
1.000000 0.000000 0.097941
1.000000 0.000000 0.116406
0.000000 0.109776 0.104901
0.103786 0.103829 0.103777
0.197683 0.087959 0.101637
0.345422 0.000000 0.096855
0.539423 0.000000 0.082806
0.753784 0.000000 0.061803
0.976024 0.000000 0.079569
1.000000 0.000000 0.097945
1.000000 0.000000 0.116408
0.000000 0.197822 0.095125
0.000000 0.194590 0.093972
0.179044 0.188116 0.092073
0.330185 0.166471 0.085749
0.535155 0.000000 0.071255
0.752644 0.000000 0.055532
0.976304 0.000000 0.079592
1.000000 0.000000 0.097953
1.000000 0.000000 0.116410
0.000000 0.337714 0.039583
0.000000 0.335836 0.036016
0.055545 0.332527 0.029520
0.307470 0.321756 0.000000
0.515762 0.290802 0.000000
0.738987 0.196214 0.000000
0.971877 0.000000 0.061548
1.000000 0.000000 0.097976
1.000000 0.000000 0.116418
0.000000 0.511990 0.000000
0.000000 0.510876 0.000000
0.000000 0.509119 0.000000
0.220842 0.503875 0.000000
0.469067 0.490024 0.000000
0.704030 0.457573 0.000000
0.943002 0.378793 0.000000
1.000000 0.000000 0.024775
1.000000 0.000000 0.116441
0.000000 0.700585 0.000000
0.000000 0.700008 0.000000
0.000000 0.699117 0.000000
0.000000 0.696502 0.000000
0.399231 0.689599 0.000000
0.646888 0.673867 0.000000
0.894379 0.641612 0.000000
1.000000 0.570639 0.000000
1.000000 0.275088 0.000000
0.000000 0.893380 0.000000
0.000000 0.893133 0.000000
0.000000 0.892747 0.000000
0.148142 0.891588 0.000000
0.365738 0.888347 0.000000
0.586710 0.880372 0.000000
0.830902 0.863715 0.000000
1.000000 0.832007 0.000000
1.000000 0.765644 0.000000
0.360359 1.000000 0.000000
0.365727 1.000000 0.000000
0.373952 1.000000 0.000000
0.397721 1.000000 0.000000
0.458052 1.000000 0.000000
0.581918 1.000000 0.000000
0.776486 1.000000 0.000000
1.000000 1.000000 0.000000
1.000000 1.000000 0.000000
0.607673 1.000000 0.000000
0.608854 1.000000 0.000000
0.610713 1.000000 0.000000
0.616426 1.000000 0.000000
0.633277 1.000000 0.000000
0.679205 1.000000 0.000000
0.784245 1.000000 0.000000
0.966283 1.000000 0.000000
1.000000 1.000000 0.000000
0.000000 0.000000 0.184564
0.101860 0.000000 0.183833
0.194502 0.000000 0.182752
0.344468 0.000000 0.179438
0.537921 0.000000 0.168426
0.752878 0.000000 0.127331
0.975816 0.000000 0.079552
1.000000 0.000000 0.097940
1.000000 0.000000 0.116406
0.000000 0.083030 0.182591
0.093319 0.074253 0.181887
0.194016 0.042310 0.180838
0.344968 0.000000 0.177613
0.538471 0.000000 0.166856
0.753420 0.000000 0.125951
0.975993 0.000000 0.079566
1.000000 0.000000 0.097945
1.000000 0.000000 0.116407
0.000000 0.186946 0.177908
0.000000 0.183529 0.177209
0.176094 0.176198 0.176042
0.336622 0.148533 0.171153
0.533186 0.000000 0.157794
0.750830 0.000000 0.118161
0.976272 0.000000 0.079589
1.000000 0.000000 0.097952
1.000000 0.000000 0.116410
0.000000 0.332883 0.160768
0.000000 0.330992 0.160005
0.000000 0.327644 0.158816
0.304292 0.317032 0.154667
0.505577 0.291222 0.134940
0.727658 0.207405 0.082716
0.971999 0.000000 0.062174
1.000000 0.000000 0.097975
1.000000 0.000000 0.116417
0.000000 0.509790 0.095551
0.000000 0.508684 0.094046
0.000000 0.506941 0.091599
0.217766 0.501743 0.083286
0.468121 0.488151 0.043325
0.703973 0.456571 0.000000
0.943083 0.377976 0.000000
1.000000 0.000000 0.026743
1.000000 0.000000 0.116441
0.000000 0.700109 0.000000
0.000000 0.699543 0.000000
0.000000 0.698669 0.000000
0.000000 0.696104 0.000000
0.398955 0.689323 0.000000
0.646876 0.673695 0.000000
0.894406 0.641419 0.000000
1.000000 0.570384 0.000000
1.000000 0.273997 0.000000
0.000000 0.893332 0.000000
0.000000 0.893085 0.000000
0.000000 0.892699 0.000000
0.147339 0.891539 0.000000
0.365560 0.888297 0.000000
0.586659 0.880319 0.000000
0.830898 0.863659 0.000000
1.000000 0.831943 0.000000
1.000000 0.765564 0.000000
0.360219 1.000000 0.000000
0.365591 1.000000 0.000000
0.373821 1.000000 0.000000
0.397605 1.000000 0.000000
0.457966 1.000000 0.000000
0.581871 1.000000 0.000000
0.776469 1.000000 0.000000
1.000000 1.000000 0.000000
1.000000 1.000000 0.000000
0.607642 1.000000 0.000000
0.608823 1.000000 0.000000
0.610682 1.000000 0.000000
0.616396 1.000000 0.000000
0.633249 1.000000 0.000000
0.679182 1.000000 0.000000
0.784230 1.000000 0.000000
0.966278 1.000000 0.000000
1.000000 1.000000 0.000000
0.000000 0.000000 0.310508
0.026927 0.000000 0.310165
0.175193 0.000000 0.309663
0.336057 0.000000 0.308139
0.533742 0.000000 0.303170
0.750553 0.000000 0.285701
0.974990 0.000000 0.212025
1.000000 0.000000 0.097937
1.000000 0.000000 0.116405
0.000000 0.000000 0.309693
0.000000 0.000000 0.309366
0.177444 0.000000 0.308884
0.337711 0.000000 0.307410
0.534730 0.000000 0.302560
0.751100 0.000000 0.285145
0.975175 0.000000 0.211156
1.000000 0.000000 0.097942
1.000000 0.000000 0.116407
0.000000 0.140863 0.307574
0.000000 0.135986 0.307259
0.158636 0.124566 0.306788
0.331091 0.063572 0.305342
0.531202 0.000000 0.300608
0.750626 0.000000 0.283806
0.975468 0.000000 0.209772
1.000000 0.000000 0.097949
1.000000 0.000000 0.116409
0.000000 0.315278 0.300069
0.000000 0.313263 0.299757
0.000000 0.309654 0.299275
0.297743 0.297789 0.297717
0.510396 0.264769 0.290098
0.735843 0.153930 0.268359
0.970078 0.000000 0.189632
1.000000 0.000000 0.097973
1.000000 0.000000 0.116416
0.000000 0.501126 0.279002
0.000000 0.499994 0.278656
0.000000 0.498206 0.278105
0.204131 0.492871 0.276353
0.464121 0.478895 0.270594
0.691668 0.453514 0.236999
0.932343 0.384542 0.125688
1.000000 0.000000 0.031884
1.000000 0.000000 0.116440
0.000000 0.695236 0.218937
0.000000 0.694670 0.218404
0.000000 0.693797 0.217554
0.000000 0.691242 0.214836
0.393875 0.684550 0.205879
0.644121 0.669815 0.171998
0.878074 0.647888 0.000000
1.000000 0.569588 0.000000
1.000000 0.270546 0.000000
0.000000 0.892407 0.000000
0.000000 0.892171 0.000000
0.000000 0.891804 0.000000
0.140337 0.890701 0.000000
0.364115 0.887630 0.000000
0.586415 0.880056 0.000000
0.830886 0.863482 0.000000
1.000000 0.831746 0.000000
1.000000 0.765313 0.000000
0.359783 1.000000 0.000000
0.365167 1.000000 0.000000
0.373414 1.000000 0.000000
0.397244 1.000000 0.000000
0.457697 1.000000 0.000000
0.581724 1.000000 0.000000
0.776418 1.000000 0.000000
1.000000 1.000000 0.000000
1.000000 1.000000 0.000000
0.607544 1.000000 0.000000
0.608726 1.000000 0.000000
0.610586 1.000000 0.000000
0.616302 1.000000 0.000000
0.633162 1.000000 0.000000
0.679111 1.000000 0.000000
0.784187 1.000000 0.000000
0.966261 1.000000 0.000000
1.000000 1.000000 0.000000
0.000000 0.000000 0.470644
0.000000 0.000000 0.470513
0.098828 0.000000 0.470333
0.312404 0.000000 0.469815
0.522804 0.000000 0.468120
0.744442 0.000000 0.462210
0.970814 0.000000 0.440914
1.000000 0.000000 0.344032
1.000000 0.000000 0.116402
0.000000 0.000000 0.470424
0.000000 0.000000 0.470299
0.115298 0.000000 0.470126
0.316650 0.000000 0.469619
0.524419 0.000000 0.467938
0.744994 0.000000 0.462021
0.970998 0.000000 0.440696
1.000000 0.000000 0.343635
1.000000 0.000000 0.116404
0.000000 0.000000 0.469563
0.000000 0.000000 0.469450
0.095689 0.000000 0.469292
0.313593 0.000000 0.468824
0.523235 0.000000 0.467271
0.745551 0.000000 0.461668
0.971289 0.000000 0.440351
1.000000 0.000000 0.343005
1.000000 0.000000 0.116406
0.000000 0.261836 0.465901
0.000000 0.259330 0.465799
0.000000 0.254632 0.465647
0.277782 0.238499 0.465177
0.503751 0.186428 0.463619
0.733129 0.000000 0.458166
0.968926 0.000000 0.438405
1.000000 0.000000 0.341022
1.000000 0.000000 0.116414
0.000000 0.477999 0.456186
0.000000 0.476779 0.456084
0.000000 0.474842 0.455922
0.162371 0.469030 0.455404
0.453688 0.453689 0.453687
0.695779 0.419539 0.444416
0.938053 0.334584 0.417279
1.000000 0.000000 0.308091
1.000000 0.000000 0.116437
0.000000 0.681947 0.434039
0.000000 0.681354 0.433915
0.000000 0.680441 0.433717
0.000000 0.677764 0.433086
0.378948 0.670739 0.431042
0.637165 0.655215 0.423890
0.879340 0.630707 0.383110
1.000000 0.572131 0.230220
1.000000 0.259404 0.000000
0.000000 0.882889 0.377289
0.000000 0.882646 0.377101
0.000000 0.882268 0.376801
0.000000 0.881133 0.375860
0.345947 0.877980 0.372880
0.577790 0.870340 0.363067
0.826023 0.855212 0.326843
1.000000 0.837203 0.000000
1.000000 0.764536 0.000000
0.353232 1.000000 0.000000
0.358788 1.000000 0.000000
0.367288 1.000000 0.000000
0.391781 1.000000 0.000000
0.453586 1.000000 0.000000
0.579528 1.000000 0.000000
0.776165 1.000000 0.000000
1.000000 1.000000 0.000000
1.000000 1.000000 0.000000
0.607243 1.000000 0.000000
0.608427 1.000000 0.000000
0.610289 1.000000 0.000000
0.616012 1.000000 0.000000
0.632893 1.000000 0.000000
0.678892 1.000000 0.000000
0.784051 1.000000 0.000000
0.966210 1.000000 0.000000
1.000000 1.000000 0.000000
0.000000 0.000000 0.646687
0.000000 0.000000 0.646640
0.000000 0.000000 0.646578
0.247910 0.000000 0.646447
0.498387 0.000000 0.646008
0.732142 0.000000 0.644289
0.963135 0.000000 0.637983
1.000000 0.000000 0.615042
1.000000 0.000000 0.507247
0.000000 0.000000 0.646625
0.000000 0.000000 0.646578
0.000000 0.000000 0.646519
0.254362 0.000000 0.646389
0.500157 0.000000 0.645948
0.732707 0.000000 0.644227
0.963318 0.000000 0.637918
1.000000 0.000000 0.614966
1.000000 0.000000 0.507099
0.000000 0.000000 0.646523
0.000000 0.000000 0.646478
0.000000 0.000000 0.646423
0.264075 0.000000 0.646296
0.502929 0.000000 0.645854
0.733599 0.000000 0.644130
0.963609 0.000000 0.637815
1.000000 0.000000 0.614846
1.000000 0.000000 0.506864
0.000000 0.000000 0.644758
0.000000 0.000000 0.644728
0.000000 0.000000 0.644694
0.234655 0.000000 0.644605
0.490251 0.000000 0.644274
0.727522 0.000000 0.642906
0.964368 0.000000 0.637470
1.000000 0.000000 0.614471
1.000000 0.000000 0.506130
0.000000 0.424049 0.639245
0.000000 0.422613 0.639224
0.000000 0.420278 0.639192
0.000000 0.413131 0.639085
0.433767 0.393946 0.638690
0.688387 0.347468 0.637158
0.934899 0.206949 0.631533
1.000000 0.000000 0.611336
1.000000 0.000000 0.503847
0.000000 0.655349 0.628243
0.000000 0.654701 0.628216
0.000000 0.653701 0.628172
0.000000 0.650772 0.628026
0.348086 0.643089 0.627528
0.625723 0.625772 0.625687
0.882006 0.592080 0.615828
1.000000 0.517533 0.586276
1.000000 0.000000 0.486685
0.000000 0.865537 0.606175
0.000000 0.865279 0.606135
0.000000 0.864877 0.606070
0.000000 0.863669 0.605865
0.308061 0.860309 0.605212
0.561442 0.852121 0.603057
0.816584 0.835556 0.595558
1.000000 0.812291 0.551598
1.000000 0.746907 0.434147
0.310151 1.000000 0.551925
0.316807 1.000000 0.551862
0.326893 1.000000 0.551762
0.355396 1.000000 0.551449
0.424678 1.000000 0.550476
0.559520 1.000000 0.547394
0.762931 1.000000 0.537245
1.000000 1.000000 0.500085
1.000000 1.000000 0.239081
0.598823 1.000000 0.250894
0.600041 1.000000 0.250501
0.601958 1.000000 0.249877
0.607846 1.000000 0.247911
0.625199 1.000000 0.241669
0.672380 1.000000 0.220407
0.779876 1.000000 0.110475
0.965859 1.000000 0.000000
1.000000 1.000000 0.000000
0.000000 0.000000 0.828666
0.000000 0.000000 0.828651
0.000000 0.000000 0.828626
0.000000 0.000000 0.828583
0.439739 0.000000 0.828558
0.708070 0.000000 0.828214
0.950150 0.000000 0.826511
1.000000 0.000000 0.820055
1.000000 0.000000 0.796479
0.000000 0.000000 0.828646
0.000000 0.000000 0.828630
0.000000 0.000000 0.828605
0.000000 0.000000 0.828565
0.441979 0.000000 0.828540
0.708676 0.000000 0.828194
0.950337 0.000000 0.826491
1.000000 0.000000 0.820034
1.000000 0.000000 0.796454
0.000000 0.000000 0.828613
0.000000 0.000000 0.828598
0.000000 0.000000 0.828573
0.000000 0.000000 0.828537
0.445474 0.000000 0.828511
0.709633 0.000000 0.828163
0.950634 0.000000 0.826458
1.000000 0.000000 0.820000
1.000000 0.000000 0.796414
0.000000 0.000000 0.828512
0.000000 0.000000 0.828496
0.000000 0.000000 0.828471
0.000000 0.000000 0.828451
0.455999 0.000000 0.828421
0.712588 0.000000 0.828067
0.951556 0.000000 0.826358
1.000000 0.000000 0.819893
1.000000 0.000000 0.796290
0.000000 0.253728 0.825050
0.000000 0.252320 0.825044
0.000000 0.248195 0.825045
0.000000 0.231918 0.825065
0.401446 0.177768 0.825088
0.680205 0.000000 0.824925
0.933697 0.000000 0.823878
1.000000 0.000000 0.819562
1.000000 0.000000 0.795905
0.000000 0.603022 0.817946
0.000000 0.602235 0.817947
0.000000 0.601020 0.817948
0.000000 0.597463 0.817945
0.281282 0.588199 0.817897
0.606478 0.567426 0.817576
0.874460 0.524446 0.816094
1.000000 0.421343 0.810479
1.000000 0.000000 0.790729
0.000000 0.836949 0.806303
0.000000 0.836664 0.806297
0.000000 0.836220 0.806286
0.000000 0.834890 0.806250
0.220329 0.831200 0.806125
0.534039 0.822248 0.805653
0.803838 0.803883 0.803801
1.000000 0.770881 0.793473
1.000000 0.697622 0.773682
0.226008 1.000000 0.784583
0.236361 1.000000 0.784570
0.251458 1.000000 0.784549
0.291297 1.000000 0.784484
0.378226 1.000000 0.784280
0.530560 1.000000 0.783623
0.745704 1.000000 0.781433
0.997908 1.000000 0.773899
1.000000 0.986854 0.746781
0.565804 1.000000 0.732236
0.567123 1.000000 0.732215
0.569197 1.000000 0.732183
0.575560 1.000000 0.732081
0.594237 1.000000 0.731766
0.644530 1.000000 0.730787
0.757103 1.000000 0.727684
0.947515 1.000000 0.717472
1.000000 1.000000 0.680216
0.000000 0.000000 1.000000
0.000000 0.000000 1.000000
0.000000 0.000000 1.000000
0.000000 0.000000 1.000000
0.169174 0.000000 1.000000
0.653003 0.000000 1.000000
0.926607 0.000000 1.000000
1.000000 0.000000 1.000000
1.000000 0.000000 1.000000
0.000000 0.000000 1.000000
0.000000 0.000000 1.000000
0.000000 0.000000 1.000000
0.000000 0.000000 1.000000
0.179368 0.000000 1.000000
0.653747 0.000000 1.000000
0.926807 0.000000 1.000000
1.000000 0.000000 1.000000
1.000000 0.000000 1.000000
0.000000 0.000000 1.000000
0.000000 0.000000 1.000000
0.000000 0.000000 1.000000
0.000000 0.000000 1.000000
0.193943 0.000000 1.000000
0.654918 0.000000 1.000000
0.927123 0.000000 1.000000
1.000000 0.000000 1.000000
1.000000 0.000000 1.000000
0.000000 0.000000 1.000000
0.000000 0.000000 1.000000
0.000000 0.000000 1.000000
0.000000 0.000000 1.000000
0.231269 0.000000 1.000000
0.658530 0.000000 1.000000
0.928104 0.000000 1.000000
1.000000 0.000000 1.000000
1.000000 0.000000 1.000000
0.000000 0.000000 1.000000
0.000000 0.000000 1.000000
0.000000 0.000000 1.000000
0.000000 0.000000 1.000000
0.309698 0.000000 1.000000
0.669288 0.000000 1.000000
0.931103 0.000000 1.000000
1.000000 0.000000 1.000000
1.000000 0.000000 1.000000
0.000000 0.465967 1.000000
0.000000 0.465688 1.000000
0.000000 0.464355 1.000000
0.000000 0.458344 1.000000
0.000000 0.441628 1.000000
0.580149 0.404656 1.000000
0.870567 0.319146 1.000000
1.000000 0.000000 1.000000
1.000000 0.000000 1.000000
0.000000 0.786361 0.998399
0.000000 0.786001 0.998403
0.000000 0.785441 0.998407
0.000000 0.783777 0.998420
0.000000 0.779244 0.998446
0.482645 0.768554 0.998448
0.785204 0.747061 0.998182
1.000000 0.706365 0.996742
1.000000 0.616556 0.991172
0.000000 1.000000 0.986431
0.000000 1.000000 0.986429
0.000000 1.000000 0.986427
0.000000 1.000000 0.986418
0.274322 1.000000 0.986389
0.479388 1.000000 0.986279
0.720090 1.000000 0.985828
0.984038 0.984038 0.984037
1.000000 0.950152 0.977472
0.521750 1.000000 0.965046
0.523253 1.000000 0.965042
0.525613 1.000000 0.965035
0.532835 1.000000 0.965015
0.553885 1.000000 0.964950
0.609629 1.000000 0.964748
0.730906 1.000000 0.964093
0.929776 1.000000 0.961895
1.000000 1.000000 0.954336
0.000000 0.000000 1.000000
0.000000 0.000000 1.000000
0.000000 0.000000 1.000000
0.000000 0.000000 1.000000
0.000000 0.000000 1.000000
0.439471 0.000000 1.000000
0.873999 0.000000 1.000000
1.000000 0.000000 1.000000
1.000000 0.000000 1.000000
0.000000 0.000000 1.000000
0.000000 0.000000 1.000000
0.000000 0.000000 1.000000
0.000000 0.000000 1.000000
0.000000 0.000000 1.000000
0.441375 0.000000 1.000000
0.874240 0.000000 1.000000
1.000000 0.000000 1.000000
1.000000 0.000000 1.000000
0.000000 0.000000 1.000000
0.000000 0.000000 1.000000
0.000000 0.000000 1.000000
0.000000 0.000000 1.000000
0.000000 0.000000 1.000000
0.444352 0.000000 1.000000
0.874622 0.000000 1.000000
1.000000 0.000000 1.000000
1.000000 0.000000 1.000000
0.000000 0.000000 1.000000
0.000000 0.000000 1.000000
0.000000 0.000000 1.000000
0.000000 0.000000 1.000000
0.000000 0.000000 1.000000
0.453368 0.000000 1.000000
0.875806 0.000000 1.000000
1.000000 0.000000 1.000000
1.000000 0.000000 1.000000
0.000000 0.000000 1.000000
0.000000 0.000000 1.000000
0.000000 0.000000 1.000000
0.000000 0.000000 1.000000
0.000000 0.000000 1.000000
0.478903 0.000000 1.000000
0.879418 0.000000 1.000000
1.000000 0.000000 1.000000
1.000000 0.000000 1.000000
0.000000 0.000000 1.000000
0.000000 0.000000 1.000000
0.000000 0.000000 1.000000
0.000000 0.000000 1.000000
0.000000 0.000000 1.000000
0.542233 0.000000 1.000000
0.890177 0.000000 1.000000
1.000000 0.000000 1.000000
1.000000 0.000000 1.000000
0.000000 0.667567 1.000000
0.000000 0.667529 1.000000
0.000000 0.667388 1.000000
0.000000 0.664376 1.000000
0.000000 0.654898 1.000000
0.340605 0.636040 1.000000
0.762351 0.602225 1.000000
1.000000 0.536814 1.000000
1.000000 0.345442 1.000000
0.000000 0.970116 1.000000
0.000000 0.969973 1.000000
0.000000 0.969748 1.000000
0.000000 0.969064 1.000000
0.000000 0.967082 1.000000
0.347002 0.961877 1.000000
0.674870 0.950293 1.000000
0.965857 0.928465 1.000000
1.000000 0.889302 1.000000
0.433121 1.000000 1.000000
0.435187 1.000000 1.000000
0.438421 1.000000 1.000000
0.448231 1.000000 1.000000
0.476176 1.000000 1.000000
0.546558 1.000000 1.000000
0.688560 1.000000 1.000000
0.905249 1.000000 1.000000
1.000000 1.000000 1.000000
