Blackmagic Design/Blackmagic Pocket 4K Film to Extended Video v4.cube
# (C) 2018 Blackmagic Design
LUT_3D_SIZE 33
0.0000000000 0.0000000000 0.0000000000
0.0000000000 0.0000000000 0.0000000000
0.0000000000 0.0000000000 0.0000000000
0.0312500000 0.0000000000 0.0000000000
0.0712890625 0.0000000000 0.0000000000
0.1113281250 0.0000000000 0.0000000000
0.1523437500 0.0000000000 0.0000000000
0.1943359375 0.0000000000 0.0000000000
0.2373046875 0.0000000000 0.0000000000
0.2822265625 0.0000000000 0.0000000000
0.3300781250 0.0000000000 0.0000000000
0.3818359375 0.0000000000 0.0000000000
0.4414062500 0.0000000000 0.0000000000
0.5019531250 0.0000000000 0.0000000000
0.5615234375 0.0000000000 0.0000000000
0.6201171875 0.0000000000 0.0000000000
0.6767578125 0.0000000000 0.0000000000
0.7246093750 0.0000000000 0.0000000000
0.7666015625 0.0000000000 0.0000000000
0.8046875000 0.0000000000 0.0000000000
0.8388671875 0.0000000000 0.0000000000
0.8710937500 0.0000000000 0.0000000000
0.9003906250 0.0000000000 0.0000000000
0.9287109375 0.0000000000 0.0000000000
0.9541015625 0.0000000000 0.0000000000
0.9785156250 0.0000000000 0.0000000000
0.9990234375 0.0000000000 0.0000000000
0.9990234375 0.0000000000 0.0000000000
0.9990234375 0.0000000000 0.0000000000
0.9990234375 0.0000000000 0.0000000000
0.9990234375 0.0000000000 0.0000000000
0.9990234375 0.0000000000 0.0000000000
0.9990234375 0.0000000000 0.0000000000
0.0000000000 0.0000000000 0.0000000000
0.0000000000 0.0000000000 0.0000000000
0.0000000000 0.0000000000 0.0000000000
0.0302734375 0.0000000000 0.0000000000
0.0693359375 0.0000000000 0.0000000000
0.1093750000 0.0000000000 0.0000000000
0.1503906250 0.0000000000 0.0000000000
0.1923828125 0.0000000000 0.0000000000
0.2353515625 0.0000000000 0.0000000000
0.2812500000 0.0000000000 0.0000000000
0.3281250000 0.0000000000 0.0000000000
0.3808593750 0.0000000000 0.0000000000
0.4404296875 0.0000000000 0.0000000000
0.5000000000 0.0000000000 0.0000000000
0.5595703125 0.0000000000 0.0000000000
0.6181640625 0.0000000000 0.0000000000
0.6757812500 0.0000000000 0.0000000000
0.7236328125 0.0000000000 0.0000000000
0.7646484375 0.0000000000 0.0000000000
0.8027343750 0.0000000000 0.0000000000
0.8369140625 0.0000000000 0.0000000000
0.8691406250 0.0000000000 0.0000000000
0.8994140625 0.0000000000 0.0000000000
0.9267578125 0.0000000000 0.0000000000
0.9531250000 0.0000000000 0.0000000000
0.9775390625 0.0000000000 0.0000000000
0.9990234375 0.0000000000 0.0000000000
0.9990234375 0.0000000000 0.0000000000
0.9990234375 0.0000000000 0.0000000000
0.9990234375 0.0000000000 0.0000000000
0.9990234375 0.0000000000 0.0000000000
0.9990234375 0.0000000000 0.0000000000
0.9990234375 0.0000000000 0.0000000000
0.0000000000 0.0000000000 0.0000000000
0.0000000000 0.0000000000 0.0000000000
0.0000000000 0.0000000000 0.0000000000
0.0283203125 0.0000000000 0.0000000000
0.0683593750 0.0000000000 0.0000000000
0.1083984375 0.0000000000 0.0000000000
0.1494140625 0.0000000000 0.0000000000
0.1914062500 0.0000000000 0.0000000000
0.2343750000 0.0000000000 0.0000000000
0.2792968750 0.0000000000 0.0000000000
0.3271484375 0.0000000000 0.0000000000
0.3789062500 0.0000000000 0.0000000000
0.4384765625 0.0000000000 0.0000000000
0.4990234375 0.0000000000 0.0000000000
0.5585937500 0.0000000000 0.0000000000
0.6171875000 0.0000000000 0.0000000000
0.6738281250 0.0000000000 0.0000000000
0.7216796875 0.0000000000 0.0000000000
0.7636718750 0.0000000000 0.0000000000
0.8007812500 0.0000000000 0.0000000000
0.8359375000 0.0000000000 0.0000000000
0.8671875000 0.0000000000 0.0000000000
0.8974609375 0.0000000000 0.0000000000
0.9257812500 0.0000000000 0.0000000000
0.9511718750 0.0000000000 0.0000000000
0.9755859375 0.0000000000 0.0000000000
0.9990234375 0.0000000000 0.0000000000
0.9990234375 0.0000000000 0.0000000000
0.9990234375 0.0000000000 0.0000000000
0.9990234375 0.0000000000 0.0000000000
0.9990234375 0.0000000000 0.0000000000
0.9990234375 0.0000000000 0.0000000000
0.9990234375 0.0000000000 0.0000000000
0.0000000000 0.0312500000 0.0000000000
0.0000000000 0.0302734375 0.0000000000
0.0000000000 0.0283203125 0.0000000000
0.0273437500 0.0273437500 0.0000000000
0.0664062500 0.0253906250 0.0000000000
0.1064453125 0.0234375000 0.0000000000
0.1474609375 0.0214843750 0.0000000000
0.1894531250 0.0195312500 0.0000000000
0.2324218750 0.0175781250 0.0000000000
0.2773437500 0.0156250000 0.0000000000
0.3251953125 0.0136718750 0.0000000000
0.3779296875 0.0107421875 0.0000000000
0.4365234375 0.0087890625 0.0000000000
0.4970703125 0.0058593750 0.0000000000
0.5566406250 0.0029296875 0.0000000000
0.6152343750 0.0000000000 0.0000000000
0.6718750000 0.0000000000 0.0000000000
0.7197265625 0.0000000000 0.0000000000
0.7617187500 0.0000000000 0.0000000000
0.7998046875 0.0000000000 0.0000000000
0.8339843750 0.0000000000 0.0000000000
0.8662109375 0.0000000000 0.0000000000
0.8955078125 0.0000000000 0.0000000000
0.9238281250 0.0000000000 0.0000000000
0.9501953125 0.0000000000 0.0000000000
0.9746093750 0.0000000000 0.0000000000
0.9970703125 0.0000000000 0.0000000000
0.9990234375 0.0000000000 0.0000000000
0.9990234375 0.0000000000 0.0000000000
0.9990234375 0.0000000000 0.0000000000
0.9990234375 0.0000000000 0.0000000000
0.9990234375 0.0000000000 0.0000000000
0.9990234375 0.0000000000 0.0000000000
0.0000000000 0.0712890625 0.0000000000
0.0000000000 0.0693359375 0.0000000000
0.0000000000 0.0683593750 0.0000000000
0.0253906250 0.0664062500 0.0000000000
0.0644531250 0.0644531250 0.0000000000
0.1044921875 0.0625000000 0.0000000000
0.1455078125 0.0605468750 0.0000000000
0.1875000000 0.0585937500 0.0000000000
0.2304687500 0.0566406250 0.0000000000
0.2753906250 0.0546875000 0.0000000000
0.3232421875 0.0527343750 0.0000000000
0.3759765625 0.0507812500 0.0000000000
0.4355468750 0.0478515625 0.0000000000
0.4951171875 0.0449218750 0.0000000000
0.5546875000 0.0419921875 0.0000000000
0.6132812500 0.0400390625 0.0000000000
0.6708984375 0.0371093750 0.0000000000
0.7187500000 0.0351562500 0.0000000000
0.7597656250 0.0332031250 0.0000000000
0.7978515625 0.0312500000 0.0000000000
0.8320312500 0.0292968750 0.0000000000
0.8642578125 0.0283203125 0.0000000000
0.8935546875 0.0263671875 0.0000000000
0.9218750000 0.0253906250 0.0000000000
0.9482421875 0.0244140625 0.0000000000
0.9726562500 0.0234375000 0.0000000000
0.9951171875 0.0224609375 0.0000000000
0.9990234375 0.0214843750 0.0000000000
0.9990234375 0.0205078125 0.0000000000
0.9990234375 0.0195312500 0.0000000000
0.9990234375 0.0185546875 0.0000000000
0.9990234375 0.0185546875 0.0000000000
0.9990234375 0.0175781250 0.0000000000
0.0000000000 0.1113281250 0.0000000000
0.0000000000 0.1093750000 0.0000000000
0.0000000000 0.1083984375 0.0000000000
0.0234375000 0.1064453125 0.0000000000
0.0625000000 0.1044921875 0.0000000000
0.1025390625 0.1025390625 0.0000000000
0.1435546875 0.1015625000 0.0000000000
0.1855468750 0.0996093750 0.0000000000
0.2294921875 0.0976562500 0.0000000000
0.2744140625 0.0947265625 0.0000000000
0.3212890625 0.0927734375 0.0000000000
0.3740234375 0.0908203125 0.0000000000
0.4335937500 0.0878906250 0.0000000000
0.4931640625 0.0849609375 0.0000000000
0.5527343750 0.0820312500 0.0000000000
0.6123046875 0.0800781250 0.0000000000
0.6689453125 0.0771484375 0.0000000000
0.7167968750 0.0751953125 0.0000000000
0.7587890625 0.0732421875 0.0000000000
0.7958984375 0.0712890625 0.0000000000
0.8300781250 0.0703125000 0.0000000000
0.8623046875 0.0683593750 0.0000000000
0.8925781250 0.0673828125 0.0000000000
0.9199218750 0.0654296875 0.0000000000
0.9462890625 0.0644531250 0.0000000000
0.9707031250 0.0634765625 0.0000000000
0.9931640625 0.0625000000 0.0000000000
0.9990234375 0.0615234375 0.0000000000
0.9990234375 0.0605468750 0.0000000000
0.9990234375 0.0595703125 0.0000000000
0.9990234375 0.0585937500 0.0000000000
0.9990234375 0.0585937500 0.0000000000
0.9990234375 0.0576171875 0.0000000000
0.0000000000 0.1523437500 0.0000000000
0.0000000000 0.1503906250 0.0000000000
0.0000000000 0.1494140625 0.0000000000
0.0214843750 0.1474609375 0.0000000000
0.0605468750 0.1455078125 0.0000000000
0.1015625000 0.1435546875 0.0000000000
0.1425781250 0.1425781250 0.0000000000
0.1835937500 0.1406250000 0.0000000000
0.2275390625 0.1386718750 0.0000000000
0.2724609375 0.1357421875 0.0000000000
0.3193359375 0.1337890625 0.0000000000
0.3720703125 0.1318359375 0.0000000000
0.4316406250 0.1289062500 0.0000000000
0.4912109375 0.1259765625 0.0000000000
0.5507812500 0.1230468750 0.0000000000
0.6103515625 0.1210937500 0.0000000000
0.6669921875 0.1181640625 0.0000000000
0.7148437500 0.1162109375 0.0000000000
0.7568359375 0.1142578125 0.0000000000
0.7939453125 0.1123046875 0.0000000000
0.8281250000 0.1113281250 0.0000000000
0.8603515625 0.1093750000 0.0000000000
0.8906250000 0.1083984375 0.0000000000
0.9179687500 0.1064453125 0.0000000000
0.9443359375 0.1054687500 0.0000000000
0.9687500000 0.1044921875 0.0000000000
0.9912109375 0.1035156250 0.0000000000
0.9990234375 0.1025390625 0.0000000000
0.9990234375 0.1015625000 0.0000000000
0.9990234375 0.1005859375 0.0000000000
0.9990234375 0.0996093750 0.0000000000
0.9990234375 0.0996093750 0.0000000000
0.9990234375 0.0986328125 0.0000000000
0.0000000000 0.1943359375 0.0000000000
0.0000000000 0.1923828125 0.0000000000
0.0000000000 0.1914062500 0.0000000000
0.0195312500 0.1894531250 0.0000000000
0.0585937500 0.1875000000 0.0000000000
0.0996093750 0.1855468750 0.0000000000
0.1406250000 0.1835937500 0.0000000000
0.1816406250 0.1816406250 0.0000000000
0.2255859375 0.1796875000 0.0000000000
0.2705078125 0.1777343750 0.0000000000
0.3183593750 0.1757812500 0.0000000000
0.3701171875 0.1738281250 0.0000000000
0.4296875000 0.1708984375 0.0000000000
0.4902343750 0.1679687500 0.0000000000
0.5488281250 0.1650390625 0.0000000000
0.6083984375 0.1630859375 0.0000000000
0.6650390625 0.1601562500 0.0000000000
0.7128906250 0.1582031250 0.0000000000
0.7548828125 0.1562500000 0.0000000000
0.7919921875 0.1542968750 0.0000000000
0.8271484375 0.1523437500 0.0000000000
0.8583984375 0.1513671875 0.0000000000
0.8886718750 0.1503906250 0.0000000000
0.9160156250 0.1484375000 0.0000000000
0.9423828125 0.1474609375 0.0000000000
0.9667968750 0.1464843750 0.0000000000
0.9902343750 0.1455078125 0.0000000000
0.9990234375 0.1445312500 0.0000000000
0.9990234375 0.1435546875 0.0000000000
0.9990234375 0.1425781250 0.0000000000
0.9990234375 0.1416015625 0.0000000000
0.9990234375 0.1416015625 0.0000000000
0.9990234375 0.1406250000 0.0000000000
0.0000000000 0.2373046875 0.0000000000
0.0000000000 0.2353515625 0.0000000000
0.0000000000 0.2343750000 0.0000000000
0.0175781250 0.2324218750 0.0000000000
0.0566406250 0.2304687500 0.0000000000
0.0976562500 0.2294921875 0.0000000000
0.1386718750 0.2275390625 0.0000000000
0.1796875000 0.2255859375 0.0000000000
0.2236328125 0.2236328125 0.0000000000
0.2685546875 0.2216796875 0.0000000000
0.3164062500 0.2187500000 0.0000000000
0.3681640625 0.2167968750 0.0000000000
0.4277343750 0.2138671875 0.0000000000
0.4873046875 0.2109375000 0.0000000000
0.5468750000 0.2089843750 0.0000000000
0.6064453125 0.2060546875 0.0000000000
0.6630859375 0.2031250000 0.0000000000
0.7109375000 0.2011718750 0.0000000000
0.7529296875 0.1992187500 0.0000000000
0.7900390625 0.1972656250 0.0000000000
0.8251953125 0.1962890625 0.0000000000
0.8564453125 0.1943359375 0.0000000000
0.8867187500 0.1933593750 0.0000000000
0.9140625000 0.1914062500 0.0000000000
0.9404296875 0.1904296875 0.0000000000
0.9648437500 0.1894531250 0.0000000000
0.9882812500 0.1884765625 0.0000000000
0.9990234375 0.1875000000 0.0000000000
0.9990234375 0.1865234375 0.0000000000
0.9990234375 0.1855468750 0.0000000000
0.9990234375 0.1855468750 0.0000000000
0.9990234375 0.1845703125 0.0000000000
0.9990234375 0.1835937500 0.0000000000
0.0000000000 0.2822265625 0.0000000000
0.0000000000 0.2812500000 0.0000000000
0.0000000000 0.2792968750 0.0000000000
0.0156250000 0.2773437500 0.0000000000
0.0546875000 0.2753906250 0.0000000000
0.0947265625 0.2744140625 0.0000000000
0.1357421875 0.2724609375 0.0000000000
0.1777343750 0.2705078125 0.0000000000
0.2216796875 0.2685546875 0.0000000000
0.2666015625 0.2666015625 0.0000000000
0.3134765625 0.2636718750 0.0000000000
0.3662109375 0.2617187500 0.0000000000
0.4257812500 0.2587890625 0.0000000000
0.4853515625 0.2558593750 0.0000000000
0.5449218750 0.2539062500 0.0000000000
0.6044921875 0.2509765625 0.0000000000
0.6611328125 0.2480468750 0.0000000000
0.7089843750 0.2460937500 0.0000000000
0.7509765625 0.2441406250 0.0000000000
0.7880859375 0.2421875000 0.0000000000
0.8222656250 0.2412109375 0.0000000000
0.8544921875 0.2392578125 0.0000000000
0.8847656250 0.2382812500 0.0000000000
0.9121093750 0.2373046875 0.0000000000
0.9384765625 0.2353515625 0.0000000000
0.9628906250 0.2343750000 0.0000000000
0.9853515625 0.2333984375 0.0000000000
0.9990234375 0.2324218750 0.0000000000
0.9990234375 0.2314453125 0.0000000000
0.9990234375 0.2304687500 0.0000000000
0.9990234375 0.2304687500 0.0000000000
0.9990234375 0.2294921875 0.0000000000
0.9990234375 0.2285156250 0.0000000000
0.0000000000 0.3300781250 0.0000000000
0.0000000000 0.3281250000 0.0000000000
0.0000000000 0.3271484375 0.0000000000
0.0136718750 0.3251953125 0.0000000000
0.0527343750 0.3232421875 0.0000000000
0.0927734375 0.3212890625 0.0000000000
0.1337890625 0.3193359375 0.0000000000
0.1757812500 0.3183593750 0.0000000000
0.2187500000 0.3164062500 0.0000000000
0.2636718750 0.3134765625 0.0000000000
0.3115234375 0.3115234375 0.0000000000
0.3642578125 0.3095703125 0.0000000000
0.4238281250 0.3066406250 0.0000000000
0.4833984375 0.3037109375 0.0000000000
0.5429687500 0.3007812500 0.0000000000
0.6015625000 0.2988281250 0.0000000000
0.6591796875 0.2958984375 0.0000000000
0.7070312500 0.2939453125 0.0000000000
0.7480468750 0.2919921875 0.0000000000
0.7861328125 0.2900390625 0.0000000000
0.8203125000 0.2890625000 0.0000000000
0.8525390625 0.2871093750 0.0000000000
0.8818359375 0.2861328125 0.0000000000
0.9101562500 0.2841796875 0.0000000000
0.9365234375 0.2832031250 0.0000000000
0.9609375000 0.2822265625 0.0000000000
0.9833984375 0.2812500000 0.0000000000
0.9990234375 0.2802734375 0.0000000000
0.9990234375 0.2792968750 0.0000000000
0.9990234375 0.2783203125 0.0000000000
0.9990234375 0.2773437500 0.0000000000
0.9990234375 0.2773437500 0.0000000000
0.9990234375 0.2763671875 0.0000000000
0.0000000000 0.3818359375 0.0000000000
0.0000000000 0.3808593750 0.0000000000
0.0000000000 0.3789062500 0.0000000000
0.0107421875 0.3779296875 0.0000000000
0.0507812500 0.3759765625 0.0000000000
0.0908203125 0.3740234375 0.0000000000
0.1318359375 0.3720703125 0.0000000000
0.1738281250 0.3701171875 0.0000000000
0.2167968750 0.3681640625 0.0000000000
0.2617187500 0.3662109375 0.0000000000
0.3095703125 0.3642578125 0.0000000000
0.3613281250 0.3613281250 0.0000000000
0.4208984375 0.3583984375 0.0000000000
0.4814453125 0.3564453125 0.0000000000
0.5410156250 0.3535156250 0.0000000000
0.5996093750 0.3505859375 0.0000000000
0.6562500000 0.3486328125 0.0000000000
0.7041015625 0.3457031250 0.0000000000
0.7460937500 0.3437500000 0.0000000000
0.7832031250 0.3427734375 0.0000000000
0.8183593750 0.3408203125 0.0000000000
0.8496093750 0.3398437500 0.0000000000
0.8798828125 0.3378906250 0.0000000000
0.9082031250 0.3369140625 0.0000000000
0.9335937500 0.3359375000 0.0000000000
0.9580078125 0.3339843750 0.0000000000
0.9814453125 0.3330078125 0.0000000000
0.9990234375 0.3320312500 0.0000000000
0.9990234375 0.3320312500 0.0000000000
0.9990234375 0.3310546875 0.0000000000
0.9990234375 0.3300781250 0.0000000000
0.9990234375 0.3291015625 0.0000000000
0.9990234375 0.3291015625 0.0000000000
0.0000000000 0.4414062500 0.0000000000
0.0000000000 0.4404296875 0.0000000000
0.0000000000 0.4384765625 0.0000000000
0.0087890625 0.4365234375 0.0000000000
0.0478515625 0.4355468750 0.0000000000
0.0878906250 0.4335937500 0.0000000000
0.1289062500 0.4316406250 0.0000000000
0.1708984375 0.4296875000 0.0000000000
0.2138671875 0.4277343750 0.0000000000
0.2587890625 0.4257812500 0.0000000000
0.3066406250 0.4238281250 0.0000000000
0.3583984375 0.4208984375 0.0000000000
0.4179687500 0.4179687500 0.0000000000
0.4785156250 0.4160156250 0.0000000000
0.5380859375 0.4130859375 0.0000000000
0.5966796875 0.4101562500 0.0000000000
0.6533203125 0.4072265625 0.0000000000
0.7011718750 0.4052734375 0.0000000000
0.7431640625 0.4033203125 0.0000000000
0.7812500000 0.4023437500 0.0000000000
0.8154296875 0.4003906250 0.0000000000
0.8476562500 0.3984375000 0.0000000000
0.8769531250 0.3974609375 0.0000000000
0.9052734375 0.3964843750 0.0000000000
0.9316406250 0.3955078125 0.0000000000
0.9560546875 0.3935546875 0.0000000000
0.9785156250 0.3925781250 0.0000000000
0.9990234375 0.3916015625 0.0000000000
0.9990234375 0.3906250000 0.0000000000
0.9990234375 0.3906250000 0.0000000000
0.9990234375 0.3896484375 0.0000000000
0.9990234375 0.3886718750 0.0000000000
0.9990234375 0.3886718750 0.0000000000
0.0000000000 0.5019531250 0.0000000000
0.0000000000 0.5000000000 0.0000000000
0.0000000000 0.4990234375 0.0000000000
0.0058593750 0.4970703125 0.0000000000
0.0449218750 0.4951171875 0.0000000000
0.0849609375 0.4931640625 0.0000000000
0.1259765625 0.4912109375 0.0000000000
0.1679687500 0.4902343750 0.0000000000
0.2109375000 0.4873046875 0.0000000000
0.2558593750 0.4853515625 0.0000000000
0.3037109375 0.4833984375 0.0000000000
0.3564453125 0.4814453125 0.0000000000
0.4160156250 0.4785156250 0.0000000000
0.4755859375 0.4755859375 0.0000000000
0.5351562500 0.4726562500 0.0000000000
0.5937500000 0.4707031250 0.0000000000
0.6513671875 0.4677734375 0.0000000000
0.6992187500 0.4658203125 0.0000000000
0.7402343750 0.4638671875 0.0000000000
0.7783203125 0.4619140625 0.0000000000
0.8125000000 0.4599609375 0.0000000000
0.8447265625 0.4589843750 0.0000000000
0.8740234375 0.4580078125 0.0000000000
0.9023437500 0.4560546875 0.0000000000
0.9287109375 0.4550781250 0.0000000000
0.9531250000 0.4541015625 0.0000000000
0.9755859375 0.4531250000 0.0000000000
0.9970703125 0.4521484375 0.0000000000
0.9990234375 0.4511718750 0.0000000000
0.9990234375 0.4501953125 0.0000000000
0.9990234375 0.4492187500 0.0000000000
0.9990234375 0.4492187500 0.0000000000
0.9990234375 0.4482421875 0.0000000000
0.0000000000 0.5615234375 0.0000000000
0.0000000000 0.5595703125 0.0000000000
0.0000000000 0.5585937500 0.0000000000
0.0029296875 0.5566406250 0.0000000000
0.0419921875 0.5546875000 0.0000000000
0.0820312500 0.5527343750 0.0000000000
0.1230468750 0.5507812500 0.0000000000
0.1650390625 0.5488281250 0.0000000000
0.2089843750 0.5468750000 0.0000000000
0.2539062500 0.5449218750 0.0000000000
0.3007812500 0.5429687500 0.0000000000
0.3535156250 0.5410156250 0.0000000000
0.4130859375 0.5380859375 0.0000000000
0.4726562500 0.5351562500 0.0000000000
0.5322265625 0.5322265625 0.0000000000
0.5917968750 0.5302734375 0.0000000000
0.6484375000 0.5273437500 0.0000000000
0.6962890625 0.5253906250 0.0000000000
0.7382812500 0.5234375000 0.0000000000
0.7753906250 0.5214843750 0.0000000000
0.8095703125 0.5195312500 0.0000000000
0.8417968750 0.5185546875 0.0000000000
0.8720703125 0.5166015625 0.0000000000
0.8994140625 0.5156250000 0.0000000000
0.9257812500 0.5146484375 0.0000000000
0.9501953125 0.5136718750 0.0000000000
0.9726562500 0.5126953125 0.0000000000
0.9941406250 0.5117187500 0.0000000000
0.9990234375 0.5107421875 0.0000000000
0.9990234375 0.5097656250 0.0000000000
0.9990234375 0.5087890625 0.0000000000
0.9990234375 0.5087890625 0.0000000000
0.9990234375 0.5078125000 0.0000000000
0.0000000000 0.6201171875 0.0000000000
0.0000000000 0.6181640625 0.0000000000
0.0000000000 0.6171875000 0.0000000000
0.0000000000 0.6152343750 0.0000000000
0.0400390625 0.6132812500 0.0000000000
0.0800781250 0.6123046875 0.0000000000
0.1210937500 0.6103515625 0.0000000000
0.1630859375 0.6083984375 0.0000000000
0.2060546875 0.6064453125 0.0000000000
0.2509765625 0.6044921875 0.0000000000
0.2988281250 0.6015625000 0.0000000000
0.3505859375 0.5996093750 0.0000000000
0.4101562500 0.5966796875 0.0000000000
0.4707031250 0.5937500000 0.0000000000
0.5302734375 0.5917968750 0.0000000000
0.5888671875 0.5888671875 0.0000000000
0.6455078125 0.5859375000 0.0000000000
0.6933593750 0.5839843750 0.0000000000
0.7353515625 0.5820312500 0.0000000000
0.7724609375 0.5800781250 0.0000000000
0.8076171875 0.5791015625 0.0000000000
0.8388671875 0.5771484375 0.0000000000
0.8691406250 0.5761718750 0.0000000000
0.8964843750 0.5742187500 0.0000000000
0.9228515625 0.5732421875 0.0000000000
0.9472656250 0.5722656250 0.0000000000
0.9707031250 0.5712890625 0.0000000000
0.9921875000 0.5703125000 0.0000000000
0.9990234375 0.5693359375 0.0000000000
0.9990234375 0.5683593750 0.0000000000
0.9990234375 0.5683593750 0.0000000000
0.9990234375 0.5673828125 0.0000000000
0.9990234375 0.5664062500 0.0000000000
0.0000000000 0.6767578125 0.0000000000
0.0000000000 0.6757812500 0.0000000000
0.0000000000 0.6738281250 0.0000000000
0.0000000000 0.6718750000 0.0000000000
0.0371093750 0.6708984375 0.0000000000
0.0771484375 0.6689453125 0.0000000000
0.1181640625 0.6669921875 0.0000000000
0.1601562500 0.6650390625 0.0000000000
0.2031250000 0.6630859375 0.0000000000
0.2480468750 0.6611328125 0.0000000000
0.2958984375 0.6591796875 0.0000000000
0.3486328125 0.6562500000 0.0000000000
0.4072265625 0.6533203125 0.0000000000
0.4677734375 0.6513671875 0.0000000000
0.5273437500 0.6484375000 0.0000000000
0.5859375000 0.6455078125 0.0000000000
0.6425781250 0.6425781250 0.0000000000
0.6904296875 0.6406250000 0.0000000000
0.7324218750 0.6386718750 0.0000000000
0.7705078125 0.6367187500 0.0000000000
0.8046875000 0.6357421875 0.0000000000
0.8369140625 0.6337890625 0.0000000000
0.8662109375 0.6328125000 0.0000000000
0.8945312500 0.6318359375 0.0000000000
0.9208984375 0.6298828125 0.0000000000
0.9453125000 0.6289062500 0.0000000000
0.9677734375 0.6279296875 0.0000000000
0.9892578125 0.6269531250 0.0000000000
0.9990234375 0.6259765625 0.0000000000
0.9990234375 0.6250000000 0.0000000000
0.9990234375 0.6250000000 0.0000000000
0.9990234375 0.6240234375 0.0000000000
0.9990234375 0.6230468750 0.0000000000
0.0000000000 0.7246093750 0.0000000000
0.0000000000 0.7236328125 0.0000000000
0.0000000000 0.7216796875 0.0000000000
0.0000000000 0.7197265625 0.0000000000
0.0351562500 0.7187500000 0.0000000000
0.0751953125 0.7167968750 0.0000000000
0.1162109375 0.7148437500 0.0000000000
0.1582031250 0.7128906250 0.0000000000
0.2011718750 0.7109375000 0.0000000000
0.2460937500 0.7089843750 0.0000000000
0.2939453125 0.7070312500 0.0000000000
0.3457031250 0.7041015625 0.0000000000
0.4052734375 0.7011718750 0.0000000000
0.4658203125 0.6992187500 0.0000000000
0.5253906250 0.6962890625 0.0000000000
0.5839843750 0.6933593750 0.0000000000
0.6406250000 0.6904296875 0.0000000000
0.6884765625 0.6884765625 0.0000000000
0.7304687500 0.6865234375 0.0000000000
0.7675781250 0.6845703125 0.0000000000
0.8027343750 0.6835937500 0.0000000000
0.8349609375 0.6816406250 0.0000000000
0.8642578125 0.6806640625 0.0000000000
0.8925781250 0.6796875000 0.0000000000
0.9179687500 0.6787109375 0.0000000000
0.9423828125 0.6767578125 0.0000000000
0.9658203125 0.6757812500 0.0000000000
0.9873046875 0.6748046875 0.0000000000
0.9990234375 0.6738281250 0.0000000000
0.9990234375 0.6738281250 0.0000000000
0.9990234375 0.6728515625 0.0000000000
0.9990234375 0.6718750000 0.0000000000
0.9990234375 0.6718750000 0.0000000000
0.0000000000 0.7666015625 0.0000000000
0.0000000000 0.7646484375 0.0000000000
0.0000000000 0.7636718750 0.0000000000
0.0000000000 0.7617187500 0.0000000000
0.0332031250 0.7597656250 0.0000000000
0.0732421875 0.7587890625 0.0000000000
0.1142578125 0.7568359375 0.0000000000
0.1562500000 0.7548828125 0.0000000000
0.1992187500 0.7529296875 0.0000000000
0.2441406250 0.7509765625 0.0000000000
0.2919921875 0.7480468750 0.0000000000
0.3437500000 0.7460937500 0.0000000000
0.4033203125 0.7431640625 0.0000000000
0.4638671875 0.7402343750 0.0000000000
0.5234375000 0.7382812500 0.0000000000
0.5820312500 0.7353515625 0.0000000000
0.6386718750 0.7324218750 0.0000000000
0.6865234375 0.7304687500 0.0000000000
0.7285156250 0.7285156250 0.0000000000
0.7666015625 0.7265625000 0.0000000000
