Blackmagic Design/Blackmagic 4K Film to Video v3.cube
# DaVinci Resolve Cube (3D LUT).
#
#Blackmagic 4K Film to Video v3
#Blackmagic 4K Film to Video using v3 Color Science.
#Matchs the 'Video' output from BMD 4K cameras.
LUT_3D_SIZE 33
LUT_3D_INPUT_RANGE 0.0000000000 1.0000000000
0.0000000000 0.0000000000 0.0000000000
0.0020536212 0.0000000000 0.0000000000
0.0500549041 0.0000000000 0.0000000000
0.1010466889 0.0000000000 0.0000000000
0.1458356827 0.0000000000 0.0000000000
0.1860520691 0.0000000000 0.0000000000
0.2238521725 0.0000000000 0.0000000000
0.2603498995 0.0000000000 0.0000000000
0.2962190509 0.0000000000 0.0000000000
0.3319129050 0.0000000000 0.0000000000
0.3677616119 0.0000000000 0.0000000000
0.4040213525 0.0000000000 0.0000000000
0.4409014583 0.0000000000 0.0000000000
0.4785806537 0.0000000000 0.0000000000
0.5172170997 0.0000000000 0.0000000000
0.5569550991 0.0000000000 0.0000000000
0.5979297757 0.0000000000 0.0000000000
0.6402701735 0.0000000000 0.0000000000
0.6841015220 0.0000000000 0.0000000000
0.7295475602 0.0000000000 0.0000000000
0.7767313719 0.0000000000 0.0000000000
0.8257766366 0.0000000000 0.0000000000
0.8743137121 0.0000000000 0.0000000000
0.9128244519 0.0000000000 0.0000000000
0.9444771409 0.0000000000 0.0000000000
0.9717676640 0.0000000000 0.0000000000
0.9960513115 0.0000000000 0.0000000000
1.0000000000 0.0000000000 0.0000000000
1.0000000000 0.0000000000 0.0000000000
1.0000000000 0.0000000000 0.0000000000
1.0000000000 0.0000000000 0.0000000000
1.0000000000 0.0000000000 0.0000000000
1.0000000000 0.0000000000 0.0000000000
0.0000000000 0.0020538494 0.0000000000
0.0000000000 0.0000000000 0.0000000000
0.0463554151 0.0000000000 0.0000000000
0.0977520421 0.0000000000 0.0000000000
0.1432714015 0.0000000000 0.0000000000
0.1839267015 0.0000000000 0.0000000000
0.2220288813 0.0000000000 0.0000000000
0.2587515116 0.0000000000 0.0000000000
0.2947968543 0.0000000000 0.0000000000
0.3306338489 0.0000000000 0.0000000000
0.3666019440 0.0000000000 0.0000000000
0.4029632509 0.0000000000 0.0000000000
0.4399311841 0.0000000000 0.0000000000
0.4776872993 0.0000000000 0.0000000000
0.5163918138 0.0000000000 0.0000000000
0.5561906099 0.0000000000 0.0000000000
0.5972199440 0.0000000000 0.0000000000
0.6396096945 0.0000000000 0.0000000000
0.6834860444 0.0000000000 0.0000000000
0.7289730906 0.0000000000 0.0000000000
0.7761945128 0.0000000000 0.0000000000
0.8252744079 0.0000000000 0.0000000000
0.8739218116 0.0000000000 0.0000000000
0.9125437140 0.0000000000 0.0000000000
0.9442637563 0.0000000000 0.0000000000
0.9715991020 0.0000000000 0.0000000000
0.9959147573 0.0000000000 0.0000000000
1.0000000000 0.0000000000 0.0000000000
1.0000000000 0.0000000000 0.0000000000
1.0000000000 0.0000000000 0.0000000000
1.0000000000 0.0000000000 0.0000000000
1.0000000000 0.0000000000 0.0000000000
1.0000000000 0.0000000000 0.0000000000
0.0000000000 0.0500553586 0.0000000000
0.0000000000 0.0463568307 0.0000000000
0.0426369160 0.0426393002 0.0000000000
0.0943710804 0.0386078618 0.0000000000
0.1406600773 0.0341264084 0.0000000000
0.1817705780 0.0291446950 0.0000000000
0.2201833874 0.0236068796 0.0000000000
0.2571360469 0.0174508896 0.0000000000
0.2933610082 0.0106077166 0.0000000000
0.3293434978 0.0030006517 0.0000000000
0.3654326797 0.0000000000 0.0000000000
0.4018969238 0.0000000000 0.0000000000
0.4389537573 0.0000000000 0.0000000000
0.4767876565 0.0000000000 0.0000000000
0.5155609846 0.0000000000 0.0000000000
0.5554211140 0.0000000000 0.0000000000
0.5965055227 0.0000000000 0.0000000000
0.6389451027 0.0000000000 0.0000000000
0.6828667521 0.0000000000 0.0000000000
0.7283951640 0.0000000000 0.0000000000
0.7756544948 0.0000000000 0.0000000000
0.8247692585 0.0000000000 0.0000000000
0.8735265732 0.0000000000 0.0000000000
0.9122608900 0.0000000000 0.0000000000
0.9440488219 0.0000000000 0.0000000000
0.9714294672 0.0000000000 0.0000000000
0.9957773089 0.0000000000 0.0000000000
1.0000000000 0.0000000000 0.0000000000
1.0000000000 0.0000000000 0.0000000000
1.0000000000 0.0000000000 0.0000000000
1.0000000000 0.0000000000 0.0000000000
1.0000000000 0.0000000000 0.0000000000
1.0000000000 0.0000000000 0.0000000000
0.0000000000 0.1010473073 0.0000000000
0.0000000000 0.0977535397 0.0000000000
0.0386044346 0.0943734944 0.0000000000
0.0906210318 0.0906244963 0.0000000000
0.1377883852 0.0863477290 0.0000000000
0.1794092655 0.0814473704 0.0000000000
0.2181671858 0.0756614730 0.0000000000
0.2553739846 0.0695054829 0.0000000000
0.2917966247 0.0626623109 0.0000000000
0.3279387951 0.0550552458 0.0000000000
0.3641606569 0.0465990156 0.0000000000
0.4007374346 0.0371988267 0.0000000000
0.4378913641 0.0267493185 0.0000000000
0.4758101106 0.0151333446 0.0000000000
0.5146583319 0.0022207017 0.0000000000
0.5545853376 0.0000000000 0.0000000000
0.5957297683 0.0000000000 0.0000000000
0.6382236481 0.0000000000 0.0000000000
0.6821945310 0.0000000000 0.0000000000
0.7277679443 0.0000000000 0.0000000000
0.7750684023 0.0000000000 0.0000000000
0.8242210746 0.0000000000 0.0000000000
0.8730964065 0.0000000000 0.0000000000
0.9119533300 0.0000000000 0.0000000000
0.9438152909 0.0000000000 0.0000000000
0.9712452292 0.0000000000 0.0000000000
0.9956280589 0.0000000000 0.0000000000
1.0000000000 0.0000000000 0.0000000000
1.0000000000 0.0000000000 0.0000000000
1.0000000000 0.0000000000 0.0000000000
1.0000000000 0.0000000000 0.0000000000
1.0000000000 0.0000000000 0.0000000000
1.0000000000 0.0000000000 0.0000000000
0.0000000000 0.1458363533 0.0000000000
0.0000000000 0.1432727575 0.0000000000
0.0341218151 0.1406621337 0.0000000000
0.0863430351 0.1377912164 0.0000000000
0.1345453113 0.1345490515 0.0000000000
0.1767553091 0.1308791637 0.0000000000
0.2159074098 0.1267137080 0.0000000000
0.2534025908 0.1219701394 0.0000000000
0.2900485992 0.1165465713 0.0000000000
0.3263706565 0.1103148386 0.0000000000
0.3627415895 0.1031099856 0.0000000000
0.3994446695 0.0947134197 0.0000000000
0.4367073476 0.0848241895 0.0000000000
0.4747210443 0.0729987100 0.0000000000
0.5136530995 0.0600860678 0.0000000000
0.5536547303 0.0457320064 0.0000000000
0.5948662162 0.0297756251 0.0000000000
0.6374205351 0.0120380577 0.0000000000
0.6814464331 0.0000000000 0.0000000000
0.7270699739 0.0000000000 0.0000000000
0.7744163871 0.0000000000 0.0000000000
0.8236112595 0.0000000000 0.0000000000
0.8726164103 0.0000000000 0.0000000000
0.9116105437 0.0000000000 0.0000000000
0.9435551763 0.0000000000 0.0000000000
0.9710400701 0.0000000000 0.0000000000
0.9954619408 0.0000000000 0.0000000000
1.0000000000 0.0000000000 0.0000000000
1.0000000000 0.0000000000 0.0000000000
1.0000000000 0.0000000000 0.0000000000
1.0000000000 0.0000000000 0.0000000000
1.0000000000 0.0000000000 0.0000000000
1.0000000000 0.0000000000 0.0000000000
0.0000000000 0.1860528141 0.0000000000
0.0000000000 0.1839279979 0.0000000000
0.0291388072 0.1817724407 0.0000000000
0.0814412385 0.1794117689 0.0000000000
0.1308743954 0.1767585427 0.0000000000
0.1737679690 0.1737720370 0.0000000000
0.2133718580 0.1704045385 0.0000000000
0.2511951923 0.1665996760 0.0000000000
0.2880940735 0.1622903794 0.0000000000
0.3246191144 0.1573957354 0.0000000000
0.3611578345 0.1518170834 0.0000000000
0.3980027139 0.1454321295 0.0000000000
0.4353873730 0.1380863041 0.0000000000
0.4735074043 0.1295794845 0.0000000000
0.5125332475 0.1196443588 0.0000000000
0.5526183844 0.1079091281 0.0000000000
0.5939046741 0.0938271806 0.0000000000
0.6365265846 0.0763628334 0.0000000000
0.6806137562 0.0566452593 0.0000000000
0.7262932062 0.0347266421 0.0000000000
0.7736908197 0.0103612887 0.0000000000
0.8229327202 0.0000000000 0.0000000000
0.8720804453 0.0000000000 0.0000000000
0.9112282395 0.0000000000 0.0000000000
0.9432652593 0.0000000000 0.0000000000
0.9708116055 0.0000000000 0.0000000000
0.9952769876 0.0000000000 0.0000000000
1.0000000000 0.0000000000 0.0000000000
1.0000000000 0.0000000000 0.0000000000
1.0000000000 0.0000000000 0.0000000000
1.0000000000 0.0000000000 0.0000000000
1.0000000000 0.0000000000 0.0000000000
1.0000000000 0.0000000000 0.0000000000
0.0000000000 0.2238529623 0.0000000000
0.0000000000 0.2220301628 0.0000000000
0.0235995520 0.2201851606 0.0000000000
0.0756538957 0.2181695104 0.0000000000
0.1267077327 0.2159103304 0.0000000000
0.1703995317 0.2133754790 0.0000000000
0.2105234265 0.2105278373 0.0000000000
0.2487212569 0.2073242366 0.0000000000
0.2859071195 0.2037142962 0.0000000000
0.3226616085 0.1996386200 0.0000000000
0.3593894243 0.1950266659 0.0000000000
0.3963938057 0.1897938699 0.0000000000
0.4339153469 0.1838374734 0.0000000000
0.4721546471 0.1770308912 0.0000000000
0.5112854838 0.1692153513 0.0000000000
0.5514639616 0.1601870805 0.0000000000
0.5928338766 0.1496771723 0.0000000000
0.6355312467 0.1373173445 0.0000000000
0.6796869040 0.1225777939 0.0000000000
0.7254287601 0.1046417430 0.0000000000
0.7728834748 0.0821131542 0.0000000000
0.8221778274 0.0547813103 0.0000000000
0.8714817166 0.0246726219 0.0000000000
0.9108018279 0.0000000000 0.0000000000
0.9429422021 0.0000000000 0.0000000000
0.9705570936 0.0000000000 0.0000000000
0.9950710535 0.0000000000 0.0000000000
1.0000000000 0.0000000000 0.0000000000
1.0000000000 0.0000000000 0.0000000000
1.0000000000 0.0000000000 0.0000000000
1.0000000000 0.0000000000 0.0000000000
1.0000000000 0.0000000000 0.0000000000
1.0000000000 0.0000000000 0.0000000000
0.0000000000 0.2603507638 0.0000000000
0.0000000000 0.2587527931 0.0000000000
0.0174419638 0.2571377456 0.0000000000
0.0694963112 0.2553761601 0.0000000000
0.1219627559 0.2534053028 0.0000000000
0.1665935963 0.2511985004 0.0000000000
0.2073189616 0.2487252206 0.0000000000
0.2459456474 0.2459504008 0.0000000000
0.2834580839 0.2428334355 0.0000000000
0.3204724789 0.2393272668 0.0000000000
0.3574137986 0.2353768349 0.0000000000
0.3945977688 0.2309173644 0.0000000000
0.4322731793 0.2258720249 0.0000000000
0.4706462324 0.2201486528 0.0000000000
0.5098947287 0.2136354446 0.0000000000
0.5501776934 0.2061948478 0.0000000000
0.5916411877 0.1976544857 0.0000000000
0.6344228983 0.1877935678 0.0000000000
0.6786549687 0.1763213873 0.0000000000
0.7244664431 0.1628409624 0.0000000000
0.7719848752 0.1467834860 0.0000000000
0.8213376403 0.1272770613 0.0000000000
0.8708124757 0.1028446630 0.0000000000
0.9103259444 0.0706901774 0.0000000000
0.9425819516 0.0334843248 0.0000000000
0.9702735543 0.0000000000 0.0000000000
0.9948417544 0.0000000000 0.0000000000
1.0000000000 0.0000000000 0.0000000000
1.0000000000 0.0000000000 0.0000000000
1.0000000000 0.0000000000 0.0000000000
1.0000000000 0.0000000000 0.0000000000
1.0000000000 0.0000000000 0.0000000000
1.0000000000 0.0000000000 0.0000000000
0.0000000000 0.2962199748 0.0000000000
0.0000000000 0.2947981656 0.0000000000
0.0105970139 0.2933627069 0.0000000000
0.0626513585 0.2917987406 0.0000000000
0.1165375337 0.2900511622 0.0000000000
0.1622830331 0.2880971730 0.0000000000
0.2037079930 0.2859108150 0.0000000000
0.2428278327 0.2834624350 0.0000000000
0.2807129622 0.2807180882 0.0000000000
0.3180224597 0.2776386440 0.0000000000
0.3552052975 0.2741789520 0.0000000000
0.3925917745 0.2702864408 0.0000000000
0.4304403663 0.2658996880 0.0000000000
0.4689636827 0.2609463632 0.0000000000
0.5083441734 0.2553404570 0.0000000000
0.5487442017 0.2489787638 0.0000000000
0.5903124213 0.2417358011 0.0000000000
0.6331884265 0.2334568799 0.0000000000
0.6775059104 0.2239475995 0.0000000000
0.7233951092 0.2129582465 0.0000000000
0.7709845901 0.2001585662 0.0000000000
0.8204026818 0.1850950867 0.0000000000
0.8700639606 0.1671131700 0.0000000000
0.9097946286 0.1451983899 0.0000000000
0.9421802163 0.1176032200 0.0000000000
0.9699574709 0.0804855376 0.0000000000
0.9945862293 0.0345095918 0.0000000000
1.0000000000 0.0000000000 0.0000000000
1.0000000000 0.0000000000 0.0000000000
1.0000000000 0.0000000000 0.0000000000
1.0000000000 0.0000000000 0.0000000000
1.0000000000 0.0000000000 0.0000000000
1.0000000000 0.0000000000 0.0000000000
0.0000000000 0.3319139183 0.0000000000
0.0000000000 0.3306351900 0.0000000000
0.0029879727 0.3293451667 0.0000000000
0.0550423153 0.3279408514 0.0000000000
0.1103038266 0.3263731301 0.0000000000
0.1573869288 0.3246220350 0.0000000000
0.1996311396 0.3226650655 0.0000000000
0.2393206507 0.3204765320 0.0000000000
0.2776326835 0.3180271685 0.0000000000
0.3152781427 0.3152836263 0.0000000000
0.3527347147 0.3122074902 0.0000000000
0.3903501034 0.3087546229 0.0000000000
0.4283938408 0.3048739135 0.0000000000
0.4670861363 0.3005057871 0.0000000000
0.5066148639 0.2955805063 0.0000000000
0.5471461415 0.2900157571 0.0000000000
0.5888316035 0.2837133110 0.0000000000
0.6318131089 0.2765550613 0.0000000000
0.6762261391 0.2683968246 0.0000000000
0.7222021818 0.2590598464 0.0000000000
0.7698710561 0.2483184487 0.0000000000
0.8193619251 0.2358803004 0.0000000000
0.8692261577 0.2213552743 0.0000000000
0.9092010856 0.2042008489 0.0000000000
0.9417319894 0.1836200953 0.0000000000
0.9696050882 0.1583465338 0.0000000000
0.9943015575 0.1261091530 0.0000000000
1.0000000000 0.0818727314 0.0000000000
1.0000000000 0.0248119868 0.0000000000
1.0000000000 0.0000000000 0.0000000000
1.0000000000 0.0000000000 0.0000000000
1.0000000000 0.0000000000 0.0000000000
1.0000000000 0.0000000000 0.0000000000
0.0000000000 0.3677626848 0.0000000000
0.0000000000 0.3666033149 0.0000000000
0.0000000000 0.3654343784 0.0000000000
0.0465838909 0.3641626835 0.0000000000
0.1030965820 0.3627440035 0.0000000000
0.1518065780 0.3611606658 0.0000000000
0.1950178295 0.3593927324 0.0000000000
0.2353691012 0.3574176133 0.0000000000
0.2741720080 0.3552096784 0.0000000000
0.3122011423 0.3527398109 0.0000000000
0.3499688506 0.3499746919 0.0000000000
0.3878433704 0.3468762636 0.0000000000
0.4261074066 0.3434008360 0.0000000000
0.4649900496 0.3394978046 0.0000000000
0.5046853423 0.3351086974 0.0000000000
0.5453639627 0.3301650584 0.0000000000
0.5871809125 0.3245865703 0.0000000000
0.6302805543 0.3182780743 0.0000000000
0.6748003960 0.3111256957 0.0000000000
0.7208735943 0.3029915988 0.0000000000
0.7686311603 0.2937067151 0.0000000000
0.8182033300 0.2830599248 0.0000000000
0.8682876825 0.2707822025 0.0000000000
0.9085377455 0.2565211356 0.0000000000
0.9412316680 0.2397994250 0.0000000000
0.9692121744 0.2199401855 0.0000000000
0.9939842820 0.1959210485 0.0000000000
1.0000000000 0.1660490632 0.0000000000
1.0000000000 0.1270735413 0.0000000000
1.0000000000 0.0708451569 0.0000000000
1.0000000000 0.0006399902 0.0000000000
1.0000000000 0.0000000000 0.0000000000
1.0000000000 0.0000000000 0.0000000000
0.0000000000 0.4040225148 0.0000000000
0.0000000000 0.4029646516 0.0000000000
0.0000000000 0.4018986225 0.0000000000
0.0371812619 0.4007394612 0.0000000000
0.0946970582 0.3994469941 0.0000000000
0.1454196125 0.3980054557 0.0000000000
0.1897834539 0.3963969648 0.0000000000
0.2309083492 0.3946014047 0.0000000000
0.2702783942 0.3925959766 0.0000000000
0.3087473214 0.3903549016 0.0000000000
0.3468695879 0.3878488541 0.0000000000
0.3850381374 0.3850443959 0.0000000000
0.4235513806 0.3819033802 0.0000000000
0.4626487195 0.3783820868 0.0000000000
0.5025315285 0.3744300604 0.0000000000
0.5433757305 0.3699890077 0.0000000000
0.5853402019 0.3649910986 0.0000000000
0.6285723448 0.3593569100 0.0000000000
0.6732118130 0.3529927731 0.0000000000
0.7193936706 0.3457871377 0.0000000000
0.7672503591 0.3376059234 0.0000000000
0.8169133067 0.3282857835 0.0000000000
0.8672354221 0.3176246881 0.0000000000
0.9077957869 0.3053679168 0.0000000000
0.9406729341 0.2911868989 0.0000000000
0.9687737226 0.2746446133 0.0000000000
0.9936305881 0.2551365495 0.0000000000
1.0000000000 0.2317812741 0.0000000000
1.0000000000 0.2031927556 0.0000000000
1.0000000000 0.1669276506 0.0000000000
1.0000000000 0.1177409813 0.0000000000
1.0000000000 0.0439748988 0.0000000000
1.0000000000 0.0000000000 0.0000000000
0.0000000000 0.4409026802 0.0000000000
0.0000000000 0.4399326742 0.0000000000
0.0000000000 0.4389554858 0.0000000000
0.0267290380 0.4378933609 0.0000000000
0.0848040953 0.4367096722 0.0000000000
0.1380713582 0.4353900254 0.0000000000
0.1838252246 0.4339184165 0.0000000000
0.2258615047 0.4322766960 0.0000000000
0.2658903897 0.4304443598 0.0000000000
0.3048655093 0.4283984005 0.0000000000
0.3433931470 0.4261125624 0.0000000000
0.3818962872 0.4235572219 0.0000000000
0.4206919372 0.4206985831 0.0000000000
0.4600319862 0.4174981415 0.0000000000
0.5001262426 0.4139117301 0.0000000000
0.5411567688 0.4098886549 0.0000000000
0.5832870007 0.4053703547 0.0000000000
0.6266676188 0.4002889097 0.0000000000
0.6714411378 0.3945650160 0.0000000000
0.7177446485 0.3881054521 0.0000000000
0.7657122016 0.3807996511 0.0000000000
0.8154766560 0.3725153506 0.0000000000
0.8660542965 0.3630924225 0.0000000000
0.9069654346 0.3523340523 0.0000000000
0.9400486946 0.3399944901 0.0000000000
0.9682844877 0.3257599771 0.0000000000
0.9932361245 0.3092191517 0.0000000000
1.0000000000 0.2898135185 0.0000000000
1.0000000000 0.2667488754 0.0000000000
1.0000000000 0.2388212681 0.0000000000
1.0000000000 0.2040250301 0.0000000000
1.0000000000 0.1584706157 0.0000000000
1.0000000000 0.0920156464 0.0000000000
0.0000000000 0.4785819650 0.0000000000
0.0000000000 0.4776888192 0.0000000000
0.0000000000 0.4767894149 0.0000000000
0.0151100485 0.4758121371 0.0000000000
0.0729751363 0.4747233391 0.0000000000
0.1295615882 0.4735100567 0.0000000000
0.1770164818 0.4721576273 0.0000000000
0.2201363891 0.4706496000 0.0000000000
0.2609356046 0.4689675272 0.0000000000
0.3004961312 0.4670904875 0.0000000000
0.3394890130 0.4649949372 0.0000000000
0.3783739805 0.4626542926 0.0000000000
0.4174906015 0.4600382447 0.0000000000
0.4571054280 0.4571124911 0.0000000000
0.4974384904 0.4538379312 0.0000000000
0.5386790037 0.4501698017 0.0000000000
0.5809955597 0.4460566938 0.0000000000
0.6245431304 0.4414394796 0.0000000000
0.6694669724 0.4362496138 0.0000000000
0.7159066796 0.4304072559 0.0000000000
0.7639983892 0.4238188565 0.0000000000
0.8138763905 0.4163737893 0.0000000000
0.8647270203 0.4079402983 0.0000000000
0.9060353637 0.3983594477 0.0000000000
0.9393507242 0.3874372244 0.0000000000
0.9677380919 0.3749328256 0.0000000000
0.9927960038 0.3605415523 0.0000000000
1.0000000000 0.3438682556 0.0000000000
1.0000000000 0.3243840039 0.0000000000
1.0000000000 0.3013509214 0.0000000000
1.0000000000 0.2736800313 0.0000000000
1.0000000000 0.2396288067 0.0000000000
1.0000000000 0.1960378438 0.0000000000
0.0000000000 0.5172184706 0.0000000000
0.0000000000 0.5163934231 0.0000000000
0.0000000000 0.5155627728 0.0000000000
0.0021940514 0.5146604180 0.0000000000
0.0600591414 0.5136554241 0.0000000000
0.1196228191 0.5125358701 0.0000000000
0.1691983640 0.5112884045 0.0000000000
0.2136211693 0.5098980665 0.0000000000
0.2553280294 0.5083479285 0.0000000000
0.2955694497 0.5066190362 0.0000000000
0.3350986540 0.5046899915 0.0000000000
0.3744208515 0.5025368333 0.0000000000
0.4139031768 0.5001321435 0.0000000000
0.4538299739 0.4974451363 0.0000000000
0.4944332242 0.4944407344 0.0000000000
0.5359107256 0.4910789430 0.0000000000
0.5784373283 0.4873141944 0.0000000000
0.6221724153 0.4830942452 0.0000000000
0.6672651172 0.4783588648 0.0000000000
0.7138577104 0.4730385840 0.0000000000
0.7620884180 0.4670524895 0.0000000000
0.8120933771 0.4603060484 0.0000000000
0.8632335067 0.4526878297 0.0000000000
0.9049925804 0.4440654218 0.0000000000
0.9385699034 0.4342797697 0.0000000000
0.9671277404 0.4231376052 0.0000000000
0.9923048019 0.4104003012 0.0000000000
1.0000000000 0.3957681060 0.0000000000
1.0000000000 0.3788555562 0.0000000000
1.0000000000 0.3591524363 0.0000000000
1.0000000000 0.3359575570 0.0000000000
1.0000000000 0.3082569838 0.0000000000
1.0000000000 0.2744763196 0.0000000000
0.0000000000 0.5569565892 0.0000000000
0.0000000000 0.5561922789 0.0000000000
0.0000000000 0.5554229617 0.0000000000
0.0000000000 0.5545874238 0.0000000000
0.0457013510 0.5536570549 0.0000000000
0.1078829244 0.5526209474 0.0000000000
0.1601669788 0.5514668226 0.0000000000
0.2061781883 0.5501809120 0.0000000000
0.2489643693 0.5487478375 0.0000000000
0.2900030017 0.5471501350 0.0000000000
0.3301535547 0.5453684926 0.0000000000
0.3699785471 0.5433807969 0.0000000000
0.4098789692 0.5411624312 0.0000000000
0.4501608014 0.5386853218 0.0000000000
0.4910705090 0.5359178185 0.0000000000
0.5328160524 0.5328239799 0.0000000000
0.5755795240 0.5293629169 0.0000000000
0.6195259094 0.5254878998 0.0000000000
0.6648083925 0.5211455822 0.0000000000
0.7115724683 0.5162744522 0.0000000000
0.7599591017 0.5108036995 0.0000000000
0.8101064563 0.5046509504 0.0000000000
0.8615503311 0.4977202117 0.0000000000
0.9038222432 0.4898984134 0.0000000000
0.9376956820 0.4810517430 0.0000000000
0.9664453864 0.4710198939 0.0000000000
0.9917563200 0.4596087039 0.0000000000
1.0000000000 0.4465797246 0.0000000000
1.0000000000 0.4316349328 0.0000000000
1.0000000000 0.4143938422 0.0000000000
1.0000000000 0.3943573534 0.0000000000
1.0000000000 0.3708476424 0.0000000000
1.0000000000 0.3429001570 0.0000000000
0.0000000000 0.5979313254 0.0000000000
0.0000000000 0.5972216725 0.0000000000
0.0000000000 0.5965074301 0.0000000000
0.0000000000 0.5957319140 0.0000000000
0.0297408253 0.5948685408 0.0000000000
0.0937948003 0.5939072371 0.0000000000
0.1496532112 0.5928367376 0.0000000000
0.1976349652 0.5916444063 0.0000000000
0.2417191267 0.5903159380 0.0000000000
0.2836986780 0.5888355374 0.0000000000
0.3245734572 0.5871853232 0.0000000000
0.3649791777 0.5853451490 0.0000000000
0.4053593874 0.5832924247 0.0000000000
0.4460465610 0.5810016394 0.0000000000
0.4873047173 0.5784440637 0.0000000000
0.5293539762 0.5755870342 0.0000000000
0.5723852515 0.5723936558 0.0000000000
0.6165698767 0.5688218474 0.0000000000
0.6620660424 0.5648237467 0.0000000000
0.7090229392 0.5603445172 0.0000000000
0.7575845122 0.5553212166 0.0000000000
0.8078914285 0.5496813059 0.0000000000
0.8596500158 0.5433405638 0.0000000000
0.9025071859 0.5362010598 0.0000000000
0.9367160201 0.5281476974 0.0000000000
0.9656821489 0.5190443397 0.0000000000
0.9911435843 0.5087285042 0.0000000000
1.0000000000 0.4970040023 0.0000000000
1.0000000000 0.4836307466 0.0000000000
1.0000000000 0.4683100581 0.0000000000
1.0000000000 0.4506628215 0.0000000000
1.0000000000 0.4301954210 0.0000000000
1.0000000000 0.4062437117 0.0000000000
0.0000000000 0.6402717829 0.0000000000
0.0000000000 0.6396114826 0.0000000000
0.0000000000 0.6389470696 0.0000000000
0.0000000000 0.6382257938 0.0000000000
0.0119986515 0.6374229193 0.0000000000
0.0763231218 0.6365292072 0.0000000000
0.1372885257 0.6355341673 0.0000000000
0.1877706051 0.6344260573 0.0000000000
0.2334375083 0.6331918836 0.0000000000
0.2765381932 0.6318169832 0.0000000000
0.3182630539 0.6302848458 0.0000000000
0.3593433499 0.6285770535 0.0000000000
0.4002765119 0.6266728640 0.0000000000
0.4414280355 0.6245489120 0.0000000000
0.4830835760 0.6221788526 0.0000000000
0.5254779458 0.6195330620 0.0000000000
0.5688124895 0.6165778637 0.0000000000
0.6132662892 0.6132751703 0.0000000000
0.6590032578 0.6095817089 0.0000000000
0.7061771750 0.6054481268 0.0000000000
0.7549353838 0.6008180380 0.0000000000
0.8054212928 0.5956267715 0.0000000000
0.8575001955 0.5897998214 0.0000000000
0.9010275602 0.5832508206 0.0000000000
0.9356172085 0.5758794546 0.0000000000
0.9648277164 0.5675680041 0.0000000000
0.9904585481 0.5581774712 0.0000000000
1.0000000000 0.5475423932 0.0000000000
1.0000000000 0.5354635119 0.0000000000
1.0000000000 0.5216975808 0.0000000000
1.0000000000 0.5059432983 0.0000000000
1.0000000000 0.4878201783 0.0000000000
1.0000000000 0.4668354690 0.0000000000
0.0000000000 0.6841032505 0.0000000000
0.0000000000 0.6834879518 0.0000000000
0.0000000000 0.6828688383 0.0000000000
0.0000000000 0.6821967363 0.0000000000
0.0000000000 0.6814488173 0.0000000000
0.0566004217 0.6806164384 0.0000000000
0.1225426421 0.6796897650 0.0000000000
0.1762941927 0.6786581278 0.0000000000
0.2239250243 0.6775093675 0.0000000000
0.2683773339 0.6762298942 0.0000000000
0.3111084700 0.6748046279 0.0000000000
0.3529772758 0.6732164025 0.0000000000
0.3945509195 0.6714462042 0.0000000000
0.4362366796 0.6694725752 0.0000000000
0.4783468843 0.6672713161 0.0000000000
