Blackmagic Design/Blackmagic Broadcast Film to Rec2020 PQ v4.cube
# (C) 2018 Blackmagic Design
LUT_3D_SIZE 5
0.0000000000 0.0000000000 0.0000000000
0.1718750000 0.0039062500 0.0000000000
0.3173828125 0.0263671875 0.0000000000
0.4570312500 0.0957031250 0.0000000000
0.5976562500 0.2041015625 0.0000000000
0.0224609375 0.1943359375 0.0000000000
0.1816406250 0.1962890625 0.0000000000
0.3203125000 0.2031250000 0.0000000000
0.4580078125 0.2226562500 0.0000000000
0.5986328125 0.2695312500 0.0000000000
0.1015625000 0.3427734375 0.0000000000
0.2089843750 0.3437500000 0.0000000000
0.3291015625 0.3457031250 0.0000000000
0.4609375000 0.3515625000 0.0000000000
0.5996093750 0.3691406250 0.0000000000
0.2158203125 0.4833984375 0.0000000000
0.2656250000 0.4843750000 0.0000000000
0.3525390625 0.4843750000 0.0000000000
0.4687500000 0.4863281250 0.0000000000
0.6025390625 0.4921875000 0.0000000000
0.3398437500 0.6035156250 0.0000000000
0.3593750000 0.6035156250 0.0000000000
0.4072265625 0.6035156250 0.0000000000
0.4931640625 0.6035156250 0.0000000000
0.6035156250 0.6035156250 0.0000000000
0.0000000000 0.0000000000 0.1894531250
0.1660156250 0.0000000000 0.1865234375
0.3164062500 0.0000000000 0.1787109375
0.4560546875 0.0429687500 0.1474609375
0.5976562500 0.1865234375 0.0000000000
0.0078125000 0.1738281250 0.1796875000
0.1767578125 0.1767578125 0.1767578125
0.3193359375 0.1845703125 0.1679687500
0.4570312500 0.2080078125 0.1328125000
0.5986328125 0.2597656250 0.0000000000
0.0898437500 0.3378906250 0.1396484375
0.2041015625 0.3378906250 0.1347656250
0.3281250000 0.3408203125 0.1210937500
0.4599609375 0.3466796875 0.0615234375
0.5986328125 0.3652343750 0.0000000000
0.2119140625 0.4824218750 0.0000000000
0.2636718750 0.4824218750 0.0000000000
0.3515625000 0.4833984375 0.0000000000
0.4687500000 0.4853515625 0.0000000000
0.6015625000 0.4912109375 0.0000000000
0.3388671875 0.6035156250 0.0000000000
0.3583984375 0.6035156250 0.0000000000
0.4062500000 0.6035156250 0.0000000000
0.4921875000 0.6035156250 0.0000000000
0.6035156250 0.6035156250 0.0000000000
0.0000000000 0.0000000000 0.3378906250
0.1455078125 0.0000000000 0.3369140625
0.3115234375 0.0000000000 0.3349609375
0.4550781250 0.0000000000 0.3281250000
0.5976562500 0.0917968750 0.3017578125
0.0000000000 0.0605468750 0.3349609375
0.1582031250 0.0673828125 0.3339843750
0.3144531250 0.0878906250 0.3320312500
0.4560546875 0.1376953125 0.3251953125
0.5976562500 0.2216796875 0.2978515625
0.0458984375 0.3203125000 0.3261718750
0.1904296875 0.3203125000 0.3251953125
0.3232421875 0.3232421875 0.3232421875
0.4589843750 0.3300781250 0.3154296875
0.5986328125 0.3505859375 0.2861328125
0.1992187500 0.4775390625 0.2929687500
0.2548828125 0.4775390625 0.2919921875
0.3476562500 0.4775390625 0.2880859375
0.4667968750 0.4804687500 0.2773437500
0.6015625000 0.4863281250 0.2353515625
0.3349609375 0.6035156250 0.0000000000
0.3554687500 0.6035156250 0.0000000000
0.4033203125 0.6035156250 0.0000000000
0.4912109375 0.6035156250 0.0000000000
0.6035156250 0.6035156250 0.0000000000
0.0000000000 0.0000000000 0.4785156250
0.0283203125 0.0000000000 0.4775390625
0.2929687500 0.0000000000 0.4775390625
0.4501953125 0.0000000000 0.4755859375
0.5957031250 0.0000000000 0.4677734375
0.0000000000 0.0000000000 0.4775390625
0.0546875000 0.0000000000 0.4775390625
0.2968750000 0.0000000000 0.4765625000
0.4501953125 0.0000000000 0.4746093750
0.5957031250 0.0000000000 0.4667968750
0.0000000000 0.2324218750 0.4746093750
0.1240234375 0.2343750000 0.4746093750
0.3066406250 0.2392578125 0.4736328125
0.4531250000 0.2539062500 0.4716796875
0.5966796875 0.2910156250 0.4648437500
0.1396484375 0.4589843750 0.4658203125
0.2236328125 0.4589843750 0.4658203125
0.3349609375 0.4599609375 0.4648437500
0.4628906250 0.4628906250 0.4628906250
0.5996093750 0.4697265625 0.4550781250
0.3203125000 0.6035156250 0.4326171875
0.3427734375 0.6035156250 0.4316406250
0.3955078125 0.6035156250 0.4316406250
0.4873046875 0.6035156250 0.4277343750
0.6035156250 0.6035156250 0.4179687500
0.0000000000 0.0000000000 0.6035156250
0.0000000000 0.0000000000 0.6035156250
0.2011718750 0.0000000000 0.6035156250
0.4316406250 0.0000000000 0.6035156250
0.5908203125 0.0000000000 0.6035156250
0.0000000000 0.0000000000 0.6035156250
0.0000000000 0.0000000000 0.6035156250
0.2089843750 0.0000000000 0.6035156250
0.4326171875 0.0000000000 0.6035156250
0.5908203125 0.0000000000 0.6035156250
0.0000000000 0.0000000000 0.6035156250
0.0000000000 0.0000000000 0.6035156250
0.2304687500 0.0000000000 0.6035156250
0.4355468750 0.0000000000 0.6035156250
0.5917968750 0.0000000000 0.6035156250
0.0000000000 0.3730468750 0.6035156250
0.0000000000 0.3740234375 0.6035156250
0.2792968750 0.3750000000 0.6035156250
0.4462890625 0.3798828125 0.6035156250
0.5947265625 0.3935546875 0.6035156250
0.2548828125 0.6005859375 0.6035156250
0.2919921875 0.6005859375 0.6035156250
0.3662109375 0.6005859375 0.6035156250
0.4746093750 0.6015625000 0.6035156250
0.6035156250 0.6035156250 0.6035156250
