Blackmagic Design/Blackmagic Pocket 4K Film to Video v4.cube
# (C) 2018 Blackmagic Design
LUT_3D_SIZE 5
0.0000000000 0.0000000000 0.0000000000
0.2480468750 0.0000000000 0.0000000000
0.6914062500 0.0000000000 0.0000000000
0.9990234375 0.0000000000 0.0000000000
0.9990234375 0.0000000000 0.0000000000
0.0000000000 0.2480468750 0.0000000000
0.2333984375 0.2333984375 0.0000000000
0.6767578125 0.2138671875 0.0000000000
0.9990234375 0.1914062500 0.0000000000
0.9990234375 0.1904296875 0.0000000000
0.0000000000 0.6914062500 0.0000000000
0.2138671875 0.6767578125 0.0000000000
0.6562500000 0.6562500000 0.0000000000
0.9990234375 0.6347656250 0.0000000000
0.9990234375 0.6337890625 0.0000000000
0.0000000000 0.9990234375 0.0000000000
0.1914062500 0.9990234375 0.0000000000
0.6347656250 0.9990234375 0.0000000000
0.9990234375 0.9990234375 0.0000000000
0.9990234375 0.9990234375 0.0000000000
0.0000000000 0.9990234375 0.0000000000
0.1904296875 0.9990234375 0.0000000000
0.6337890625 0.9990234375 0.0000000000
0.9990234375 0.9990234375 0.0000000000
0.9990234375 0.9990234375 0.0000000000
0.0000000000 0.0000000000 0.2480468750
0.2333984375 0.0000000000 0.2333984375
0.6767578125 0.0000000000 0.2138671875
0.9990234375 0.0000000000 0.1914062500
0.9990234375 0.0000000000 0.1904296875
0.0000000000 0.2333984375 0.2333984375
0.2197265625 0.2197265625 0.2197265625
0.6621093750 0.1992187500 0.1992187500
0.9990234375 0.1767578125 0.1767578125
0.9990234375 0.1757812500 0.1757812500
0.0000000000 0.6767578125 0.2138671875
0.1992187500 0.6621093750 0.1992187500
0.6425781250 0.6425781250 0.1787109375
0.9990234375 0.6201171875 0.1572265625
0.9990234375 0.6191406250 0.1562500000
0.0000000000 0.9990234375 0.1914062500
0.1767578125 0.9990234375 0.1767578125
0.6201171875 0.9990234375 0.1572265625
0.9990234375 0.9990234375 0.1347656250
0.9990234375 0.9990234375 0.1337890625
0.0000000000 0.9990234375 0.1904296875
0.1757812500 0.9990234375 0.1757812500
0.6191406250 0.9990234375 0.1562500000
0.9990234375 0.9990234375 0.1337890625
0.9990234375 0.9990234375 0.1328125000
0.0000000000 0.0000000000 0.6914062500
0.2138671875 0.0000000000 0.6767578125
0.6562500000 0.0000000000 0.6562500000
0.9990234375 0.0000000000 0.6347656250
0.9990234375 0.0000000000 0.6337890625
0.0000000000 0.2138671875 0.6767578125
0.1992187500 0.1992187500 0.6621093750
0.6425781250 0.1787109375 0.6425781250
0.9990234375 0.1572265625 0.6201171875
0.9990234375 0.1562500000 0.6191406250
0.0000000000 0.6562500000 0.6562500000
0.1787109375 0.6425781250 0.6425781250
0.6220703125 0.6220703125 0.6220703125
0.9990234375 0.5996093750 0.5996093750
0.9990234375 0.5986328125 0.5986328125
0.0000000000 0.9990234375 0.6347656250
0.1572265625 0.9990234375 0.6201171875
0.5996093750 0.9990234375 0.5996093750
0.9990234375 0.9990234375 0.5771484375
0.9990234375 0.9990234375 0.5761718750
0.0000000000 0.9990234375 0.6337890625
0.1562500000 0.9990234375 0.6191406250
0.5986328125 0.9990234375 0.5986328125
0.9990234375 0.9990234375 0.5761718750
0.9990234375 0.9990234375 0.5751953125
0.0000000000 0.0000000000 0.9990234375
0.1914062500 0.0000000000 0.9990234375
0.6347656250 0.0000000000 0.9990234375
0.9990234375 0.0000000000 0.9990234375
0.9990234375 0.0000000000 0.9990234375
0.0000000000 0.1914062500 0.9990234375
0.1767578125 0.1767578125 0.9990234375
0.6201171875 0.1572265625 0.9990234375
0.9990234375 0.1347656250 0.9990234375
0.9990234375 0.1337890625 0.9990234375
0.0000000000 0.6347656250 0.9990234375
0.1572265625 0.6201171875 0.9990234375
0.5996093750 0.5996093750 0.9990234375
0.9990234375 0.5771484375 0.9990234375
0.9990234375 0.5761718750 0.9990234375
0.0000000000 0.9990234375 0.9990234375
0.1347656250 0.9990234375 0.9990234375
0.5771484375 0.9990234375 0.9990234375
0.9990234375 0.9990234375 0.9990234375
0.9990234375 0.9990234375 0.9990234375
0.0000000000 0.9990234375 0.9990234375
0.1337890625 0.9990234375 0.9990234375
0.5761718750 0.9990234375 0.9990234375
0.9990234375 0.9990234375 0.9990234375
0.9990234375 0.9990234375 0.9990234375
0.0000000000 0.0000000000 0.9990234375
0.1904296875 0.0000000000 0.9990234375
0.6337890625 0.0000000000 0.9990234375
0.9990234375 0.0000000000 0.9990234375
0.9990234375 0.0000000000 0.9990234375
0.0000000000 0.1904296875 0.9990234375
0.1757812500 0.1757812500 0.9990234375
0.6191406250 0.1562500000 0.9990234375
0.9990234375 0.1337890625 0.9990234375
0.9990234375 0.1328125000 0.9990234375
0.0000000000 0.6337890625 0.9990234375
0.1562500000 0.6191406250 0.9990234375
0.5986328125 0.5986328125 0.9990234375
0.9990234375 0.5761718750 0.9990234375
0.9990234375 0.5751953125 0.9990234375
0.0000000000 0.9990234375 0.9990234375
0.1337890625 0.9990234375 0.9990234375
0.5761718750 0.9990234375 0.9990234375
0.9990234375 0.9990234375 0.9990234375
0.9990234375 0.9990234375 0.9990234375
0.0000000000 0.9990234375 0.9990234375
0.1328125000 0.9990234375 0.9990234375
0.5751953125 0.9990234375 0.9990234375
0.9990234375 0.9990234375 0.9990234375
0.9990234375 0.9990234375 0.9990234375
