Blackmagic Design/Blackmagic Pocket 4K Film to Extended Video v4.cube
# (C) 2018 Blackmagic Design
LUT_3D_SIZE 5
0.0000000000 0.0000000000 0.0000000000
0.2373046875 0.0000000000 0.0000000000
0.6767578125 0.0000000000 0.0000000000
0.9541015625 0.0000000000 0.0000000000
0.9990234375 0.0000000000 0.0000000000
0.0000000000 0.2373046875 0.0000000000
0.2236328125 0.2236328125 0.0000000000
0.6630859375 0.2031250000 0.0000000000
0.9404296875 0.1904296875 0.0000000000
0.9990234375 0.1835937500 0.0000000000
0.0000000000 0.6767578125 0.0000000000
0.2031250000 0.6630859375 0.0000000000
0.6425781250 0.6425781250 0.0000000000
0.9208984375 0.6298828125 0.0000000000
0.9990234375 0.6230468750 0.0000000000
0.0000000000 0.9541015625 0.0000000000
0.1904296875 0.9404296875 0.0000000000
0.6298828125 0.9208984375 0.0000000000
0.9082031250 0.9082031250 0.0000000000
0.9990234375 0.9013671875 0.0000000000
0.0000000000 0.9990234375 0.0000000000
0.1835937500 0.9990234375 0.0000000000
0.6230468750 0.9990234375 0.0000000000
0.9013671875 0.9990234375 0.0000000000
0.9990234375 0.9990234375 0.0000000000
0.0000000000 0.0000000000 0.2373046875
0.2236328125 0.0000000000 0.2236328125
0.6630859375 0.0000000000 0.2031250000
0.9404296875 0.0000000000 0.1904296875
0.9990234375 0.0000000000 0.1835937500
0.0000000000 0.2236328125 0.2236328125
0.2089843750 0.2089843750 0.2089843750
0.6484375000 0.1894531250 0.1894531250
0.9267578125 0.1767578125 0.1767578125
0.9990234375 0.1699218750 0.1699218750
0.0000000000 0.6630859375 0.2031250000
0.1894531250 0.6484375000 0.1894531250
0.6289062500 0.6289062500 0.1689453125
0.9062500000 0.6162109375 0.1562500000
0.9990234375 0.6093750000 0.1494140625
0.0000000000 0.9404296875 0.1904296875
0.1767578125 0.9267578125 0.1767578125
0.6162109375 0.9062500000 0.1562500000
0.8935546875 0.8935546875 0.1435546875
0.9990234375 0.8867187500 0.1367187500
0.0000000000 0.9990234375 0.1835937500
0.1699218750 0.9990234375 0.1699218750
0.6093750000 0.9990234375 0.1494140625
0.8867187500 0.9990234375 0.1367187500
0.9990234375 0.9990234375 0.1308593750
0.0000000000 0.0000000000 0.6767578125
0.2031250000 0.0000000000 0.6630859375
0.6425781250 0.0000000000 0.6425781250
0.9208984375 0.0000000000 0.6298828125
0.9990234375 0.0000000000 0.6230468750
0.0000000000 0.2031250000 0.6630859375
0.1894531250 0.1894531250 0.6484375000
0.6289062500 0.1689453125 0.6289062500
0.9062500000 0.1562500000 0.6162109375
0.9990234375 0.1494140625 0.6093750000
0.0000000000 0.6425781250 0.6425781250
0.1689453125 0.6289062500 0.6289062500
0.6083984375 0.6083984375 0.6083984375
0.8867187500 0.5966796875 0.5966796875
0.9990234375 0.5898437500 0.5898437500
0.0000000000 0.9208984375 0.6298828125
0.1562500000 0.9062500000 0.6162109375
0.5966796875 0.8867187500 0.5966796875
0.8740234375 0.8740234375 0.5839843750
0.9990234375 0.8671875000 0.5771484375
0.0000000000 0.9990234375 0.6230468750
0.1494140625 0.9990234375 0.6093750000
0.5898437500 0.9990234375 0.5898437500
0.8671875000 0.9990234375 0.5771484375
0.9990234375 0.9990234375 0.5703125000
0.0000000000 0.0000000000 0.9541015625
0.1904296875 0.0000000000 0.9404296875
0.6298828125 0.0000000000 0.9208984375
0.9082031250 0.0000000000 0.9082031250
0.9990234375 0.0000000000 0.9013671875
0.0000000000 0.1904296875 0.9404296875
0.1767578125 0.1767578125 0.9267578125
0.6162109375 0.1562500000 0.9062500000
0.8935546875 0.1435546875 0.8935546875
0.9990234375 0.1367187500 0.8867187500
0.0000000000 0.6298828125 0.9208984375
0.1562500000 0.6162109375 0.9062500000
0.5966796875 0.5966796875 0.8867187500
0.8740234375 0.5839843750 0.8740234375
0.9990234375 0.5771484375 0.8671875000
0.0000000000 0.9082031250 0.9082031250
0.1435546875 0.8935546875 0.8935546875
0.5839843750 0.8740234375 0.8740234375
0.8613281250 0.8613281250 0.8613281250
0.9990234375 0.8544921875 0.8544921875
0.0000000000 0.9990234375 0.9013671875
0.1367187500 0.9990234375 0.8867187500
0.5771484375 0.9990234375 0.8671875000
0.8544921875 0.9990234375 0.8544921875
0.9990234375 0.9990234375 0.8476562500
0.0000000000 0.0000000000 0.9990234375
0.1835937500 0.0000000000 0.9990234375
0.6230468750 0.0000000000 0.9990234375
0.9013671875 0.0000000000 0.9990234375
0.9990234375 0.0000000000 0.9990234375
0.0000000000 0.1835937500 0.9990234375
0.1699218750 0.1699218750 0.9990234375
0.6093750000 0.1494140625 0.9990234375
0.8867187500 0.1367187500 0.9990234375
0.9990234375 0.1308593750 0.9990234375
0.0000000000 0.6230468750 0.9990234375
0.1494140625 0.6093750000 0.9990234375
0.5898437500 0.5898437500 0.9990234375
0.8671875000 0.5771484375 0.9990234375
0.9990234375 0.5703125000 0.9990234375
0.0000000000 0.9013671875 0.9990234375
0.1367187500 0.8867187500 0.9990234375
0.5771484375 0.8671875000 0.9990234375
0.8544921875 0.8544921875 0.9990234375
0.9990234375 0.8476562500 0.9990234375
0.0000000000 0.9990234375 0.9990234375
0.1308593750 0.9990234375 0.9990234375
0.5703125000 0.9990234375 0.9990234375
0.8476562500 0.9990234375 0.9990234375
0.9970703125 0.9970703125 0.9970703125
