Blackmagic Design/Blackmagic 4.6K Film to Video.cube
# DaVinci Resolve Cube (3D LUT).
#
#Blackmagic Design 4.6K Film to Video
LUT_3D_SIZE 5
LUT_3D_INPUT_RANGE 0.0000000000 1.0000000000
0.0000000000 0.0000000000 0.0000000000
0.3745191991 0.0000000000 0.0000000000
0.8197305799 0.0000000000 0.0000000000
1.0000000000 0.0000000000 0.0000000000
1.0000000000 0.0000000000 0.0000000000
0.0000000000 0.2639020383 0.0000000000
0.2251164317 0.2251163274 0.0000000000
0.6893713474 0.1893708706 0.0000000000
1.0000000000 0.1599907577 0.0000000000
1.0000000000 0.1395170391 0.0000000000
0.0000000000 0.6513808966 0.0000000000
0.1347398907 0.6347400546 0.0000000000
0.6302692890 0.6302690506 0.0000000000
1.0000000000 0.6405118704 0.0000000000
1.0000000000 0.6682818532 0.0000000000
0.0000000000 1.0000000000 0.0000000000
0.1827280521 1.0000000000 0.0000000000
0.6785985827 1.0000000000 0.0000000000
1.0000000000 1.0000000000 0.0000000000
1.0000000000 1.0000000000 0.0000000000
0.0000000000 1.0000000000 0.0000000000
0.0721398965 1.0000000000 0.0000000000
0.5143654346 1.0000000000 0.0000000000
0.9534154534 1.0000000000 0.0000000000
1.0000000000 1.0000000000 0.0000000000
0.0000000000 0.0000000000 0.4109022319
0.3558088243 0.0000000000 0.3558080196
0.8032488823 0.0000000000 0.3032476902
1.0000000000 0.0000000000 0.2648466229
1.0000000000 0.0000000000 0.2260445207
0.0000000000 0.2506709695 0.2506699562
0.2124411166 0.2124412060 0.2124402076
0.6785451174 0.1785447896 0.1785438061
1.0000000000 0.1519197226 0.1519187540
1.0000000000 0.1350115687 0.1350106150
0.0000000000 0.6445150375 0.1445136666
0.1317337602 0.6317341328 0.1317327619
0.6319634318 0.6319634318 0.1319620609
1.0000000000 0.6478265524 0.1478252262
1.0000000000 0.6819163561 0.1819150150
0.0000000000 1.0000000000 0.1580436975
0.1879444569 1.0000000000 0.1879433542
0.6681807637 1.0000000000 0.1681792736
1.0000000000 1.0000000000 0.1258069724
1.0000000000 1.0000000000 0.0734971836
0.0000000000 1.0000000000 0.1075911969
0.0529777966 1.0000000000 0.0529766120
0.4939512312 1.0000000000 0.0000000000
0.9322153330 1.0000000000 0.0000000000
1.0000000000 1.0000000000 0.0000000000
0.0000000000 0.0000000000 0.8921914101
0.3370984793 0.0000000000 0.8370972276
0.7891488075 0.0000000000 0.7891471386
1.0000000000 0.0000000000 0.7516256571
1.0000000000 0.0000000000 0.7133370638
0.0000000000 0.2374325246 0.7374308705
0.2002782077 0.2002784908 0.7002768517
0.6685609221 0.1685608327 0.6685591936
1.0000000000 0.1449696571 0.6449680328
1.0000000000 0.1319015026 0.6318998933
0.0000000000 0.6388691664 0.6388671398
0.1302264631 0.6302270293 0.6302250028
0.6354580522 0.6354582310 0.6354562640
1.0000000000 0.6572787166 0.6572767496
1.0000000000 0.6878771186 0.6878751516
0.0000000000 1.0000000000 0.6699245572
0.1854187101 1.0000000000 0.6854171753
0.6553902030 1.0000000000 0.6553882957
1.0000000000 1.0000000000 0.6088482141
1.0000000000 1.0000000000 0.5543738008
0.0000000000 1.0000000000 0.5896953940
0.0333194509 1.0000000000 0.5333178043
0.4732303023 1.0000000000 0.4732283056
0.9108165503 1.0000000000 0.4108141661
1.0000000000 1.0000000000 0.3468806744
0.0000000000 0.0000000000 1.0000000000
0.3187589645 0.0000000000 1.0000000000
0.7770405412 0.0000000000 1.0000000000
1.0000000000 0.0000000000 1.0000000000
1.0000000000 0.0000000000 1.0000000000
0.0000000000 0.2244032770 1.0000000000
0.1887505502 0.1887510270 1.0000000000
0.6595160365 0.1595160961 1.0000000000
1.0000000000 0.1392327845 1.0000000000
1.0000000000 0.1302831024 1.0000000000
0.0000000000 0.6345362067 1.0000000000
0.1303171068 0.6303178668 1.0000000000
0.6408631206 0.6408635378 1.0000000000
1.0000000000 0.6689924002 1.0000000000
1.0000000000 0.6857858896 1.0000000000
0.0000000000 1.0000000000 1.0000000000
0.1780966520 1.0000000000 1.0000000000
0.6408264041 1.0000000000 1.0000000000
1.0000000000 1.0000000000 1.0000000000
1.0000000000 1.0000000000 1.0000000000
0.0000000000 1.0000000000 1.0000000000
0.0132426163 1.0000000000 1.0000000000
0.4522459209 1.0000000000 0.9522435069
0.8892449737 1.0000000000 0.8892421722
1.0000000000 1.0000000000 0.8249167800
0.0000000000 0.0000000000 1.0000000000
0.3024021983 0.0000000000 1.0000000000
0.7641203403 0.0000000000 1.0000000000
1.0000000000 0.0000000000 1.0000000000
1.0000000000 0.0000000000 1.0000000000
0.0000000000 0.2117530107 1.0000000000
0.1779683083 0.1779689789 1.0000000000
0.6515045166 0.1515047997 1.0000000000
1.0000000000 0.1348021775 1.0000000000
1.0000000000 0.1302555352 1.0000000000
0.0000000000 0.6316108108 1.0000000000
0.1321082264 0.6321091652 1.0000000000
0.6482928991 0.6482934356 1.0000000000
1.0000000000 0.6825476289 1.0000000000
1.0000000000 0.6787471175 1.0000000000
0.0000000000 1.0000000000 1.0000000000
0.1675269008 1.0000000000 1.0000000000
0.6248949766 1.0000000000 1.0000000000
1.0000000000 1.0000000000 1.0000000000
1.0000000000 1.0000000000 1.0000000000
0.0000000000 1.0000000000 1.0000000000
0.0000000000 1.0000000000 1.0000000000
0.4310340881 1.0000000000 1.0000000000
0.8675227761 1.0000000000 1.0000000000
1.0000000000 1.0000000000 1.0000000000
