Blackmagic Design/Blackmagic Broadcast Film to Extended Video v4.cube
# (C) 2018 Blackmagic Design
LUT_3D_SIZE 5
0.0000000000 0.0000000000 0.0000000000
0.2558593750 0.0000000000 0.0000000000
0.6142578125 0.0000000000 0.0000000000
0.8867187500 0.0000000000 0.0000000000
0.9990234375 0.0000000000 0.0000000000
0.0000000000 0.2558593750 0.0000000000
0.2480468750 0.2480468750 0.0000000000
0.6064453125 0.2363281250 0.0000000000
0.8789062500 0.2285156250 0.0000000000
0.9990234375 0.2226562500 0.0000000000
0.0000000000 0.6142578125 0.0000000000
0.2363281250 0.6064453125 0.0000000000
0.5947265625 0.5947265625 0.0000000000
0.8671875000 0.5869140625 0.0000000000
0.9990234375 0.5810546875 0.0000000000
0.0000000000 0.8867187500 0.0000000000
0.2285156250 0.8789062500 0.0000000000
0.5869140625 0.8671875000 0.0000000000
0.8583984375 0.8583984375 0.0000000000
0.9990234375 0.8535156250 0.0000000000
0.0000000000 0.9990234375 0.0000000000
0.2226562500 0.9990234375 0.0000000000
0.5810546875 0.9990234375 0.0000000000
0.8535156250 0.9990234375 0.0000000000
0.9990234375 0.9990234375 0.0000000000
0.0000000000 0.0000000000 0.2558593750
0.2480468750 0.0000000000 0.2480468750
0.6064453125 0.0000000000 0.2363281250
0.8789062500 0.0000000000 0.2285156250
0.9990234375 0.0000000000 0.2226562500
0.0000000000 0.2480468750 0.2480468750
0.2402343750 0.2402343750 0.2402343750
0.5986328125 0.2285156250 0.2285156250
0.8701171875 0.2197265625 0.2197265625
0.9990234375 0.2148437500 0.2148437500
0.0000000000 0.6064453125 0.2363281250
0.2285156250 0.5986328125 0.2285156250
0.5869140625 0.5869140625 0.2177734375
0.8593750000 0.5781250000 0.2089843750
0.9990234375 0.5732421875 0.2031250000
0.0000000000 0.8789062500 0.2285156250
0.2197265625 0.8701171875 0.2197265625
0.5781250000 0.8593750000 0.2089843750
0.8505859375 0.8505859375 0.2001953125
0.9990234375 0.8447265625 0.1953125000
0.0000000000 0.9990234375 0.2226562500
0.2148437500 0.9990234375 0.2148437500
0.5732421875 0.9990234375 0.2031250000
0.8447265625 0.9990234375 0.1953125000
0.9990234375 0.9990234375 0.1894531250
0.0000000000 0.0000000000 0.6142578125
0.2363281250 0.0000000000 0.6064453125
0.5947265625 0.0000000000 0.5947265625
0.8671875000 0.0000000000 0.5869140625
0.9990234375 0.0000000000 0.5810546875
0.0000000000 0.2363281250 0.6064453125
0.2285156250 0.2285156250 0.5986328125
0.5869140625 0.2177734375 0.5869140625
0.8593750000 0.2089843750 0.5781250000
0.9990234375 0.2031250000 0.5732421875
0.0000000000 0.5947265625 0.5947265625
0.2177734375 0.5869140625 0.5869140625
0.5761718750 0.5761718750 0.5761718750
0.8476562500 0.5673828125 0.5673828125
0.9990234375 0.5615234375 0.5615234375
0.0000000000 0.8671875000 0.5869140625
0.2089843750 0.8593750000 0.5781250000
0.5673828125 0.8476562500 0.5673828125
0.8398437500 0.8398437500 0.5585937500
0.9990234375 0.8339843750 0.5537109375
0.0000000000 0.9990234375 0.5810546875
0.2031250000 0.9990234375 0.5732421875
0.5615234375 0.9990234375 0.5615234375
0.8339843750 0.9990234375 0.5537109375
0.9990234375 0.9990234375 0.5478515625
0.0000000000 0.0000000000 0.8867187500
0.2285156250 0.0000000000 0.8789062500
0.5869140625 0.0000000000 0.8671875000
0.8583984375 0.0000000000 0.8583984375
0.9990234375 0.0000000000 0.8535156250
0.0000000000 0.2285156250 0.8789062500
0.2197265625 0.2197265625 0.8701171875
0.5781250000 0.2089843750 0.8593750000
0.8505859375 0.2001953125 0.8505859375
0.9990234375 0.1953125000 0.8447265625
0.0000000000 0.5869140625 0.8671875000
0.2089843750 0.5781250000 0.8593750000
0.5673828125 0.5673828125 0.8476562500
0.8398437500 0.5585937500 0.8398437500
0.9990234375 0.5537109375 0.8339843750
0.0000000000 0.8583984375 0.8583984375
0.2001953125 0.8505859375 0.8505859375
0.5585937500 0.8398437500 0.8398437500
0.8310546875 0.8310546875 0.8310546875
0.9990234375 0.8251953125 0.8251953125
0.0000000000 0.9990234375 0.8535156250
0.1953125000 0.9990234375 0.8447265625
0.5537109375 0.9990234375 0.8339843750
0.8251953125 0.9990234375 0.8251953125
0.9990234375 0.9990234375 0.8203125000
0.0000000000 0.0000000000 0.9990234375
0.2226562500 0.0000000000 0.9990234375
0.5810546875 0.0000000000 0.9990234375
0.8535156250 0.0000000000 0.9990234375
0.9990234375 0.0000000000 0.9990234375
0.0000000000 0.2226562500 0.9990234375
0.2148437500 0.2148437500 0.9990234375
0.5732421875 0.2031250000 0.9990234375
0.8447265625 0.1953125000 0.9990234375
0.9990234375 0.1894531250 0.9990234375
0.0000000000 0.5810546875 0.9990234375
0.2031250000 0.5732421875 0.9990234375
0.5615234375 0.5615234375 0.9990234375
0.8339843750 0.5537109375 0.9990234375
0.9990234375 0.5478515625 0.9990234375
0.0000000000 0.8535156250 0.9990234375
0.1953125000 0.8447265625 0.9990234375
0.5537109375 0.8339843750 0.9990234375
0.8251953125 0.8251953125 0.9990234375
0.9990234375 0.8203125000 0.9990234375
0.0000000000 0.9990234375 0.9990234375
0.1894531250 0.9990234375 0.9990234375
0.5478515625 0.9990234375 0.9990234375
0.8203125000 0.9990234375 0.9990234375
0.9980468750 0.9980468750 0.9980468750
