Blackmagic Design/Blackmagic 4.6K Film to Rec709.cube
# DaVinci Resolve Cube (3D LUT).
#
#Blackmagic Design 4.6K Film to Rec709
LUT_3D_SIZE 33
LUT_3D_INPUT_RANGE 0.0000000000 1.0000000000
0.0000000000 0.0000000000 0.0000000000
0.0111890212 0.0000000000 0.0000000000
0.1058127210 0.0000000000 0.0000000000
0.1905705780 0.0000000000 0.0000000000
0.2765590549 0.0000000000 0.0000000000
0.3692906499 0.0000000000 0.0000000000
0.4725519717 0.0000000000 0.0000000000
0.5901295543 0.0000000000 0.0000000000
0.7265177965 0.0000000000 0.0000000000
0.8780021667 0.0000000000 0.0000000000
0.9793406129 0.0000000000 0.0000000000
1.0000000000 0.0000000000 0.0000000000
1.0000000000 0.0000000000 0.0000000000
1.0000000000 0.0000000000 0.0000000000
1.0000000000 0.0000000000 0.0000000000
1.0000000000 0.0000000000 0.0000000000
1.0000000000 0.0000000000 0.0000000000
1.0000000000 0.0000000000 0.0000000000
1.0000000000 0.0000000000 0.0000000000
1.0000000000 0.0000000000 0.0000000000
1.0000000000 0.0000000000 0.0000000000
1.0000000000 0.0000000000 0.0000000000
1.0000000000 0.0000000000 0.0000000000
1.0000000000 0.0000000000 0.0000000000
1.0000000000 0.0000000000 0.0000000000
1.0000000000 0.0000000000 0.0000000000
1.0000000000 0.0000000000 0.0000000000
1.0000000000 0.0000000000 0.0000000000
1.0000000000 0.0000000000 0.0000000000
1.0000000000 0.0000000000 0.0000000000
1.0000000000 0.0000000000 0.0000000000
1.0000000000 0.0000000000 0.0000000000
1.0000000000 0.0000000000 0.0000000000
0.0000000000 0.0000000000 0.0000000000
0.0000000000 0.0000000000 0.0000000000
0.0635994673 0.0000000000 0.0000000000
0.1569516212 0.0000000000 0.0000000000
0.2435410023 0.0000000000 0.0000000000
0.3337251246 0.0000000000 0.0000000000
0.4326595962 0.0000000000 0.0000000000
0.5444328189 0.0000000000 0.0000000000
0.6732293963 0.0000000000 0.0000000000
0.8242423534 0.0000000000 0.0000000000
0.9453341961 0.0000000000 0.0000000000
1.0000000000 0.0000000000 0.0000000000
1.0000000000 0.0000000000 0.0000000000
1.0000000000 0.0000000000 0.0000000000
1.0000000000 0.0000000000 0.0000000000
1.0000000000 0.0000000000 0.0000000000
1.0000000000 0.0000000000 0.0000000000
1.0000000000 0.0000000000 0.0000000000
1.0000000000 0.0000000000 0.0000000000
1.0000000000 0.0000000000 0.0000000000
1.0000000000 0.0000000000 0.0000000000
1.0000000000 0.0000000000 0.0000000000
1.0000000000 0.0000000000 0.0000000000
1.0000000000 0.0000000000 0.0000000000
1.0000000000 0.0000000000 0.0000000000
1.0000000000 0.0000000000 0.0000000000
1.0000000000 0.0000000000 0.0000000000
1.0000000000 0.0000000000 0.0000000000
1.0000000000 0.0000000000 0.0000000000
1.0000000000 0.0000000000 0.0000000000
1.0000000000 0.0000000000 0.0000000000
1.0000000000 0.0000000000 0.0000000000
1.0000000000 0.0000000000 0.0000000000
0.0000000000 0.0485920087 0.0000000000
0.0000000000 0.0327763297 0.0000000000
0.0208832081 0.0145980548 0.0000000000
0.1238251776 0.0000000000 0.0000000000
0.2158078253 0.0000000000 0.0000000000
0.3050766289 0.0000000000 0.0000000000
0.3971409798 0.0000000000 0.0000000000
0.5020588636 0.0000000000 0.0000000000
0.6228747368 0.0000000000 0.0000000000
0.7643550038 0.0000000000 0.0000000000
0.9071444869 0.0000000000 0.0000000000
1.0000000000 0.0000000000 0.0000000000
1.0000000000 0.0000000000 0.0000000000
1.0000000000 0.0000000000 0.0000000000
1.0000000000 0.0000000000 0.0000000000
1.0000000000 0.0000000000 0.0000000000
1.0000000000 0.0000000000 0.0000000000
1.0000000000 0.0000000000 0.0000000000
1.0000000000 0.0000000000 0.0000000000
1.0000000000 0.0000000000 0.0000000000
1.0000000000 0.0000000000 0.0000000000
1.0000000000 0.0000000000 0.0000000000
1.0000000000 0.0000000000 0.0000000000
1.0000000000 0.0000000000 0.0000000000
1.0000000000 0.0000000000 0.0000000000
1.0000000000 0.0000000000 0.0000000000
1.0000000000 0.0000000000 0.0000000000
1.0000000000 0.0000000000 0.0000000000
1.0000000000 0.0000000000 0.0000000000
1.0000000000 0.0000000000 0.0000000000
1.0000000000 0.0000000000 0.0000000000
1.0000000000 0.0000000000 0.0000000000
1.0000000000 0.0000000000 0.0000000000
0.0000000000 0.1175342798 0.0000000000
0.0000000000 0.1061982885 0.0000000000
0.0000000000 0.0861513764 0.0000000000
0.0752638280 0.0648642033 0.0000000000
0.1791973114 0.0401491970 0.0000000000
0.2727094591 0.0077711558 0.0000000000
0.3685609102 0.0000000000 0.0000000000
0.4712365270 0.0000000000 0.0000000000
0.5789818764 0.0000000000 0.0000000000
0.6960384846 0.0000000000 0.0000000000
0.7870072722 0.0000000000 0.0000000000
0.8720074892 0.0000000000 0.0000000000
0.9287039638 0.0000000000 0.0000000000
0.9722362757 0.0000000000 0.0000000000
1.0000000000 0.0000000000 0.0000000000
1.0000000000 0.0000000000 0.0000000000
1.0000000000 0.0000000000 0.0000000000
1.0000000000 0.0000000000 0.0000000000
1.0000000000 0.0000000000 0.0000000000
1.0000000000 0.0000000000 0.0000000000
1.0000000000 0.0000000000 0.0000000000
1.0000000000 0.0000000000 0.0000000000
1.0000000000 0.0000000000 0.0000000000
1.0000000000 0.0000000000 0.0000000000
1.0000000000 0.0000000000 0.0000000000
1.0000000000 0.0000000000 0.0000000000
1.0000000000 0.0000000000 0.0000000000
1.0000000000 0.0000000000 0.0000000000
1.0000000000 0.0000000000 0.0000000000
1.0000000000 0.0000000000 0.0000000000
1.0000000000 0.0000000000 0.0000000000
1.0000000000 0.0000000000 0.0000000000
1.0000000000 0.0000000000 0.0000000000
0.0000000000 0.1776724905 0.0000000000
0.0000000000 0.1673897952 0.0000000000
0.0000000000 0.1536700875 0.0000000000
0.0209468901 0.1355831325 0.0000000000
0.1317727566 0.1142037660 0.0000000000
0.2328007221 0.0834869817 0.0000000000
0.3218376637 0.0473015755 0.0000000000
0.4026506245 0.0088427486 0.0000000000
0.4809721112 0.0000000000 0.0000000000
0.5576097369 0.0000000000 0.0000000000
0.6319879293 0.0000000000 0.0000000000
0.7001528144 0.0000000000 0.0000000000
0.7739343643 0.0000000000 0.0000000000
0.8495799899 0.0000000000 0.0000000000
0.9053400755 0.0000000000 0.0000000000
0.9467699528 0.0000000000 0.0000000000
0.9816702008 0.0000000000 0.0000000000
1.0000000000 0.0000000000 0.0000000000
1.0000000000 0.0000000000 0.0000000000
1.0000000000 0.0000000000 0.0000000000
1.0000000000 0.0000000000 0.0000000000
1.0000000000 0.0000000000 0.0000000000
1.0000000000 0.0000000000 0.0000000000
1.0000000000 0.0000000000 0.0000000000
1.0000000000 0.0000000000 0.0000000000
1.0000000000 0.0000000000 0.0000000000
1.0000000000 0.0000000000 0.0000000000
1.0000000000 0.0000000000 0.0000000000
1.0000000000 0.0000000000 0.0000000000
1.0000000000 0.0000000000 0.0000000000
1.0000000000 0.0000000000 0.0000000000
1.0000000000 0.0000000000 0.0000000000
1.0000000000 0.0000000000 0.0000000000
0.0000000000 0.2353621572 0.0000000000
0.0000000000 0.2251999080 0.0000000000
0.0000000000 0.2143346518 0.0000000000
0.0000000000 0.1942873299 0.0000000000
0.0706412643 0.1760656089 0.0000000000
0.1748249084 0.1570885926 0.0000000000
0.2570538521 0.1355890930 0.0000000000
0.3314695954 0.1097792014 0.0000000000
0.4025647342 0.0777049810 0.0000000000
0.4722616076 0.0424825437 0.0000000000
0.5413904190 0.0034103154 0.0000000000
0.6102699041 0.0000000000 0.0000000000
0.6788223982 0.0000000000 0.0000000000
0.7463378310 0.0000000000 0.0000000000
0.8077477217 0.0000000000 0.0000000000
0.8691440821 0.0000000000 0.0000000000
0.9140503407 0.0000000000 0.0000000000
0.9493439794 0.0000000000 0.0000000000
0.9799310565 0.0000000000 0.0000000000
1.0000000000 0.0000000000 0.0000000000
1.0000000000 0.0000000000 0.0000000000
1.0000000000 0.0000000000 0.0000000000
1.0000000000 0.0000000000 0.0000000000
1.0000000000 0.0000000000 0.0000000000
1.0000000000 0.0000000000 0.0000000000
1.0000000000 0.0000000000 0.0000000000
1.0000000000 0.0000000000 0.0000000000
1.0000000000 0.0000000000 0.0000000000
1.0000000000 0.0000000000 0.0000000000
1.0000000000 0.0000000000 0.0000000000
1.0000000000 0.0000000000 0.0000000000
1.0000000000 0.0000000000 0.0000000000
1.0000000000 0.0000000000 0.0000000000
0.0000000000 0.2819657028 0.0000000000
0.0000000000 0.2665581405 0.0000000000
0.0000000000 0.2527115047 0.0000000000
0.0000000000 0.2375894040 0.0000000000
0.0290199239 0.2241151482 0.0000000000
0.1298757195 0.2108141631 0.0000000000
0.2130147666 0.1967284083 0.0000000000
0.2845610678 0.1812896132 0.0000000000
0.3515146077 0.1637465507 0.0000000000
0.4164978862 0.1430219710 0.0000000000
0.4807600379 0.1173732430 0.0000000000
0.5449253917 0.0840726718 0.0000000000
0.6093651056 0.0463400483 0.0000000000
0.6742360592 0.0042660078 0.0000000000
0.7395114303 0.0000000000 0.0000000000
0.8049367070 0.0000000000 0.0000000000
0.8693888187 0.0000000000 0.0000000000
0.9109031558 0.0000000000 0.0000000000
0.9395737648 0.0000000000 0.0000000000
0.9668355584 0.0000000000 0.0000000000
0.9922432899 0.0000000000 0.0000000000
1.0000000000 0.0000000000 0.0000000000
1.0000000000 0.0000000000 0.0000000000
1.0000000000 0.0000000000 0.0000000000
1.0000000000 0.0000000000 0.0000000000
1.0000000000 0.0000000000 0.0000000000
1.0000000000 0.0000000000 0.0000000000
1.0000000000 0.0000000000 0.0000000000
1.0000000000 0.0000000000 0.0000000000
1.0000000000 0.0000000000 0.0000000000
1.0000000000 0.0000000000 0.0000000000
1.0000000000 0.0000000000 0.0000000000
1.0000000000 0.0000000000 0.0000000000
0.0000000000 0.3128819764 0.0000000000
0.0000000000 0.3011836112 0.0000000000
0.0000000000 0.2896479666 0.0000000000
0.0000000000 0.2778998613 0.0000000000
0.0001344211 0.2674862146 0.0000000000
0.0925838053 0.2573685944 0.0000000000
0.1806020886 0.2470134646 0.0000000000
0.2516032457 0.2361189127 0.0000000000
0.3163261414 0.2243402749 0.0000000000
0.3782789409 0.2112606913 0.0000000000
0.4390885830 0.1963657290 0.0000000000
0.4996468723 0.1789731383 0.0000000000
0.5604922175 0.1580885947 0.0000000000
0.6218144894 0.1310361028 0.0000000000
0.6839053035 0.0942814201 0.0000000000
0.7468590736 0.0503452569 0.0000000000
0.8106319308 0.0015046201 0.0000000000
0.8748080730 0.0000000000 0.0000000000
0.9243574142 0.0000000000 0.0000000000
0.9577621818 0.0000000000 0.0000000000
0.9729104638 0.0000000000 0.0000000000
0.9916558266 0.0000000000 0.0000000000
1.0000000000 0.0000000000 0.0000000000
1.0000000000 0.0000000000 0.0000000000
1.0000000000 0.0000000000 0.0000000000
1.0000000000 0.0000000000 0.0000000000
1.0000000000 0.0000000000 0.0000000000
1.0000000000 0.0000000000 0.0000000000
1.0000000000 0.0000000000 0.0000000000
1.0000000000 0.0000000000 0.0000000000
1.0000000000 0.0000000000 0.0000000000
1.0000000000 0.0000000000 0.0000000000
1.0000000000 0.0000000000 0.0000000000
0.0000000000 0.3455078602 0.0000000000
0.0000000000 0.3365073800 0.0000000000
0.0000000000 0.3264050782 0.0000000000
0.0000000000 0.3171628714 0.0000000000
0.0000000000 0.3089541197 0.0000000000
0.0635906532 0.3009872735 0.0000000000
0.1550463140 0.2929571271 0.0000000000
0.2272458375 0.2847353518 0.0000000000
0.2910844088 0.2759167552 0.0000000000
0.3509988785 0.2657995224 0.0000000000
0.4093634486 0.2546840608 0.0000000000
0.4672124982 0.2422444075 0.0000000000
0.5251722932 0.2280795872 0.0000000000
0.5836544633 0.2116657943 0.0000000000
0.6429470778 0.1922683418 0.0000000000
0.7032610774 0.1687597036 0.0000000000
0.7647537589 0.1391793936 0.0000000000
0.8275268078 0.0991104245 0.0000000000
0.8897144198 0.0492255986 0.0000000000
0.9364880919 0.0000000000 0.0000000000
0.9715373516 0.0000000000 0.0000000000
0.9982443452 0.0000000000 0.0000000000
1.0000000000 0.0000000000 0.0000000000
1.0000000000 0.0000000000 0.0000000000
1.0000000000 0.0000000000 0.0000000000
1.0000000000 0.0000000000 0.0000000000
1.0000000000 0.0000000000 0.0000000000
1.0000000000 0.0000000000 0.0000000000
1.0000000000 0.0000000000 0.0000000000
1.0000000000 0.0000000000 0.0000000000
1.0000000000 0.0000000000 0.0000000000
1.0000000000 0.0000000000 0.0000000000
1.0000000000 0.0000000000 0.0000000000
0.0000000000 0.3798058331 0.0000000000
0.0000000000 0.3720811009 0.0000000000
0.0000000000 0.3637084365 0.0000000000
0.0000000000 0.3564445972 0.0000000000
0.0000000000 0.3493641317 0.0000000000
0.0383826457 0.3423863351 0.0000000000
0.1309566945 0.3353528082 0.0000000000
0.2059610933 0.3282620907 0.0000000000
0.2702309489 0.3209622502 0.0000000000
0.3298565149 0.3132664561 0.0000000000
0.3872905076 0.3049891889 0.0000000000
0.4437969625 0.2959324121 0.0000000000
0.5001234412 0.2858747840 0.0000000000
0.5567544699 0.2745583951 0.0000000000
0.6140270829 0.2616699040 0.0000000000
0.6721892357 0.2468104511 0.0000000000
0.7314332128 0.2294450402 0.0000000000
0.7919157147 0.2088080049 0.0000000000
0.8537716269 0.1837064326 0.0000000000
0.9097491503 0.1520991325 0.0000000000
0.9514598250 0.1094648838 0.0000000000
0.9850020409 0.0518657826 0.0000000000
1.0000000000 0.0000000000 0.0000000000
1.0000000000 0.0000000000 0.0000000000
1.0000000000 0.0000000000 0.0000000000
1.0000000000 0.0000000000 0.0000000000
1.0000000000 0.0000000000 0.0000000000
1.0000000000 0.0000000000 0.0000000000
1.0000000000 0.0000000000 0.0000000000
1.0000000000 0.0000000000 0.0000000000
1.0000000000 0.0000000000 0.0000000000
1.0000000000 0.0000000000 0.0000000000
1.0000000000 0.0000000000 0.0000000000
0.0000000000 0.4150202274 0.0000000000
0.0000000000 0.4072911441 0.0000000000
0.0000000000 0.4001936018 0.0000000000
0.0000000000 0.3939950466 0.0000000000
0.0000000000 0.3882118165 0.0000000000
0.0132536106 0.3825531900 0.0000000000
0.1066472232 0.3768447638 0.0000000000
0.1874539703 0.3711524606 0.0000000000
0.2536183298 0.3654249609 0.0000000000
0.3137792945 0.3594914079 0.0000000000
0.3710542321 0.3532080352 0.0000000000
0.4269717932 0.3464329541 0.0000000000
0.4824114740 0.3390178978 0.0000000000
0.5379337072 0.3308012187 0.0000000000
0.5939230919 0.3216009438 0.0000000000
0.6506590843 0.3112055957 0.0000000000
0.7083555460 0.2993604839 0.0000000000
0.7671787143 0.2857289612 0.0000000000
0.8272714615 0.2698877156 0.0000000000
0.8866989017 0.2512982488 0.0000000000
0.9322361350 0.2293056250 0.0000000000
0.9682134986 0.2025368512 0.0000000000
0.9985737801 0.1686022580 0.0000000000
1.0000000000 0.1223779544 0.0000000000
1.0000000000 0.0555474237 0.0000000000
1.0000000000 0.0000000000 0.0000000000
1.0000000000 0.0000000000 0.0000000000
1.0000000000 0.0000000000 0.0000000000
1.0000000000 0.0000000000 0.0000000000
1.0000000000 0.0000000000 0.0000000000
1.0000000000 0.0000000000 0.0000000000
1.0000000000 0.0000000000 0.0000000000
1.0000000000 0.0000000000 0.0000000000
0.0000000000 0.4499233067 0.0000000000
0.0000000000 0.4435053170 0.0000000000
0.0000000000 0.4379638135 0.0000000000
0.0000000000 0.4330861568 0.0000000000
0.0000000000 0.4284560978 0.0000000000
0.0000000000 0.4239231646 0.0000000000
0.0823890939 0.4193419516 0.0000000000
0.1709101498 0.4147616923 0.0000000000
0.2399007082 0.4102921784 0.0000000000
0.3012772202 0.4057466090 0.0000000000
0.3590048850 0.4009974599 0.0000000000
0.4149239063 0.3959311247 0.0000000000
0.4700602889 0.3904336393 0.0000000000
0.5250483155 0.3843715787 0.0000000000
0.5803231597 0.3776147664 0.0000000000
0.6361991763 0.3700233102 0.0000000000
0.6929141283 0.3614388108 0.0000000000
0.7506557107 0.3516780436 0.0000000000
0.8095786572 0.3405227363 0.0000000000
0.8694784045 0.3277113438 0.0000000000
0.9178575277 0.3131065071 0.0000000000
0.9552345872 0.2962498963 0.0000000000
0.9865022898 0.2762715816 0.0000000000
1.0000000000 0.2514435649 0.0000000000
1.0000000000 0.2208441049 0.0000000000
1.0000000000 0.1815261096 0.0000000000
1.0000000000 0.1265518665 0.0000000000
1.0000000000 0.0433514789 0.0000000000
1.0000000000 0.0000000000 0.0000000000
1.0000000000 0.0000000000 0.0000000000
1.0000000000 0.0000000000 0.0000000000
1.0000000000 0.0000000000 0.0000000000
1.0000000000 0.0000000000 0.0000000000
0.0000000000 0.4869178236 0.0000000000
0.0000000000 0.4819895029 0.0000000000
0.0000000000 0.4778103232 0.0000000000
0.0000000000 0.4740144014 0.0000000000
0.0000000000 0.4704064131 0.0000000000
0.0000000000 0.4668654203 0.0000000000
0.0597494766 0.4632651508 0.0000000000
0.1553772241 0.4596244097 0.0000000000
0.2281361669 0.4562065005 0.0000000000
0.2913111746 0.4527980685 0.0000000000
0.3499752879 0.4492692053 0.0000000000
0.4063426554 0.4455185533 0.0000000000
0.4616095126 0.4414519966 0.0000000000
0.5165085196 0.4369762242 0.0000000000
0.5715287924 0.4319945872 0.0000000000
0.6270185709 0.4264044762 0.0000000000
0.6832386255 0.4200941026 0.0000000000
0.7403932810 0.4129395783 0.0000000000
0.7986484170 0.4048007131 0.0000000000
0.8586933017 0.3953661621 0.0000000000
0.9092476368 0.3846015334 0.0000000000
0.9476636648 0.3724287748 0.0000000000
0.9793311357 0.3584549725 0.0000000000
1.0000000000 0.3422355354 0.0000000000
1.0000000000 0.3231833577 0.0000000000
1.0000000000 0.3004519343 0.0000000000
1.0000000000 0.2727206945 0.0000000000
1.0000000000 0.2377148718 0.0000000000
1.0000000000 0.1908628196 0.0000000000
1.0000000000 0.1196411997 0.0000000000
1.0000000000 0.0041151037 0.0000000000
1.0000000000 0.0000000000 0.0000000000
1.0000000000 0.0000000000 0.0000000000
0.0000000000 0.5264843106 0.0000000000
0.0000000000 0.5229056478 0.0000000000
0.0000000000 0.5198365450 0.0000000000
0.0000000000 0.5170137882 0.0000000000
0.0000000000 0.5143278241 0.0000000000
0.0000000000 0.5116623640 0.0000000000
0.0373014882 0.5089032054 0.0000000000
0.1397953331 0.5060284734 0.0000000000
0.2173533142 0.5034522414 0.0000000000
0.2828915119 0.5009769201 0.0000000000
0.3429509699 0.4984597564 0.0000000000
0.4001944065 0.4958039522 0.0000000000
0.4560101926 0.4929267764 0.0000000000
0.5112307668 0.4897495806 0.0000000000
0.5664033890 0.4861937761 0.0000000000
0.6219136119 0.4821782112 0.0000000000
0.6785141230 0.4776106179 0.0000000000
0.7360899448 0.4723262787 0.0000000000
0.7947376966 0.4662360549 0.0000000000
0.8545657992 0.4592381120 0.0000000000
0.9045808911 0.4514349997 0.0000000000
0.9426329136 0.4427173436 0.0000000000
0.9740555286 0.4327675104 0.0000000000
1.0000000000 0.4212525189 0.0000000000
1.0000000000 0.4077553749 0.0000000000
1.0000000000 0.3917087018 0.0000000000
1.0000000000 0.3722954392 0.0000000000
1.0000000000 0.3482711911 0.0000000000
1.0000000000 0.3176012039 0.0000000000
1.0000000000 0.2765839994 0.0000000000
1.0000000000 0.2172470391 0.0000000000
1.0000000000 0.1181890219 0.0000000000
1.0000000000 0.0000000000 0.0000000000
0.0000000000 0.5687496066 0.0000000000
0.0000000000 0.5663143396 0.0000000000
0.0000000000 0.5641608834 0.0000000000
0.0000000000 0.5621873736 0.0000000000
0.0000000000 0.5602995753 0.0000000000
0.0000000000 0.5583987832 0.0000000000
0.0135021145 0.5563801527 0.0000000000
0.1228909343 0.5541792512 0.0000000000
0.2067534775 0.5523370504 0.0000000000
0.2753359079 0.5506963134 0.0000000000
0.3372749388 0.5490825772 0.0000000000
0.3958053589 0.5473967195 0.0000000000
0.4525470734 0.5456135273 0.0000000000
0.5085748434 0.5436872840 0.0000000000
0.5645244122 0.5413892865 0.0000000000
0.6207699180 0.5386708379 0.0000000000
0.6775951982 0.5354778171 0.0000000000
0.7352362871 0.5317459702 0.0000000000
0.7939136624 0.5274004340 0.0000000000
0.8537359834 0.5223639607 0.0000000000
0.9028507471 0.5167633891 0.0000000000
0.9405175447 0.5104433298 0.0000000000
0.9718412757 0.5030776858 0.0000000000
0.9992468953 0.4943244457 0.0000000000
1.0000000000 0.4837548137 0.0000000000
1.0000000000 0.4707851708 0.0000000000
1.0000000000 0.4545458257 0.0000000000
1.0000000000 0.4339593351 0.0000000000
1.0000000000 0.4083579481 0.0000000000
1.0000000000 0.3761282563 0.0000000000
1.0000000000 0.3344940543 0.0000000000
1.0000000000 0.2781033814 0.0000000000
1.0000000000 0.1932495236 0.0000000000
0.0000000000 0.6136787534 0.0000000000
0.0000000000 0.6121469140 0.0000000000
0.0000000000 0.6108312011 0.0000000000
0.0000000000 0.6096485257 0.0000000000
0.0000000000 0.6085118651 0.0000000000
0.0000000000 0.6073288918 0.0000000000
0.0000000000 0.6060007215 0.0000000000
0.1034369618 0.6044278741 0.0000000000
0.1957185566 0.6032258868 0.0000000000
0.2677859366 0.6025443077 0.0000000000
0.3319245577 0.6019716859 0.0000000000
0.3922048807 0.6012902856 0.0000000000
0.4504300058 0.6004475951 0.0000000000
0.5076335669 0.5993994474 0.0000000000
0.5644928217 0.5981105566 0.0000000000
0.6215200424 0.5965640545 0.0000000000
0.6790979505 0.5947022438 0.0000000000
0.7375622392 0.5924502015 0.0000000000
0.7972409129 0.5897127986 0.0000000000
0.8577328920 0.5863814354 0.0000000000
0.9055944681 0.5825544000 0.0000000000
0.9428966641 0.5779734850 0.0000000000
0.9743411541 0.5722623467 0.0000000000
1.0000000000 0.5649852157 0.0000000000
1.0000000000 0.5557987690 0.0000000000
1.0000000000 0.5444700718 0.0000000000
1.0000000000 0.5305750370 0.0000000000
1.0000000000 0.5135726333 0.0000000000
1.0000000000 0.4927473068 0.0000000000
1.0000000000 0.4670261145 0.0000000000
1.0000000000 0.4347400069 0.0000000000
1.0000000000 0.3933237195 0.0000000000
1.0000000000 0.3381081522 0.0000000000
0.0000000000 0.6612790227 0.0000000000
0.0000000000 0.6605946422 0.0000000000
0.0000000000 0.6600785851 0.0000000000
0.0000000000 0.6596532464 0.0000000000
0.0000000000 0.6592360139 0.0000000000
0.0000000000 0.6587380767 0.0000000000
0.0000000000 0.6584776640 0.0000000000
0.0765355825 0.6578046679 0.0000000000
0.1813835651 0.6572787166 0.0000000000
0.2589914799 0.6571924090 0.0000000000
0.3266020417 0.6572279930 0.0000000000
0.3892787397 0.6572955847 0.0000000000
0.4493573606 0.6573781967 0.0000000000
0.5081217885 0.6574213505 0.0000000000
0.5664058924 0.6573690772 0.0000000000
0.6248270273 0.6571593881 0.0000000000
0.6839000583 0.6567164063 0.0000000000
0.7441067100 0.6559439301 0.0000000000
0.8059431911 0.6547148228 0.0000000000
0.8670859933 0.6529085040 0.0000000000
0.9134947062 0.6505358815 0.0000000000
0.9501595497 0.6472719908 0.0000000000
0.9810998440 0.6428712606 0.0000000000
1.0000000000 0.6371032596 0.0000000000
1.0000000000 0.6297155023 0.0000000000
1.0000000000 0.6204149127 0.0000000000
1.0000000000 0.6088473797 0.0000000000
1.0000000000 0.5945743918 0.0000000000
1.0000000000 0.5770365000 0.0000000000
1.0000000000 0.5554951429 0.0000000000
1.0000000000 0.5289363265 0.0000000000
1.0000000000 0.4957880080 0.0000000000
1.0000000000 0.4533161223 0.0000000000
0.0000000000 0.7117553353 0.0000000000
0.0000000000 0.7118900418 0.0000000000
0.0000000000 0.7123609781 0.0000000000
0.0000000000 0.7131326795 0.0000000000
0.0000000000 0.7137283087 0.0000000000
0.0000000000 0.7140967846 0.0000000000
0.0000000000 0.7141786814 0.0000000000
0.0456052385 0.7139045596 0.0000000000
0.1654995382 0.7137091756 0.0000000000
0.2497466952 0.7143063545 0.0000000000
0.3212234378 0.7153022289 0.0000000000
0.3866662383 0.7165234685 0.0000000000
0.4489502013 0.7178801894 0.0000000000
0.5096648335 0.7193034887 0.0000000000
0.5698580742 0.7207252383 0.0000000000
0.6303331256 0.7220650911 0.0000000000
0.6917965412 0.7232216001 0.0000000000
0.7548604608 0.7240095735 0.0000000000
0.8197956681 0.7241697311 0.0000000000
0.8794653416 0.7236994505 0.0000000000
0.9232050776 0.7226238251 0.0000000000
0.9583064318 0.7206903100 0.0000000000
0.9882318974 0.7176912427 0.0000000000
1.0000000000 0.7134211659 0.0000000000
1.0000000000 0.7076535821 0.0000000000
1.0000000000 0.7001265287 0.0000000000
1.0000000000 0.6905292869 0.0000000000
1.0000000000 0.6784815788 0.0000000000
1.0000000000 0.6635103226 0.0000000000
1.0000000000 0.6450093389 0.0000000000
1.0000000000 0.6221782565 0.0000000000
1.0000000000 0.5939179659 0.0000000000
1.0000000000 0.5586378574 0.0000000000
0.0000000000 0.7663227916 0.0000000000
0.0000000000 0.7675970197 0.0000000000
0.0000000000 0.7688387632 0.0000000000
0.0000000000 0.7700163126 0.0000000000
0.0000000000 0.7710909843 0.0000000000
0.0000000000 0.7720160484 0.0000000000
0.0000000000 0.7727351189 0.0000000000
0.0092464639 0.7731814981 0.0000000000
0.1447759867 0.7737962008 0.0000000000
0.2374758124 0.7756286263 0.0000000000
0.3134535253 0.7780601978 0.0000000000
0.3820274174 0.7808668613 0.0000000000
0.4468752742 0.7839416265 0.0000000000
0.5099916458 0.7872008085 0.0000000000
0.5728394389 0.7903420329 0.0000000000
0.6362674832 0.7931419015 0.0000000000
0.7007690668 0.7955316901 0.0000000000
