Blackmagic Design/Blackmagic Broadcast Film to Rec2020 HLG v4.cube
# (C) 2018 Blackmagic Design
LUT_3D_SIZE 5
0.0000000000 0.0000000000 0.0000000000
0.1376953125 0.0234375000 0.0000000000
0.2832031250 0.0488281250 0.0000000000
0.5224609375 0.0908203125 0.0000000000
0.7724609375 0.1630859375 0.0000000000
0.0458984375 0.1552734375 0.0000000000
0.1455078125 0.1562500000 0.0000000000
0.2861328125 0.1621093750 0.0000000000
0.5244140625 0.1796875000 0.0000000000
0.7724609375 0.2255859375 0.0000000000
0.0937500000 0.3173828125 0.0000000000
0.1669921875 0.3173828125 0.0000000000
0.2978515625 0.3203125000 0.0000000000
0.5302734375 0.3291015625 0.0000000000
0.7744140625 0.3564453125 0.0000000000
0.1728515625 0.5751953125 0.0000000000
0.2216796875 0.5761718750 0.0000000000
0.3320312500 0.5771484375 0.0000000000
0.5468750000 0.5810546875 0.0000000000
0.7783203125 0.5917968750 0.0000000000
0.3134765625 0.7812500000 0.0000000000
0.3417968750 0.7812500000 0.0000000000
0.4218750000 0.7812500000 0.0000000000
0.5927734375 0.7812500000 0.0000000000
0.7812500000 0.7812500000 0.0000000000
0.0000000000 0.0000000000 0.1513671875
0.1337890625 0.0000000000 0.1494140625
0.2802734375 0.0000000000 0.1435546875
0.5214843750 0.0605468750 0.1210937500
0.7714843750 0.1484375000 0.0000000000
0.0302734375 0.1396484375 0.1435546875
0.1416015625 0.1416015625 0.1416015625
0.2841796875 0.1474609375 0.1347656250
0.5234375000 0.1660156250 0.1113281250
0.7724609375 0.2148437500 0.0000000000
0.0869140625 0.3095703125 0.1152343750
0.1630859375 0.3105468750 0.1132812500
0.2958984375 0.3134765625 0.1044921875
0.5292968750 0.3222656250 0.0722656250
0.7734375000 0.3505859375 0.0000000000
0.1699218750 0.5722656250 0.0000000000
0.2187500000 0.5732421875 0.0000000000
0.3300781250 0.5742187500 0.0000000000
0.5458984375 0.5781250000 0.0000000000
0.7783203125 0.5898437500 0.0000000000
0.3115234375 0.7812500000 0.0000000000
0.3408203125 0.7812500000 0.0000000000
0.4208984375 0.7812500000 0.0000000000
0.5917968750 0.7812500000 0.0000000000
0.7812500000 0.7812500000 0.0000000000
0.0000000000 0.0000000000 0.3095703125
0.1191406250 0.0000000000 0.3085937500
0.2744140625 0.0000000000 0.3056640625
0.5185546875 0.0000000000 0.2958984375
0.7714843750 0.0878906250 0.2626953125
0.0000000000 0.0712890625 0.3056640625
0.1279296875 0.0751953125 0.3046875000
0.2783203125 0.0859375000 0.3017578125
0.5205078125 0.1152343750 0.2919921875
0.7714843750 0.1777343750 0.2578125000
0.0625000000 0.2851562500 0.2939453125
0.1513671875 0.2861328125 0.2929687500
0.2900390625 0.2900390625 0.2900390625
0.5263671875 0.2998046875 0.2792968750
0.7724609375 0.3291015625 0.2441406250
0.1582031250 0.5625000000 0.2509765625
0.2099609375 0.5634765625 0.2500000000
0.3242187500 0.5644531250 0.2460937500
0.5439453125 0.5683593750 0.2343750000
0.7773437500 0.5810546875 0.1904296875
0.3056640625 0.7812500000 0.0000000000
0.3349609375 0.7812500000 0.0000000000
0.4160156250 0.7812500000 0.0000000000
0.5898437500 0.7812500000 0.0000000000
0.7812500000 0.7812500000 0.0000000000
0.0000000000 0.0000000000 0.5644531250
0.0507812500 0.0000000000 0.5644531250
0.2519531250 0.0000000000 0.5634765625
0.5078125000 0.0000000000 0.5595703125
0.7685546875 0.0000000000 0.5449218750
0.0000000000 0.0000000000 0.5634765625
0.0683593750 0.0000000000 0.5625000000
0.2558593750 0.0000000000 0.5615234375
0.5097656250 0.0000000000 0.5576171875
0.7685546875 0.0000000000 0.5439453125
0.0000000000 0.1875000000 0.5585937500
0.1064453125 0.1894531250 0.5576171875
0.2685546875 0.1943359375 0.5566406250
0.5156250000 0.2089843750 0.5517578125
0.7705078125 0.2490234375 0.5380859375
0.1162109375 0.5273437500 0.5410156250
0.1806640625 0.5283203125 0.5400390625
0.3056640625 0.5292968750 0.5390625000
0.5341796875 0.5341796875 0.5341796875
0.7753906250 0.5488281250 0.5185546875
0.2851562500 0.7812500000 0.4716796875
0.3173828125 0.7812500000 0.4707031250
0.4013671875 0.7812500000 0.4687500000
0.5830078125 0.7812500000 0.4628906250
0.7812500000 0.7812500000 0.4423828125
0.0000000000 0.0000000000 0.7812500000
0.0000000000 0.0000000000 0.7812500000
0.1611328125 0.0000000000 0.7812500000
0.4697265625 0.0000000000 0.7812500000
0.7597656250 0.0000000000 0.7812500000
0.0000000000 0.0000000000 0.7812500000
0.0000000000 0.0000000000 0.7812500000
0.1669921875 0.0000000000 0.7812500000
0.4716796875 0.0000000000 0.7812500000
0.7607421875 0.0000000000 0.7812500000
0.0000000000 0.0000000000 0.7812500000
0.0000000000 0.0000000000 0.7812500000
0.1855468750 0.0000000000 0.7812500000
0.4785156250 0.0000000000 0.7812500000
0.7617187500 0.0000000000 0.7812500000
0.0000000000 0.3632812500 0.7812500000
0.0000000000 0.3642578125 0.7812500000
0.2363281250 0.3671875000 0.7812500000
0.5000000000 0.3750000000 0.7812500000
0.7666015625 0.3984375000 0.7812500000
0.2099609375 0.7753906250 0.7812500000
0.2509765625 0.7753906250 0.7812500000
0.3515625000 0.7763671875 0.7812500000
0.5576171875 0.7773437500 0.7812500000
0.7812500000 0.7812500000 0.7812500000
