Blackmagic Design/Blackmagic 4.6K Film to Video v3.cube
# DaVinci Resolve Cube (3D LUT).
#
#Blackmagic 4.6K Film to Video v3
#Blackmagic 4.6K Film to Video using v3 Color Science.
#Matchs the 'Video' output from BMD 4.6K cameras.
LUT_3D_SIZE 33
LUT_3D_INPUT_RANGE 0.0000000000 1.0000000000
0.0000000000 0.0000000000 0.0000000000
0.0000000000 0.0000000000 0.0000000000
0.0000000000 0.0000000000 0.0000000000
0.0229453854 0.0000000000 0.0000000000
0.0568016991 0.0000000000 0.0000000000
0.0974361673 0.0000000000 0.0000000000
0.1376767457 0.0000000000 0.0000000000
0.1775578260 0.0000000000 0.0000000000
0.2182522714 0.0000000000 0.0000000000
0.2605446875 0.0000000000 0.0000000000
0.3050460219 0.0000000000 0.0000000000
0.3522853255 0.0000000000 0.0000000000
0.4027560055 0.0000000000 0.0000000000
0.4569416642 0.0000000000 0.0000000000
0.5153328180 0.0000000000 0.0000000000
0.5784381032 0.0000000000 0.0000000000
0.6467933059 0.0000000000 0.0000000000
0.7209684849 0.0000000000 0.0000000000
0.8015748262 0.0000000000 0.0000000000
0.8843184114 0.0000000000 0.0000000000
0.9441776872 0.0000000000 0.0000000000
0.9904997945 0.0000000000 0.0000000000
1.0000000000 0.0000000000 0.0000000000
1.0000000000 0.0000000000 0.0000000000
1.0000000000 0.0000000000 0.0000000000
1.0000000000 0.0000000000 0.0000000000
1.0000000000 0.0000000000 0.0000000000
1.0000000000 0.0000000000 0.0000000000
1.0000000000 0.0000000000 0.0000000000
1.0000000000 0.0000000000 0.0000000000
1.0000000000 0.0000000000 0.0000000000
1.0000000000 0.0000000000 0.0000000000
1.0000000000 0.0000000000 0.0000000000
0.0000000000 0.0000000000 0.0000000000
0.0000000000 0.0000000000 0.0000000000
0.0000000000 0.0000000000 0.0000000000
0.0224437751 0.0000000000 0.0000000000
0.0563000888 0.0000000000 0.0000000000
0.0969833508 0.0000000000 0.0000000000
0.1373163462 0.0000000000 0.0000000000
0.1772599667 0.0000000000 0.0000000000
0.2180004716 0.0000000000 0.0000000000
0.2603286207 0.0000000000 0.0000000000
0.3048586845 0.0000000000 0.0000000000
0.3521216810 0.0000000000 0.0000000000
0.4026122391 0.0000000000 0.0000000000
0.4568148553 0.0000000000 0.0000000000
0.5152205825 0.0000000000 0.0000000000
0.5783385634 0.0000000000 0.0000000000
0.6467047334 0.0000000000 0.0000000000
0.7208896279 0.0000000000 0.0000000000
0.8015044928 0.0000000000 0.0000000000
0.8842697144 0.0000000000 0.0000000000
0.9441487193 0.0000000000 0.0000000000
0.9904803634 0.0000000000 0.0000000000
1.0000000000 0.0000000000 0.0000000000
1.0000000000 0.0000000000 0.0000000000
1.0000000000 0.0000000000 0.0000000000
1.0000000000 0.0000000000 0.0000000000
1.0000000000 0.0000000000 0.0000000000
1.0000000000 0.0000000000 0.0000000000
1.0000000000 0.0000000000 0.0000000000
1.0000000000 0.0000000000 0.0000000000
1.0000000000 0.0000000000 0.0000000000
1.0000000000 0.0000000000 0.0000000000
1.0000000000 0.0000000000 0.0000000000
0.0000000000 0.0000000000 0.0000000000
0.0000000000 0.0000000000 0.0000000000
0.0000000000 0.0000000000 0.0000000000
0.0219421647 0.0000000000 0.0000000000
0.0557984747 0.0000000000 0.0000000000
0.0965292528 0.0000000000 0.0000000000
0.1369552612 0.0000000000 0.0000000000
0.1769617051 0.0000000000 0.0000000000
0.2177484185 0.0000000000 0.0000000000
0.2601124048 0.0000000000 0.0000000000
0.3046712577 0.0000000000 0.0000000000
0.3519579768 0.0000000000 0.0000000000
0.4024684429 0.0000000000 0.0000000000
0.4566880167 0.0000000000 0.0000000000
0.5151082873 0.0000000000 0.0000000000
0.5782389045 0.0000000000 0.0000000000
0.6466162205 0.0000000000 0.0000000000
0.7208107114 0.0000000000 0.0000000000
0.8014341593 0.0000000000 0.0000000000
0.8842210770 0.0000000000 0.0000000000
0.9441196918 0.0000000000 0.0000000000
0.9904609323 0.0000000000 0.0000000000
1.0000000000 0.0000000000 0.0000000000
1.0000000000 0.0000000000 0.0000000000
1.0000000000 0.0000000000 0.0000000000
1.0000000000 0.0000000000 0.0000000000
1.0000000000 0.0000000000 0.0000000000
1.0000000000 0.0000000000 0.0000000000
1.0000000000 0.0000000000 0.0000000000
1.0000000000 0.0000000000 0.0000000000
1.0000000000 0.0000000000 0.0000000000
1.0000000000 0.0000000000 0.0000000000
1.0000000000 0.0000000000 0.0000000000
0.0000000000 0.0229456443 0.0000000000
0.0000000000 0.0224438403 0.0000000000
0.0000000000 0.0219420381 0.0000000000
0.0214405563 0.0214402359 0.0000000000
0.0552968681 0.0208941456 0.0000000000
0.0960738584 0.0202286839 0.0000000000
0.1365935057 0.0194172170 0.0000000000
0.1766630560 0.0184277128 0.0000000000
0.2174961120 0.0172211044 0.0000000000
0.2598960102 0.0157497656 0.0000000000
0.3044837117 0.0139556089 0.0000000000
0.3517941833 0.0117678074 0.0000000000
0.4023245871 0.0090999966 0.0000000000
0.4565611184 0.0058468590 0.0000000000
0.5149960518 0.0018799716 0.0000000000
0.5781393051 0.0000000000 0.0000000000
0.6465276480 0.0000000000 0.0000000000
0.7207318544 0.0000000000 0.0000000000
0.8013638258 0.0000000000 0.0000000000
0.8841723800 0.0000000000 0.0000000000
0.9440907240 0.0000000000 0.0000000000
0.9904415011 0.0000000000 0.0000000000
1.0000000000 0.0000000000 0.0000000000
1.0000000000 0.0000000000 0.0000000000
1.0000000000 0.0000000000 0.0000000000
1.0000000000 0.0000000000 0.0000000000
1.0000000000 0.0000000000 0.0000000000
1.0000000000 0.0000000000 0.0000000000
1.0000000000 0.0000000000 0.0000000000
1.0000000000 0.0000000000 0.0000000000
1.0000000000 0.0000000000 0.0000000000
1.0000000000 0.0000000000 0.0000000000
1.0000000000 0.0000000000 0.0000000000
0.0000000000 0.0568020530 0.0000000000
0.0000000000 0.0563002490 0.0000000000
0.0000000000 0.0557984486 0.0000000000
0.0208946783 0.0552966446 0.0000000000
0.0547509901 0.0547505543 0.0000000000
0.0955768004 0.0540850945 0.0000000000
0.1361990422 0.0532736257 0.0000000000
0.1763375998 0.0522841215 0.0000000000
0.2172212601 0.0510775112 0.0000000000
0.2596603334 0.0496061742 0.0000000000
0.3042794764 0.0478120148 0.0000000000
0.3516158462 0.0456242152 0.0000000000
0.4021680057 0.0429564044 0.0000000000
0.4564230144 0.0397032648 0.0000000000
0.5148738027 0.0357363783 0.0000000000
0.5780308843 0.0308991428 0.0000000000
0.6464312077 0.0250006020 0.0000000000
0.7206460238 0.0178079046 0.0000000000
0.8012872934 0.0090371016 0.0000000000
0.8841193318 0.0000000000 0.0000000000
0.9440591335 0.0000000000 0.0000000000
0.9904204011 0.0000000000 0.0000000000
1.0000000000 0.0000000000 0.0000000000
1.0000000000 0.0000000000 0.0000000000
1.0000000000 0.0000000000 0.0000000000
1.0000000000 0.0000000000 0.0000000000
1.0000000000 0.0000000000 0.0000000000
1.0000000000 0.0000000000 0.0000000000
1.0000000000 0.0000000000 0.0000000000
1.0000000000 0.0000000000 0.0000000000
1.0000000000 0.0000000000 0.0000000000
1.0000000000 0.0000000000 0.0000000000
1.0000000000 0.0000000000 0.0000000000
0.0000000000 0.0974365920 0.0000000000
0.0000000000 0.0969836041 0.0000000000
0.0000000000 0.0965293199 0.0000000000
0.0202294737 0.0960737541 0.0000000000
0.0540857837 0.0955765024 0.0000000000
0.0949689671 0.0949684307 0.0000000000
0.1357172579 0.0942237973 0.0000000000
0.1759403497 0.0933110043 0.0000000000
0.2168859392 0.0921907201 0.0000000000
0.2593728900 0.0908136964 0.0000000000
0.3040304482 0.0891178548 0.0000000000
0.3513984382 0.0870243013 0.0000000000
0.4019770622 0.0844317973 0.0000000000
0.4562546313 0.0809607059 0.0000000000
0.5147247910 0.0769938156 0.0000000000
0.5778986812 0.0721565783 0.0000000000
0.6463137269 0.0662580356 0.0000000000
0.7205414176 0.0590653345 0.0000000000
0.8011940122 0.0502945371 0.0000000000
0.8840547204 0.0395993926 0.0000000000
0.9440206289 0.0265576951 0.0000000000
0.9903946519 0.0106546069 0.0000000000
1.0000000000 0.0000000000 0.0000000000
1.0000000000 0.0000000000 0.0000000000
1.0000000000 0.0000000000 0.0000000000
1.0000000000 0.0000000000 0.0000000000
1.0000000000 0.0000000000 0.0000000000
1.0000000000 0.0000000000 0.0000000000
1.0000000000 0.0000000000 0.0000000000
1.0000000000 0.0000000000 0.0000000000
1.0000000000 0.0000000000 0.0000000000
1.0000000000 0.0000000000 0.0000000000
1.0000000000 0.0000000000 0.0000000000
0.0000000000 0.1376771927 0.0000000000
0.0000000000 0.1373166442 0.0000000000
0.0000000000 0.1369554251 0.0000000000
0.0194183197 0.1365935206 0.0000000000
0.0532746315 0.1361989081 0.0000000000
0.0942246169 0.1357169449 0.0000000000
0.1351281404 0.1351275891 0.0000000000
0.1754550040 0.1344064474 0.0000000000
0.2164764553 0.1335234046 0.0000000000
0.2590220273 0.1324410439 0.0000000000
0.3037264943 0.1311127692 0.0000000000
0.3511331081 0.1294802874 0.0000000000
0.4017441571 0.1274701357 0.0000000000
0.4560492337 0.1249890327 0.0000000000
0.5145431161 0.1219173670 0.0000000000
0.5777374506 0.1180996373 0.0000000000
0.6461703777 0.1133302674 0.0000000000
0.7204137444 0.1073311567 0.0000000000
0.8010802269 0.0997142047 0.0000000000
0.8839758039 0.0899135619 0.0000000000
0.9439737201 0.0768671408 0.0000000000
0.9903631806 0.0609640554 0.0000000000
1.0000000000 0.0415717848 0.0000000000
1.0000000000 0.0179247726 0.0000000000
1.0000000000 0.0000000000 0.0000000000
1.0000000000 0.0000000000 0.0000000000
1.0000000000 0.0000000000 0.0000000000
1.0000000000 0.0000000000 0.0000000000
1.0000000000 0.0000000000 0.0000000000
1.0000000000 0.0000000000 0.0000000000
1.0000000000 0.0000000000 0.0000000000
1.0000000000 0.0000000000 0.0000000000
1.0000000000 0.0000000000 0.0000000000
0.0000000000 0.1775582880 0.0000000000
0.0000000000 0.1772603095 0.0000000000
0.0000000000 0.1769619286 0.0000000000
0.0184291955 0.1766631752 0.0000000000
0.0522855073 0.1763375849 0.0000000000
0.0933121815 0.1759402007 0.0000000000
0.1344072819 0.1754546613 0.0000000000
0.1748617440 0.1748611778 0.0000000000
0.2159762383 0.1741353273 0.0000000000
0.2585935593 0.1732470393 0.0000000000
0.3033555150 0.1721590459 0.0000000000
0.3508093357 0.1708250791 0.0000000000
0.4014599323 0.1691874415 0.0000000000
0.4557986557 0.1671738029 0.0000000000
0.5143213868 0.1646928936 0.0000000000
0.5775408149 0.1616285145 0.0000000000
0.6459955573 0.1578311622 0.0000000000
0.7202581167 0.1531057060 0.0000000000
0.8009414673 0.1471927762 0.0000000000
0.8838796020 0.1397389024 0.0000000000
0.9439164400 0.1302458048 0.0000000000
0.9903248549 0.1179763749 0.0000000000
1.0000000000 0.1017592773 0.0000000000
1.0000000000 0.0792722851 0.0000000000
1.0000000000 0.0504370555 0.0000000000
1.0000000000 0.0152752716 0.0000000000
1.0000000000 0.0000000000 0.0000000000
1.0000000000 0.0000000000 0.0000000000
1.0000000000 0.0000000000 0.0000000000
1.0000000000 0.0000000000 0.0000000000
1.0000000000 0.0000000000 0.0000000000
1.0000000000 0.0000000000 0.0000000000
1.0000000000 0.0000000000 0.0000000000
0.0000000000 0.2182527781 0.0000000000
0.0000000000 0.2180008739 0.0000000000
0.0000000000 0.2177487165 0.0000000000
0.0172230545 0.2174963206 0.0000000000
0.0510793701 0.2172213495 0.0000000000
0.0921923444 0.2168859094 0.0000000000
0.1335245818 0.2164762616 0.0000000000
0.1741361916 0.2159758657 0.0000000000
0.2153649628 0.2153643519 0.0000000000
0.2580702603 0.2146167010 0.0000000000
0.3029025495 0.2137020528 0.0000000000
0.3504141569 0.2125822902 0.0000000000
0.4011130929 0.2112101465 0.0000000000
0.4554928839 0.2095268518 0.0000000000
0.5140509605 0.2074589282 0.0000000000
0.5773009062 0.2049139738 0.0000000000
0.6457823515 0.2017749846 0.0000000000
0.7200682759 0.1978922337 0.0000000000
0.8007721901 0.1930719614 0.0000000000
0.8837621212 0.1870592088 0.0000000000
0.9438465238 0.1795114577 0.0000000000
0.9902780652 0.1699551046 0.0000000000
1.0000000000 0.1577087641 0.0000000000
1.0000000000 0.1417339891 0.0000000000
1.0000000000 0.1203023642 0.0000000000
1.0000000000 0.0900777951 0.0000000000
1.0000000000 0.0472062305 0.0000000000
1.0000000000 0.0000000000 0.0000000000
1.0000000000 0.0000000000 0.0000000000
1.0000000000 0.0000000000 0.0000000000
1.0000000000 0.0000000000 0.0000000000
1.0000000000 0.0000000000 0.0000000000
1.0000000000 0.0000000000 0.0000000000
0.0000000000 0.2605452538 0.0000000000
0.0000000000 0.2603290975 0.0000000000
0.0000000000 0.2601127625 0.0000000000
0.0157522839 0.2598963082 0.0000000000
0.0496085957 0.2596605420 0.0000000000
0.0908158720 0.2593729794 0.0000000000
0.1324426532 0.2590219676 0.0000000000
0.1732482463 0.2585933506 0.0000000000
0.2146176100 0.2580698431 0.0000000000
0.2574308813 0.2574302256 0.0000000000
0.3023493588 0.2566483319 0.0000000000
0.3499316573 0.2556920946 0.0000000000
0.4006897509 0.2545217276 0.0000000000
0.4551197886 0.2530881166 0.0000000000
0.5137209296 0.2513303161 0.0000000000
0.5770082474 0.2491721213 0.0000000000
0.6455222368 0.2465180755 0.0000000000
0.7198367119 0.2432476431 0.0000000000
0.8005657792 0.2392072082 0.0000000000
0.8836186528 0.2341990471 0.0000000000
0.9437612891 0.2279647291 0.0000000000
0.9902210236 0.2201602012 0.0000000000
1.0000000000 0.2103157640 0.0000000000
1.0000000000 0.1977672130 0.0000000000
1.0000000000 0.1815280318 0.0000000000
1.0000000000 0.1600205749 0.0000000000
1.0000000000 0.1304038912 0.0000000000
1.0000000000 0.0863108709 0.0000000000
1.0000000000 0.0223881230 0.0000000000
1.0000000000 0.0000000000 0.0000000000
1.0000000000 0.0000000000 0.0000000000
1.0000000000 0.0000000000 0.0000000000
1.0000000000 0.0000000000 0.0000000000
0.0000000000 0.3050466180 0.0000000000
0.0000000000 0.3048591912 0.0000000000
0.0000000000 0.3046716750 0.0000000000
0.0139588192 0.3044840693 0.0000000000
0.0478151329 0.3042797744 0.0000000000
0.0891207084 0.3040306270 0.0000000000
0.1311149001 0.3037265837 0.0000000000
0.1721606851 0.3033554554 0.0000000000
0.2137033194 0.3029023111 0.0000000000
0.2566493154 0.3023489118 0.0000000000
0.3016735613 0.3016728461 0.0000000000
0.3493424654 0.3008465171 0.0000000000
0.4001729488 0.2998360991 0.0000000000
0.4546643794 0.2985997200 0.0000000000
0.5133182406 0.2970857024 0.0000000000
0.5766511559 0.2952298522 0.0000000000
0.6452049613 0.2929522991 0.0000000000
0.7195542455 0.2901529670 0.0000000000
0.8003140092 0.2867057621 0.0000000000
0.8834435344 0.2824506164 0.0000000000
0.9436572194 0.2771820426 0.0000000000
0.9901514053 0.2706328928 0.0000000000
1.0000000000 0.2624497414 0.0000000000
1.0000000000 0.2521540523 0.0000000000
1.0000000000 0.2390772253 0.0000000000
1.0000000000 0.2222429663 0.0000000000
1.0000000000 0.2001298964 0.0000000000
1.0000000000 0.1701137125 0.0000000000
1.0000000000 0.1267864555 0.0000000000
1.0000000000 0.0558796711 0.0000000000
1.0000000000 0.0000000000 0.0000000000
1.0000000000 0.0000000000 0.0000000000
1.0000000000 0.0000000000 0.0000000000
0.0000000000 0.3522859514 0.0000000000
0.0000000000 0.3521222472 0.0000000000
0.0000000000 0.3519584537 0.0000000000
0.0117718624 0.3517946303 0.0000000000
0.0456281751 0.3516162336 0.0000000000
0.0870280117 0.3513987064 0.0000000000
0.1294830590 0.3511333168 0.0000000000
0.1708272398 0.3508093953 0.0000000000
0.2125839889 0.3504140675 0.0000000000
0.2556934059 0.3499313891 0.0000000000
0.3008475900 0.3493419588 0.0000000000
0.3486227095 0.3486219347 0.0000000000
0.3995418549 0.3477420211 0.0000000000
0.4541084468 0.3466661572 0.0000000000
0.5128267407 0.3453499079 0.0000000000
0.5762153864 0.3437384367 0.0000000000
0.6448177695 0.3417636454 0.0000000000
0.7192096114 0.3393408358 0.0000000000
0.8000068665 0.3363641500 0.0000000000
0.8832296729 0.3327003419 0.0000000000
0.9435302019 0.3281806111 0.0000000000
0.9900664687 0.3225888610 0.0000000000
1.0000000000 0.3156451285 0.0000000000
1.0000000000 0.3069807291 0.0000000000
1.0000000000 0.2960994244 0.0000000000
1.0000000000 0.2823137939 0.0000000000
1.0000000000 0.2646318078 0.0000000000
1.0000000000 0.2415350974 0.0000000000
1.0000000000 0.2104787976 0.0000000000
1.0000000000 0.1664896756 0.0000000000
1.0000000000 0.0962239951 0.0000000000
1.0000000000 0.0000000000 0.0000000000
1.0000000000 0.0000000000 0.0000000000
0.0000000000 0.4027566910 0.0000000000
0.0000000000 0.4026128650 0.0000000000
0.0000000000 0.4024690092 0.0000000000
0.0091050807 0.4023250937 0.0000000000
0.0429613963 0.4021684229 0.0000000000
0.0844365805 0.4019774497 0.0000000000
0.1274737120 0.4017444253 0.0000000000
0.1691902429 0.4014601111 0.0000000000
0.2112123966 0.4011131525 0.0000000000
0.2545235157 0.4006896615 0.0000000000
0.2998375297 0.4001726508 0.0000000000
0.3477431238 0.3995413184 0.0000000000
0.3987709880 0.3987701535 0.0000000000
0.4534296095 0.3978278041 0.0000000000
0.5122267604 0.3966757357 0.0000000000
0.5756835938 0.3952664733 0.0000000000
0.6443452835 0.3935413361 0.0000000000
0.7187891603 0.3914276361 0.0000000000
0.7996320724 0.3888350427 0.0000000000
0.8829683065 0.3856506348 0.0000000000
0.9433751106 0.3817326427 0.0000000000
0.9899627566 0.3769015372 0.0000000000
1.0000000000 0.3709281385 0.0000000000
1.0000000000 0.3635161519 0.0000000000
1.0000000000 0.3542767167 0.0000000000
1.0000000000 0.3426888883 0.0000000000
1.0000000000 0.3280352950 0.0000000000
1.0000000000 0.3092898130 0.0000000000
1.0000000000 0.2849017084 0.0000000000
1.0000000000 0.2523242831 0.0000000000
1.0000000000 0.2067568302 0.0000000000
1.0000000000 0.1363449991 0.0000000000
1.0000000000 0.0055573378 0.0000000000
0.0000000000 0.4569424391 0.0000000000
0.0000000000 0.4568155706 0.0000000000
0.0000000000 0.4566886723 0.0000000000
0.0058531994 0.4565617442 0.0000000000
0.0397095121 0.4564235508 0.0000000000
0.0809668303 0.4562551379 0.0000000000
0.1249936298 0.4560496509 0.0000000000
0.1671774238 0.4557989538 0.0000000000
0.2095297724 0.4554930925 0.0000000000
0.2530905008 0.4551198184 0.0000000000
0.2986016572 0.4546642601 0.0000000000
0.3466676772 0.4541081190 0.0000000000
0.3978290260 0.4534290135 0.0000000000
0.4526004791 0.4525995255 0.0000000000
0.5114941597 0.4515860081 0.0000000000
0.5750343800 0.4503470063 0.0000000000
0.6437687278 0.4488315284 0.0000000000
0.7182760835 0.4469766021 0.0000000000
0.7991749048 0.4447042048 0.0000000000
0.8826487660 0.4419174492 0.0000000000
0.9431857467 0.4384953380 0.0000000000
0.9898362756 0.4342860281 0.0000000000
1.0000000000 0.4290975630 0.0000000000
1.0000000000 0.4226852059 0.0000000000
1.0000000000 0.4147331417 0.0000000000
1.0000000000 0.4048280120 0.0000000000
1.0000000000 0.3924179077 0.0000000000
1.0000000000 0.3767462671 0.0000000000
1.0000000000 0.3567380011 0.0000000000
1.0000000000 0.3307836950 0.0000000000
1.0000000000 0.2962791622 0.0000000000
1.0000000000 0.2484397143 0.0000000000
1.0000000000 0.1760873646 0.0000000000
0.0000000000 0.5153336525 0.0000000000
0.0000000000 0.5152213573 0.0000000000
0.0000000000 0.5151090622 0.0000000000
0.0018878436 0.5149967074 0.0000000000
0.0357441567 0.5148744583 0.0000000000
0.0770014748 0.5147253871 0.0000000000
0.1219232380 0.5145435929 0.0000000000
0.1646975130 0.5143218040 0.0000000000
0.2074626684 0.5140512586 0.0000000000
0.2513333857 0.5137211084 0.0000000000
0.2970882058 0.5133182406 0.0000000000
0.3453519940 0.5128265619 0.0000000000
0.3966774046 0.5122263432 0.0000000000
0.4515873194 0.5114934444 0.0000000000
0.5105993152 0.5105983615 0.0000000000
0.5742417574 0.5095046163 0.0000000000
0.6430648565 0.5081676841 0.0000000000
0.7176499367 0.5065324903 0.0000000000
0.7986170053 0.5045313239 0.0000000000
0.8822579384 0.5020799637 0.0000000000
0.9429544210 0.4990741313 0.0000000000
0.9896817803 0.4953836501 0.0000000000
1.0000000000 0.4908452332 0.0000000000
1.0000000000 0.4852526486 0.0000000000
1.0000000000 0.4783431888 0.0000000000
1.0000000000 0.4697785676 0.0000000000
1.0000000000 0.4591166675 0.0000000000
1.0000000000 0.4457687736 0.0000000000
1.0000000000 0.4289308488 0.0000000000
1.0000000000 0.4074657559 0.0000000000
1.0000000000 0.3796836734 0.0000000000
1.0000000000 0.3428801596 0.0000000000
1.0000000000 0.2921796143 0.0000000000
0.0000000000 0.5784389973 0.0000000000
0.0000000000 0.5783393979 0.0000000000
0.0000000000 0.5782397389 0.0000000000
0.0000000000 0.5781400800 0.0000000000
0.0309087876 0.5780315995 0.0000000000
0.0721661076 0.5778993368 0.0000000000
0.1181071252 0.5777380466 0.0000000000
0.1616344005 0.5775413513 0.0000000000
0.2049187422 0.5773013830 0.0000000000
0.2491760403 0.5770086050 0.0000000000
0.2952331305 0.5766513944 0.0000000000
0.3437411189 0.5762154460 0.0000000000
0.3952686787 0.5756834149 0.0000000000
0.4503488243 0.5750339627 0.0000000000
0.5095060468 0.5742409825 0.0000000000
0.5732735991 0.5732725263 0.0000000000
0.6422054172 0.5720891953 0.0000000000
0.7168855667 0.5706428289 0.0000000000
0.7979361415 0.5688739419 0.0000000000
0.8817795515 0.5667091012 0.0000000000
0.9426716566 0.5640576482 0.0000000000
0.9894931316 0.5608068705 0.0000000000
1.0000000000 0.5568161011 0.0000000000
1.0000000000 0.5519092083 0.0000000000
1.0000000000 0.5458639264 0.0000000000
1.0000000000 0.5383971930 0.0000000000
1.0000000000 0.5291450024 0.0000000000
1.0000000000 0.5176324248 0.0000000000
1.0000000000 0.5032283068 0.0000000000
1.0000000000 0.4850729704 0.0000000000
1.0000000000 0.4619552791 0.0000000000
1.0000000000 0.4320852458 0.0000000000
1.0000000000 0.3926226199 0.0000000000
0.0000000000 0.6467942595 0.0000000000
0.0000000000 0.6467056870 0.0000000000
0.0000000000 0.6466171145 0.0000000000
0.0000000000 0.6465284824 0.0000000000
0.0250125229 0.6464320421 0.0000000000
0.0662698448 0.6463145018 0.0000000000
0.1133398265 0.6461710930 0.0000000000
0.1578386277 0.6459962726 0.0000000000
0.2017810196 0.6457829475 0.0000000000
0.2465230674 0.6455227137 0.0000000000
0.2929564714 0.6452053189 0.0000000000
0.3417671323 0.6448179483 0.0000000000
0.3935442269 0.6443453431 0.0000000000
0.4488339424 0.6437684894 0.0000000000
0.5081696510 0.6430643797 0.0000000000
0.5720908046 0.6422046423 0.0000000000
0.6411558390 0.6411546469 0.0000000000
0.7159523368 0.6398717761 0.0000000000
0.7971050143 0.6383038163 0.0000000000
0.8811935782 0.6363862157 0.0000000000
0.9423259497 0.6340396404 0.0000000000
0.9892626405 0.6311657429 0.0000000000
1.0000000000 0.6276424527 0.0000000000
1.0000000000 0.6233177185 0.0000000000
1.0000000000 0.6180009246 0.0000000000
1.0000000000 0.6114516258 0.0000000000
1.0000000000 0.6033641696 0.0000000000
1.0000000000 0.5933456421 0.0000000000
1.0000000000 0.5808839798 0.0000000000
1.0000000000 0.5652997494 0.0000000000
1.0000000000 0.5456697345 0.0000000000
1.0000000000 0.5206969380 0.0000000000
1.0000000000 0.4884728193 0.0000000000
0.0000000000 0.7209694982 0.0000000000
0.0000000000 0.7208906412 0.0000000000
0.0000000000 0.7208117247 0.0000000000
0.0000000000 0.7207328081 0.0000000000
0.0178226028 0.7206469774 0.0000000000
0.0590799190 0.7205422521 0.0000000000
0.1073434204 0.7204145789 0.0000000000
0.1531151980 0.7202588916 0.0000000000
0.1978998929 0.7200689912 0.0000000000
0.2432539612 0.7198373675 0.0000000000
0.2901582420 0.7195547819 0.0000000000
0.3393452764 0.7192100286 0.0000000000
0.3914313912 0.7187893987 0.0000000000
0.4469797313 0.7182760835 0.0000000000
0.5065351129 0.7176496983 0.0000000000
0.5706449747 0.7168850303 0.0000000000
0.6398735046 0.7159514427 0.0000000000
0.7148125768 0.7148112655 0.0000000000
0.7960902452 0.7134181857 0.0000000000
0.8804749846 0.7117155790 0.0000000000
0.9419029951 0.7096334696 0.0000000000
0.9889809489 0.7070856094 0.0000000000
1.0000000000 0.7039653659 0.0000000000
1.0000000000 0.7001404166 0.0000000000
1.0000000000 0.6954457164 0.0000000000
1.0000000000 0.6896747351 0.0000000000
1.0000000000 0.6825669408 0.0000000000
1.0000000000 0.6737912893 0.0000000000
1.0000000000 0.6629226208 0.0000000000
1.0000000000 0.6494073272 0.0000000000
1.0000000000 0.6325119734 0.0000000000
1.0000000000 0.6112412810 0.0000000000
1.0000000000 0.5842005610 0.0000000000
0.0000000000 0.8015759587 0.0000000000
0.0000000000 0.8015056252 0.0000000000
0.0000000000 0.8014352918 0.0000000000
0.0000000000 0.8013649583 0.0000000000
0.0090551870 0.8012883663 0.0000000000
0.0503125042 0.8011950254 0.0000000000
0.0997300446 0.8010811806 0.0000000000
0.1472048461 0.8009423614 0.0000000000
0.1930816472 0.8007730842 0.0000000000
0.2392151952 0.8005665541 0.0000000000
0.2867124379 0.8003146648 0.0000000000
0.3363697827 0.8000073433 0.0000000000
0.3888397813 0.7996324897 0.0000000000
0.4447082281 0.7991751432 0.0000000000
0.5045346618 0.7986170053 0.0000000000
