Blackmagic Design/Blackmagic 4.6K Film to Extended Video v4.cube
# (C) 2018 Blackmagic Design
LUT_3D_SIZE 5
0.0000000000 0.0000000000 0.0000000000
0.2490234375 0.0000000000 0.0000000000
0.7236328125 0.0000000000 0.0000000000
0.9990234375 0.0000000000 0.0000000000
0.9990234375 0.0000000000 0.0000000000
0.0000000000 0.2490234375 0.0000000000
0.2265625000 0.2265625000 0.0000000000
0.7001953125 0.1923828125 0.0000000000
0.9990234375 0.1708984375 0.0000000000
0.9990234375 0.1601562500 0.0000000000
0.0000000000 0.7236328125 0.0000000000
0.1923828125 0.7001953125 0.0000000000
0.6660156250 0.6660156250 0.0000000000
0.9726562500 0.6445312500 0.0000000000
0.9990234375 0.6337890625 0.0000000000
0.0000000000 0.9990234375 0.0000000000
0.1708984375 0.9990234375 0.0000000000
0.6445312500 0.9726562500 0.0000000000
0.9511718750 0.9511718750 0.0000000000
0.9990234375 0.9404296875 0.0000000000
0.0000000000 0.9990234375 0.0000000000
0.1601562500 0.9990234375 0.0000000000
0.6337890625 0.9990234375 0.0000000000
0.9404296875 0.9990234375 0.0000000000
0.9990234375 0.9990234375 0.0000000000
0.0000000000 0.0000000000 0.2490234375
0.2265625000 0.0000000000 0.2265625000
0.7001953125 0.0000000000 0.1923828125
0.9990234375 0.0000000000 0.1708984375
0.9990234375 0.0000000000 0.1601562500
0.0000000000 0.2265625000 0.2265625000
0.2031250000 0.2031250000 0.2031250000
0.6767578125 0.1699218750 0.1699218750
0.9833984375 0.1474609375 0.1474609375
0.9990234375 0.1367187500 0.1367187500
0.0000000000 0.7001953125 0.1923828125
0.1699218750 0.6767578125 0.1699218750
0.6435546875 0.6435546875 0.1357421875
0.9501953125 0.6210937500 0.1142578125
0.9990234375 0.6113281250 0.1035156250
0.0000000000 0.9990234375 0.1708984375
0.1474609375 0.9833984375 0.1474609375
0.6210937500 0.9501953125 0.1142578125
0.9277343750 0.9277343750 0.0917968750
0.9990234375 0.9179687500 0.0810546875
0.0000000000 0.9990234375 0.1601562500
0.1367187500 0.9990234375 0.1367187500
0.6113281250 0.9990234375 0.1035156250
0.9179687500 0.9990234375 0.0810546875
0.9990234375 0.9990234375 0.0712890625
0.0000000000 0.0000000000 0.7236328125
0.1923828125 0.0000000000 0.7001953125
0.6660156250 0.0000000000 0.6660156250
0.9726562500 0.0000000000 0.6445312500
0.9990234375 0.0000000000 0.6337890625
0.0000000000 0.1923828125 0.7001953125
0.1699218750 0.1699218750 0.6767578125
0.6435546875 0.1357421875 0.6435546875
0.9501953125 0.1142578125 0.6210937500
0.9990234375 0.1035156250 0.6113281250
0.0000000000 0.6660156250 0.6660156250
0.1357421875 0.6435546875 0.6435546875
0.6093750000 0.6093750000 0.6093750000
0.9160156250 0.5878906250 0.5878906250
0.9990234375 0.5771484375 0.5771484375
0.0000000000 0.9726562500 0.6445312500
0.1142578125 0.9501953125 0.6210937500
0.5878906250 0.9160156250 0.5878906250
0.8945312500 0.8945312500 0.5654296875
0.9990234375 0.8837890625 0.5546875000
0.0000000000 0.9990234375 0.6337890625
0.1035156250 0.9990234375 0.6113281250
0.5771484375 0.9990234375 0.5771484375
0.8837890625 0.9990234375 0.5546875000
0.9990234375 0.9990234375 0.5449218750
0.0000000000 0.0000000000 0.9990234375
0.1708984375 0.0000000000 0.9990234375
0.6445312500 0.0000000000 0.9726562500
0.9511718750 0.0000000000 0.9511718750
0.9990234375 0.0000000000 0.9404296875
0.0000000000 0.1708984375 0.9990234375
0.1474609375 0.1474609375 0.9833984375
0.6210937500 0.1142578125 0.9501953125
0.9277343750 0.0917968750 0.9277343750
0.9990234375 0.0810546875 0.9179687500
0.0000000000 0.6445312500 0.9726562500
0.1142578125 0.6210937500 0.9501953125
0.5878906250 0.5878906250 0.9160156250
0.8945312500 0.5654296875 0.8945312500
0.9990234375 0.5546875000 0.8837890625
0.0000000000 0.9511718750 0.9511718750
0.0917968750 0.9277343750 0.9277343750
0.5654296875 0.8945312500 0.8945312500
0.8720703125 0.8720703125 0.8720703125
0.9990234375 0.8623046875 0.8623046875
0.0000000000 0.9990234375 0.9404296875
0.0810546875 0.9990234375 0.9179687500
0.5546875000 0.9990234375 0.8837890625
0.8623046875 0.9990234375 0.8623046875
0.9990234375 0.9990234375 0.8515625000
0.0000000000 0.0000000000 0.9990234375
0.1601562500 0.0000000000 0.9990234375
0.6337890625 0.0000000000 0.9990234375
0.9404296875 0.0000000000 0.9990234375
0.9990234375 0.0000000000 0.9990234375
0.0000000000 0.1601562500 0.9990234375
0.1367187500 0.1367187500 0.9990234375
0.6113281250 0.1035156250 0.9990234375
0.9179687500 0.0810546875 0.9990234375
0.9990234375 0.0712890625 0.9990234375
0.0000000000 0.6337890625 0.9990234375
0.1035156250 0.6113281250 0.9990234375
0.5771484375 0.5771484375 0.9990234375
0.8837890625 0.5546875000 0.9990234375
0.9990234375 0.5449218750 0.9990234375
0.0000000000 0.9404296875 0.9990234375
0.0810546875 0.9179687500 0.9990234375
0.5546875000 0.8837890625 0.9990234375
0.8623046875 0.8623046875 0.9990234375
0.9990234375 0.8515625000 0.9990234375
0.0000000000 0.9990234375 0.9990234375
0.0712890625 0.9990234375 0.9990234375
0.5449218750 0.9990234375 0.9990234375
0.8515625000 0.9990234375 0.9990234375
0.9980468750 0.9980468750 0.9980468750
