Blackmagic Design/Blackmagic 4K Film to Video v3.cube
# DaVinci Resolve Cube (3D LUT).
#
#Blackmagic 4K Film to Video v3
#Blackmagic 4K Film to Video using v3 Color Science.
#Matchs the 'Video' output from BMD 4K cameras.
LUT_3D_SIZE 5
LUT_3D_INPUT_RANGE 0.0000000000 1.0000000000
0.0000000000 0.0000000000 0.0000000000
0.2962190509 0.0000000000 0.0000000000
0.5979297757 0.0000000000 0.0000000000
0.9444771409 0.0000000000 0.0000000000
1.0000000000 0.0000000000 0.0000000000
0.0000000000 0.2962199748 0.0000000000
0.2807129622 0.2807180882 0.0000000000
0.5903124213 0.2417358011 0.0000000000
0.9421802163 0.1176032200 0.0000000000
1.0000000000 0.0000000000 0.0000000000
0.0000000000 0.5979313254 0.0000000000
0.2417191267 0.5903159380 0.0000000000
0.5723852515 0.5723936558 0.0000000000
0.9367160201 0.5281476974 0.0000000000
1.0000000000 0.4062437117 0.0000000000
0.0000000000 0.9444783926 0.0000000000
0.1175302416 0.9421820641 0.0000000000
0.5281265378 0.9367194176 0.0000000000
0.9228724241 0.9228800535 0.0000000000
1.0000000000 0.8822189569 0.0000000000
0.0000000000 1.0000000000 0.0000000000
0.0000000000 1.0000000000 0.0000000000
0.4061797857 1.0000000000 0.0000000000
0.8821954727 1.0000000000 0.0000000000
1.0000000000 1.0000000000 0.0000000000
0.0000000000 0.0000000000 0.2962205410
0.2807126343 0.0000000000 0.2807140648
0.5903122425 0.0000000000 0.2417191863
0.9421801567 0.0000000000 0.1175255105
1.0000000000 0.0000000000 0.0000000000
0.0000000000 0.2807085216 0.2807131112
0.2643910646 0.2643910646 0.2643910646
0.5825905204 0.2229558080 0.2229429334
0.9398366809 0.0826166868 0.0825302079
1.0000000000 0.0000000000 0.0000000000
0.0000000000 0.5903113484 0.2417155206
0.2229442000 0.5825916529 0.2229401767
0.5644073486 0.5644133091 0.1736407131
0.9342578650 0.5194634199 0.0000000000
1.0000000000 0.3948732018 0.0000000000
0.0000000000 0.9421806931 0.1175087988
0.0825387537 0.9398378134 0.0825118646
0.5194447637 0.9342604876 0.0000000000
0.9200977683 0.9201046824 0.0000000000
1.0000000000 0.8782535791 0.0000000000
0.0000000000 1.0000000000 0.0000000000
0.0000000000 1.0000000000 0.0000000000
0.3948111832 1.0000000000 0.0000000000
0.8782305717 1.0000000000 0.0000000000
1.0000000000 1.0000000000 0.0000000000
0.0000000000 0.0000000000 0.5979322195
0.2417178750 0.0000000000 0.5903146267
0.5723847151 0.0000000000 0.5723870397
0.9367158413 0.0000000000 0.5281271935
1.0000000000 0.0000000000 0.4061766267
0.0000000000 0.2416997403 0.5903141499
0.2229432464 0.2229288816 0.5825923085
0.5644069314 0.1736426502 0.5644086003
0.9342577457 0.0000000000 0.5194447637
1.0000000000 0.0000000000 0.3948071003
0.0000000000 0.5723779202 0.5723854303
0.1736460179 0.5644021630 0.5644074678
0.5455931425 0.5455931425 0.5455931425
0.9283959866 0.4988960028 0.4988818765
1.0000000000 0.3674169183 0.3673532605
0.0000000000 0.9367145896 0.5281226635
0.0000000000 0.9342570305 0.5194406509
0.4988832772 0.9283968210 0.4988789260
0.9134497643 0.9134548903 0.4472137988
1.0000000000 0.8685790300 0.2940733433
0.0000000000 1.0000000000 0.4061621130
0.0000000000 1.0000000000 0.3947929144
0.3673595488 1.0000000000 0.3673397601
0.8685572147 1.0000000000 0.2940616906
1.0000000000 1.0000000000 0.0000000000
0.0000000000 0.0000000000 0.9444791079
0.1175244600 0.0000000000 0.9421821237
0.5281249881 0.0000000000 0.9367178082
0.9228719473 0.0000000000 0.9228740335
1.0000000000 0.0000000000 0.8821963668
0.0000000000 0.1174384654 0.9421820045
0.0825324059 0.0824359134 0.9398384690
0.5194433331 0.0000000000 0.9342595339
0.9200972915 0.0000000000 0.9200992584
1.0000000000 0.0000000000 0.8782312274
0.0000000000 0.5281027555 0.9367173314
0.0000000000 0.5194230080 0.9342591763
0.4988822639 0.4988665283 0.9283972979
0.9134494066 0.4472157359 0.9134508371
1.0000000000 0.2941311300 0.8685572743
0.0000000000 0.9228657484 0.9228726029
0.0000000000 0.9200917482 0.9200979471
0.4472191036 0.9134452939 0.9134498835
0.8962800503 0.8962800503 0.8962800503
1.0000000000 0.8424380422 0.8424191475
0.0000000000 1.0000000000 0.8821913600
0.0000000000 1.0000000000 0.8782262802
0.2940866947 1.0000000000 0.8685525060
0.8424209952 1.0000000000 0.8424151540
1.0000000000 1.0000000000 0.7738424540
0.0000000000 0.0000000000 1.0000000000
0.0000000000 0.0000000000 1.0000000000
0.4061747789 0.0000000000 1.0000000000
0.8821937442 0.0000000000 1.0000000000
1.0000000000 0.0000000000 1.0000000000
0.0000000000 0.0000000000 1.0000000000
0.0000000000 0.0000000000 1.0000000000
0.3948062658 0.0000000000 1.0000000000
0.8782288432 0.0000000000 1.0000000000
1.0000000000 0.0000000000 1.0000000000
0.0000000000 0.4061007500 1.0000000000
0.0000000000 0.3947331607 1.0000000000
0.3673548698 0.3672838807 1.0000000000
0.8685555458 0.2940163910 1.0000000000
1.0000000000 0.0000000000 1.0000000000
0.0000000000 0.8821693063 1.0000000000
0.0000000000 0.8782045841 1.0000000000
0.2940826714 0.8685318232 1.0000000000
0.8424196243 0.8423985839 1.0000000000
1.0000000000 0.7738450170 1.0000000000
0.0000000000 1.0000000000 1.0000000000
0.0000000000 1.0000000000 1.0000000000
0.0000000000 1.0000000000 1.0000000000
0.7738494873 1.0000000000 1.0000000000
1.0000000000 1.0000000000 1.0000000000
