Blackmagic Design/Blackmagic Broadcast Film to Rec2020 PQ v4.cube
# (C) 2018 Blackmagic Design
LUT_3D_SIZE 33
0.0000000000 0.0000000000 0.0000000000
0.0146484375 0.0000000000 0.0000000000
0.0341796875 0.0000000000 0.0000000000
0.0576171875 0.0009765625 0.0000000000
0.0820312500 0.0009765625 0.0000000000
0.1074218750 0.0019531250 0.0000000000
0.1298828125 0.0019531250 0.0000000000
0.1513671875 0.0029296875 0.0000000000
0.1718750000 0.0039062500 0.0000000000
0.1914062500 0.0058593750 0.0000000000
0.2109375000 0.0068359375 0.0000000000
0.2294921875 0.0087890625 0.0000000000
0.2470703125 0.0117187500 0.0000000000
0.2656250000 0.0146484375 0.0000000000
0.2832031250 0.0175781250 0.0000000000
0.3007812500 0.0214843750 0.0000000000
0.3173828125 0.0263671875 0.0000000000
0.3349609375 0.0322265625 0.0000000000
0.3525390625 0.0380859375 0.0000000000
0.3701171875 0.0449218750 0.0000000000
0.3876953125 0.0527343750 0.0000000000
0.4042968750 0.0625000000 0.0000000000
0.4218750000 0.0722656250 0.0000000000
0.4394531250 0.0839843750 0.0000000000
0.4570312500 0.0957031250 0.0000000000
0.4746093750 0.1083984375 0.0000000000
0.4921875000 0.1220703125 0.0000000000
0.5097656250 0.1347656250 0.0000000000
0.5273437500 0.1484375000 0.0000000000
0.5449218750 0.1621093750 0.0000000000
0.5625000000 0.1757812500 0.0000000000
0.5800781250 0.1904296875 0.0000000000
0.5976562500 0.2041015625 0.0000000000
0.0009765625 0.0185546875 0.0000000000
0.0166015625 0.0195312500 0.0000000000
0.0361328125 0.0195312500 0.0000000000
0.0595703125 0.0205078125 0.0000000000
0.0839843750 0.0214843750 0.0000000000
0.1083984375 0.0224609375 0.0000000000
0.1318359375 0.0234375000 0.0000000000
0.1523437500 0.0244140625 0.0000000000
0.1728515625 0.0263671875 0.0000000000
0.1923828125 0.0273437500 0.0000000000
0.2109375000 0.0292968750 0.0000000000
0.2294921875 0.0322265625 0.0000000000
0.2480468750 0.0341796875 0.0000000000
0.2656250000 0.0371093750 0.0000000000
0.2832031250 0.0410156250 0.0000000000
0.3007812500 0.0449218750 0.0000000000
0.3183593750 0.0498046875 0.0000000000
0.3349609375 0.0546875000 0.0000000000
0.3525390625 0.0605468750 0.0000000000
0.3701171875 0.0673828125 0.0000000000
0.3876953125 0.0742187500 0.0000000000
0.4042968750 0.0830078125 0.0000000000
0.4218750000 0.0927734375 0.0000000000
0.4394531250 0.1025390625 0.0000000000
0.4570312500 0.1132812500 0.0000000000
0.4746093750 0.1240234375 0.0000000000
0.4921875000 0.1357421875 0.0000000000
0.5097656250 0.1474609375 0.0000000000
0.5273437500 0.1591796875 0.0000000000
0.5449218750 0.1718750000 0.0000000000
0.5625000000 0.1845703125 0.0000000000
0.5800781250 0.1972656250 0.0000000000
0.5976562500 0.2109375000 0.0000000000
0.0019531250 0.0439453125 0.0000000000
0.0185546875 0.0449218750 0.0000000000
0.0390625000 0.0449218750 0.0000000000
0.0615234375 0.0458984375 0.0000000000
0.0859375000 0.0468750000 0.0000000000
0.1103515625 0.0478515625 0.0000000000
0.1328125000 0.0488281250 0.0000000000
0.1533203125 0.0498046875 0.0000000000
0.1738281250 0.0517578125 0.0000000000
0.1933593750 0.0527343750 0.0000000000
0.2119140625 0.0546875000 0.0000000000
0.2304687500 0.0566406250 0.0000000000
0.2480468750 0.0595703125 0.0000000000
0.2656250000 0.0625000000 0.0000000000
0.2832031250 0.0654296875 0.0000000000
0.3007812500 0.0693359375 0.0000000000
0.3183593750 0.0732421875 0.0000000000
0.3359375000 0.0781250000 0.0000000000
0.3525390625 0.0839843750 0.0000000000
0.3701171875 0.0898437500 0.0000000000
0.3876953125 0.0966796875 0.0000000000
0.4052734375 0.1035156250 0.0000000000
0.4218750000 0.1113281250 0.0000000000
0.4394531250 0.1201171875 0.0000000000
0.4570312500 0.1289062500 0.0000000000
0.4746093750 0.1386718750 0.0000000000
0.4921875000 0.1484375000 0.0000000000
0.5097656250 0.1582031250 0.0000000000
0.5273437500 0.1699218750 0.0000000000
0.5449218750 0.1806640625 0.0000000000
0.5625000000 0.1923828125 0.0000000000
0.5800781250 0.2050781250 0.0000000000
0.5976562500 0.2177734375 0.0000000000
0.0039062500 0.0722656250 0.0000000000
0.0205078125 0.0722656250 0.0000000000
0.0410156250 0.0732421875 0.0000000000
0.0634765625 0.0742187500 0.0000000000
0.0878906250 0.0742187500 0.0000000000
0.1123046875 0.0751953125 0.0000000000
0.1337890625 0.0761718750 0.0000000000
0.1552734375 0.0771484375 0.0000000000
0.1748046875 0.0791015625 0.0000000000
0.1943359375 0.0800781250 0.0000000000
0.2128906250 0.0820312500 0.0000000000
0.2304687500 0.0839843750 0.0000000000
0.2490234375 0.0859375000 0.0000000000
0.2666015625 0.0888671875 0.0000000000
0.2841796875 0.0917968750 0.0000000000
0.3007812500 0.0947265625 0.0000000000
0.3183593750 0.0986328125 0.0000000000
0.3359375000 0.1025390625 0.0000000000
0.3535156250 0.1074218750 0.0000000000
0.3701171875 0.1123046875 0.0000000000
0.3876953125 0.1171875000 0.0000000000
0.4052734375 0.1230468750 0.0000000000
0.4228515625 0.1298828125 0.0000000000
0.4394531250 0.1367187500 0.0000000000
0.4570312500 0.1445312500 0.0000000000
0.4746093750 0.1523437500 0.0000000000
0.4921875000 0.1611328125 0.0000000000
0.5097656250 0.1708984375 0.0000000000
0.5273437500 0.1806640625 0.0000000000
0.5449218750 0.1904296875 0.0000000000
0.5625000000 0.2011718750 0.0000000000
0.5800781250 0.2128906250 0.0000000000
0.5986328125 0.2246093750 0.0000000000
0.0058593750 0.1005859375 0.0000000000
0.0234375000 0.1015625000 0.0000000000
0.0439453125 0.1015625000 0.0000000000
0.0664062500 0.1025390625 0.0000000000
0.0908203125 0.1025390625 0.0000000000
0.1142578125 0.1035156250 0.0000000000
0.1357421875 0.1044921875 0.0000000000
0.1562500000 0.1054687500 0.0000000000
0.1757812500 0.1064453125 0.0000000000
0.1943359375 0.1074218750 0.0000000000
0.2128906250 0.1093750000 0.0000000000
0.2314453125 0.1103515625 0.0000000000
0.2490234375 0.1123046875 0.0000000000
0.2666015625 0.1142578125 0.0000000000
0.2841796875 0.1162109375 0.0000000000
0.3017578125 0.1191406250 0.0000000000
0.3193359375 0.1220703125 0.0000000000
0.3359375000 0.1250000000 0.0000000000
0.3535156250 0.1289062500 0.0000000000
0.3710937500 0.1328125000 0.0000000000
0.3876953125 0.1376953125 0.0000000000
0.4052734375 0.1425781250 0.0000000000
0.4228515625 0.1474609375 0.0000000000
0.4394531250 0.1542968750 0.0000000000
0.4570312500 0.1601562500 0.0000000000
0.4746093750 0.1669921875 0.0000000000
0.4921875000 0.1748046875 0.0000000000
0.5097656250 0.1835937500 0.0000000000
0.5273437500 0.1923828125 0.0000000000
0.5449218750 0.2011718750 0.0000000000
0.5625000000 0.2109375000 0.0000000000
0.5800781250 0.2216796875 0.0000000000
0.5986328125 0.2324218750 0.0000000000
0.0087890625 0.1269531250 0.0000000000
0.0273437500 0.1279296875 0.0000000000
0.0478515625 0.1279296875 0.0000000000
0.0693359375 0.1279296875 0.0000000000
0.0937500000 0.1289062500 0.0000000000
0.1162109375 0.1289062500 0.0000000000
0.1376953125 0.1298828125 0.0000000000
0.1582031250 0.1308593750 0.0000000000
0.1767578125 0.1318359375 0.0000000000
0.1962890625 0.1328125000 0.0000000000
0.2138671875 0.1337890625 0.0000000000
0.2324218750 0.1347656250 0.0000000000
0.2500000000 0.1357421875 0.0000000000
0.2675781250 0.1376953125 0.0000000000
0.2851562500 0.1396484375 0.0000000000
0.3017578125 0.1416015625 0.0000000000
0.3193359375 0.1435546875 0.0000000000
0.3369140625 0.1464843750 0.0000000000
0.3535156250 0.1494140625 0.0000000000
0.3710937500 0.1533203125 0.0000000000
0.3876953125 0.1562500000 0.0000000000
0.4052734375 0.1611328125 0.0000000000
0.4228515625 0.1650390625 0.0000000000
0.4404296875 0.1699218750 0.0000000000
0.4570312500 0.1757812500 0.0000000000
0.4746093750 0.1816406250 0.0000000000
0.4921875000 0.1884765625 0.0000000000
0.5097656250 0.1962890625 0.0000000000
0.5273437500 0.2041015625 0.0000000000
0.5449218750 0.2119140625 0.0000000000
0.5625000000 0.2207031250 0.0000000000
0.5800781250 0.2304687500 0.0000000000
0.5986328125 0.2412109375 0.0000000000
0.0126953125 0.1513671875 0.0000000000
0.0312500000 0.1513671875 0.0000000000
0.0507812500 0.1513671875 0.0000000000
0.0732421875 0.1523437500 0.0000000000
0.0966796875 0.1523437500 0.0000000000
0.1191406250 0.1523437500 0.0000000000
0.1396484375 0.1533203125 0.0000000000
0.1591796875 0.1533203125 0.0000000000
0.1787109375 0.1542968750 0.0000000000
0.1972656250 0.1552734375 0.0000000000
0.2148437500 0.1562500000 0.0000000000
0.2333984375 0.1572265625 0.0000000000
0.2509765625 0.1582031250 0.0000000000
0.2675781250 0.1591796875 0.0000000000
0.2851562500 0.1611328125 0.0000000000
0.3027343750 0.1630859375 0.0000000000
0.3193359375 0.1640625000 0.0000000000
0.3369140625 0.1669921875 0.0000000000
0.3535156250 0.1689453125 0.0000000000
0.3710937500 0.1718750000 0.0000000000
0.3886718750 0.1748046875 0.0000000000
0.4052734375 0.1787109375 0.0000000000
0.4228515625 0.1826171875 0.0000000000
0.4404296875 0.1865234375 0.0000000000
0.4580078125 0.1914062500 0.0000000000
0.4746093750 0.1972656250 0.0000000000
0.4921875000 0.2031250000 0.0000000000
0.5097656250 0.2089843750 0.0000000000
0.5273437500 0.2158203125 0.0000000000
0.5449218750 0.2236328125 0.0000000000
0.5625000000 0.2314453125 0.0000000000
0.5800781250 0.2402343750 0.0000000000
0.5986328125 0.2500000000 0.0000000000
0.0175781250 0.1728515625 0.0000000000
0.0361328125 0.1738281250 0.0000000000
0.0556640625 0.1738281250 0.0000000000
0.0771484375 0.1738281250 0.0000000000
0.1005859375 0.1738281250 0.0000000000
0.1220703125 0.1748046875 0.0000000000
0.1416015625 0.1748046875 0.0000000000
0.1611328125 0.1757812500 0.0000000000
0.1806640625 0.1757812500 0.0000000000
0.1982421875 0.1767578125 0.0000000000
0.2167968750 0.1767578125 0.0000000000
0.2343750000 0.1777343750 0.0000000000
0.2509765625 0.1787109375 0.0000000000
0.2685546875 0.1796875000 0.0000000000
0.2861328125 0.1816406250 0.0000000000
0.3027343750 0.1826171875 0.0000000000
0.3203125000 0.1845703125 0.0000000000
0.3369140625 0.1865234375 0.0000000000
0.3544921875 0.1884765625 0.0000000000
0.3710937500 0.1904296875 0.0000000000
0.3886718750 0.1933593750 0.0000000000
0.4062500000 0.1962890625 0.0000000000
0.4228515625 0.1992187500 0.0000000000
0.4404296875 0.2031250000 0.0000000000
0.4580078125 0.2070312500 0.0000000000
0.4746093750 0.2119140625 0.0000000000
0.4921875000 0.2167968750 0.0000000000
0.5097656250 0.2226562500 0.0000000000
0.5273437500 0.2285156250 0.0000000000
0.5449218750 0.2353515625 0.0000000000
0.5625000000 0.2431640625 0.0000000000
0.5810546875 0.2509765625 0.0000000000
0.5986328125 0.2597656250 0.0000000000
0.0224609375 0.1943359375 0.0000000000
0.0410156250 0.1943359375 0.0000000000
0.0605468750 0.1943359375 0.0000000000
0.0820312500 0.1943359375 0.0000000000
0.1044921875 0.1953125000 0.0000000000
0.1250000000 0.1953125000 0.0000000000
0.1445312500 0.1953125000 0.0000000000
0.1640625000 0.1962890625 0.0000000000
0.1816406250 0.1962890625 0.0000000000
0.2001953125 0.1972656250 0.0000000000
0.2177734375 0.1972656250 0.0000000000
0.2353515625 0.1982421875 0.0000000000
0.2519531250 0.1992187500 0.0000000000
0.2695312500 0.2001953125 0.0000000000
0.2861328125 0.2011718750 0.0000000000
0.3037109375 0.2021484375 0.0000000000
0.3203125000 0.2031250000 0.0000000000
0.3378906250 0.2050781250 0.0000000000
0.3544921875 0.2060546875 0.0000000000
0.3720703125 0.2089843750 0.0000000000
0.3886718750 0.2109375000 0.0000000000
0.4062500000 0.2128906250 0.0000000000
0.4228515625 0.2158203125 0.0000000000
0.4404296875 0.2197265625 0.0000000000
0.4580078125 0.2226562500 0.0000000000
0.4755859375 0.2265625000 0.0000000000
0.4931640625 0.2314453125 0.0000000000
0.5097656250 0.2363281250 0.0000000000
0.5273437500 0.2421875000 0.0000000000
0.5449218750 0.2480468750 0.0000000000
0.5625000000 0.2548828125 0.0000000000
0.5810546875 0.2617187500 0.0000000000
0.5986328125 0.2695312500 0.0000000000
0.0283203125 0.2138671875 0.0000000000
0.0468750000 0.2138671875 0.0000000000
0.0664062500 0.2148437500 0.0000000000
0.0869140625 0.2148437500 0.0000000000
0.1083984375 0.2148437500 0.0000000000
0.1289062500 0.2148437500 0.0000000000
0.1474609375 0.2148437500 0.0000000000
0.1660156250 0.2158203125 0.0000000000
0.1845703125 0.2158203125 0.0000000000
0.2021484375 0.2167968750 0.0000000000
0.2187500000 0.2167968750 0.0000000000
0.2363281250 0.2177734375 0.0000000000
0.2539062500 0.2177734375 0.0000000000
0.2705078125 0.2187500000 0.0000000000
0.2871093750 0.2197265625 0.0000000000
0.3046875000 0.2207031250 0.0000000000
0.3212890625 0.2216796875 0.0000000000
0.3378906250 0.2226562500 0.0000000000
0.3554687500 0.2246093750 0.0000000000
0.3720703125 0.2265625000 0.0000000000
0.3896484375 0.2285156250 0.0000000000
0.4062500000 0.2304687500 0.0000000000
0.4238281250 0.2324218750 0.0000000000
0.4404296875 0.2353515625 0.0000000000
0.4580078125 0.2382812500 0.0000000000
0.4755859375 0.2421875000 0.0000000000
0.4931640625 0.2460937500 0.0000000000
0.5107421875 0.2500000000 0.0000000000
0.5283203125 0.2548828125 0.0000000000
0.5458984375 0.2607421875 0.0000000000
0.5634765625 0.2666015625 0.0000000000
0.5810546875 0.2734375000 0.0000000000
0.5986328125 0.2802734375 0.0000000000
0.0361328125 0.2333984375 0.0000000000
0.0537109375 0.2333984375 0.0000000000
0.0732421875 0.2333984375 0.0000000000
0.0937500000 0.2343750000 0.0000000000
0.1132812500 0.2343750000 0.0000000000
0.1328125000 0.2343750000 0.0000000000
0.1513671875 0.2343750000 0.0000000000
0.1689453125 0.2343750000 0.0000000000
0.1865234375 0.2353515625 0.0000000000
0.2041015625 0.2353515625 0.0000000000
0.2207031250 0.2363281250 0.0000000000
0.2382812500 0.2363281250 0.0000000000
0.2548828125 0.2373046875 0.0000000000
0.2714843750 0.2373046875 0.0000000000
0.2880859375 0.2382812500 0.0000000000
0.3056640625 0.2392578125 0.0000000000
0.3222656250 0.2402343750 0.0000000000
0.3388671875 0.2412109375 0.0000000000
0.3554687500 0.2421875000 0.0000000000
0.3730468750 0.2441406250 0.0000000000
0.3896484375 0.2451171875 0.0000000000
0.4062500000 0.2470703125 0.0000000000
0.4238281250 0.2490234375 0.0000000000
0.4414062500 0.2519531250 0.0000000000
0.4580078125 0.2548828125 0.0000000000
0.4755859375 0.2578125000 0.0000000000
0.4931640625 0.2607421875 0.0000000000
0.5107421875 0.2646484375 0.0000000000
0.5283203125 0.2695312500 0.0000000000
0.5458984375 0.2734375000 0.0000000000
0.5634765625 0.2792968750 0.0000000000
0.5810546875 0.2851562500 0.0000000000
0.5986328125 0.2910156250 0.0000000000
0.0439453125 0.2519531250 0.0000000000
0.0615234375 0.2529296875 0.0000000000
0.0800781250 0.2529296875 0.0000000000
0.0996093750 0.2529296875 0.0000000000
0.1191406250 0.2529296875 0.0000000000
0.1367187500 0.2529296875 0.0000000000
0.1552734375 0.2529296875 0.0000000000
0.1718750000 0.2539062500 0.0000000000
0.1894531250 0.2539062500 0.0000000000
0.2060546875 0.2539062500 0.0000000000
0.2226562500 0.2539062500 0.0000000000
0.2392578125 0.2548828125 0.0000000000
0.2558593750 0.2548828125 0.0000000000
0.2724609375 0.2558593750 0.0000000000
0.2890625000 0.2568359375 0.0000000000
0.3056640625 0.2568359375 0.0000000000
0.3232421875 0.2578125000 0.0000000000
0.3398437500 0.2587890625 0.0000000000
0.3564453125 0.2597656250 0.0000000000
0.3730468750 0.2607421875 0.0000000000
0.3896484375 0.2626953125 0.0000000000
0.4072265625 0.2636718750 0.0000000000
0.4238281250 0.2656250000 0.0000000000
0.4414062500 0.2675781250 0.0000000000
0.4589843750 0.2705078125 0.0000000000
0.4755859375 0.2734375000 0.0000000000
0.4931640625 0.2763671875 0.0000000000
0.5107421875 0.2792968750 0.0000000000
0.5283203125 0.2832031250 0.0000000000
0.5458984375 0.2871093750 0.0000000000
0.5634765625 0.2919921875 0.0000000000
0.5810546875 0.2968750000 0.0000000000
0.5986328125 0.3027343750 0.0000000000
0.0527343750 0.2705078125 0.0000000000
0.0703125000 0.2705078125 0.0000000000
0.0888671875 0.2714843750 0.0000000000
0.1064453125 0.2714843750 0.0000000000
0.1250000000 0.2714843750 0.0000000000
0.1416015625 0.2714843750 0.0000000000
0.1591796875 0.2714843750 0.0000000000
0.1757812500 0.2714843750 0.0000000000
0.1923828125 0.2724609375 0.0000000000
0.2089843750 0.2724609375 0.0000000000
0.2255859375 0.2724609375 0.0000000000
0.2412109375 0.2724609375 0.0000000000
0.2578125000 0.2734375000 0.0000000000
0.2744140625 0.2734375000 0.0000000000
0.2910156250 0.2744140625 0.0000000000
0.3076171875 0.2753906250 0.0000000000
0.3242187500 0.2753906250 0.0000000000
0.3408203125 0.2763671875 0.0000000000
0.3574218750 0.2773437500 0.0000000000
0.3740234375 0.2783203125 0.0000000000
0.3906250000 0.2792968750 0.0000000000
0.4072265625 0.2812500000 0.0000000000
0.4248046875 0.2822265625 0.0000000000
0.4414062500 0.2841796875 0.0000000000
0.4589843750 0.2861328125 0.0000000000
0.4765625000 0.2890625000 0.0000000000
0.4931640625 0.2910156250 0.0000000000
0.5107421875 0.2939453125 0.0000000000
0.5283203125 0.2978515625 0.0000000000
0.5458984375 0.3017578125 0.0000000000
0.5634765625 0.3056640625 0.0000000000
0.5810546875 0.3105468750 0.0000000000
0.5986328125 0.3154296875 0.0000000000
0.0634765625 0.2890625000 0.0000000000
0.0800781250 0.2890625000 0.0000000000
0.0976562500 0.2890625000 0.0000000000
0.1142578125 0.2890625000 0.0000000000
0.1308593750 0.2890625000 0.0000000000
0.1474609375 0.2900390625 0.0000000000
0.1640625000 0.2900390625 0.0000000000
0.1796875000 0.2900390625 0.0000000000
0.1953125000 0.2900390625 0.0000000000
0.2119140625 0.2900390625 0.0000000000
0.2275390625 0.2910156250 0.0000000000
0.2441406250 0.2910156250 0.0000000000
0.2597656250 0.2910156250 0.0000000000
0.2763671875 0.2919921875 0.0000000000
0.2919921875 0.2919921875 0.0000000000
0.3085937500 0.2929687500 0.0000000000
0.3251953125 0.2929687500 0.0000000000
0.3408203125 0.2939453125 0.0000000000
0.3574218750 0.2949218750 0.0000000000
0.3740234375 0.2958984375 0.0000000000
0.3916015625 0.2968750000 0.0000000000
0.4082031250 0.2978515625 0.0000000000
0.4248046875 0.2988281250 0.0000000000
0.4423828125 0.3007812500 0.0000000000
0.4589843750 0.3027343750 0.0000000000
0.4765625000 0.3046875000 0.0000000000
0.4941406250 0.3066406250 0.0000000000
0.5107421875 0.3095703125 0.0000000000
0.5283203125 0.3125000000 0.0000000000
0.5458984375 0.3154296875 0.0000000000
0.5634765625 0.3193359375 0.0000000000
0.5810546875 0.3232421875 0.0000000000
0.5986328125 0.3281250000 0.0000000000
0.0751953125 0.3076171875 0.0000000000
0.0908203125 0.3076171875 0.0000000000
0.1074218750 0.3076171875 0.0000000000
0.1220703125 0.3076171875 0.0000000000
0.1376953125 0.3076171875 0.0000000000
0.1533203125 0.3076171875 0.0000000000
0.1689453125 0.3076171875 0.0000000000
0.1845703125 0.3076171875 0.0000000000
0.1992187500 0.3076171875 0.0000000000
0.2148437500 0.3085937500 0.0000000000
0.2304687500 0.3085937500 0.0000000000
0.2460937500 0.3085937500 0.0000000000
0.2617187500 0.3085937500 0.0000000000
0.2783203125 0.3095703125 0.0000000000
0.2939453125 0.3095703125 0.0000000000
0.3095703125 0.3105468750 0.0000000000
0.3261718750 0.3105468750 0.0000000000
0.3427734375 0.3115234375 0.0000000000
0.3583984375 0.3115234375 0.0000000000
0.3750000000 0.3125000000 0.0000000000
0.3916015625 0.3134765625 0.0000000000
0.4091796875 0.3144531250 0.0000000000
0.4257812500 0.3154296875 0.0000000000
0.4423828125 0.3173828125 0.0000000000
0.4599609375 0.3183593750 0.0000000000
0.4765625000 0.3203125000 0.0000000000
0.4941406250 0.3222656250 0.0000000000
0.5117187500 0.3251953125 0.0000000000
0.5283203125 0.3271484375 0.0000000000
0.5458984375 0.3300781250 0.0000000000
0.5634765625 0.3330078125 0.0000000000
0.5810546875 0.3369140625 0.0000000000
0.5986328125 0.3408203125 0.0000000000
0.0878906250 0.3251953125 0.0000000000
0.1025390625 0.3251953125 0.0000000000
0.1171875000 0.3251953125 0.0000000000
0.1308593750 0.3251953125 0.0000000000
0.1455078125 0.3251953125 0.0000000000
0.1601562500 0.3251953125 0.0000000000
0.1748046875 0.3251953125 0.0000000000
0.1894531250 0.3251953125 0.0000000000
0.2041015625 0.3261718750 0.0000000000
0.2187500000 0.3261718750 0.0000000000
0.2333984375 0.3261718750 0.0000000000
0.2490234375 0.3261718750 0.0000000000
0.2646484375 0.3261718750 0.0000000000
0.2802734375 0.3271484375 0.0000000000
0.2958984375 0.3271484375 0.0000000000
0.3115234375 0.3271484375 0.0000000000
0.3271484375 0.3281250000 0.0000000000
0.3437500000 0.3281250000 0.0000000000
0.3603515625 0.3291015625 0.0000000000
0.3759765625 0.3300781250 0.0000000000
0.3925781250 0.3300781250 0.0000000000
0.4091796875 0.3310546875 0.0000000000
0.4257812500 0.3320312500 0.0000000000
0.4433593750 0.3339843750 0.0000000000
0.4599609375 0.3349609375 0.0000000000
0.4775390625 0.3369140625 0.0000000000
0.4941406250 0.3378906250 0.0000000000
0.5117187500 0.3398437500 0.0000000000
0.5292968750 0.3427734375 0.0000000000
0.5468750000 0.3447265625 0.0000000000
0.5634765625 0.3476562500 0.0000000000
0.5810546875 0.3515625000 0.0000000000
0.5986328125 0.3544921875 0.0000000000
0.1015625000 0.3427734375 0.0000000000
0.1152343750 0.3427734375 0.0000000000
0.1269531250 0.3427734375 0.0000000000
0.1406250000 0.3427734375 0.0000000000
0.1533203125 0.3427734375 0.0000000000
0.1669921875 0.3427734375 0.0000000000
0.1806640625 0.3427734375 0.0000000000
0.1943359375 0.3437500000 0.0000000000
0.2089843750 0.3437500000 0.0000000000
0.2226562500 0.3437500000 0.0000000000
0.2373046875 0.3437500000 0.0000000000
0.2519531250 0.3437500000 0.0000000000
0.2675781250 0.3437500000 0.0000000000
0.2822265625 0.3447265625 0.0000000000
0.2978515625 0.3447265625 0.0000000000
0.3134765625 0.3447265625 0.0000000000
0.3291015625 0.3457031250 0.0000000000
0.3447265625 0.3457031250 0.0000000000
0.3613281250 0.3466796875 0.0000000000
0.3769531250 0.3466796875 0.0000000000
0.3935546875 0.3476562500 0.0000000000
0.4101562500 0.3486328125 0.0000000000
0.4267578125 0.3496093750 0.0000000000
0.4433593750 0.3505859375 0.0000000000
0.4609375000 0.3515625000 0.0000000000
0.4775390625 0.3525390625 0.0000000000
0.4951171875 0.3544921875 0.0000000000
0.5117187500 0.3564453125 0.0000000000
0.5292968750 0.3583984375 0.0000000000
0.5468750000 0.3603515625 0.0000000000
0.5644531250 0.3623046875 0.0000000000
0.5820312500 0.3652343750 0.0000000000
0.5996093750 0.3691406250 0.0000000000
0.1152343750 0.3603515625 0.0000000000
0.1269531250 0.3603515625 0.0000000000
0.1386718750 0.3603515625 0.0000000000
0.1503906250 0.3603515625 0.0000000000
0.1621093750 0.3603515625 0.0000000000
0.1748046875 0.3603515625 0.0000000000
0.1875000000 0.3603515625 0.0000000000
0.2001953125 0.3613281250 0.0000000000
0.2138671875 0.3613281250 0.0000000000
0.2275390625 0.3613281250 0.0000000000
0.2412109375 0.3613281250 0.0000000000
0.2558593750 0.3613281250 0.0000000000
0.2705078125 0.3613281250 0.0000000000
0.2851562500 0.3613281250 0.0000000000
0.2998046875 0.3623046875 0.0000000000
0.3154296875 0.3623046875 0.0000000000
0.3310546875 0.3623046875 0.0000000000
0.3466796875 0.3632812500 0.0000000000
0.3623046875 0.3632812500 0.0000000000
0.3789062500 0.3642578125 0.0000000000
0.3945312500 0.3642578125 0.0000000000
0.4111328125 0.3652343750 0.0000000000
0.4277343750 0.3662109375 0.0000000000
0.4443359375 0.3671875000 0.0000000000
0.4609375000 0.3681640625 0.0000000000
0.4785156250 0.3691406250 0.0000000000
0.4951171875 0.3701171875 0.0000000000
0.5126953125 0.3720703125 0.0000000000
0.5292968750 0.3740234375 0.0000000000
0.5468750000 0.3759765625 0.0000000000
0.5644531250 0.3779296875 0.0000000000
0.5820312500 0.3808593750 0.0000000000
0.5996093750 0.3837890625 0.0000000000
0.1298828125 0.3779296875 0.0000000000
0.1396484375 0.3779296875 0.0000000000
0.1494140625 0.3779296875 0.0000000000
0.1601562500 0.3779296875 0.0000000000
0.1708984375 0.3779296875 0.0000000000
0.1826171875 0.3779296875 0.0000000000
0.1943359375 0.3779296875 0.0000000000
0.2070312500 0.3789062500 0.0000000000
0.2197265625 0.3789062500 0.0000000000
0.2324218750 0.3789062500 0.0000000000
0.2460937500 0.3789062500 0.0000000000
0.2597656250 0.3789062500 0.0000000000
0.2734375000 0.3789062500 0.0000000000
0.2880859375 0.3789062500 0.0000000000
0.3027343750 0.3798828125 0.0000000000
0.3183593750 0.3798828125 0.0000000000
0.3330078125 0.3798828125 0.0000000000
0.3486328125 0.3798828125 0.0000000000
0.3642578125 0.3808593750 0.0000000000
0.3798828125 0.3808593750 0.0000000000
