Blackmagic Design/Blackmagic 4.6K Film to Video v4.cube
# (C) 2018 Blackmagic Design
LUT_3D_SIZE 33
0.0000000000 0.0000000000 0.0000000000
0.0000000000 0.0000000000 0.0000000000
0.0000000000 0.0000000000 0.0000000000
0.0351562500 0.0000000000 0.0000000000
0.0732421875 0.0000000000 0.0000000000
0.1201171875 0.0000000000 0.0000000000
0.1660156250 0.0000000000 0.0000000000
0.2128906250 0.0000000000 0.0000000000
0.2597656250 0.0000000000 0.0000000000
0.3085937500 0.0000000000 0.0000000000
0.3603515625 0.0000000000 0.0000000000
0.4150390625 0.0000000000 0.0000000000
0.4726562500 0.0000000000 0.0000000000
0.5351562500 0.0000000000 0.0000000000
0.6025390625 0.0000000000 0.0000000000
0.6757812500 0.0000000000 0.0000000000
0.7548828125 0.0000000000 0.0000000000
0.8408203125 0.0000000000 0.0000000000
0.9335937500 0.0000000000 0.0000000000
0.9990234375 0.0000000000 0.0000000000
0.9990234375 0.0000000000 0.0000000000
0.9990234375 0.0000000000 0.0000000000
0.9990234375 0.0000000000 0.0000000000
0.9990234375 0.0000000000 0.0000000000
0.9990234375 0.0000000000 0.0000000000
0.9990234375 0.0000000000 0.0000000000
0.9990234375 0.0000000000 0.0000000000
0.9990234375 0.0000000000 0.0000000000
0.9990234375 0.0000000000 0.0000000000
0.9990234375 0.0000000000 0.0000000000
0.9990234375 0.0000000000 0.0000000000
0.9990234375 0.0000000000 0.0000000000
0.9990234375 0.0000000000 0.0000000000
0.0000000000 0.0000000000 0.0000000000
0.0000000000 0.0000000000 0.0000000000
0.0000000000 0.0000000000 0.0000000000
0.0322265625 0.0000000000 0.0000000000
0.0712890625 0.0000000000 0.0000000000
0.1171875000 0.0000000000 0.0000000000
0.1640625000 0.0000000000 0.0000000000
0.2099609375 0.0000000000 0.0000000000
0.2578125000 0.0000000000 0.0000000000
0.3066406250 0.0000000000 0.0000000000
0.3574218750 0.0000000000 0.0000000000
0.4121093750 0.0000000000 0.0000000000
0.4707031250 0.0000000000 0.0000000000
0.5332031250 0.0000000000 0.0000000000
0.6005859375 0.0000000000 0.0000000000
0.6738281250 0.0000000000 0.0000000000
0.7529296875 0.0000000000 0.0000000000
0.8388671875 0.0000000000 0.0000000000
0.9316406250 0.0000000000 0.0000000000
0.9990234375 0.0000000000 0.0000000000
0.9990234375 0.0000000000 0.0000000000
0.9990234375 0.0000000000 0.0000000000
0.9990234375 0.0000000000 0.0000000000
0.9990234375 0.0000000000 0.0000000000
0.9990234375 0.0000000000 0.0000000000
0.9990234375 0.0000000000 0.0000000000
0.9990234375 0.0000000000 0.0000000000
0.9990234375 0.0000000000 0.0000000000
0.9990234375 0.0000000000 0.0000000000
0.9990234375 0.0000000000 0.0000000000
0.9990234375 0.0000000000 0.0000000000
0.9990234375 0.0000000000 0.0000000000
0.9990234375 0.0000000000 0.0000000000
0.0000000000 0.0000000000 0.0000000000
0.0000000000 0.0000000000 0.0000000000
0.0000000000 0.0000000000 0.0000000000
0.0302734375 0.0000000000 0.0000000000
0.0683593750 0.0000000000 0.0000000000
0.1152343750 0.0000000000 0.0000000000
0.1611328125 0.0000000000 0.0000000000
0.2080078125 0.0000000000 0.0000000000
0.2548828125 0.0000000000 0.0000000000
0.3037109375 0.0000000000 0.0000000000
0.3554687500 0.0000000000 0.0000000000
0.4101562500 0.0000000000 0.0000000000
0.4677734375 0.0000000000 0.0000000000
0.5302734375 0.0000000000 0.0000000000
0.5986328125 0.0000000000 0.0000000000
0.6708984375 0.0000000000 0.0000000000
0.7500000000 0.0000000000 0.0000000000
0.8359375000 0.0000000000 0.0000000000
0.9287109375 0.0000000000 0.0000000000
0.9990234375 0.0000000000 0.0000000000
0.9990234375 0.0000000000 0.0000000000
0.9990234375 0.0000000000 0.0000000000
0.9990234375 0.0000000000 0.0000000000
0.9990234375 0.0000000000 0.0000000000
0.9990234375 0.0000000000 0.0000000000
0.9990234375 0.0000000000 0.0000000000
0.9990234375 0.0000000000 0.0000000000
0.9990234375 0.0000000000 0.0000000000
0.9990234375 0.0000000000 0.0000000000
0.9990234375 0.0000000000 0.0000000000
0.9990234375 0.0000000000 0.0000000000
0.9990234375 0.0000000000 0.0000000000
0.9990234375 0.0000000000 0.0000000000
0.0000000000 0.0351562500 0.0000000000
0.0000000000 0.0322265625 0.0000000000
0.0000000000 0.0302734375 0.0000000000
0.0273437500 0.0273437500 0.0000000000
0.0654296875 0.0244140625 0.0000000000
0.1123046875 0.0214843750 0.0000000000
0.1591796875 0.0185546875 0.0000000000
0.2050781250 0.0146484375 0.0000000000
0.2519531250 0.0117187500 0.0000000000
0.3007812500 0.0078125000 0.0000000000
0.3525390625 0.0039062500 0.0000000000
0.4072265625 0.0000000000 0.0000000000
0.4658203125 0.0000000000 0.0000000000
0.5283203125 0.0000000000 0.0000000000
0.5957031250 0.0000000000 0.0000000000
0.6689453125 0.0000000000 0.0000000000
0.7480468750 0.0000000000 0.0000000000
0.8330078125 0.0000000000 0.0000000000
0.9267578125 0.0000000000 0.0000000000
0.9990234375 0.0000000000 0.0000000000
0.9990234375 0.0000000000 0.0000000000
0.9990234375 0.0000000000 0.0000000000
0.9990234375 0.0000000000 0.0000000000
0.9990234375 0.0000000000 0.0000000000
0.9990234375 0.0000000000 0.0000000000
0.9990234375 0.0000000000 0.0000000000
0.9990234375 0.0000000000 0.0000000000
0.9990234375 0.0000000000 0.0000000000
0.9990234375 0.0000000000 0.0000000000
0.9990234375 0.0000000000 0.0000000000
0.9990234375 0.0000000000 0.0000000000
0.9990234375 0.0000000000 0.0000000000
0.9990234375 0.0000000000 0.0000000000
0.0000000000 0.0732421875 0.0000000000
0.0000000000 0.0712890625 0.0000000000
0.0000000000 0.0683593750 0.0000000000
0.0244140625 0.0654296875 0.0000000000
0.0634765625 0.0634765625 0.0000000000
0.1093750000 0.0595703125 0.0000000000
0.1562500000 0.0566406250 0.0000000000
0.2021484375 0.0527343750 0.0000000000
0.2500000000 0.0498046875 0.0000000000
0.2988281250 0.0458984375 0.0000000000
0.3496093750 0.0429687500 0.0000000000
0.4042968750 0.0390625000 0.0000000000
0.4628906250 0.0341796875 0.0000000000
0.5253906250 0.0302734375 0.0000000000
0.5927734375 0.0253906250 0.0000000000
0.6660156250 0.0205078125 0.0000000000
0.7451171875 0.0146484375 0.0000000000
0.8310546875 0.0087890625 0.0000000000
0.9238281250 0.0019531250 0.0000000000
0.9990234375 0.0000000000 0.0000000000
0.9990234375 0.0000000000 0.0000000000
0.9990234375 0.0000000000 0.0000000000
0.9990234375 0.0000000000 0.0000000000
0.9990234375 0.0000000000 0.0000000000
0.9990234375 0.0000000000 0.0000000000
0.9990234375 0.0000000000 0.0000000000
0.9990234375 0.0000000000 0.0000000000
0.9990234375 0.0000000000 0.0000000000
0.9990234375 0.0000000000 0.0000000000
0.9990234375 0.0000000000 0.0000000000
0.9990234375 0.0000000000 0.0000000000
0.9990234375 0.0000000000 0.0000000000
0.9990234375 0.0000000000 0.0000000000
0.0000000000 0.1201171875 0.0000000000
0.0000000000 0.1171875000 0.0000000000
0.0000000000 0.1152343750 0.0000000000
0.0214843750 0.1123046875 0.0000000000
0.0595703125 0.1093750000 0.0000000000
0.1064453125 0.1064453125 0.0000000000
0.1533203125 0.1025390625 0.0000000000
0.1992187500 0.0996093750 0.0000000000
0.2460937500 0.0966796875 0.0000000000
0.2949218750 0.0927734375 0.0000000000
0.3466796875 0.0888671875 0.0000000000
0.4013671875 0.0849609375 0.0000000000
0.4599609375 0.0810546875 0.0000000000
0.5224609375 0.0761718750 0.0000000000
0.5898437500 0.0722656250 0.0000000000
0.6621093750 0.0664062500 0.0000000000
0.7412109375 0.0605468750 0.0000000000
0.8271484375 0.0546875000 0.0000000000
0.9208984375 0.0478515625 0.0000000000
0.9990234375 0.0410156250 0.0000000000
0.9990234375 0.0361328125 0.0000000000
0.9990234375 0.0322265625 0.0000000000
0.9990234375 0.0283203125 0.0000000000
0.9990234375 0.0253906250 0.0000000000
0.9990234375 0.0234375000 0.0000000000
0.9990234375 0.0234375000 0.0000000000
0.9990234375 0.0234375000 0.0000000000
0.9990234375 0.0234375000 0.0000000000
0.9990234375 0.0234375000 0.0000000000
0.9990234375 0.0234375000 0.0000000000
0.9990234375 0.0234375000 0.0000000000
0.9990234375 0.0234375000 0.0000000000
0.9990234375 0.0234375000 0.0000000000
0.0000000000 0.1660156250 0.0000000000
0.0000000000 0.1640625000 0.0000000000
0.0000000000 0.1611328125 0.0000000000
0.0185546875 0.1591796875 0.0000000000
0.0566406250 0.1562500000 0.0000000000
0.1025390625 0.1533203125 0.0000000000
0.1494140625 0.1494140625 0.0000000000
0.1962890625 0.1464843750 0.0000000000
0.2431640625 0.1425781250 0.0000000000
0.2919921875 0.1396484375 0.0000000000
0.3437500000 0.1357421875 0.0000000000
0.3974609375 0.1318359375 0.0000000000
0.4560546875 0.1279296875 0.0000000000
0.5185546875 0.1230468750 0.0000000000
0.5859375000 0.1181640625 0.0000000000
0.6591796875 0.1132812500 0.0000000000
0.7382812500 0.1074218750 0.0000000000
0.8242187500 0.1015625000 0.0000000000
0.9169921875 0.0947265625 0.0000000000
0.9990234375 0.0878906250 0.0000000000
0.9990234375 0.0830078125 0.0000000000
0.9990234375 0.0791015625 0.0000000000
0.9990234375 0.0751953125 0.0000000000
0.9990234375 0.0722656250 0.0000000000
0.9990234375 0.0703125000 0.0000000000
0.9990234375 0.0703125000 0.0000000000
0.9990234375 0.0703125000 0.0000000000
0.9990234375 0.0703125000 0.0000000000
0.9990234375 0.0703125000 0.0000000000
0.9990234375 0.0703125000 0.0000000000
0.9990234375 0.0703125000 0.0000000000
0.9990234375 0.0703125000 0.0000000000
0.9990234375 0.0703125000 0.0000000000
0.0000000000 0.2128906250 0.0000000000
0.0000000000 0.2099609375 0.0000000000
0.0000000000 0.2080078125 0.0000000000
0.0146484375 0.2050781250 0.0000000000
0.0527343750 0.2021484375 0.0000000000
0.0996093750 0.1992187500 0.0000000000
0.1464843750 0.1962890625 0.0000000000
0.1923828125 0.1923828125 0.0000000000
0.2392578125 0.1894531250 0.0000000000
0.2880859375 0.1855468750 0.0000000000
0.3398437500 0.1816406250 0.0000000000
0.3945312500 0.1777343750 0.0000000000
0.4531250000 0.1738281250 0.0000000000
0.5156250000 0.1699218750 0.0000000000
0.5830078125 0.1650390625 0.0000000000
0.6562500000 0.1591796875 0.0000000000
0.7353515625 0.1542968750 0.0000000000
0.8203125000 0.1474609375 0.0000000000
0.9140625000 0.1406250000 0.0000000000
0.9990234375 0.1337890625 0.0000000000
0.9990234375 0.1289062500 0.0000000000
0.9990234375 0.1250000000 0.0000000000
0.9990234375 0.1220703125 0.0000000000
0.9990234375 0.1191406250 0.0000000000
0.9990234375 0.1162109375 0.0000000000
0.9990234375 0.1162109375 0.0000000000
0.9990234375 0.1162109375 0.0000000000
0.9990234375 0.1162109375 0.0000000000
0.9990234375 0.1162109375 0.0000000000
0.9990234375 0.1162109375 0.0000000000
0.9990234375 0.1162109375 0.0000000000
0.9990234375 0.1162109375 0.0000000000
0.9990234375 0.1162109375 0.0000000000
0.0000000000 0.2597656250 0.0000000000
0.0000000000 0.2578125000 0.0000000000
0.0000000000 0.2548828125 0.0000000000
0.0117187500 0.2519531250 0.0000000000
0.0498046875 0.2500000000 0.0000000000
0.0966796875 0.2460937500 0.0000000000
0.1425781250 0.2431640625 0.0000000000
0.1894531250 0.2392578125 0.0000000000
0.2363281250 0.2363281250 0.0000000000
0.2851562500 0.2324218750 0.0000000000
0.3369140625 0.2294921875 0.0000000000
0.3916015625 0.2255859375 0.0000000000
0.4492187500 0.2207031250 0.0000000000
0.5117187500 0.2167968750 0.0000000000
0.5791015625 0.2119140625 0.0000000000
0.6523437500 0.2070312500 0.0000000000
0.7314453125 0.2011718750 0.0000000000
0.8173828125 0.1943359375 0.0000000000
0.9101562500 0.1884765625 0.0000000000
0.9990234375 0.1806640625 0.0000000000
0.9990234375 0.1757812500 0.0000000000
0.9990234375 0.1718750000 0.0000000000
0.9990234375 0.1689453125 0.0000000000
0.9990234375 0.1660156250 0.0000000000
0.9990234375 0.1630859375 0.0000000000
0.9990234375 0.1630859375 0.0000000000
0.9990234375 0.1630859375 0.0000000000
0.9990234375 0.1630859375 0.0000000000
0.9990234375 0.1630859375 0.0000000000
0.9990234375 0.1630859375 0.0000000000
0.9990234375 0.1630859375 0.0000000000
0.9990234375 0.1630859375 0.0000000000
0.9990234375 0.1630859375 0.0000000000
0.0000000000 0.3085937500 0.0000000000
0.0000000000 0.3066406250 0.0000000000
0.0000000000 0.3037109375 0.0000000000
0.0078125000 0.3007812500 0.0000000000
0.0458984375 0.2988281250 0.0000000000
0.0927734375 0.2949218750 0.0000000000
0.1396484375 0.2919921875 0.0000000000
0.1855468750 0.2880859375 0.0000000000
0.2324218750 0.2851562500 0.0000000000
0.2812500000 0.2812500000 0.0000000000
0.3330078125 0.2783203125 0.0000000000
0.3876953125 0.2744140625 0.0000000000
0.4462890625 0.2695312500 0.0000000000
0.5087890625 0.2656250000 0.0000000000
0.5761718750 0.2607421875 0.0000000000
0.6494140625 0.2558593750 0.0000000000
0.7285156250 0.2500000000 0.0000000000
0.8134765625 0.2441406250 0.0000000000
0.9072265625 0.2373046875 0.0000000000
0.9990234375 0.2304687500 0.0000000000
0.9990234375 0.2246093750 0.0000000000
0.9990234375 0.2207031250 0.0000000000
0.9990234375 0.2177734375 0.0000000000
0.9990234375 0.2148437500 0.0000000000
0.9990234375 0.2128906250 0.0000000000
0.9990234375 0.2128906250 0.0000000000
0.9990234375 0.2128906250 0.0000000000
0.9990234375 0.2128906250 0.0000000000
0.9990234375 0.2128906250 0.0000000000
0.9990234375 0.2128906250 0.0000000000
0.9990234375 0.2128906250 0.0000000000
0.9990234375 0.2128906250 0.0000000000
0.9990234375 0.2128906250 0.0000000000
0.0000000000 0.3603515625 0.0000000000
0.0000000000 0.3574218750 0.0000000000
0.0000000000 0.3554687500 0.0000000000
0.0039062500 0.3525390625 0.0000000000
0.0429687500 0.3496093750 0.0000000000
0.0888671875 0.3466796875 0.0000000000
0.1357421875 0.3437500000 0.0000000000
0.1816406250 0.3398437500 0.0000000000
0.2294921875 0.3369140625 0.0000000000
0.2783203125 0.3330078125 0.0000000000
0.3291015625 0.3291015625 0.0000000000
0.3837890625 0.3251953125 0.0000000000
0.4423828125 0.3212890625 0.0000000000
0.5048828125 0.3173828125 0.0000000000
0.5722656250 0.3125000000 0.0000000000
0.6455078125 0.3066406250 0.0000000000
0.7246093750 0.3007812500 0.0000000000
0.8105468750 0.2949218750 0.0000000000
0.9033203125 0.2880859375 0.0000000000
0.9990234375 0.2812500000 0.0000000000
0.9990234375 0.2763671875 0.0000000000
0.9990234375 0.2724609375 0.0000000000
0.9990234375 0.2695312500 0.0000000000
0.9990234375 0.2666015625 0.0000000000
0.9990234375 0.2636718750 0.0000000000
0.9990234375 0.2636718750 0.0000000000
0.9990234375 0.2636718750 0.0000000000
0.9990234375 0.2636718750 0.0000000000
0.9990234375 0.2636718750 0.0000000000
0.9990234375 0.2636718750 0.0000000000
0.9990234375 0.2636718750 0.0000000000
0.9990234375 0.2636718750 0.0000000000
0.9990234375 0.2636718750 0.0000000000
0.0000000000 0.4150390625 0.0000000000
0.0000000000 0.4121093750 0.0000000000
0.0000000000 0.4101562500 0.0000000000
0.0000000000 0.4072265625 0.0000000000
0.0390625000 0.4042968750 0.0000000000
0.0849609375 0.4013671875 0.0000000000
0.1318359375 0.3974609375 0.0000000000
0.1777343750 0.3945312500 0.0000000000
0.2255859375 0.3916015625 0.0000000000
0.2744140625 0.3876953125 0.0000000000
0.3251953125 0.3837890625 0.0000000000
0.3798828125 0.3798828125 0.0000000000
0.4384765625 0.3759765625 0.0000000000
0.5009765625 0.3710937500 0.0000000000
0.5683593750 0.3662109375 0.0000000000
0.6416015625 0.3613281250 0.0000000000
0.7207031250 0.3554687500 0.0000000000
0.8066406250 0.3496093750 0.0000000000
0.8994140625 0.3427734375 0.0000000000
0.9980468750 0.3359375000 0.0000000000
0.9990234375 0.3310546875 0.0000000000
0.9990234375 0.3271484375 0.0000000000
0.9990234375 0.3232421875 0.0000000000
0.9990234375 0.3203125000 0.0000000000
0.9990234375 0.3183593750 0.0000000000
0.9990234375 0.3183593750 0.0000000000
0.9990234375 0.3183593750 0.0000000000
0.9990234375 0.3183593750 0.0000000000
0.9990234375 0.3183593750 0.0000000000
0.9990234375 0.3183593750 0.0000000000
0.9990234375 0.3183593750 0.0000000000
0.9990234375 0.3183593750 0.0000000000
0.9990234375 0.3183593750 0.0000000000
0.0000000000 0.4726562500 0.0000000000
0.0000000000 0.4707031250 0.0000000000
0.0000000000 0.4677734375 0.0000000000
0.0000000000 0.4658203125 0.0000000000
0.0341796875 0.4628906250 0.0000000000
0.0810546875 0.4599609375 0.0000000000
0.1279296875 0.4560546875 0.0000000000
0.1738281250 0.4531250000 0.0000000000
0.2207031250 0.4492187500 0.0000000000
0.2695312500 0.4462890625 0.0000000000
0.3212890625 0.4423828125 0.0000000000
0.3759765625 0.4384765625 0.0000000000
0.4345703125 0.4345703125 0.0000000000
0.4970703125 0.4296875000 0.0000000000
0.5644531250 0.4248046875 0.0000000000
0.6376953125 0.4199218750 0.0000000000
0.7167968750 0.4140625000 0.0000000000
0.8017578125 0.4082031250 0.0000000000
0.8955078125 0.4013671875 0.0000000000
0.9941406250 0.3945312500 0.0000000000
0.9990234375 0.3886718750 0.0000000000
0.9990234375 0.3847656250 0.0000000000
0.9990234375 0.3818359375 0.0000000000
0.9990234375 0.3789062500 0.0000000000
0.9990234375 0.3769531250 0.0000000000
0.9990234375 0.3769531250 0.0000000000
0.9990234375 0.3769531250 0.0000000000
0.9990234375 0.3769531250 0.0000000000
0.9990234375 0.3769531250 0.0000000000
0.9990234375 0.3769531250 0.0000000000
0.9990234375 0.3769531250 0.0000000000
0.9990234375 0.3769531250 0.0000000000
0.9990234375 0.3769531250 0.0000000000
0.0000000000 0.5351562500 0.0000000000
0.0000000000 0.5332031250 0.0000000000
0.0000000000 0.5302734375 0.0000000000
0.0000000000 0.5283203125 0.0000000000
0.0302734375 0.5253906250 0.0000000000
0.0761718750 0.5224609375 0.0000000000
0.1230468750 0.5185546875 0.0000000000
0.1699218750 0.5156250000 0.0000000000
0.2167968750 0.5117187500 0.0000000000
0.2656250000 0.5087890625 0.0000000000
0.3173828125 0.5048828125 0.0000000000
0.3710937500 0.5009765625 0.0000000000
0.4296875000 0.4970703125 0.0000000000
0.4921875000 0.4921875000 0.0000000000
0.5595703125 0.4873046875 0.0000000000
0.6328125000 0.4824218750 0.0000000000
0.7119140625 0.4765625000 0.0000000000
0.7978515625 0.4707031250 0.0000000000
0.8906250000 0.4638671875 0.0000000000
0.9892578125 0.4570312500 0.0000000000
0.9990234375 0.4521484375 0.0000000000
0.9990234375 0.4482421875 0.0000000000
0.9990234375 0.4443359375 0.0000000000
0.9990234375 0.4414062500 0.0000000000
0.9990234375 0.4394531250 0.0000000000
0.9990234375 0.4394531250 0.0000000000
0.9990234375 0.4394531250 0.0000000000
0.9990234375 0.4394531250 0.0000000000
0.9990234375 0.4394531250 0.0000000000
0.9990234375 0.4394531250 0.0000000000
0.9990234375 0.4394531250 0.0000000000
0.9990234375 0.4394531250 0.0000000000
0.9990234375 0.4394531250 0.0000000000
0.0000000000 0.6025390625 0.0000000000
0.0000000000 0.6005859375 0.0000000000
0.0000000000 0.5986328125 0.0000000000
0.0000000000 0.5957031250 0.0000000000
0.0253906250 0.5927734375 0.0000000000
0.0722656250 0.5898437500 0.0000000000
0.1181640625 0.5859375000 0.0000000000
0.1650390625 0.5830078125 0.0000000000
0.2119140625 0.5791015625 0.0000000000
0.2607421875 0.5761718750 0.0000000000
0.3125000000 0.5722656250 0.0000000000
0.3662109375 0.5683593750 0.0000000000
0.4248046875 0.5644531250 0.0000000000
0.4873046875 0.5595703125 0.0000000000
0.5546875000 0.5546875000 0.0000000000
0.6279296875 0.5498046875 0.0000000000
0.7070312500 0.5439453125 0.0000000000
0.7929687500 0.5380859375 0.0000000000
0.8857421875 0.5312500000 0.0000000000
0.9843750000 0.5244140625 0.0000000000
0.9990234375 0.5195312500 0.0000000000
0.9990234375 0.5156250000 0.0000000000
0.9990234375 0.5117187500 0.0000000000
0.9990234375 0.5087890625 0.0000000000
0.9990234375 0.5068359375 0.0000000000
0.9990234375 0.5068359375 0.0000000000
0.9990234375 0.5068359375 0.0000000000
0.9990234375 0.5068359375 0.0000000000
0.9990234375 0.5068359375 0.0000000000
0.9990234375 0.5068359375 0.0000000000
0.9990234375 0.5068359375 0.0000000000
0.9990234375 0.5068359375 0.0000000000
0.9990234375 0.5068359375 0.0000000000
0.0000000000 0.6757812500 0.0000000000
0.0000000000 0.6738281250 0.0000000000
0.0000000000 0.6708984375 0.0000000000
0.0000000000 0.6689453125 0.0000000000
0.0205078125 0.6660156250 0.0000000000
0.0664062500 0.6621093750 0.0000000000
0.1132812500 0.6591796875 0.0000000000
0.1591796875 0.6562500000 0.0000000000
0.2070312500 0.6523437500 0.0000000000
0.2558593750 0.6494140625 0.0000000000
0.3066406250 0.6455078125 0.0000000000
0.3613281250 0.6416015625 0.0000000000
0.4199218750 0.6376953125 0.0000000000
0.4824218750 0.6328125000 0.0000000000
0.5498046875 0.6279296875 0.0000000000
0.6230468750 0.6230468750 0.0000000000
0.7021484375 0.6171875000 0.0000000000
0.7871093750 0.6113281250 0.0000000000
0.8808593750 0.6044921875 0.0000000000
0.9794921875 0.5976562500 0.0000000000
0.9990234375 0.5917968750 0.0000000000
0.9990234375 0.5878906250 0.0000000000
0.9990234375 0.5849609375 0.0000000000
0.9990234375 0.5820312500 0.0000000000
0.9990234375 0.5800781250 0.0000000000
0.9990234375 0.5800781250 0.0000000000
0.9990234375 0.5800781250 0.0000000000
0.9990234375 0.5800781250 0.0000000000
0.9990234375 0.5800781250 0.0000000000
0.9990234375 0.5800781250 0.0000000000
0.9990234375 0.5800781250 0.0000000000
0.9990234375 0.5800781250 0.0000000000
0.9990234375 0.5800781250 0.0000000000
0.0000000000 0.7548828125 0.0000000000
0.0000000000 0.7529296875 0.0000000000
0.0000000000 0.7500000000 0.0000000000
0.0000000000 0.7480468750 0.0000000000
0.0146484375 0.7451171875 0.0000000000
0.0605468750 0.7412109375 0.0000000000
0.1074218750 0.7382812500 0.0000000000
0.1542968750 0.7353515625 0.0000000000
0.2011718750 0.7314453125 0.0000000000
0.2500000000 0.7285156250 0.0000000000
0.3007812500 0.7246093750 0.0000000000
0.3554687500 0.7207031250 0.0000000000
0.4140625000 0.7167968750 0.0000000000
0.4765625000 0.7119140625 0.0000000000
0.5439453125 0.7070312500 0.0000000000
0.6171875000 0.7021484375 0.0000000000
0.6962890625 0.6962890625 0.0000000000
0.7822265625 0.6904296875 0.0000000000
0.8750000000 0.6835937500 0.0000000000
0.9736328125 0.6767578125 0.0000000000
0.9990234375 0.6708984375 0.0000000000
0.9990234375 0.6669921875 0.0000000000
0.9990234375 0.6640625000 0.0000000000
0.9990234375 0.6611328125 0.0000000000
0.9990234375 0.6591796875 0.0000000000
0.9990234375 0.6591796875 0.0000000000
0.9990234375 0.6591796875 0.0000000000
0.9990234375 0.6591796875 0.0000000000
0.9990234375 0.6591796875 0.0000000000
0.9990234375 0.6591796875 0.0000000000
0.9990234375 0.6591796875 0.0000000000
0.9990234375 0.6591796875 0.0000000000
0.9990234375 0.6591796875 0.0000000000
0.0000000000 0.8408203125 0.0000000000
0.0000000000 0.8388671875 0.0000000000
0.0000000000 0.8359375000 0.0000000000
0.0000000000 0.8330078125 0.0000000000
0.0087890625 0.8310546875 0.0000000000
0.0546875000 0.8271484375 0.0000000000
0.1015625000 0.8242187500 0.0000000000
0.1474609375 0.8203125000 0.0000000000
0.1943359375 0.8173828125 0.0000000000
0.2441406250 0.8134765625 0.0000000000
0.2949218750 0.8105468750 0.0000000000
0.3496093750 0.8066406250 0.0000000000
0.4082031250 0.8017578125 0.0000000000
0.4707031250 0.7978515625 0.0000000000
0.5380859375 0.7929687500 0.0000000000
0.6113281250 0.7871093750 0.0000000000
0.6904296875 0.7822265625 0.0000000000
0.7753906250 0.7753906250 0.0000000000
0.8691406250 0.7695312500 0.0000000000
0.9677734375 0.7617187500 0.0000000000
0.9990234375 0.7568359375 0.0000000000
0.9990234375 0.7529296875 0.0000000000
0.9990234375 0.7500000000 0.0000000000
0.9990234375 0.7470703125 0.0000000000
0.9990234375 0.7441406250 0.0000000000
0.9990234375 0.7441406250 0.0000000000
0.9990234375 0.7441406250 0.0000000000
0.9990234375 0.7441406250 0.0000000000
0.9990234375 0.7441406250 0.0000000000
0.9990234375 0.7441406250 0.0000000000
0.9990234375 0.7441406250 0.0000000000
0.9990234375 0.7441406250 0.0000000000
0.9990234375 0.7441406250 0.0000000000
0.0000000000 0.9335937500 0.0000000000
0.0000000000 0.9316406250 0.0000000000
0.0000000000 0.9287109375 0.0000000000
0.0000000000 0.9267578125 0.0000000000
0.0019531250 0.9238281250 0.0000000000
0.0478515625 0.9208984375 0.0000000000
0.0947265625 0.9169921875 0.0000000000
0.1406250000 0.9140625000 0.0000000000
0.1884765625 0.9101562500 0.0000000000
0.2373046875 0.9072265625 0.0000000000
0.2880859375 0.9033203125 0.0000000000
0.3427734375 0.8994140625 0.0000000000
0.4013671875 0.8955078125 0.0000000000
0.4638671875 0.8906250000 0.0000000000
0.5312500000 0.8857421875 0.0000000000
0.6044921875 0.8808593750 0.0000000000
0.6835937500 0.8750000000 0.0000000000
0.7695312500 0.8691406250 0.0000000000
0.8623046875 0.8623046875 0.0000000000
0.9609375000 0.8554687500 0.0000000000
