Blackmagic Design/Blackmagic 4.6K Film to Video v3.cube
# DaVinci Resolve Cube (3D LUT).
#
#Blackmagic 4.6K Film to Video v3
#Blackmagic 4.6K Film to Video using v3 Color Science.
#Matchs the 'Video' output from BMD 4.6K cameras.
LUT_3D_SIZE 5
LUT_3D_INPUT_RANGE 0.0000000000 1.0000000000
0.0000000000 0.0000000000 0.0000000000
0.2182522714 0.0000000000 0.0000000000
0.6467933059 0.0000000000 0.0000000000
1.0000000000 0.0000000000 0.0000000000
1.0000000000 0.0000000000 0.0000000000
0.0000000000 0.2182527781 0.0000000000
0.2153649628 0.2153643519 0.0000000000
0.6457823515 0.2017749846 0.0000000000
1.0000000000 0.1203023642 0.0000000000
1.0000000000 0.0000000000 0.0000000000
0.0000000000 0.6467942595 0.0000000000
0.2017810196 0.6457829475 0.0000000000
0.6411558390 0.6411546469 0.0000000000
1.0000000000 0.6180009246 0.0000000000
1.0000000000 0.4884728193 0.0000000000
0.0000000000 1.0000000000 0.0000000000
0.1203500330 1.0000000000 0.0000000000
0.6180112958 1.0000000000 0.0000000000
1.0000000000 1.0000000000 0.0000000000
1.0000000000 1.0000000000 0.0000000000
0.0000000000 1.0000000000 0.0000000000
0.0000000000 1.0000000000 0.0000000000
0.4885429144 1.0000000000 0.0000000000
1.0000000000 1.0000000000 0.0000000000
1.0000000000 1.0000000000 0.0000000000
0.0000000000 0.0000000000 0.2182522565
0.2153612673 0.0000000000 0.2153624296
0.6457810402 0.0000000000 0.2017661780
1.0000000000 0.0000000000 0.1202406809
1.0000000000 0.0000000000 0.0000000000
0.0000000000 0.2153623849 0.2153638005
0.2124411315 0.2124411315 0.2124411315
0.6447684169 0.1986877173 0.1986808479
1.0000000000 0.1157305315 0.1156703159
1.0000000000 0.0000000000 0.0000000000
0.0000000000 0.6457822323 0.2017742544
0.1986931711 0.6447692513 0.1986875683
0.6401341558 0.6401332021 0.1841025501
1.0000000000 0.6169388890 0.0931469798
1.0000000000 0.4871173203 0.0000000000
0.0000000000 1.0000000000 0.1203002632
0.1157784536 1.0000000000 0.1157292575
0.6169490814 1.0000000000 0.0932030082
1.0000000000 1.0000000000 0.0000000000
1.0000000000 1.0000000000 0.0000000000
0.0000000000 1.0000000000 0.0000000000
0.0000000000 1.0000000000 0.0000000000
0.4871873260 1.0000000000 0.0000000000
1.0000000000 1.0000000000 0.0000000000
1.0000000000 1.0000000000 0.0000000000
0.0000000000 0.0000000000 0.6467932463
0.2017593533 0.0000000000 0.6457814574
0.6411486268 0.0000000000 0.6411508918
1.0000000000 0.0000000000 0.6179855466
1.0000000000 0.0000000000 0.4883818030
0.0000000000 0.2017635107 0.6457819343
0.1986751705 0.1986781806 0.6447684169
0.6401282549 0.1840998679 0.6401301026
1.0000000000 0.0931999236 0.6169242263
1.0000000000 0.0000000000 0.4870269597
0.0000000000 0.6411508322 0.6411535740
0.1841024607 0.6401300430 0.6401323080
0.6354581118 0.6354581118 0.6354581118
1.0000000000 0.6120766997 0.6120651364
1.0000000000 0.4808935523 0.4808061421
0.0000000000 1.0000000000 0.6179995537
0.0932496563 1.0000000000 0.6169377565
0.6120859385 1.0000000000 0.6120764613
1.0000000000 1.0000000000 0.5877032280
1.0000000000 1.0000000000 0.4491435885
0.0000000000 1.0000000000 0.4884695709
0.0000000000 1.0000000000 0.4871143401
0.4809631109 1.0000000000 0.4808916748
1.0000000000 1.0000000000 0.4492196739
1.0000000000 1.0000000000 0.2428725064
0.0000000000 0.0000000000 1.0000000000
0.1201902628 0.0000000000 1.0000000000
0.6179737449 0.0000000000 1.0000000000
1.0000000000 0.0000000000 1.0000000000
1.0000000000 0.0000000000 1.0000000000
0.0000000000 0.1202178076 1.0000000000
0.1156204119 0.1156468838 1.0000000000
0.6169127822 0.0931204036 1.0000000000
1.0000000000 0.0000000000 1.0000000000
1.0000000000 0.0000000000 1.0000000000
0.0000000000 0.6179810166 1.0000000000
0.0930994079 0.6169197559 1.0000000000
0.6120555401 0.6120606065 1.0000000000
1.0000000000 0.5876988173 1.0000000000
1.0000000000 0.4492154717 1.0000000000
0.0000000000 1.0000000000 1.0000000000
0.0000000000 1.0000000000 1.0000000000
0.5877031088 1.0000000000 1.0000000000
1.0000000000 1.0000000000 1.0000000000
1.0000000000 1.0000000000 1.0000000000
0.0000000000 1.0000000000 1.0000000000
0.0000000000 1.0000000000 1.0000000000
0.4492830038 1.0000000000 1.0000000000
1.0000000000 1.0000000000 1.0000000000
1.0000000000 1.0000000000 1.0000000000
0.0000000000 0.0000000000 1.0000000000
0.0000000000 0.0000000000 1.0000000000
0.4883075655 0.0000000000 1.0000000000
1.0000000000 0.0000000000 1.0000000000
1.0000000000 0.0000000000 1.0000000000
0.0000000000 0.0000000000 1.0000000000
0.0000000000 0.0000000000 1.0000000000
0.4869530201 0.0000000000 1.0000000000
1.0000000000 0.0000000000 1.0000000000
1.0000000000 0.0000000000 1.0000000000
0.0000000000 0.4883482754 1.0000000000
0.0000000000 0.4869933128 1.0000000000
0.4807337224 0.4807721376 1.0000000000
1.0000000000 0.4491074979 1.0000000000
1.0000000000 0.2428112030 1.0000000000
0.0000000000 1.0000000000 1.0000000000
0.0000000000 1.0000000000 1.0000000000
0.4490790069 1.0000000000 1.0000000000
1.0000000000 1.0000000000 1.0000000000
1.0000000000 1.0000000000 1.0000000000
0.0000000000 1.0000000000 1.0000000000
0.0000000000 1.0000000000 1.0000000000
0.2428706586 1.0000000000 1.0000000000
1.0000000000 1.0000000000 1.0000000000
1.0000000000 1.0000000000 1.0000000000
