Blackmagic Design/Blackmagic 4.6K Film to Video.cube
# DaVinci Resolve Cube (3D LUT).
#
#Blackmagic Design 4.6K Film to Video
LUT_3D_SIZE 33
LUT_3D_INPUT_RANGE 0.0000000000 1.0000000000
0.0000000000 0.0000000000 0.0000000000
0.0000000000 0.0000000000 0.0000000000
0.0408395752 0.0000000000 0.0000000000
0.0964528471 0.0000000000 0.0000000000
0.1520661116 0.0000000000 0.0000000000
0.2076793909 0.0000000000 0.0000000000
0.2632926702 0.0000000000 0.0000000000
0.3189059198 0.0000000000 0.0000000000
0.3745191991 0.0000000000 0.0000000000
0.4301324785 0.0000000000 0.0000000000
0.4857457280 0.0000000000 0.0000000000
0.5413590074 0.0000000000 0.0000000000
0.5969722867 0.0000000000 0.0000000000
0.6525855660 0.0000000000 0.0000000000
0.7081988454 0.0000000000 0.0000000000
0.7638444901 0.0000000000 0.0000000000
0.8197305799 0.0000000000 0.0000000000
0.8759041429 0.0000000000 0.0000000000
0.9323775768 0.0000000000 0.0000000000
0.9891636968 0.0000000000 0.0000000000
1.0000000000 0.0000000000 0.0000000000
1.0000000000 0.0000000000 0.0000000000
1.0000000000 0.0000000000 0.0000000000
1.0000000000 0.0000000000 0.0000000000
1.0000000000 0.0000000000 0.0000000000
1.0000000000 0.0000000000 0.0000000000
1.0000000000 0.0000000000 0.0000000000
1.0000000000 0.0000000000 0.0000000000
1.0000000000 0.0000000000 0.0000000000
1.0000000000 0.0000000000 0.0000000000
1.0000000000 0.0000000000 0.0000000000
1.0000000000 0.0000000000 0.0000000000
1.0000000000 0.0000000000 0.0000000000
0.0000000000 0.0000000000 0.0000000000
0.0000000000 0.0000000000 0.0000000000
0.0176720284 0.0000000000 0.0000000000
0.0732852966 0.0000000000 0.0000000000
0.1288985759 0.0000000000 0.0000000000
0.1845118403 0.0000000000 0.0000000000
0.2401251048 0.0000000000 0.0000000000
0.2957383692 0.0000000000 0.0000000000
0.3513516486 0.0000000000 0.0000000000
0.4069649279 0.0000000000 0.0000000000
0.4625782073 0.0000000000 0.0000000000
0.5181914568 0.0000000000 0.0000000000
0.5739039183 0.0000000000 0.0000000000
0.6298933029 0.0000000000 0.0000000000
0.6861745715 0.0000000000 0.0000000000
0.7427603006 0.0000000000 0.0000000000
0.7996636033 0.0000000000 0.0000000000
0.8568981886 0.0000000000 0.0000000000
0.9144783616 0.0000000000 0.0000000000
0.9726644158 0.0000000000 0.0000000000
1.0000000000 0.0000000000 0.0000000000
1.0000000000 0.0000000000 0.0000000000
1.0000000000 0.0000000000 0.0000000000
1.0000000000 0.0000000000 0.0000000000
1.0000000000 0.0000000000 0.0000000000
1.0000000000 0.0000000000 0.0000000000
1.0000000000 0.0000000000 0.0000000000
1.0000000000 0.0000000000 0.0000000000
1.0000000000 0.0000000000 0.0000000000
1.0000000000 0.0000000000 0.0000000000
1.0000000000 0.0000000000 0.0000000000
1.0000000000 0.0000000000 0.0000000000
1.0000000000 0.0000000000 0.0000000000
0.0000000000 0.0082780058 0.0000000000
0.0000000000 0.0013912282 0.0000000000
0.0000000000 0.0000000000 0.0000000000
0.0501177497 0.0000000000 0.0000000000
0.1057310179 0.0000000000 0.0000000000
0.1613442898 0.0000000000 0.0000000000
0.2169575691 0.0000000000 0.0000000000
0.2725708187 0.0000000000 0.0000000000
0.3281904459 0.0000000000 0.0000000000
0.3840004504 0.0000000000 0.0000000000
0.4400946796 0.0000000000 0.0000000000
0.4964852929 0.0000000000 0.0000000000
0.5531851053 0.0000000000 0.0000000000
0.6102074385 0.0000000000 0.0000000000
0.6675661206 0.0000000000 0.0000000000
0.7252757549 0.0000000000 0.0000000000
0.7835426331 0.0000000000 0.0000000000
0.8414962292 0.0000000000 0.0000000000
0.8993389606 0.0000000000 0.0000000000
0.9570972919 0.0000000000 0.0000000000
1.0000000000 0.0000000000 0.0000000000
1.0000000000 0.0000000000 0.0000000000
1.0000000000 0.0000000000 0.0000000000
1.0000000000 0.0000000000 0.0000000000
1.0000000000 0.0000000000 0.0000000000
1.0000000000 0.0000000000 0.0000000000
1.0000000000 0.0000000000 0.0000000000
1.0000000000 0.0000000000 0.0000000000
1.0000000000 0.0000000000 0.0000000000
1.0000000000 0.0000000000 0.0000000000
1.0000000000 0.0000000000 0.0000000000
1.0000000000 0.0000000000 0.0000000000
1.0000000000 0.0000000000 0.0000000000
0.0000000000 0.0476104915 0.0000000000
0.0000000000 0.0407237150 0.0000000000
0.0000000000 0.0338369384 0.0000000000
0.0269501973 0.0269501600 0.0000000000
0.0825634673 0.0200633816 0.0000000000
0.1382225603 0.0132224206 0.0000000000
0.1941346675 0.0066344780 0.0000000000
0.2503353357 0.0003351099 0.0000000000
0.3068370223 0.0000000000 0.0000000000
0.3636526763 0.0000000000 0.0000000000
0.4207958281 0.0000000000 0.0000000000
0.4782805741 0.0000000000 0.0000000000
0.5361216664 0.0000000000 0.0000000000
0.5944020152 0.0000000000 0.0000000000
0.6523118615 0.0000000000 0.0000000000
0.7101210356 0.0000000000 0.0000000000
0.7678543925 0.0000000000 0.0000000000
0.8255330324 0.0000000000 0.0000000000
0.8831749558 0.0000000000 0.0000000000
0.9407960176 0.0000000000 0.0000000000
0.9984099865 0.0000000000 0.0000000000
1.0000000000 0.0000000000 0.0000000000
1.0000000000 0.0000000000 0.0000000000
1.0000000000 0.0000000000 0.0000000000
1.0000000000 0.0000000000 0.0000000000
1.0000000000 0.0000000000 0.0000000000
1.0000000000 0.0000000000 0.0000000000
1.0000000000 0.0000000000 0.0000000000
1.0000000000 0.0000000000 0.0000000000
1.0000000000 0.0000000000 0.0000000000
1.0000000000 0.0000000000 0.0000000000
1.0000000000 0.0000000000 0.0000000000
1.0000000000 0.0000000000 0.0000000000
0.0000000000 0.0869429782 0.0000000000
0.0000000000 0.0800561979 0.0000000000
0.0000000000 0.0732913911 0.0000000000
0.0043071038 0.0668070987 0.0000000000
0.0606159009 0.0606158525 0.0000000000
0.1172303632 0.0547302626 0.0000000000
0.1741636544 0.0491635092 0.0000000000
0.2314294875 0.0439292975 0.0000000000
0.2890422344 0.0390419886 0.0000000000
0.3472551703 0.0347548835 0.0000000000
0.4052442014 0.0302438457 0.0000000000
0.4631142020 0.0256138183 0.0000000000
0.5208931565 0.0208926946 0.0000000000
0.5786042809 0.0161037985 0.0000000000
0.6362676024 0.0112670632 0.0000000000
0.6939002275 0.0063996273 0.0000000000
0.7515171766 0.0015165380 0.0000000000
0.8091316819 0.0000000000 0.0000000000
0.8667556643 0.0000000000 0.0000000000
0.9243997335 0.0000000000 0.0000000000
0.9820736647 0.0000000000 0.0000000000
1.0000000000 0.0000000000 0.0000000000
1.0000000000 0.0000000000 0.0000000000
1.0000000000 0.0000000000 0.0000000000
1.0000000000 0.0000000000 0.0000000000
1.0000000000 0.0000000000 0.0000000000
1.0000000000 0.0000000000 0.0000000000
1.0000000000 0.0000000000 0.0000000000
1.0000000000 0.0000000000 0.0000000000
1.0000000000 0.0000000000 0.0000000000
1.0000000000 0.0000000000 0.0000000000
1.0000000000 0.0000000000 0.0000000000
1.0000000000 0.0000000000 0.0000000000
0.0000000000 0.1270185560 0.0000000000
0.0000000000 0.1209371015 0.0000000000
0.0000000000 0.1151660383 0.0000000000
0.0000000000 0.1097187251 0.0000000000
0.0421091430 0.1046091244 0.0000000000
0.0998518318 0.0998517647 0.0000000000
0.1581285000 0.0956283808 0.0000000000
0.2160706073 0.0910704508 0.0000000000
0.2739045322 0.0864043087 0.0000000000
0.3316562474 0.0816560015 0.0000000000
0.3893478513 0.0768475533 0.0000000000
0.4469981194 0.0719977617 0.0000000000
0.5046234131 0.0671230033 0.0000000000
0.5622380376 0.0622375645 0.0000000000
0.6198546886 0.0573541932 0.0000000000
0.6774848104 0.0524842441 0.0000000000
0.7351386547 0.0476380549 0.0000000000
0.7928256392 0.0428249761 0.0000000000
0.8505544066 0.0380536877 0.0000000000
0.9083328843 0.0333321467 0.0000000000
0.9661686420 0.0286678504 0.0000000000
1.0000000000 0.0240677670 0.0000000000
1.0000000000 0.0195385255 0.0000000000
1.0000000000 0.0150864497 0.0000000000
1.0000000000 0.0107174562 0.0000000000
1.0000000000 0.0064373398 0.0000000000
1.0000000000 0.0022516462 0.0000000000
1.0000000000 0.0000000000 0.0000000000
1.0000000000 0.0000000000 0.0000000000
1.0000000000 0.0000000000 0.0000000000
1.0000000000 0.0000000000 0.0000000000
1.0000000000 0.0000000000 0.0000000000
1.0000000000 0.0000000000 0.0000000000
0.0000000000 0.1703187078 0.0000000000
0.0000000000 0.1653356254 0.0000000000
0.0000000000 0.1607102454 0.0000000000
0.0000000000 0.1564834267 0.0000000000
0.0268827658 0.1518827826 0.0000000000
0.0846839622 0.1471839398 0.0000000000
0.1424114555 0.1424113810 0.0000000000
0.2000859529 0.1375858337 0.0000000000
0.2577253580 0.1327251941 0.0000000000
0.3153451979 0.1278449595 0.0000000000
0.3729591668 0.1229588911 0.0000000000
0.4305794537 0.1180791408 0.0000000000
0.4882170856 0.1132167131 0.0000000000
0.5458819270 0.1083815172 0.0000000000
0.6035831571 0.1035827026 0.0000000000
0.6613291502 0.0988286212 0.0000000000
0.7191276550 0.0941270888 0.0000000000
0.7769860029 0.0894853696 0.0000000000
0.8349109888 0.0849103555 0.0000000000
0.8929091692 0.0804084763 0.0000000000
0.9509866834 0.0759859458 0.0000000000
1.0000000000 0.0716486946 0.0000000000
1.0000000000 0.0674023181 0.0000000000
1.0000000000 0.0632523447 0.0000000000
1.0000000000 0.0592041202 0.0000000000
1.0000000000 0.0552627258 0.0000000000
1.0000000000 0.0514332540 0.0000000000
1.0000000000 0.0477206483 0.0000000000
1.0000000000 0.0441298112 0.0000000000
1.0000000000 0.0406654403 0.0000000000
1.0000000000 0.0373323187 0.0000000000
1.0000000000 0.0341351219 0.0000000000
1.0000000000 0.0310785547 0.0000000000
0.0000000000 0.2173216492 0.0000000000
0.0000000000 0.2126821280 0.0000000000
0.0000000000 0.2079538405 0.0000000000
0.0000000000 0.2031597495 0.0000000000
0.0108194435 0.1983194947 0.0000000000
0.0684500113 0.1934500188 0.0000000000
0.1260662228 0.1885661781 0.0000000000
0.1836811453 0.1836810559 0.0000000000
0.2413065434 0.1788064092 0.0000000000
0.2989529669 0.1739527732 0.0000000000
0.3566300571 0.1691298336 0.0000000000
0.4143466353 0.1643463522 0.0000000000
0.4721108675 0.1596105397 0.0000000000
0.5299303532 0.1549299508 0.0000000000
0.5878121853 0.1503117532 0.0000000000
0.6457630992 0.1457626373 0.0000000000
0.7037894726 0.1412889510 0.0000000000
0.7618973851 0.1368967742 0.0000000000
0.8200926185 0.1325919777 0.0000000000
0.8783807755 0.1283800751 0.0000000000
0.9367672205 0.1242665276 0.0000000000
0.9952573180 0.1202565730 0.0000000000
1.0000000000 0.1163553894 0.0000000000
1.0000000000 0.1125679016 0.0000000000
1.0000000000 0.1088990495 0.0000000000
1.0000000000 0.1053536758 0.0000000000
1.0000000000 0.1019365937 0.0000000000
1.0000000000 0.0986524150 0.0000000000
1.0000000000 0.0955058634 0.0000000000
1.0000000000 0.0925015807 0.0000000000
1.0000000000 0.0896442235 0.0000000000
1.0000000000 0.0869383141 0.0000000000
1.0000000000 0.0843884945 0.0000000000
0.0000000000 0.2639020383 0.0000000000
0.0000000000 0.2590492964 0.0000000000
0.0000000000 0.2541729808 0.0000000000
0.0000000000 0.2492872179 0.0000000000
0.0000000000 0.2444046289 0.0000000000
0.0520364121 0.2395364493 0.0000000000
0.1096929461 0.2346929312 0.0000000000
0.1673834175 0.2298833579 0.0000000000
0.2251164317 0.2251163274 0.0000000000
0.2828999460 0.2203997821 0.0000000000
0.3407413065 0.2157410979 0.0000000000
0.3986475170 0.2111472785 0.0000000000
0.4566252232 0.2066249251 0.0000000000
0.5146805644 0.2021802366 0.0000000000
0.5728195906 0.1978191882 0.0000000000
0.6310480237 0.1935475469 0.0000000000
0.6893713474 0.1893708706 0.0000000000
0.7477949858 0.1852944344 0.0000000000
0.8063240647 0.1813234836 0.0000000000
0.8649637103 0.1774630994 0.0000000000
0.9237189293 0.1737182736 0.0000000000
0.9825945497 0.1700938195 0.0000000000
1.0000000000 0.1665945947 0.0000000000
1.0000000000 0.1632253230 0.0000000000
1.0000000000 0.1599907577 0.0000000000
1.0000000000 0.1568954587 0.0000000000
1.0000000000 0.1539441198 0.0000000000
1.0000000000 0.1511413306 0.0000000000
1.0000000000 0.1484917700 0.0000000000
1.0000000000 0.1459999084 0.0000000000
1.0000000000 0.1436704248 0.0000000000
1.0000000000 0.1415079087 0.0000000000
1.0000000000 0.1395170391 0.0000000000
0.0000000000 0.3100087047 0.0000000000
0.0000000000 0.3051301241 0.0000000000
0.0000000000 0.3002697825 0.0000000000
0.0000000000 0.2954376042 0.0000000000
0.0000000000 0.2906425595 0.0000000000
0.0358929336 0.2858930230 0.0000000000
0.0936966538 0.2811966836 0.0000000000
0.1515608728 0.2765608430 0.0000000000
0.2094923556 0.2719922960 0.0000000000
0.2674975991 0.2674974799 0.0000000000
0.3255827725 0.2630825937 0.0000000000
0.3837536573 0.2587534487 0.0000000000
0.4420160055 0.2545157373 0.0000000000
0.5003752112 0.2503749132 0.0000000000
0.5588366985 0.2463363409 0.0000000000
0.6174054742 0.2424050570 0.0000000000
0.6760866046 0.2385861576 0.0000000000
0.7348850965 0.2348845601 0.0000000000
0.7938057184 0.2313051969 0.0000000000
0.8528532982 0.2278527319 0.0000000000
0.9120326042 0.2245319337 0.0000000000
0.9713482261 0.2213475108 0.0000000000
1.0000000000 0.2183041275 0.0000000000
1.0000000000 0.2154063433 0.0000000000
1.0000000000 0.2126587927 0.0000000000
1.0000000000 0.2100660801 0.0000000000
1.0000000000 0.2076328546 0.0000000000
1.0000000000 0.2053636163 0.0000000000
1.0000000000 0.2032630295 0.0000000000
1.0000000000 0.2013357431 0.0000000000
1.0000000000 0.1995864660 0.0000000000
1.0000000000 0.1980197579 0.0000000000
1.0000000000 0.1966404021 0.0000000000
0.0000000000 0.3561871946 0.0000000000
0.0000000000 0.3514077961 0.0000000000
0.0000000000 0.3466767371 0.0000000000
0.0000000000 0.3420016170 0.0000000000
0.0000000000 0.3373895288 0.0000000000
0.0203469694 0.3328470886 0.0000000000
0.0783805922 0.3283806741 0.0000000000
0.1364962906 0.3239963055 0.0000000000
0.1946998686 0.3196998537 0.0000000000
0.2529968619 0.3154967725 0.0000000000
0.3113926947 0.3113925755 0.0000000000
0.3698925972 0.3073924184 0.0000000000
0.4285017550 0.3035015166 0.0000000000
0.4872250259 0.2997247577 0.0000000000
0.5460674167 0.2960670888 0.0000000000
0.6050336957 0.2925333381 0.0000000000
0.6641287208 0.2891283035 0.0000000000
0.7233570814 0.2858566344 0.0000000000
0.7827235460 0.2827230096 0.0000000000
0.8422326446 0.2797320783 0.0000000000
0.9018890858 0.2768884897 0.0000000000
0.9616974592 0.2741967738 0.0000000000
1.0000000000 0.2716615796 0.0000000000
1.0000000000 0.2692874968 0.0000000000
1.0000000000 0.2670791745 0.0000000000
1.0000000000 0.2650411427 0.0000000000
1.0000000000 0.2631780803 0.0000000000
1.0000000000 0.2614947557 0.0000000000
1.0000000000 0.2599956989 0.0000000000
1.0000000000 0.2586857378 0.0000000000
1.0000000000 0.2575696111 0.0000000000
1.0000000000 0.2566521764 0.0000000000
1.0000000000 0.2559382021 0.0000000000
0.0000000000 0.4028148949 0.0000000000
0.0000000000 0.3982273936 0.0000000000
0.0000000000 0.3937119544 0.0000000000
0.0000000000 0.3892747164 0.0000000000
0.0000000000 0.3849216998 0.0000000000
0.0056584212 0.3806585670 0.0000000000
0.0639908165 0.3764909208 0.0000000000
0.1224239394 0.3724240065 0.0000000000
0.1809630096 0.3684630096 0.0000000000
0.2396131158 0.3646130860 0.0000000000
0.2983792424 0.3608791530 0.0000000000
0.3572661877 0.3572660387 0.0000000000
0.4162787795 0.3537786007 0.0000000000
0.4754217863 0.3504215479 0.0000000000
0.5346999168 0.3471996188 0.0000000000
0.5941177607 0.3441174030 0.0000000000
0.6536799669 0.3411795795 0.0000000000
0.7133911252 0.3383907080 0.0000000000
0.7732560039 0.3357554972 0.0000000000
0.8332789540 0.3332784176 0.0000000000
0.8934646845 0.3309641182 0.0000000000
0.9538179040 0.3288172781 0.0000000000
1.0000000000 0.3268424273 0.0000000000
1.0000000000 0.3250442445 0.0000000000
1.0000000000 0.3234274387 0.0000000000
1.0000000000 0.3219967186 0.0000000000
1.0000000000 0.3207567632 0.0000000000
1.0000000000 0.3197124004 0.0000000000
1.0000000000 0.3188684285 0.0000000000
1.0000000000 0.3182298243 0.0000000000
1.0000000000 0.3178013861 0.0000000000
1.0000000000 0.3175881207 0.0000000000
1.0000000000 0.3175950944 0.0000000000
0.0000000000 0.4501799345 0.0000000000
0.0000000000 0.4458589852 0.0000000000
0.0000000000 0.4416300058 0.0000000000
0.0000000000 0.4374983609 0.0000000000
0.0000000000 0.4334694743 0.0000000000
0.0000000000 0.4295483232 0.0000000000
0.0507399067 0.4257400334 0.0000000000
0.1095494330 0.4220495224 0.0000000000
0.1684816033 0.4184816480 0.0000000000
0.2275411338 0.4150411189 0.0000000000
0.2867327631 0.4117327034 0.0000000000
0.3460611999 0.4085610807 0.0000000000
0.4055311084 0.4055309594 0.0000000000
0.4651470184 0.4026468098 0.0000000000
0.5249136090 0.3999133408 0.0000000000
0.5848354697 0.3973352015 0.0000000000
0.6449171901 0.3949168324 0.0000000000
0.7051633596 0.3926629722 0.0000000000
0.7655786276 0.3905781806 0.0000000000
0.8261676431 0.3886671364 0.0000000000
0.8869349957 0.3869344294 0.0000000000
0.9478853941 0.3853847980 0.0000000000
1.0000000000 0.3840229511 0.0000000000
1.0000000000 0.3828537166 0.0000000000
1.0000000000 0.3818817437 0.0000000000
1.0000000000 0.3811119795 0.0000000000
1.0000000000 0.3805492520 0.0000000000
1.0000000000 0.3801986277 0.0000000000
1.0000000000 0.3800649643 0.0000000000
1.0000000000 0.3801533580 0.0000000000
1.0000000000 0.3804689646 0.0000000000
1.0000000000 0.3810169995 0.0000000000
1.0000000000 0.3818026185 0.0000000000
0.0000000000 0.4985194802 0.0000000000
0.0000000000 0.4945291877 0.0000000000
0.0000000000 0.4906485975 0.0000000000
0.0000000000 0.4868826270 0.0000000000
0.0000000000 0.4832361937 0.0000000000
0.0000000000 0.4797141552 0.0000000000
0.0388210006 0.4763211608 0.0000000000
0.0980618969 0.4730620086 0.0000000000
0.1574412733 0.4699413478 0.0000000000
0.2169638276 0.4669638574 0.0000000000
0.2766340673 0.4641340375 0.0000000000
0.3364566267 0.4614565670 0.0000000000
0.3964361250 0.4589360356 0.0000000000
0.4565772414 0.4565770626 0.0000000000
0.5168844461 0.4543842077 0.0000000000
0.5773623586 0.4523621202 0.0000000000
0.6380157471 0.4505154490 0.0000000000
0.6988492608 0.4488489032 0.0000000000
0.7598674893 0.4473670721 0.0000000000
0.8210752606 0.4460747838 0.0000000000
0.8824772835 0.4449767768 0.0000000000
0.9440784454 0.4440779090 0.0000000000
1.0000000000 0.4433829486 0.0000000000
1.0000000000 0.4428968430 0.0000000000
1.0000000000 0.4426245689 0.0000000000
1.0000000000 0.4425712228 0.0000000000
1.0000000000 0.4427417517 0.0000000000
1.0000000000 0.4431413412 0.0000000000
1.0000000000 0.4437752366 0.0000000000
1.0000000000 0.4446487427 0.0000000000
1.0000000000 0.4457671046 0.0000000000
1.0000000000 0.4471358359 0.0000000000
1.0000000000 0.4487603903 0.0000000000
0.0000000000 0.5480410457 0.0000000000
0.0000000000 0.5444393158 0.0000000000
0.0000000000 0.5409637094 0.0000000000
0.0000000000 0.5376189351 0.0000000000
0.0000000000 0.5344097018 0.0000000000
0.0000000000 0.5313405991 0.0000000000
0.0284160767 0.5284162760 0.0000000000
0.0881412849 0.5256414413 0.0000000000
0.1480204612 0.5230205655 0.0000000000
0.2080582529 0.5205582976 0.0000000000
0.2682592571 0.5182592869 0.0000000000
0.3286281228 0.5161280632 0.0000000000
0.3891693950 0.5141693354 0.0000000000
0.4498877823 0.5123876929 0.0000000000
0.5107879639 0.5107877851 0.0000000000
0.5718746781 0.5093744993 0.0000000000
0.6331526041 0.5081523657 0.0000000000
0.6946265697 0.5071262717 0.0000000000
0.7563014030 0.5063010454 0.0000000000
0.8181819916 0.5056815743 0.0000000000
0.8802732229 0.5052727461 0.0000000000
0.9425801039 0.5050796270 0.0000000000
1.0000000000 0.5051071048 0.0000000000
1.0000000000 0.5053604841 0.0000000000
1.0000000000 0.5058447719 0.0000000000
1.0000000000 0.5065652728 0.0000000000
1.0000000000 0.5075272918 0.0000000000
1.0000000000 0.5087361932 0.0000000000
1.0000000000 0.5101974010 0.0000000000
1.0000000000 0.5119165182 0.0000000000
1.0000000000 0.5138991475 0.0000000000
1.0000000000 0.5161508322 0.0000000000
1.0000000000 0.5186776519 0.0000000000
0.0000000000 0.5989346504 0.0000000000
0.0000000000 0.5957759023 0.0000000000
0.0000000000 0.5927590132 0.0000000000
0.0000000000 0.5898885727 0.0000000000
0.0000000000 0.5871692300 0.0000000000
0.0000000000 0.5846056342 0.0000000000
0.0197019894 0.5822022557 0.0000000000
0.0799635500 0.5799637437 0.0000000000
0.1403946280 0.5778947473 0.0000000000
0.2009999007 0.5759999752 0.0000000000
0.2617839277 0.5742839575 0.0000000000
0.3227514625 0.5727514625 0.0000000000
0.3839071989 0.5714071393 0.0000000000
0.4452559948 0.5702559352 0.0000000000
0.5068024993 0.5693023801 0.0000000000
0.5685516596 0.5685514808 0.0000000000
0.6305083632 0.5680081248 0.0000000000
0.6926775575 0.5676772594 0.0000000000
0.7550641894 0.5675638914 0.0000000000
0.8176733851 0.5676730275 0.0000000000
0.8805102706 0.5680097938 0.0000000000
0.9435800314 0.5685795546 0.0000000000
1.0000000000 0.5693873167 0.0000000000
1.0000000000 0.5704385638 0.0000000000
1.0000000000 0.5717387795 0.0000000000
1.0000000000 0.5732931495 0.0000000000
1.0000000000 0.5751075745 0.0000000000
1.0000000000 0.5771875381 0.0000000000
1.0000000000 0.5795387030 0.0000000000
1.0000000000 0.5821670890 0.0000000000
1.0000000000 0.5850784779 0.0000000000
1.0000000000 0.5882787108 0.0000000000
1.0000000000 0.5917742848 0.0000000000
0.0000000000 0.6513808966 0.0000000000
0.0000000000 0.6487177014 0.0000000000
0.0000000000 0.6462118626 0.0000000000
0.0000000000 0.6438680291 0.0000000000
0.0000000000 0.6416907310 0.0000000000
0.0000000000 0.6396846175 0.0000000000
0.0128540415 0.6378543377 0.0000000000
0.0737043843 0.6362046003 0.0000000000
0.1347398907 0.6347400546 0.0000000000
0.1959653497 0.6334654689 0.0000000000
0.2573855221 0.6323856115 0.0000000000
0.3190053105 0.6315053701 0.0000000000
0.3808294535 0.6308294535 0.0000000000
0.4428628981 0.6303628683 0.0000000000
0.5051106811 0.6301105618 0.0000000000
0.5675777793 0.6300776601 0.0000000000
0.6302692890 0.6302690506 0.0000000000
0.6931902766 0.6306900382 0.0000000000
0.7563461661 0.6313458681 0.0000000000
0.8197420239 0.6322416663 0.0000000000
0.8833832741 0.6333828568 0.0000000000
0.9472754002 0.6347749233 0.0000000000
1.0000000000 0.6364233494 0.0000000000
1.0000000000 0.6383337975 0.0000000000
1.0000000000 0.6405118704 0.0000000000
1.0000000000 0.6429632306 0.0000000000
1.0000000000 0.6456939578 0.0000000000
1.0000000000 0.6487097144 0.0000000000
1.0000000000 0.6520168781 0.0000000000
1.0000000000 0.6556214094 0.0000000000
1.0000000000 0.6595293880 0.0000000000
1.0000000000 0.6637474298 0.0000000000
1.0000000000 0.6682818532 0.0000000000
0.0000000000 0.7055557966 0.0000000000
0.0000000000 0.7034403682 0.0000000000
0.0000000000 0.7014977336 0.0000000000
0.0000000000 0.6997326016 0.0000000000
0.0000000000 0.6981497407 0.0000000000
0.0000000000 0.6967538595 0.0000000000
0.0080492971 0.6955496073 0.0000000000
0.0695415661 0.6945418119 0.0000000000
0.1312351525 0.6937353611 0.0000000000
0.1931349784 0.6931351423 0.0000000000
0.2552458644 0.6927459836 0.0000000000
0.3175728917 0.6925729513 0.0000000000
0.3801211119 0.6926211715 0.0000000000
0.4428955615 0.6928955317 0.0000000000
0.5059014559 0.6934013963 0.0000000000
0.5691440105 0.6941438913 0.0000000000
0.6326286793 0.6951285005 0.0000000000
0.6963606477 0.6963604093 0.0000000000
0.7603454590 0.6978451610 0.0000000000
0.8245886564 0.6995882988 0.0000000000
0.8890959024 0.7015955448 0.0000000000
0.9538727403 0.7038723230 0.0000000000
1.0000000000 0.7064247727 0.0000000000
1.0000000000 0.7092586756 0.0000000000
1.0000000000 0.7123797536 0.0000000000
1.0000000000 0.7157944441 0.0000000000
1.0000000000 0.7195087671 0.0000000000
1.0000000000 0.7235288024 0.0000000000
1.0000000000 0.7278613448 0.0000000000
1.0000000000 0.7325124145 0.0000000000
1.0000000000 0.7374889851 0.0000000000
1.0000000000 0.7427620888 0.0000000000
1.0000000000 0.7468371987 0.0000000000
0.0000000000 0.7616350651 0.0000000000
0.0000000000 0.7601197362 0.0000000000
0.0000000000 0.7587930560 0.0000000000
0.0000000000 0.7576597929 0.0000000000
0.0000000000 0.7567247152 0.0000000000
0.0000000000 0.7559927702 0.0000000000
0.0054684794 0.7554688454 0.0000000000
0.0676574782 0.7551577687 0.0000000000
0.1300644130 0.7550646663 0.0000000000
0.1926943660 0.7551946044 0.0000000000
0.2555525303 0.7555527091 0.0000000000
0.3186439872 0.7561441064 0.0000000000
0.3819740415 0.7569741011 0.0000000000
0.4455480576 0.7580480576 0.0000000000
0.5093715191 0.7593714595 0.0000000000
0.5734496713 0.7609495521 0.0000000000
0.6377883554 0.7627882361 0.0000000000
