Blackmagic Design/Blackmagic Film to Extended Video v4.cube
# (C) 2018 Blackmagic Design
LUT_3D_SIZE 33
0.0000000000 0.0000000000 0.0000000000
0.0000000000 0.0000000000 0.0000000000
0.0341796875 0.0000000000 0.0000000000
0.0722656250 0.0000000000 0.0000000000
0.1113281250 0.0000000000 0.0000000000
0.1503906250 0.0000000000 0.0000000000
0.1894531250 0.0000000000 0.0000000000
0.2285156250 0.0000000000 0.0000000000
0.2695312500 0.0000000000 0.0000000000
0.3095703125 0.0000000000 0.0000000000
0.3515625000 0.0000000000 0.0000000000
0.3945312500 0.0000000000 0.0000000000
0.4404296875 0.0000000000 0.0000000000
0.4902343750 0.0000000000 0.0000000000
0.5410156250 0.0000000000 0.0000000000
0.5908203125 0.0000000000 0.0000000000
0.6396484375 0.0000000000 0.0000000000
0.6835937500 0.0000000000 0.0000000000
0.7236328125 0.0000000000 0.0000000000
0.7607421875 0.0000000000 0.0000000000
0.7958984375 0.0000000000 0.0000000000
0.8291015625 0.0000000000 0.0000000000
0.8603515625 0.0000000000 0.0000000000
0.8906250000 0.0000000000 0.0000000000
0.9199218750 0.0000000000 0.0000000000
0.9472656250 0.0000000000 0.0000000000
0.9736328125 0.0000000000 0.0000000000
0.9980468750 0.0000000000 0.0000000000
0.9990234375 0.0000000000 0.0000000000
0.9990234375 0.0000000000 0.0000000000
0.9990234375 0.0000000000 0.0000000000
0.9990234375 0.0000000000 0.0000000000
0.9990234375 0.0000000000 0.0000000000
0.0000000000 0.0000000000 0.0000000000
0.0000000000 0.0000000000 0.0000000000
0.0332031250 0.0000000000 0.0000000000
0.0712890625 0.0000000000 0.0000000000
0.1093750000 0.0000000000 0.0000000000
0.1484375000 0.0000000000 0.0000000000
0.1875000000 0.0000000000 0.0000000000
0.2275390625 0.0000000000 0.0000000000
0.2675781250 0.0000000000 0.0000000000
0.3085937500 0.0000000000 0.0000000000
0.3496093750 0.0000000000 0.0000000000
0.3925781250 0.0000000000 0.0000000000
0.4384765625 0.0000000000 0.0000000000
0.4892578125 0.0000000000 0.0000000000
0.5390625000 0.0000000000 0.0000000000
0.5888671875 0.0000000000 0.0000000000
0.6376953125 0.0000000000 0.0000000000
0.6826171875 0.0000000000 0.0000000000
0.7226562500 0.0000000000 0.0000000000
0.7597656250 0.0000000000 0.0000000000
0.7949218750 0.0000000000 0.0000000000
0.8271484375 0.0000000000 0.0000000000
0.8593750000 0.0000000000 0.0000000000
0.8896484375 0.0000000000 0.0000000000
0.9179687500 0.0000000000 0.0000000000
0.9453125000 0.0000000000 0.0000000000
0.9716796875 0.0000000000 0.0000000000
0.9970703125 0.0000000000 0.0000000000
0.9990234375 0.0000000000 0.0000000000
0.9990234375 0.0000000000 0.0000000000
0.9990234375 0.0000000000 0.0000000000
0.9990234375 0.0000000000 0.0000000000
0.9990234375 0.0000000000 0.0000000000
0.0000000000 0.0341796875 0.0000000000
0.0000000000 0.0332031250 0.0000000000
0.0312500000 0.0312500000 0.0000000000
0.0693359375 0.0292968750 0.0000000000
0.1074218750 0.0283203125 0.0000000000
0.1464843750 0.0263671875 0.0000000000
0.1865234375 0.0244140625 0.0000000000
0.2255859375 0.0224609375 0.0000000000
0.2656250000 0.0205078125 0.0000000000
0.3066406250 0.0185546875 0.0000000000
0.3486328125 0.0166015625 0.0000000000
0.3916015625 0.0146484375 0.0000000000
0.4375000000 0.0126953125 0.0000000000
0.4873046875 0.0107421875 0.0000000000
0.5371093750 0.0087890625 0.0000000000
0.5869140625 0.0058593750 0.0000000000
0.6367187500 0.0039062500 0.0000000000
0.6806640625 0.0019531250 0.0000000000
0.7207031250 0.0000000000 0.0000000000
0.7578125000 0.0000000000 0.0000000000
0.7929687500 0.0000000000 0.0000000000
0.8261718750 0.0000000000 0.0000000000
0.8574218750 0.0000000000 0.0000000000
0.8876953125 0.0000000000 0.0000000000
0.9160156250 0.0000000000 0.0000000000
0.9433593750 0.0000000000 0.0000000000
0.9697265625 0.0000000000 0.0000000000
0.9951171875 0.0000000000 0.0000000000
0.9990234375 0.0000000000 0.0000000000
0.9990234375 0.0000000000 0.0000000000
0.9990234375 0.0000000000 0.0000000000
0.9990234375 0.0000000000 0.0000000000
0.9990234375 0.0000000000 0.0000000000
0.0000000000 0.0722656250 0.0000000000
0.0000000000 0.0712890625 0.0000000000
0.0292968750 0.0693359375 0.0000000000
0.0673828125 0.0673828125 0.0000000000
0.1064453125 0.0654296875 0.0000000000
0.1455078125 0.0644531250 0.0000000000
0.1845703125 0.0625000000 0.0000000000
0.2236328125 0.0605468750 0.0000000000
0.2646484375 0.0585937500 0.0000000000
0.3046875000 0.0566406250 0.0000000000
0.3466796875 0.0546875000 0.0000000000
0.3896484375 0.0527343750 0.0000000000
0.4355468750 0.0507812500 0.0000000000
0.4853515625 0.0488281250 0.0000000000
0.5361328125 0.0458984375 0.0000000000
0.5859375000 0.0439453125 0.0000000000
0.6347656250 0.0419921875 0.0000000000
0.6787109375 0.0400390625 0.0000000000
0.7187500000 0.0380859375 0.0000000000
0.7558593750 0.0361328125 0.0000000000
0.7910156250 0.0341796875 0.0000000000
0.8242187500 0.0332031250 0.0000000000
0.8554687500 0.0312500000 0.0000000000
0.8857421875 0.0302734375 0.0000000000
0.9150390625 0.0292968750 0.0000000000
0.9423828125 0.0273437500 0.0000000000
0.9687500000 0.0263671875 0.0000000000
0.9931640625 0.0253906250 0.0000000000
0.9990234375 0.0244140625 0.0000000000
0.9990234375 0.0234375000 0.0000000000
0.9990234375 0.0224609375 0.0000000000
0.9990234375 0.0214843750 0.0000000000
0.9990234375 0.0205078125 0.0000000000
0.0000000000 0.1113281250 0.0000000000
0.0000000000 0.1093750000 0.0000000000
0.0283203125 0.1074218750 0.0000000000
0.0654296875 0.1064453125 0.0000000000
0.1044921875 0.1044921875 0.0000000000
0.1435546875 0.1025390625 0.0000000000
0.1826171875 0.1005859375 0.0000000000
0.2226562500 0.0986328125 0.0000000000
0.2626953125 0.0976562500 0.0000000000
0.3027343750 0.0957031250 0.0000000000
0.3447265625 0.0937500000 0.0000000000
0.3876953125 0.0917968750 0.0000000000
0.4335937500 0.0898437500 0.0000000000
0.4843750000 0.0869140625 0.0000000000
0.5341796875 0.0849609375 0.0000000000
0.5839843750 0.0830078125 0.0000000000
0.6328125000 0.0800781250 0.0000000000
0.6767578125 0.0781250000 0.0000000000
0.7167968750 0.0761718750 0.0000000000
0.7539062500 0.0751953125 0.0000000000
0.7890625000 0.0732421875 0.0000000000
0.8222656250 0.0712890625 0.0000000000
0.8544921875 0.0703125000 0.0000000000
0.8837890625 0.0693359375 0.0000000000
0.9130859375 0.0673828125 0.0000000000
0.9404296875 0.0664062500 0.0000000000
0.9667968750 0.0654296875 0.0000000000
0.9912109375 0.0644531250 0.0000000000
0.9990234375 0.0625000000 0.0000000000
0.9990234375 0.0615234375 0.0000000000
0.9990234375 0.0605468750 0.0000000000
0.9990234375 0.0605468750 0.0000000000
0.9990234375 0.0595703125 0.0000000000
0.0000000000 0.1503906250 0.0000000000
0.0000000000 0.1484375000 0.0000000000
0.0263671875 0.1464843750 0.0000000000
0.0644531250 0.1455078125 0.0000000000
0.1025390625 0.1435546875 0.0000000000
0.1416015625 0.1416015625 0.0000000000
0.1806640625 0.1396484375 0.0000000000
0.2207031250 0.1376953125 0.0000000000
0.2607421875 0.1357421875 0.0000000000
0.3017578125 0.1347656250 0.0000000000
0.3427734375 0.1328125000 0.0000000000
0.3857421875 0.1308593750 0.0000000000
0.4316406250 0.1279296875 0.0000000000
0.4824218750 0.1259765625 0.0000000000
0.5322265625 0.1240234375 0.0000000000
0.5820312500 0.1210937500 0.0000000000
0.6308593750 0.1191406250 0.0000000000
0.6757812500 0.1171875000 0.0000000000
0.7158203125 0.1152343750 0.0000000000
0.7529296875 0.1142578125 0.0000000000
0.7871093750 0.1123046875 0.0000000000
0.8203125000 0.1103515625 0.0000000000
0.8525390625 0.1093750000 0.0000000000
0.8828125000 0.1083984375 0.0000000000
0.9111328125 0.1064453125 0.0000000000
0.9384765625 0.1054687500 0.0000000000
0.9648437500 0.1044921875 0.0000000000
0.9902343750 0.1035156250 0.0000000000
0.9990234375 0.1015625000 0.0000000000
0.9990234375 0.1005859375 0.0000000000
0.9990234375 0.0996093750 0.0000000000
0.9990234375 0.0986328125 0.0000000000
0.9990234375 0.0986328125 0.0000000000
0.0000000000 0.1894531250 0.0000000000
0.0000000000 0.1875000000 0.0000000000
0.0244140625 0.1865234375 0.0000000000
0.0625000000 0.1845703125 0.0000000000
0.1005859375 0.1826171875 0.0000000000
0.1396484375 0.1806640625 0.0000000000
0.1787109375 0.1787109375 0.0000000000
0.2187500000 0.1777343750 0.0000000000
0.2587890625 0.1757812500 0.0000000000
0.2998046875 0.1738281250 0.0000000000
0.3408203125 0.1718750000 0.0000000000
0.3847656250 0.1699218750 0.0000000000
0.4306640625 0.1679687500 0.0000000000
0.4804687500 0.1650390625 0.0000000000
0.5302734375 0.1630859375 0.0000000000
0.5800781250 0.1611328125 0.0000000000
0.6298828125 0.1582031250 0.0000000000
0.6738281250 0.1562500000 0.0000000000
0.7138671875 0.1552734375 0.0000000000
0.7509765625 0.1533203125 0.0000000000
0.7861328125 0.1513671875 0.0000000000
0.8193359375 0.1503906250 0.0000000000
0.8505859375 0.1484375000 0.0000000000
0.8808593750 0.1474609375 0.0000000000
0.9091796875 0.1455078125 0.0000000000
0.9365234375 0.1445312500 0.0000000000
0.9628906250 0.1435546875 0.0000000000
0.9882812500 0.1425781250 0.0000000000
0.9990234375 0.1416015625 0.0000000000
0.9990234375 0.1406250000 0.0000000000
0.9990234375 0.1396484375 0.0000000000
0.9990234375 0.1386718750 0.0000000000
0.9990234375 0.1376953125 0.0000000000
0.0000000000 0.2285156250 0.0000000000
0.0000000000 0.2275390625 0.0000000000
0.0224609375 0.2255859375 0.0000000000
0.0605468750 0.2236328125 0.0000000000
0.0986328125 0.2226562500 0.0000000000
0.1376953125 0.2207031250 0.0000000000
0.1777343750 0.2187500000 0.0000000000
0.2167968750 0.2167968750 0.0000000000
0.2568359375 0.2148437500 0.0000000000
0.2978515625 0.2128906250 0.0000000000
0.3398437500 0.2109375000 0.0000000000
0.3828125000 0.2089843750 0.0000000000
0.4287109375 0.2070312500 0.0000000000
0.4785156250 0.2050781250 0.0000000000
0.5283203125 0.2031250000 0.0000000000
0.5781250000 0.2001953125 0.0000000000
0.6279296875 0.1982421875 0.0000000000
0.6718750000 0.1962890625 0.0000000000
0.7119140625 0.1943359375 0.0000000000
0.7490234375 0.1923828125 0.0000000000
0.7841796875 0.1914062500 0.0000000000
0.8173828125 0.1894531250 0.0000000000
0.8486328125 0.1884765625 0.0000000000
0.8789062500 0.1865234375 0.0000000000
0.9072265625 0.1855468750 0.0000000000
0.9345703125 0.1845703125 0.0000000000
0.9609375000 0.1835937500 0.0000000000
0.9863281250 0.1816406250 0.0000000000
0.9990234375 0.1806640625 0.0000000000
0.9990234375 0.1796875000 0.0000000000
0.9990234375 0.1787109375 0.0000000000
0.9990234375 0.1777343750 0.0000000000
0.9990234375 0.1777343750 0.0000000000
0.0000000000 0.2695312500 0.0000000000
0.0000000000 0.2675781250 0.0000000000
0.0205078125 0.2656250000 0.0000000000
0.0585937500 0.2646484375 0.0000000000
0.0976562500 0.2626953125 0.0000000000
0.1357421875 0.2607421875 0.0000000000
0.1757812500 0.2587890625 0.0000000000
0.2148437500 0.2568359375 0.0000000000
0.2548828125 0.2548828125 0.0000000000
0.2958984375 0.2529296875 0.0000000000
0.3378906250 0.2519531250 0.0000000000
0.3808593750 0.2500000000 0.0000000000
0.4267578125 0.2470703125 0.0000000000
0.4765625000 0.2451171875 0.0000000000
0.5263671875 0.2431640625 0.0000000000
0.5771484375 0.2402343750 0.0000000000
0.6259765625 0.2382812500 0.0000000000
0.6699218750 0.2363281250 0.0000000000
0.7099609375 0.2343750000 0.0000000000
0.7470703125 0.2324218750 0.0000000000
0.7822265625 0.2314453125 0.0000000000
0.8154296875 0.2294921875 0.0000000000
0.8466796875 0.2285156250 0.0000000000
0.8769531250 0.2265625000 0.0000000000
0.9052734375 0.2255859375 0.0000000000
0.9335937500 0.2246093750 0.0000000000
0.9589843750 0.2236328125 0.0000000000
0.9843750000 0.2216796875 0.0000000000
0.9990234375 0.2207031250 0.0000000000
0.9990234375 0.2197265625 0.0000000000
0.9990234375 0.2187500000 0.0000000000
0.9990234375 0.2177734375 0.0000000000
0.9990234375 0.2177734375 0.0000000000
0.0000000000 0.3095703125 0.0000000000
0.0000000000 0.3085937500 0.0000000000
0.0185546875 0.3066406250 0.0000000000
0.0566406250 0.3046875000 0.0000000000
0.0957031250 0.3027343750 0.0000000000
0.1347656250 0.3017578125 0.0000000000
0.1738281250 0.2998046875 0.0000000000
0.2128906250 0.2978515625 0.0000000000
0.2529296875 0.2958984375 0.0000000000
0.2939453125 0.2939453125 0.0000000000
0.3359375000 0.2919921875 0.0000000000
0.3789062500 0.2900390625 0.0000000000
0.4248046875 0.2880859375 0.0000000000
0.4746093750 0.2861328125 0.0000000000
0.5253906250 0.2832031250 0.0000000000
0.5751953125 0.2812500000 0.0000000000
0.6240234375 0.2792968750 0.0000000000
0.6679687500 0.2773437500 0.0000000000
0.7080078125 0.2753906250 0.0000000000
0.7451171875 0.2734375000 0.0000000000
0.7802734375 0.2724609375 0.0000000000
0.8134765625 0.2705078125 0.0000000000
0.8447265625 0.2695312500 0.0000000000
0.8750000000 0.2675781250 0.0000000000
0.9042968750 0.2666015625 0.0000000000
0.9316406250 0.2656250000 0.0000000000
0.9580078125 0.2636718750 0.0000000000
0.9824218750 0.2626953125 0.0000000000
0.9990234375 0.2617187500 0.0000000000
0.9990234375 0.2607421875 0.0000000000
0.9990234375 0.2597656250 0.0000000000
0.9990234375 0.2587890625 0.0000000000
0.9990234375 0.2578125000 0.0000000000
0.0000000000 0.3515625000 0.0000000000
0.0000000000 0.3496093750 0.0000000000
0.0166015625 0.3486328125 0.0000000000
0.0546875000 0.3466796875 0.0000000000
0.0937500000 0.3447265625 0.0000000000
0.1328125000 0.3427734375 0.0000000000
0.1718750000 0.3408203125 0.0000000000
0.2109375000 0.3398437500 0.0000000000
0.2519531250 0.3378906250 0.0000000000
0.2919921875 0.3359375000 0.0000000000
0.3339843750 0.3339843750 0.0000000000
0.3769531250 0.3320312500 0.0000000000
0.4228515625 0.3300781250 0.0000000000
0.4726562500 0.3271484375 0.0000000000
0.5234375000 0.3251953125 0.0000000000
0.5732421875 0.3232421875 0.0000000000
0.6220703125 0.3203125000 0.0000000000
0.6660156250 0.3183593750 0.0000000000
0.7060546875 0.3173828125 0.0000000000
0.7431640625 0.3154296875 0.0000000000
0.7783203125 0.3134765625 0.0000000000
0.8115234375 0.3125000000 0.0000000000
0.8427734375 0.3105468750 0.0000000000
0.8730468750 0.3095703125 0.0000000000
0.9023437500 0.3076171875 0.0000000000
0.9296875000 0.3066406250 0.0000000000
0.9560546875 0.3056640625 0.0000000000
0.9804687500 0.3046875000 0.0000000000
0.9990234375 0.3037109375 0.0000000000
0.9990234375 0.3027343750 0.0000000000
0.9990234375 0.3017578125 0.0000000000
0.9990234375 0.3007812500 0.0000000000
0.9990234375 0.2998046875 0.0000000000
0.0000000000 0.3945312500 0.0000000000
0.0000000000 0.3925781250 0.0000000000
0.0146484375 0.3916015625 0.0000000000
0.0527343750 0.3896484375 0.0000000000
0.0917968750 0.3876953125 0.0000000000
0.1308593750 0.3857421875 0.0000000000
0.1699218750 0.3847656250 0.0000000000
0.2089843750 0.3828125000 0.0000000000
0.2500000000 0.3808593750 0.0000000000
0.2900390625 0.3789062500 0.0000000000
0.3320312500 0.3769531250 0.0000000000
0.3750000000 0.3750000000 0.0000000000
0.4208984375 0.3730468750 0.0000000000
0.4707031250 0.3710937500 0.0000000000
0.5214843750 0.3681640625 0.0000000000
0.5712890625 0.3662109375 0.0000000000
0.6201171875 0.3642578125 0.0000000000
0.6640625000 0.3623046875 0.0000000000
0.7041015625 0.3603515625 0.0000000000
0.7412109375 0.3583984375 0.0000000000
0.7763671875 0.3564453125 0.0000000000
0.8095703125 0.3554687500 0.0000000000
0.8408203125 0.3535156250 0.0000000000
0.8710937500 0.3525390625 0.0000000000
0.9003906250 0.3515625000 0.0000000000
0.9277343750 0.3496093750 0.0000000000
0.9541015625 0.3486328125 0.0000000000
0.9785156250 0.3476562500 0.0000000000
0.9990234375 0.3466796875 0.0000000000
0.9990234375 0.3457031250 0.0000000000
0.9990234375 0.3447265625 0.0000000000
0.9990234375 0.3437500000 0.0000000000
0.9990234375 0.3427734375 0.0000000000
0.0000000000 0.4404296875 0.0000000000
0.0000000000 0.4384765625 0.0000000000
0.0126953125 0.4375000000 0.0000000000
0.0507812500 0.4355468750 0.0000000000
0.0898437500 0.4335937500 0.0000000000
0.1279296875 0.4316406250 0.0000000000
0.1679687500 0.4306640625 0.0000000000
0.2070312500 0.4287109375 0.0000000000
0.2470703125 0.4267578125 0.0000000000
0.2880859375 0.4248046875 0.0000000000
0.3300781250 0.4228515625 0.0000000000
0.3730468750 0.4208984375 0.0000000000
0.4189453125 0.4189453125 0.0000000000
0.4687500000 0.4169921875 0.0000000000
0.5195312500 0.4140625000 0.0000000000
0.5693359375 0.4121093750 0.0000000000
0.6181640625 0.4101562500 0.0000000000
0.6621093750 0.4082031250 0.0000000000
0.7021484375 0.4062500000 0.0000000000
0.7392578125 0.4042968750 0.0000000000
0.7744140625 0.4023437500 0.0000000000
0.8076171875 0.4013671875 0.0000000000
0.8388671875 0.3994140625 0.0000000000
0.8691406250 0.3984375000 0.0000000000
0.8974609375 0.3974609375 0.0000000000
0.9257812500 0.3955078125 0.0000000000
0.9511718750 0.3945312500 0.0000000000
0.9765625000 0.3935546875 0.0000000000
0.9990234375 0.3925781250 0.0000000000
0.9990234375 0.3916015625 0.0000000000
0.9990234375 0.3906250000 0.0000000000
0.9990234375 0.3896484375 0.0000000000
0.9990234375 0.3886718750 0.0000000000
0.0000000000 0.4902343750 0.0000000000
0.0000000000 0.4892578125 0.0000000000
0.0107421875 0.4873046875 0.0000000000
0.0488281250 0.4853515625 0.0000000000
0.0869140625 0.4843750000 0.0000000000
0.1259765625 0.4824218750 0.0000000000
0.1650390625 0.4804687500 0.0000000000
0.2050781250 0.4785156250 0.0000000000
0.2451171875 0.4765625000 0.0000000000
0.2861328125 0.4746093750 0.0000000000
0.3271484375 0.4726562500 0.0000000000
0.3710937500 0.4707031250 0.0000000000
0.4169921875 0.4687500000 0.0000000000
0.4667968750 0.4667968750 0.0000000000
0.5166015625 0.4648437500 0.0000000000
0.5664062500 0.4619140625 0.0000000000
0.6162109375 0.4599609375 0.0000000000
0.6601562500 0.4580078125 0.0000000000
0.7001953125 0.4560546875 0.0000000000
0.7373046875 0.4541015625 0.0000000000
0.7724609375 0.4531250000 0.0000000000
0.8056640625 0.4511718750 0.0000000000
0.8369140625 0.4501953125 0.0000000000
0.8671875000 0.4482421875 0.0000000000
0.8955078125 0.4472656250 0.0000000000
0.9228515625 0.4462890625 0.0000000000
0.9492187500 0.4443359375 0.0000000000
0.9746093750 0.4433593750 0.0000000000
0.9980468750 0.4423828125 0.0000000000
0.9990234375 0.4414062500 0.0000000000
0.9990234375 0.4404296875 0.0000000000
0.9990234375 0.4394531250 0.0000000000
0.9990234375 0.4384765625 0.0000000000
0.0000000000 0.5410156250 0.0000000000
0.0000000000 0.5390625000 0.0000000000
0.0087890625 0.5371093750 0.0000000000
0.0458984375 0.5361328125 0.0000000000
0.0849609375 0.5341796875 0.0000000000
0.1240234375 0.5322265625 0.0000000000
0.1630859375 0.5302734375 0.0000000000
0.2031250000 0.5283203125 0.0000000000
0.2431640625 0.5263671875 0.0000000000
0.2832031250 0.5253906250 0.0000000000
0.3251953125 0.5234375000 0.0000000000
0.3681640625 0.5214843750 0.0000000000
0.4140625000 0.5195312500 0.0000000000
0.4648437500 0.5166015625 0.0000000000
0.5146484375 0.5146484375 0.0000000000
0.5644531250 0.5126953125 0.0000000000
0.6132812500 0.5097656250 0.0000000000
0.6572265625 0.5078125000 0.0000000000
0.6972656250 0.5058593750 0.0000000000
0.7343750000 0.5048828125 0.0000000000
0.7695312500 0.5029296875 0.0000000000
0.8027343750 0.5009765625 0.0000000000
0.8349609375 0.5000000000 0.0000000000
0.8642578125 0.4990234375 0.0000000000
0.8935546875 0.4970703125 0.0000000000
0.9208984375 0.4960937500 0.0000000000
0.9472656250 0.4951171875 0.0000000000
0.9716796875 0.4941406250 0.0000000000
0.9960937500 0.4921875000 0.0000000000
0.9990234375 0.4912109375 0.0000000000
0.9990234375 0.4902343750 0.0000000000
0.9990234375 0.4902343750 0.0000000000
0.9990234375 0.4892578125 0.0000000000
0.0000000000 0.5908203125 0.0000000000
0.0000000000 0.5888671875 0.0000000000
0.0058593750 0.5869140625 0.0000000000
0.0439453125 0.5859375000 0.0000000000
0.0830078125 0.5839843750 0.0000000000
0.1210937500 0.5820312500 0.0000000000
0.1611328125 0.5800781250 0.0000000000
0.2001953125 0.5781250000 0.0000000000
0.2402343750 0.5771484375 0.0000000000
0.2812500000 0.5751953125 0.0000000000
0.3232421875 0.5732421875 0.0000000000
0.3662109375 0.5712890625 0.0000000000
0.4121093750 0.5693359375 0.0000000000
0.4619140625 0.5664062500 0.0000000000
0.5126953125 0.5644531250 0.0000000000
0.5625000000 0.5625000000 0.0000000000
0.6113281250 0.5595703125 0.0000000000
0.6552734375 0.5576171875 0.0000000000
0.6953125000 0.5556640625 0.0000000000
0.7324218750 0.5546875000 0.0000000000
0.7675781250 0.5527343750 0.0000000000
0.8007812500 0.5517578125 0.0000000000
0.8320312500 0.5498046875 0.0000000000
0.8623046875 0.5488281250 0.0000000000
0.8906250000 0.5468750000 0.0000000000
0.9189453125 0.5458984375 0.0000000000
0.9443359375 0.5449218750 0.0000000000
0.9697265625 0.5439453125 0.0000000000
0.9931640625 0.5429687500 0.0000000000
0.9990234375 0.5410156250 0.0000000000
0.9990234375 0.5410156250 0.0000000000
0.9990234375 0.5400390625 0.0000000000
0.9990234375 0.5390625000 0.0000000000
0.0000000000 0.6396484375 0.0000000000
0.0000000000 0.6376953125 0.0000000000
0.0039062500 0.6367187500 0.0000000000
0.0419921875 0.6347656250 0.0000000000
0.0800781250 0.6328125000 0.0000000000
0.1191406250 0.6308593750 0.0000000000
0.1582031250 0.6298828125 0.0000000000
0.1982421875 0.6279296875 0.0000000000
0.2382812500 0.6259765625 0.0000000000
0.2792968750 0.6240234375 0.0000000000
0.3203125000 0.6220703125 0.0000000000
0.3642578125 0.6201171875 0.0000000000
0.4101562500 0.6181640625 0.0000000000
0.4599609375 0.6162109375 0.0000000000
0.5097656250 0.6132812500 0.0000000000
0.5595703125 0.6113281250 0.0000000000
0.6093750000 0.6093750000 0.0000000000
0.6533203125 0.6074218750 0.0000000000
0.6933593750 0.6054687500 0.0000000000
0.7304687500 0.6035156250 0.0000000000
0.7656250000 0.6015625000 0.0000000000
0.7988281250 0.6005859375 0.0000000000
0.8300781250 0.5986328125 0.0000000000
0.8603515625 0.5976562500 0.0000000000
0.8886718750 0.5966796875 0.0000000000
0.9160156250 0.5947265625 0.0000000000
0.9423828125 0.5937500000 0.0000000000
0.9677734375 0.5927734375 0.0000000000
0.9912109375 0.5917968750 0.0000000000
0.9990234375 0.5908203125 0.0000000000
0.9990234375 0.5898437500 0.0000000000
0.9990234375 0.5888671875 0.0000000000
0.9990234375 0.5878906250 0.0000000000
0.0000000000 0.6835937500 0.0000000000
0.0000000000 0.6826171875 0.0000000000
0.0019531250 0.6806640625 0.0000000000
0.0400390625 0.6787109375 0.0000000000
0.0781250000 0.6767578125 0.0000000000
0.1171875000 0.6757812500 0.0000000000
0.1562500000 0.6738281250 0.0000000000
0.1962890625 0.6718750000 0.0000000000
0.2363281250 0.6699218750 0.0000000000
0.2773437500 0.6679687500 0.0000000000
0.3183593750 0.6660156250 0.0000000000
0.3623046875 0.6640625000 0.0000000000
0.4082031250 0.6621093750 0.0000000000
0.4580078125 0.6601562500 0.0000000000
0.5078125000 0.6572265625 0.0000000000
0.5576171875 0.6552734375 0.0000000000
0.6074218750 0.6533203125 0.0000000000
0.6513671875 0.6513671875 0.0000000000
0.6914062500 0.6494140625 0.0000000000
0.7285156250 0.6474609375 0.0000000000
0.7636718750 0.6455078125 0.0000000000
0.7968750000 0.6445312500 0.0000000000
0.8281250000 0.6425781250 0.0000000000
0.8583984375 0.6416015625 0.0000000000
0.8867187500 0.6406250000 0.0000000000
0.9140625000 0.6386718750 0.0000000000
0.9404296875 0.6376953125 0.0000000000
0.9658203125 0.6367187500 0.0000000000
0.9892578125 0.6357421875 0.0000000000
0.9990234375 0.6347656250 0.0000000000
0.9990234375 0.6337890625 0.0000000000
0.9990234375 0.6328125000 0.0000000000
0.9990234375 0.6318359375 0.0000000000
0.0000000000 0.7236328125 0.0000000000
0.0000000000 0.7226562500 0.0000000000
0.0000000000 0.7207031250 0.0000000000
0.0380859375 0.7187500000 0.0000000000
0.0761718750 0.7167968750 0.0000000000
0.1152343750 0.7158203125 0.0000000000
0.1552734375 0.7138671875 0.0000000000
0.1943359375 0.7119140625 0.0000000000
0.2343750000 0.7099609375 0.0000000000
0.2753906250 0.7080078125 0.0000000000
0.3173828125 0.7060546875 0.0000000000
0.3603515625 0.7041015625 0.0000000000
0.4062500000 0.7021484375 0.0000000000
0.4560546875 0.7001953125 0.0000000000
0.5058593750 0.6972656250 0.0000000000
0.5556640625 0.6953125000 0.0000000000
0.6054687500 0.6933593750 0.0000000000
0.6494140625 0.6914062500 0.0000000000
0.6894531250 0.6894531250 0.0000000000
0.7265625000 0.6875000000 0.0000000000
