Blackmagic Design/Blackmagic Film to Extended Video v4.cube
# (C) 2018 Blackmagic Design
LUT_3D_SIZE 5
0.0000000000 0.0000000000 0.0000000000
0.2695312500 0.0000000000 0.0000000000
0.6396484375 0.0000000000 0.0000000000
0.9199218750 0.0000000000 0.0000000000
0.9990234375 0.0000000000 0.0000000000
0.0000000000 0.2695312500 0.0000000000
0.2548828125 0.2548828125 0.0000000000
0.6259765625 0.2382812500 0.0000000000
0.9052734375 0.2255859375 0.0000000000
0.9990234375 0.2177734375 0.0000000000
0.0000000000 0.6396484375 0.0000000000
0.2382812500 0.6259765625 0.0000000000
0.6093750000 0.6093750000 0.0000000000
0.8886718750 0.5966796875 0.0000000000
0.9990234375 0.5878906250 0.0000000000
0.0000000000 0.9199218750 0.0000000000
0.2255859375 0.9052734375 0.0000000000
0.5966796875 0.8886718750 0.0000000000
0.8759765625 0.8759765625 0.0000000000
0.9990234375 0.8681640625 0.0000000000
0.0000000000 0.9990234375 0.0000000000
0.2177734375 0.9990234375 0.0000000000
0.5878906250 0.9990234375 0.0000000000
0.8681640625 0.9990234375 0.0000000000
0.9990234375 0.9990234375 0.0000000000
0.0000000000 0.0000000000 0.2695312500
0.2548828125 0.0000000000 0.2548828125
0.6259765625 0.0000000000 0.2382812500
0.9052734375 0.0000000000 0.2255859375
0.9990234375 0.0000000000 0.2177734375
0.0000000000 0.2548828125 0.2548828125
0.2412109375 0.2412109375 0.2412109375
0.6123046875 0.2246093750 0.2246093750
0.8916015625 0.2119140625 0.2119140625
0.9990234375 0.2031250000 0.2031250000
0.0000000000 0.6259765625 0.2382812500
0.2246093750 0.6123046875 0.2246093750
0.5947265625 0.5947265625 0.2080078125
0.8750000000 0.5820312500 0.1953125000
0.9990234375 0.5742187500 0.1865234375
0.0000000000 0.9052734375 0.2255859375
0.2119140625 0.8916015625 0.2119140625
0.5820312500 0.8750000000 0.1953125000
0.8623046875 0.8623046875 0.1826171875
0.9990234375 0.8544921875 0.1738281250
0.0000000000 0.9990234375 0.2177734375
0.2031250000 0.9990234375 0.2031250000
0.5742187500 0.9990234375 0.1865234375
0.8544921875 0.9990234375 0.1738281250
0.9990234375 0.9990234375 0.1660156250
0.0000000000 0.0000000000 0.6396484375
0.2382812500 0.0000000000 0.6259765625
0.6093750000 0.0000000000 0.6093750000
0.8886718750 0.0000000000 0.5966796875
0.9990234375 0.0000000000 0.5878906250
0.0000000000 0.2382812500 0.6259765625
0.2246093750 0.2246093750 0.6123046875
0.5947265625 0.2080078125 0.5947265625
0.8750000000 0.1953125000 0.5820312500
0.9990234375 0.1865234375 0.5742187500
0.0000000000 0.6093750000 0.6093750000
0.2080078125 0.5947265625 0.5947265625
0.5781250000 0.5781250000 0.5781250000
0.8583984375 0.5654296875 0.5654296875
0.9990234375 0.5576171875 0.5576171875
0.0000000000 0.8886718750 0.5966796875
0.1953125000 0.8750000000 0.5820312500
0.5654296875 0.8583984375 0.5654296875
0.8457031250 0.8457031250 0.5527343750
0.9990234375 0.8369140625 0.5449218750
0.0000000000 0.9990234375 0.5878906250
0.1865234375 0.9990234375 0.5742187500
0.5576171875 0.9990234375 0.5576171875
0.8369140625 0.9990234375 0.5449218750
0.9990234375 0.9990234375 0.5361328125
0.0000000000 0.0000000000 0.9199218750
0.2255859375 0.0000000000 0.9052734375
0.5966796875 0.0000000000 0.8886718750
0.8759765625 0.0000000000 0.8759765625
0.9990234375 0.0000000000 0.8681640625
0.0000000000 0.2255859375 0.9052734375
0.2119140625 0.2119140625 0.8916015625
0.5820312500 0.1953125000 0.8750000000
0.8623046875 0.1826171875 0.8623046875
0.9990234375 0.1738281250 0.8544921875
0.0000000000 0.5966796875 0.8886718750
0.1953125000 0.5820312500 0.8750000000
0.5654296875 0.5654296875 0.8583984375
0.8457031250 0.5527343750 0.8457031250
0.9990234375 0.5449218750 0.8369140625
0.0000000000 0.8759765625 0.8759765625
0.1826171875 0.8623046875 0.8623046875
0.5527343750 0.8457031250 0.8457031250
0.8330078125 0.8330078125 0.8330078125
0.9990234375 0.8242187500 0.8242187500
0.0000000000 0.9990234375 0.8681640625
0.1738281250 0.9990234375 0.8544921875
0.5449218750 0.9990234375 0.8369140625
0.8242187500 0.9990234375 0.8242187500
0.9990234375 0.9990234375 0.8164062500
0.0000000000 0.0000000000 0.9990234375
0.2177734375 0.0000000000 0.9990234375
0.5878906250 0.0000000000 0.9990234375
0.8681640625 0.0000000000 0.9990234375
0.9990234375 0.0000000000 0.9990234375
0.0000000000 0.2177734375 0.9990234375
0.2031250000 0.2031250000 0.9990234375
0.5742187500 0.1865234375 0.9990234375
0.8544921875 0.1738281250 0.9990234375
0.9990234375 0.1660156250 0.9990234375
0.0000000000 0.5878906250 0.9990234375
0.1865234375 0.5742187500 0.9990234375
0.5576171875 0.5576171875 0.9990234375
0.8369140625 0.5449218750 0.9990234375
0.9990234375 0.5361328125 0.9990234375
0.0000000000 0.8681640625 0.9990234375
0.1738281250 0.8544921875 0.9990234375
0.5449218750 0.8369140625 0.9990234375
0.8242187500 0.8242187500 0.9990234375
0.9990234375 0.8164062500 0.9990234375
0.0000000000 0.9990234375 0.9990234375
0.1660156250 0.9990234375 0.9990234375
0.5361328125 0.9990234375 0.9990234375
0.8164062500 0.9990234375 0.9990234375
0.9990234375 0.9990234375 0.9990234375
