Blackmagic Design/Blackmagic 4.6K Film to Extended Video v4.cube
# (C) 2018 Blackmagic Design
LUT_3D_SIZE 33
0.0000000000 0.0000000000 0.0000000000
0.0000000000 0.0000000000 0.0000000000
0.0000000000 0.0000000000 0.0000000000
0.0371093750 0.0000000000 0.0000000000
0.0771484375 0.0000000000 0.0000000000
0.1181640625 0.0000000000 0.0000000000
0.1601562500 0.0000000000 0.0000000000
0.2031250000 0.0000000000 0.0000000000
0.2490234375 0.0000000000 0.0000000000
0.2988281250 0.0000000000 0.0000000000
0.3515625000 0.0000000000 0.0000000000
0.4091796875 0.0000000000 0.0000000000
0.4726562500 0.0000000000 0.0000000000
0.5371093750 0.0000000000 0.0000000000
0.5996093750 0.0000000000 0.0000000000
0.6621093750 0.0000000000 0.0000000000
0.7236328125 0.0000000000 0.0000000000
0.7773437500 0.0000000000 0.0000000000
0.8251953125 0.0000000000 0.0000000000
0.8681640625 0.0000000000 0.0000000000
0.9062500000 0.0000000000 0.0000000000
0.9414062500 0.0000000000 0.0000000000
0.9736328125 0.0000000000 0.0000000000
0.9990234375 0.0000000000 0.0000000000
0.9990234375 0.0000000000 0.0000000000
0.9990234375 0.0000000000 0.0000000000
0.9990234375 0.0000000000 0.0000000000
0.9990234375 0.0000000000 0.0000000000
0.9990234375 0.0000000000 0.0000000000
0.9990234375 0.0000000000 0.0000000000
0.9990234375 0.0000000000 0.0000000000
0.9990234375 0.0000000000 0.0000000000
0.9990234375 0.0000000000 0.0000000000
0.0000000000 0.0000000000 0.0000000000
0.0000000000 0.0000000000 0.0000000000
0.0000000000 0.0000000000 0.0000000000
0.0351562500 0.0000000000 0.0000000000
0.0751953125 0.0000000000 0.0000000000
0.1152343750 0.0000000000 0.0000000000
0.1572265625 0.0000000000 0.0000000000
0.2011718750 0.0000000000 0.0000000000
0.2470703125 0.0000000000 0.0000000000
0.2958984375 0.0000000000 0.0000000000
0.3486328125 0.0000000000 0.0000000000
0.4072265625 0.0000000000 0.0000000000
0.4707031250 0.0000000000 0.0000000000
0.5341796875 0.0000000000 0.0000000000
0.5966796875 0.0000000000 0.0000000000
0.6591796875 0.0000000000 0.0000000000
0.7207031250 0.0000000000 0.0000000000
0.7744140625 0.0000000000 0.0000000000
0.8222656250 0.0000000000 0.0000000000
0.8652343750 0.0000000000 0.0000000000
0.9042968750 0.0000000000 0.0000000000
0.9394531250 0.0000000000 0.0000000000
0.9707031250 0.0000000000 0.0000000000
0.9990234375 0.0000000000 0.0000000000
0.9990234375 0.0000000000 0.0000000000
0.9990234375 0.0000000000 0.0000000000
0.9990234375 0.0000000000 0.0000000000
0.9990234375 0.0000000000 0.0000000000
0.9990234375 0.0000000000 0.0000000000
0.9990234375 0.0000000000 0.0000000000
0.9990234375 0.0000000000 0.0000000000
0.9990234375 0.0000000000 0.0000000000
0.9990234375 0.0000000000 0.0000000000
0.0000000000 0.0000000000 0.0000000000
0.0000000000 0.0000000000 0.0000000000
0.0000000000 0.0000000000 0.0000000000
0.0322265625 0.0000000000 0.0000000000
0.0722656250 0.0000000000 0.0000000000
0.1132812500 0.0000000000 0.0000000000
0.1542968750 0.0000000000 0.0000000000
0.1982421875 0.0000000000 0.0000000000
0.2441406250 0.0000000000 0.0000000000
0.2929687500 0.0000000000 0.0000000000
0.3466796875 0.0000000000 0.0000000000
0.4042968750 0.0000000000 0.0000000000
0.4677734375 0.0000000000 0.0000000000
0.5312500000 0.0000000000 0.0000000000
0.5947265625 0.0000000000 0.0000000000
0.6572265625 0.0000000000 0.0000000000
0.7177734375 0.0000000000 0.0000000000
0.7724609375 0.0000000000 0.0000000000
0.8203125000 0.0000000000 0.0000000000
0.8623046875 0.0000000000 0.0000000000
0.9013671875 0.0000000000 0.0000000000
0.9365234375 0.0000000000 0.0000000000
0.9687500000 0.0000000000 0.0000000000
0.9980468750 0.0000000000 0.0000000000
0.9990234375 0.0000000000 0.0000000000
0.9990234375 0.0000000000 0.0000000000
0.9990234375 0.0000000000 0.0000000000
0.9990234375 0.0000000000 0.0000000000
0.9990234375 0.0000000000 0.0000000000
0.9990234375 0.0000000000 0.0000000000
0.9990234375 0.0000000000 0.0000000000
0.9990234375 0.0000000000 0.0000000000
0.9990234375 0.0000000000 0.0000000000
0.0000000000 0.0371093750 0.0000000000
0.0000000000 0.0351562500 0.0000000000
0.0000000000 0.0322265625 0.0000000000
0.0292968750 0.0292968750 0.0000000000
0.0693359375 0.0273437500 0.0000000000
0.1103515625 0.0244140625 0.0000000000
0.1523437500 0.0205078125 0.0000000000
0.1953125000 0.0175781250 0.0000000000
0.2412109375 0.0146484375 0.0000000000
0.2910156250 0.0107421875 0.0000000000
0.3437500000 0.0068359375 0.0000000000
0.4013671875 0.0029296875 0.0000000000
0.4648437500 0.0000000000 0.0000000000
0.5283203125 0.0000000000 0.0000000000
0.5917968750 0.0000000000 0.0000000000
0.6542968750 0.0000000000 0.0000000000
0.7148437500 0.0000000000 0.0000000000
0.7695312500 0.0000000000 0.0000000000
0.8173828125 0.0000000000 0.0000000000
0.8603515625 0.0000000000 0.0000000000
0.8984375000 0.0000000000 0.0000000000
0.9335937500 0.0000000000 0.0000000000
0.9658203125 0.0000000000 0.0000000000
0.9951171875 0.0000000000 0.0000000000
0.9990234375 0.0000000000 0.0000000000
0.9990234375 0.0000000000 0.0000000000
0.9990234375 0.0000000000 0.0000000000
0.9990234375 0.0000000000 0.0000000000
0.9990234375 0.0000000000 0.0000000000
0.9990234375 0.0000000000 0.0000000000
0.9990234375 0.0000000000 0.0000000000
0.9990234375 0.0000000000 0.0000000000
0.9990234375 0.0000000000 0.0000000000
0.0000000000 0.0771484375 0.0000000000
0.0000000000 0.0751953125 0.0000000000
0.0000000000 0.0722656250 0.0000000000
0.0273437500 0.0693359375 0.0000000000
0.0664062500 0.0664062500 0.0000000000
0.1074218750 0.0634765625 0.0000000000
0.1494140625 0.0605468750 0.0000000000
0.1923828125 0.0576171875 0.0000000000
0.2382812500 0.0546875000 0.0000000000
0.2880859375 0.0507812500 0.0000000000
0.3408203125 0.0468750000 0.0000000000
0.3984375000 0.0429687500 0.0000000000
0.4619140625 0.0380859375 0.0000000000
0.5263671875 0.0341796875 0.0000000000
0.5888671875 0.0292968750 0.0000000000
0.6513671875 0.0253906250 0.0000000000
0.7128906250 0.0205078125 0.0000000000
0.7666015625 0.0166015625 0.0000000000
0.8144531250 0.0136718750 0.0000000000
0.8574218750 0.0107421875 0.0000000000
0.8955078125 0.0078125000 0.0000000000
0.9306640625 0.0048828125 0.0000000000
0.9628906250 0.0029296875 0.0000000000
0.9921875000 0.0009765625 0.0000000000
0.9990234375 0.0000000000 0.0000000000
0.9990234375 0.0000000000 0.0000000000
0.9990234375 0.0000000000 0.0000000000
0.9990234375 0.0000000000 0.0000000000
0.9990234375 0.0000000000 0.0000000000
0.9990234375 0.0000000000 0.0000000000
0.9990234375 0.0000000000 0.0000000000
0.9990234375 0.0000000000 0.0000000000
0.9990234375 0.0000000000 0.0000000000
0.0000000000 0.1181640625 0.0000000000
0.0000000000 0.1152343750 0.0000000000
0.0000000000 0.1132812500 0.0000000000
0.0244140625 0.1103515625 0.0000000000
0.0634765625 0.1074218750 0.0000000000
0.1044921875 0.1044921875 0.0000000000
0.1464843750 0.1015625000 0.0000000000
0.1894531250 0.0986328125 0.0000000000
0.2353515625 0.0947265625 0.0000000000
0.2851562500 0.0917968750 0.0000000000
0.3378906250 0.0878906250 0.0000000000
0.3955078125 0.0839843750 0.0000000000
0.4589843750 0.0791015625 0.0000000000
0.5234375000 0.0742187500 0.0000000000
0.5859375000 0.0703125000 0.0000000000
0.6484375000 0.0654296875 0.0000000000
0.7099609375 0.0615234375 0.0000000000
0.7636718750 0.0576171875 0.0000000000
0.8115234375 0.0537109375 0.0000000000
0.8544921875 0.0507812500 0.0000000000
0.8925781250 0.0478515625 0.0000000000
0.9277343750 0.0458984375 0.0000000000
0.9599609375 0.0429687500 0.0000000000
0.9892578125 0.0410156250 0.0000000000
0.9990234375 0.0390625000 0.0000000000
0.9990234375 0.0371093750 0.0000000000
0.9990234375 0.0361328125 0.0000000000
0.9990234375 0.0341796875 0.0000000000
0.9990234375 0.0332031250 0.0000000000
0.9990234375 0.0322265625 0.0000000000
0.9990234375 0.0302734375 0.0000000000
0.9990234375 0.0292968750 0.0000000000
0.9990234375 0.0283203125 0.0000000000
0.0000000000 0.1601562500 0.0000000000
0.0000000000 0.1572265625 0.0000000000
0.0000000000 0.1542968750 0.0000000000
0.0205078125 0.1523437500 0.0000000000
0.0605468750 0.1494140625 0.0000000000
0.1015625000 0.1464843750 0.0000000000
0.1435546875 0.1435546875 0.0000000000
0.1865234375 0.1396484375 0.0000000000
0.2324218750 0.1367187500 0.0000000000
0.2822265625 0.1337890625 0.0000000000
0.3349609375 0.1298828125 0.0000000000
0.3925781250 0.1250000000 0.0000000000
0.4560546875 0.1210937500 0.0000000000
0.5205078125 0.1162109375 0.0000000000
0.5830078125 0.1123046875 0.0000000000
0.6455078125 0.1074218750 0.0000000000
0.7070312500 0.1025390625 0.0000000000
0.7607421875 0.0996093750 0.0000000000
0.8085937500 0.0957031250 0.0000000000
0.8515625000 0.0927734375 0.0000000000
0.8896484375 0.0898437500 0.0000000000
0.9248046875 0.0869140625 0.0000000000
0.9570312500 0.0849609375 0.0000000000
0.9863281250 0.0830078125 0.0000000000
0.9990234375 0.0810546875 0.0000000000
0.9990234375 0.0791015625 0.0000000000
0.9990234375 0.0781250000 0.0000000000
0.9990234375 0.0761718750 0.0000000000
0.9990234375 0.0751953125 0.0000000000
0.9990234375 0.0732421875 0.0000000000
0.9990234375 0.0722656250 0.0000000000
0.9990234375 0.0712890625 0.0000000000
0.9990234375 0.0703125000 0.0000000000
0.0000000000 0.2031250000 0.0000000000
0.0000000000 0.2011718750 0.0000000000
0.0000000000 0.1982421875 0.0000000000
0.0175781250 0.1953125000 0.0000000000
0.0576171875 0.1923828125 0.0000000000
0.0986328125 0.1894531250 0.0000000000
0.1396484375 0.1865234375 0.0000000000
0.1835937500 0.1835937500 0.0000000000
0.2294921875 0.1806640625 0.0000000000
0.2783203125 0.1767578125 0.0000000000
0.3320312500 0.1728515625 0.0000000000
0.3896484375 0.1689453125 0.0000000000
0.4531250000 0.1640625000 0.0000000000
0.5166015625 0.1601562500 0.0000000000
0.5800781250 0.1552734375 0.0000000000
0.6425781250 0.1513671875 0.0000000000
0.7031250000 0.1464843750 0.0000000000
0.7578125000 0.1425781250 0.0000000000
0.8056640625 0.1396484375 0.0000000000
0.8486328125 0.1367187500 0.0000000000
0.8867187500 0.1337890625 0.0000000000
0.9218750000 0.1308593750 0.0000000000
0.9541015625 0.1289062500 0.0000000000
0.9833984375 0.1269531250 0.0000000000
0.9990234375 0.1250000000 0.0000000000
0.9990234375 0.1230468750 0.0000000000
0.9990234375 0.1210937500 0.0000000000
0.9990234375 0.1201171875 0.0000000000
0.9990234375 0.1181640625 0.0000000000
0.9990234375 0.1171875000 0.0000000000
0.9990234375 0.1162109375 0.0000000000
0.9990234375 0.1152343750 0.0000000000
0.9990234375 0.1142578125 0.0000000000
0.0000000000 0.2490234375 0.0000000000
0.0000000000 0.2470703125 0.0000000000
0.0000000000 0.2441406250 0.0000000000
0.0146484375 0.2412109375 0.0000000000
0.0546875000 0.2382812500 0.0000000000
0.0947265625 0.2353515625 0.0000000000
0.1367187500 0.2324218750 0.0000000000
0.1806640625 0.2294921875 0.0000000000
0.2265625000 0.2265625000 0.0000000000
0.2753906250 0.2226562500 0.0000000000
0.3281250000 0.2187500000 0.0000000000
0.3867187500 0.2148437500 0.0000000000
0.4501953125 0.2109375000 0.0000000000
0.5136718750 0.2060546875 0.0000000000
0.5771484375 0.2011718750 0.0000000000
0.6396484375 0.1972656250 0.0000000000
0.7001953125 0.1923828125 0.0000000000
0.7539062500 0.1884765625 0.0000000000
0.8017578125 0.1855468750 0.0000000000
0.8447265625 0.1826171875 0.0000000000
0.8837890625 0.1796875000 0.0000000000
0.9189453125 0.1767578125 0.0000000000
0.9511718750 0.1748046875 0.0000000000
0.9804687500 0.1728515625 0.0000000000
0.9990234375 0.1708984375 0.0000000000
0.9990234375 0.1689453125 0.0000000000
0.9990234375 0.1669921875 0.0000000000
0.9990234375 0.1660156250 0.0000000000
0.9990234375 0.1640625000 0.0000000000
0.9990234375 0.1630859375 0.0000000000
0.9990234375 0.1621093750 0.0000000000
0.9990234375 0.1611328125 0.0000000000
0.9990234375 0.1601562500 0.0000000000
0.0000000000 0.2988281250 0.0000000000
0.0000000000 0.2958984375 0.0000000000
0.0000000000 0.2929687500 0.0000000000
0.0107421875 0.2910156250 0.0000000000
0.0507812500 0.2880859375 0.0000000000
0.0917968750 0.2851562500 0.0000000000
0.1337890625 0.2822265625 0.0000000000
0.1767578125 0.2783203125 0.0000000000
0.2226562500 0.2753906250 0.0000000000
0.2714843750 0.2714843750 0.0000000000
0.3251953125 0.2685546875 0.0000000000
0.3828125000 0.2636718750 0.0000000000
0.4462890625 0.2597656250 0.0000000000
0.5097656250 0.2548828125 0.0000000000
0.5732421875 0.2500000000 0.0000000000
0.6357421875 0.2460937500 0.0000000000
0.6962890625 0.2412109375 0.0000000000
0.7509765625 0.2373046875 0.0000000000
0.7988281250 0.2343750000 0.0000000000
0.8417968750 0.2314453125 0.0000000000
0.8798828125 0.2285156250 0.0000000000
0.9150390625 0.2255859375 0.0000000000
0.9472656250 0.2236328125 0.0000000000
0.9765625000 0.2216796875 0.0000000000
0.9990234375 0.2197265625 0.0000000000
0.9990234375 0.2177734375 0.0000000000
0.9990234375 0.2167968750 0.0000000000
0.9990234375 0.2148437500 0.0000000000
0.9990234375 0.2138671875 0.0000000000
0.9990234375 0.2119140625 0.0000000000
0.9990234375 0.2109375000 0.0000000000
0.9990234375 0.2099609375 0.0000000000
0.9990234375 0.2089843750 0.0000000000
0.0000000000 0.3515625000 0.0000000000
0.0000000000 0.3486328125 0.0000000000
0.0000000000 0.3466796875 0.0000000000
0.0068359375 0.3437500000 0.0000000000
0.0468750000 0.3408203125 0.0000000000
0.0878906250 0.3378906250 0.0000000000
0.1298828125 0.3349609375 0.0000000000
0.1728515625 0.3320312500 0.0000000000
0.2187500000 0.3281250000 0.0000000000
0.2685546875 0.3251953125 0.0000000000
0.3212890625 0.3212890625 0.0000000000
0.3789062500 0.3173828125 0.0000000000
0.4423828125 0.3125000000 0.0000000000
0.5068359375 0.3076171875 0.0000000000
0.5693359375 0.3037109375 0.0000000000
0.6318359375 0.2988281250 0.0000000000
0.6933593750 0.2949218750 0.0000000000
0.7470703125 0.2910156250 0.0000000000
0.7949218750 0.2871093750 0.0000000000
0.8378906250 0.2841796875 0.0000000000
0.8759765625 0.2812500000 0.0000000000
0.9111328125 0.2792968750 0.0000000000
0.9433593750 0.2763671875 0.0000000000
0.9726562500 0.2744140625 0.0000000000
0.9990234375 0.2724609375 0.0000000000
0.9990234375 0.2705078125 0.0000000000
0.9990234375 0.2695312500 0.0000000000
0.9990234375 0.2675781250 0.0000000000
0.9990234375 0.2666015625 0.0000000000
0.9990234375 0.2656250000 0.0000000000
0.9990234375 0.2636718750 0.0000000000
0.9990234375 0.2626953125 0.0000000000
0.9990234375 0.2617187500 0.0000000000
0.0000000000 0.4091796875 0.0000000000
0.0000000000 0.4072265625 0.0000000000
0.0000000000 0.4042968750 0.0000000000
0.0029296875 0.4013671875 0.0000000000
0.0429687500 0.3984375000 0.0000000000
0.0839843750 0.3955078125 0.0000000000
0.1250000000 0.3925781250 0.0000000000
0.1689453125 0.3896484375 0.0000000000
0.2148437500 0.3867187500 0.0000000000
0.2636718750 0.3828125000 0.0000000000
0.3173828125 0.3789062500 0.0000000000
0.3750000000 0.3750000000 0.0000000000
0.4384765625 0.3701171875 0.0000000000
0.5019531250 0.3662109375 0.0000000000
0.5654296875 0.3613281250 0.0000000000
0.6279296875 0.3564453125 0.0000000000
0.6884765625 0.3525390625 0.0000000000
0.7431640625 0.3486328125 0.0000000000
0.7910156250 0.3457031250 0.0000000000
0.8339843750 0.3417968750 0.0000000000
0.8720703125 0.3398437500 0.0000000000
0.9072265625 0.3369140625 0.0000000000
0.9394531250 0.3349609375 0.0000000000
0.9687500000 0.3330078125 0.0000000000
0.9951171875 0.3310546875 0.0000000000
0.9990234375 0.3291015625 0.0000000000
0.9990234375 0.3271484375 0.0000000000
0.9990234375 0.3261718750 0.0000000000
0.9990234375 0.3242187500 0.0000000000
0.9990234375 0.3232421875 0.0000000000
0.9990234375 0.3222656250 0.0000000000
0.9990234375 0.3212890625 0.0000000000
0.9990234375 0.3203125000 0.0000000000
0.0000000000 0.4726562500 0.0000000000
0.0000000000 0.4707031250 0.0000000000
0.0000000000 0.4677734375 0.0000000000
0.0000000000 0.4648437500 0.0000000000
0.0380859375 0.4619140625 0.0000000000
0.0791015625 0.4589843750 0.0000000000
0.1210937500 0.4560546875 0.0000000000
0.1640625000 0.4531250000 0.0000000000
0.2109375000 0.4501953125 0.0000000000
0.2597656250 0.4462890625 0.0000000000
0.3125000000 0.4423828125 0.0000000000
0.3701171875 0.4384765625 0.0000000000
0.4335937500 0.4335937500 0.0000000000
0.4980468750 0.4296875000 0.0000000000
0.5605468750 0.4248046875 0.0000000000
0.6230468750 0.4208984375 0.0000000000
0.6845703125 0.4160156250 0.0000000000
0.7382812500 0.4121093750 0.0000000000
0.7861328125 0.4091796875 0.0000000000
0.8291015625 0.4062500000 0.0000000000
0.8671875000 0.4033203125 0.0000000000
0.9023437500 0.4003906250 0.0000000000
0.9345703125 0.3984375000 0.0000000000
0.9638671875 0.3964843750 0.0000000000
0.9912109375 0.3945312500 0.0000000000
0.9990234375 0.3925781250 0.0000000000
0.9990234375 0.3906250000 0.0000000000
0.9990234375 0.3896484375 0.0000000000
0.9990234375 0.3876953125 0.0000000000
0.9990234375 0.3867187500 0.0000000000
0.9990234375 0.3857421875 0.0000000000
0.9990234375 0.3847656250 0.0000000000
0.9990234375 0.3837890625 0.0000000000
0.0000000000 0.5371093750 0.0000000000
0.0000000000 0.5341796875 0.0000000000
0.0000000000 0.5312500000 0.0000000000
0.0000000000 0.5283203125 0.0000000000
0.0341796875 0.5263671875 0.0000000000
0.0742187500 0.5234375000 0.0000000000
0.1162109375 0.5205078125 0.0000000000
0.1601562500 0.5166015625 0.0000000000
0.2060546875 0.5136718750 0.0000000000
0.2548828125 0.5097656250 0.0000000000
0.3076171875 0.5068359375 0.0000000000
0.3662109375 0.5019531250 0.0000000000
0.4296875000 0.4980468750 0.0000000000
0.4931640625 0.4931640625 0.0000000000
0.5566406250 0.4882812500 0.0000000000
0.6181640625 0.4843750000 0.0000000000
0.6796875000 0.4794921875 0.0000000000
0.7333984375 0.4755859375 0.0000000000
0.7812500000 0.4726562500 0.0000000000
0.8242187500 0.4697265625 0.0000000000
0.8632812500 0.4667968750 0.0000000000
0.8984375000 0.4638671875 0.0000000000
0.9306640625 0.4619140625 0.0000000000
0.9599609375 0.4599609375 0.0000000000
0.9863281250 0.4580078125 0.0000000000
0.9990234375 0.4560546875 0.0000000000
0.9990234375 0.4541015625 0.0000000000
0.9990234375 0.4531250000 0.0000000000
0.9990234375 0.4521484375 0.0000000000
0.9990234375 0.4501953125 0.0000000000
0.9990234375 0.4492187500 0.0000000000
0.9990234375 0.4482421875 0.0000000000
0.9990234375 0.4472656250 0.0000000000
0.0000000000 0.5996093750 0.0000000000
0.0000000000 0.5966796875 0.0000000000
0.0000000000 0.5947265625 0.0000000000
0.0000000000 0.5917968750 0.0000000000
0.0292968750 0.5888671875 0.0000000000
0.0703125000 0.5859375000 0.0000000000
0.1123046875 0.5830078125 0.0000000000
0.1552734375 0.5800781250 0.0000000000
0.2011718750 0.5771484375 0.0000000000
0.2500000000 0.5732421875 0.0000000000
0.3037109375 0.5693359375 0.0000000000
0.3613281250 0.5654296875 0.0000000000
0.4248046875 0.5605468750 0.0000000000
0.4882812500 0.5566406250 0.0000000000
0.5517578125 0.5517578125 0.0000000000
0.6142578125 0.5468750000 0.0000000000
0.6748046875 0.5429687500 0.0000000000
0.7294921875 0.5390625000 0.0000000000
0.7773437500 0.5351562500 0.0000000000
0.8203125000 0.5322265625 0.0000000000
0.8583984375 0.5292968750 0.0000000000
0.8935546875 0.5273437500 0.0000000000
0.9257812500 0.5253906250 0.0000000000
0.9550781250 0.5224609375 0.0000000000
0.9814453125 0.5205078125 0.0000000000
0.9990234375 0.5195312500 0.0000000000
0.9990234375 0.5175781250 0.0000000000
0.9990234375 0.5156250000 0.0000000000
0.9990234375 0.5146484375 0.0000000000
0.9990234375 0.5136718750 0.0000000000
0.9990234375 0.5126953125 0.0000000000
0.9990234375 0.5117187500 0.0000000000
0.9990234375 0.5107421875 0.0000000000
0.0000000000 0.6621093750 0.0000000000
0.0000000000 0.6591796875 0.0000000000
0.0000000000 0.6572265625 0.0000000000
0.0000000000 0.6542968750 0.0000000000
0.0253906250 0.6513671875 0.0000000000
0.0654296875 0.6484375000 0.0000000000
0.1074218750 0.6455078125 0.0000000000
0.1513671875 0.6425781250 0.0000000000
0.1972656250 0.6396484375 0.0000000000
0.2460937500 0.6357421875 0.0000000000
0.2988281250 0.6318359375 0.0000000000
0.3564453125 0.6279296875 0.0000000000
0.4208984375 0.6230468750 0.0000000000
0.4843750000 0.6181640625 0.0000000000
0.5468750000 0.6142578125 0.0000000000
0.6093750000 0.6093750000 0.0000000000
0.6708984375 0.6054687500 0.0000000000
0.7246093750 0.6015625000 0.0000000000
0.7724609375 0.5976562500 0.0000000000
0.8154296875 0.5947265625 0.0000000000
0.8544921875 0.5917968750 0.0000000000
0.8896484375 0.5898437500 0.0000000000
0.9208984375 0.5878906250 0.0000000000
0.9501953125 0.5849609375 0.0000000000
0.9775390625 0.5830078125 0.0000000000
0.9990234375 0.5820312500 0.0000000000
0.9990234375 0.5800781250 0.0000000000
0.9990234375 0.5781250000 0.0000000000
0.9990234375 0.5771484375 0.0000000000
0.9990234375 0.5761718750 0.0000000000
0.9990234375 0.5751953125 0.0000000000
0.9990234375 0.5742187500 0.0000000000
0.9990234375 0.5732421875 0.0000000000
0.0000000000 0.7236328125 0.0000000000
0.0000000000 0.7207031250 0.0000000000
0.0000000000 0.7177734375 0.0000000000
0.0000000000 0.7148437500 0.0000000000
0.0205078125 0.7128906250 0.0000000000
0.0615234375 0.7099609375 0.0000000000
0.1025390625 0.7070312500 0.0000000000
0.1464843750 0.7031250000 0.0000000000
0.1923828125 0.7001953125 0.0000000000
0.2412109375 0.6962890625 0.0000000000
0.2949218750 0.6933593750 0.0000000000
0.3525390625 0.6884765625 0.0000000000
0.4160156250 0.6845703125 0.0000000000
0.4794921875 0.6796875000 0.0000000000
0.5429687500 0.6748046875 0.0000000000
0.6054687500 0.6708984375 0.0000000000
0.6660156250 0.6660156250 0.0000000000
0.7207031250 0.6621093750 0.0000000000
0.7685546875 0.6591796875 0.0000000000
0.8115234375 0.6562500000 0.0000000000
0.8496093750 0.6533203125 0.0000000000
0.8847656250 0.6503906250 0.0000000000
0.9169921875 0.6484375000 0.0000000000
0.9462890625 0.6464843750 0.0000000000
0.9726562500 0.6445312500 0.0000000000
0.9980468750 0.6425781250 0.0000000000
0.9990234375 0.6406250000 0.0000000000
0.9990234375 0.6396484375 0.0000000000
0.9990234375 0.6386718750 0.0000000000
0.9990234375 0.6367187500 0.0000000000
0.9990234375 0.6357421875 0.0000000000
0.9990234375 0.6347656250 0.0000000000
0.9990234375 0.6337890625 0.0000000000
0.0000000000 0.7773437500 0.0000000000
0.0000000000 0.7744140625 0.0000000000
0.0000000000 0.7724609375 0.0000000000
0.0000000000 0.7695312500 0.0000000000
0.0166015625 0.7666015625 0.0000000000
0.0576171875 0.7636718750 0.0000000000
0.0996093750 0.7607421875 0.0000000000
0.1425781250 0.7578125000 0.0000000000
0.1884765625 0.7539062500 0.0000000000
0.2373046875 0.7509765625 0.0000000000
0.2910156250 0.7470703125 0.0000000000
0.3486328125 0.7431640625 0.0000000000
0.4121093750 0.7382812500 0.0000000000
0.4755859375 0.7333984375 0.0000000000
0.5390625000 0.7294921875 0.0000000000
0.6015625000 0.7246093750 0.0000000000
0.6621093750 0.7207031250 0.0000000000
0.7167968750 0.7167968750 0.0000000000
0.7646484375 0.7128906250 0.0000000000
0.8076171875 0.7099609375 0.0000000000
0.8457031250 0.7070312500 0.0000000000
0.8808593750 0.7050781250 0.0000000000
0.9130859375 0.7021484375 0.0000000000
0.9423828125 0.7001953125 0.0000000000
0.9687500000 0.6982421875 0.0000000000
0.9941406250 0.6962890625 0.0000000000
0.9990234375 0.6953125000 0.0000000000
0.9990234375 0.6933593750 0.0000000000
0.9990234375 0.6923828125 0.0000000000
0.9990234375 0.6914062500 0.0000000000
0.9990234375 0.6894531250 0.0000000000
0.9990234375 0.6884765625 0.0000000000
0.9990234375 0.6884765625 0.0000000000
0.0000000000 0.8251953125 0.0000000000
0.0000000000 0.8222656250 0.0000000000
0.0000000000 0.8203125000 0.0000000000
0.0000000000 0.8173828125 0.0000000000
0.0136718750 0.8144531250 0.0000000000
0.0537109375 0.8115234375 0.0000000000
0.0957031250 0.8085937500 0.0000000000
0.1396484375 0.8056640625 0.0000000000
0.1855468750 0.8017578125 0.0000000000
0.2343750000 0.7988281250 0.0000000000
0.2871093750 0.7949218750 0.0000000000
0.3457031250 0.7910156250 0.0000000000
0.4091796875 0.7861328125 0.0000000000
0.4726562500 0.7812500000 0.0000000000
0.5351562500 0.7773437500 0.0000000000
0.5976562500 0.7724609375 0.0000000000
0.6591796875 0.7685546875 0.0000000000
0.7128906250 0.7646484375 0.0000000000
0.7607421875 0.7607421875 0.0000000000
0.8037109375 0.7578125000 0.0000000000
