Blackmagic Design/Blackmagic 4K Film to Extended Video v4.cube
# (C) 2018 Blackmagic Design
LUT_3D_SIZE 33
0.0000000000 0.0000000000 0.0000000000
0.0000000000 0.0000000000 0.0000000000
0.0283203125 0.0000000000 0.0000000000
0.0615234375 0.0000000000 0.0000000000
0.0957031250 0.0000000000 0.0000000000
0.1308593750 0.0000000000 0.0000000000
0.1660156250 0.0000000000 0.0000000000
0.2031250000 0.0000000000 0.0000000000
0.2421875000 0.0000000000 0.0000000000
0.2822265625 0.0000000000 0.0000000000
0.3232421875 0.0000000000 0.0000000000
0.3671875000 0.0000000000 0.0000000000
0.4121093750 0.0000000000 0.0000000000
0.4541015625 0.0000000000 0.0000000000
0.4931640625 0.0000000000 0.0000000000
0.5302734375 0.0000000000 0.0000000000
0.5654296875 0.0000000000 0.0000000000
0.5996093750 0.0000000000 0.0000000000
0.6328125000 0.0000000000 0.0000000000
0.6650390625 0.0000000000 0.0000000000
0.6972656250 0.0000000000 0.0000000000
0.7294921875 0.0000000000 0.0000000000
0.7597656250 0.0000000000 0.0000000000
0.7910156250 0.0000000000 0.0000000000
0.8212890625 0.0000000000 0.0000000000
0.8505859375 0.0000000000 0.0000000000
0.8798828125 0.0000000000 0.0000000000
0.9082031250 0.0000000000 0.0000000000
0.9355468750 0.0000000000 0.0000000000
0.9628906250 0.0000000000 0.0000000000
0.9892578125 0.0000000000 0.0000000000
0.9990234375 0.0000000000 0.0000000000
0.9990234375 0.0000000000 0.0000000000
0.0000000000 0.0000000000 0.0000000000
0.0000000000 0.0000000000 0.0000000000
0.0283203125 0.0000000000 0.0000000000
0.0615234375 0.0000000000 0.0000000000
0.0947265625 0.0000000000 0.0000000000
0.1298828125 0.0000000000 0.0000000000
0.1660156250 0.0000000000 0.0000000000
0.2031250000 0.0000000000 0.0000000000
0.2412109375 0.0000000000 0.0000000000
0.2812500000 0.0000000000 0.0000000000
0.3232421875 0.0000000000 0.0000000000
0.3662109375 0.0000000000 0.0000000000
0.4111328125 0.0000000000 0.0000000000
0.4541015625 0.0000000000 0.0000000000
0.4931640625 0.0000000000 0.0000000000
0.5292968750 0.0000000000 0.0000000000
0.5644531250 0.0000000000 0.0000000000
0.5986328125 0.0000000000 0.0000000000
0.6318359375 0.0000000000 0.0000000000
0.6650390625 0.0000000000 0.0000000000
0.6972656250 0.0000000000 0.0000000000
0.7285156250 0.0000000000 0.0000000000
0.7597656250 0.0000000000 0.0000000000
0.7900390625 0.0000000000 0.0000000000
0.8203125000 0.0000000000 0.0000000000
0.8496093750 0.0000000000 0.0000000000
0.8789062500 0.0000000000 0.0000000000
0.9072265625 0.0000000000 0.0000000000
0.9355468750 0.0000000000 0.0000000000
0.9619140625 0.0000000000 0.0000000000
0.9882812500 0.0000000000 0.0000000000
0.9990234375 0.0000000000 0.0000000000
0.9990234375 0.0000000000 0.0000000000
0.0000000000 0.0283203125 0.0000000000
0.0000000000 0.0283203125 0.0000000000
0.0283203125 0.0283203125 0.0000000000
0.0605468750 0.0273437500 0.0000000000
0.0947265625 0.0263671875 0.0000000000
0.1298828125 0.0263671875 0.0000000000
0.1650390625 0.0253906250 0.0000000000
0.2031250000 0.0253906250 0.0000000000
0.2412109375 0.0244140625 0.0000000000
0.2812500000 0.0234375000 0.0000000000
0.3222656250 0.0234375000 0.0000000000
0.3662109375 0.0224609375 0.0000000000
0.4111328125 0.0214843750 0.0000000000
0.4541015625 0.0205078125 0.0000000000
0.4921875000 0.0205078125 0.0000000000
0.5292968750 0.0195312500 0.0000000000
0.5644531250 0.0195312500 0.0000000000
0.5986328125 0.0185546875 0.0000000000
0.6318359375 0.0185546875 0.0000000000
0.6640625000 0.0175781250 0.0000000000
0.6962890625 0.0166015625 0.0000000000
0.7285156250 0.0166015625 0.0000000000
0.7597656250 0.0156250000 0.0000000000
0.7900390625 0.0156250000 0.0000000000
0.8203125000 0.0146484375 0.0000000000
0.8496093750 0.0146484375 0.0000000000
0.8789062500 0.0136718750 0.0000000000
0.9072265625 0.0136718750 0.0000000000
0.9345703125 0.0136718750 0.0000000000
0.9619140625 0.0126953125 0.0000000000
0.9882812500 0.0126953125 0.0000000000
0.9990234375 0.0117187500 0.0000000000
0.9990234375 0.0117187500 0.0000000000
0.0000000000 0.0615234375 0.0000000000
0.0000000000 0.0615234375 0.0000000000
0.0273437500 0.0605468750 0.0000000000
0.0605468750 0.0605468750 0.0000000000
0.0937500000 0.0595703125 0.0000000000
0.1289062500 0.0595703125 0.0000000000
0.1650390625 0.0585937500 0.0000000000
0.2021484375 0.0576171875 0.0000000000
0.2402343750 0.0576171875 0.0000000000
0.2802734375 0.0566406250 0.0000000000
0.3222656250 0.0556640625 0.0000000000
0.3652343750 0.0556640625 0.0000000000
0.4101562500 0.0546875000 0.0000000000
0.4531250000 0.0537109375 0.0000000000
0.4921875000 0.0537109375 0.0000000000
0.5283203125 0.0527343750 0.0000000000
0.5634765625 0.0517578125 0.0000000000
0.5976562500 0.0517578125 0.0000000000
0.6308593750 0.0507812500 0.0000000000
0.6640625000 0.0507812500 0.0000000000
0.6962890625 0.0498046875 0.0000000000
0.7275390625 0.0498046875 0.0000000000
0.7587890625 0.0488281250 0.0000000000
0.7890625000 0.0488281250 0.0000000000
0.8193359375 0.0478515625 0.0000000000
0.8486328125 0.0478515625 0.0000000000
0.8779296875 0.0468750000 0.0000000000
0.9062500000 0.0468750000 0.0000000000
0.9345703125 0.0458984375 0.0000000000
0.9609375000 0.0458984375 0.0000000000
0.9873046875 0.0449218750 0.0000000000
0.9990234375 0.0449218750 0.0000000000
0.9990234375 0.0449218750 0.0000000000
0.0000000000 0.0957031250 0.0000000000
0.0000000000 0.0947265625 0.0000000000
0.0263671875 0.0947265625 0.0000000000
0.0595703125 0.0937500000 0.0000000000
0.0937500000 0.0937500000 0.0000000000
0.1289062500 0.0927734375 0.0000000000
0.1640625000 0.0927734375 0.0000000000
0.2011718750 0.0917968750 0.0000000000
0.2402343750 0.0908203125 0.0000000000
0.2802734375 0.0908203125 0.0000000000
0.3212890625 0.0898437500 0.0000000000
0.3652343750 0.0888671875 0.0000000000
0.4101562500 0.0888671875 0.0000000000
0.4521484375 0.0878906250 0.0000000000
0.4912109375 0.0869140625 0.0000000000
0.5273437500 0.0869140625 0.0000000000
0.5634765625 0.0859375000 0.0000000000
0.5976562500 0.0859375000 0.0000000000
0.6308593750 0.0849609375 0.0000000000
0.6630859375 0.0839843750 0.0000000000
0.6953125000 0.0839843750 0.0000000000
0.7275390625 0.0830078125 0.0000000000
0.7578125000 0.0830078125 0.0000000000
0.7890625000 0.0820312500 0.0000000000
0.8193359375 0.0820312500 0.0000000000
0.8486328125 0.0810546875 0.0000000000
0.8779296875 0.0810546875 0.0000000000
0.9062500000 0.0800781250 0.0000000000
0.9335937500 0.0800781250 0.0000000000
0.9609375000 0.0800781250 0.0000000000
0.9863281250 0.0791015625 0.0000000000
0.9990234375 0.0791015625 0.0000000000
0.9990234375 0.0781250000 0.0000000000
0.0000000000 0.1308593750 0.0000000000
0.0000000000 0.1298828125 0.0000000000
0.0263671875 0.1298828125 0.0000000000
0.0595703125 0.1289062500 0.0000000000
0.0927734375 0.1289062500 0.0000000000
0.1279296875 0.1279296875 0.0000000000
0.1640625000 0.1269531250 0.0000000000
0.2011718750 0.1269531250 0.0000000000
0.2392578125 0.1259765625 0.0000000000
0.2792968750 0.1250000000 0.0000000000
0.3212890625 0.1250000000 0.0000000000
0.3642578125 0.1240234375 0.0000000000
0.4091796875 0.1230468750 0.0000000000
0.4521484375 0.1230468750 0.0000000000
0.4902343750 0.1220703125 0.0000000000
0.5273437500 0.1210937500 0.0000000000
0.5625000000 0.1210937500 0.0000000000
0.5966796875 0.1201171875 0.0000000000
0.6298828125 0.1201171875 0.0000000000
0.6630859375 0.1191406250 0.0000000000
0.6953125000 0.1191406250 0.0000000000
0.7265625000 0.1181640625 0.0000000000
0.7578125000 0.1181640625 0.0000000000
0.7880859375 0.1171875000 0.0000000000
0.8183593750 0.1171875000 0.0000000000
0.8476562500 0.1162109375 0.0000000000
0.8769531250 0.1162109375 0.0000000000
0.9052734375 0.1152343750 0.0000000000
0.9335937500 0.1152343750 0.0000000000
0.9599609375 0.1142578125 0.0000000000
0.9863281250 0.1142578125 0.0000000000
0.9990234375 0.1132812500 0.0000000000
0.9990234375 0.1132812500 0.0000000000
0.0000000000 0.1660156250 0.0000000000
0.0000000000 0.1660156250 0.0000000000
0.0253906250 0.1650390625 0.0000000000
0.0585937500 0.1650390625 0.0000000000
0.0927734375 0.1640625000 0.0000000000
0.1269531250 0.1640625000 0.0000000000
0.1630859375 0.1630859375 0.0000000000
0.2001953125 0.1630859375 0.0000000000
0.2392578125 0.1621093750 0.0000000000
0.2783203125 0.1611328125 0.0000000000
0.3203125000 0.1611328125 0.0000000000
0.3632812500 0.1601562500 0.0000000000
0.4082031250 0.1591796875 0.0000000000
0.4511718750 0.1582031250 0.0000000000
0.4902343750 0.1582031250 0.0000000000
0.5263671875 0.1572265625 0.0000000000
0.5615234375 0.1572265625 0.0000000000
0.5957031250 0.1562500000 0.0000000000
0.6298828125 0.1562500000 0.0000000000
0.6621093750 0.1552734375 0.0000000000
0.6943359375 0.1542968750 0.0000000000
0.7255859375 0.1542968750 0.0000000000
0.7568359375 0.1533203125 0.0000000000
0.7880859375 0.1533203125 0.0000000000
0.8173828125 0.1523437500 0.0000000000
0.8476562500 0.1523437500 0.0000000000
0.8759765625 0.1513671875 0.0000000000
0.9042968750 0.1513671875 0.0000000000
0.9326171875 0.1503906250 0.0000000000
0.9599609375 0.1503906250 0.0000000000
0.9853515625 0.1503906250 0.0000000000
0.9990234375 0.1494140625 0.0000000000
0.9990234375 0.1494140625 0.0000000000
0.0000000000 0.2031250000 0.0000000000
0.0000000000 0.2031250000 0.0000000000
0.0253906250 0.2031250000 0.0000000000
0.0576171875 0.2021484375 0.0000000000
0.0917968750 0.2011718750 0.0000000000
0.1269531250 0.2011718750 0.0000000000
0.1630859375 0.2001953125 0.0000000000
0.2001953125 0.2001953125 0.0000000000
0.2382812500 0.1992187500 0.0000000000
0.2783203125 0.1982421875 0.0000000000
0.3193359375 0.1982421875 0.0000000000
0.3632812500 0.1972656250 0.0000000000
0.4082031250 0.1962890625 0.0000000000
0.4511718750 0.1953125000 0.0000000000
0.4892578125 0.1953125000 0.0000000000
0.5263671875 0.1943359375 0.0000000000
0.5615234375 0.1943359375 0.0000000000
0.5957031250 0.1933593750 0.0000000000
0.6289062500 0.1933593750 0.0000000000
0.6621093750 0.1923828125 0.0000000000
0.6933593750 0.1914062500 0.0000000000
0.7255859375 0.1914062500 0.0000000000
0.7568359375 0.1904296875 0.0000000000
0.7871093750 0.1904296875 0.0000000000
0.8173828125 0.1894531250 0.0000000000
0.8466796875 0.1894531250 0.0000000000
0.8759765625 0.1884765625 0.0000000000
0.9042968750 0.1884765625 0.0000000000
0.9316406250 0.1884765625 0.0000000000
0.9589843750 0.1875000000 0.0000000000
0.9853515625 0.1875000000 0.0000000000
0.9990234375 0.1865234375 0.0000000000
0.9990234375 0.1865234375 0.0000000000
0.0000000000 0.2421875000 0.0000000000
0.0000000000 0.2412109375 0.0000000000
0.0244140625 0.2412109375 0.0000000000
0.0576171875 0.2402343750 0.0000000000
0.0908203125 0.2402343750 0.0000000000
0.1259765625 0.2392578125 0.0000000000
0.1621093750 0.2392578125 0.0000000000
0.1992187500 0.2382812500 0.0000000000
0.2373046875 0.2373046875 0.0000000000
0.2773437500 0.2373046875 0.0000000000
0.3193359375 0.2363281250 0.0000000000
0.3623046875 0.2353515625 0.0000000000
0.4072265625 0.2353515625 0.0000000000
0.4501953125 0.2343750000 0.0000000000
0.4892578125 0.2333984375 0.0000000000
0.5253906250 0.2333984375 0.0000000000
0.5605468750 0.2324218750 0.0000000000
0.5947265625 0.2314453125 0.0000000000
0.6279296875 0.2314453125 0.0000000000
0.6611328125 0.2304687500 0.0000000000
0.6933593750 0.2304687500 0.0000000000
0.7246093750 0.2294921875 0.0000000000
0.7558593750 0.2294921875 0.0000000000
0.7861328125 0.2285156250 0.0000000000
0.8164062500 0.2285156250 0.0000000000
0.8457031250 0.2275390625 0.0000000000
0.8750000000 0.2275390625 0.0000000000
0.9033203125 0.2265625000 0.0000000000
0.9316406250 0.2265625000 0.0000000000
0.9580078125 0.2255859375 0.0000000000
0.9843750000 0.2255859375 0.0000000000
0.9990234375 0.2255859375 0.0000000000
0.9990234375 0.2246093750 0.0000000000
0.0000000000 0.2822265625 0.0000000000
0.0000000000 0.2812500000 0.0000000000
0.0234375000 0.2812500000 0.0000000000
0.0566406250 0.2802734375 0.0000000000
0.0908203125 0.2802734375 0.0000000000
0.1250000000 0.2792968750 0.0000000000
0.1611328125 0.2783203125 0.0000000000
0.1982421875 0.2783203125 0.0000000000
0.2373046875 0.2773437500 0.0000000000
0.2773437500 0.2773437500 0.0000000000
0.3183593750 0.2763671875 0.0000000000
0.3613281250 0.2753906250 0.0000000000
0.4072265625 0.2744140625 0.0000000000
0.4492187500 0.2744140625 0.0000000000
0.4882812500 0.2734375000 0.0000000000
0.5244140625 0.2724609375 0.0000000000
0.5605468750 0.2724609375 0.0000000000
0.5947265625 0.2714843750 0.0000000000
0.6279296875 0.2714843750 0.0000000000
0.6601562500 0.2705078125 0.0000000000
0.6923828125 0.2705078125 0.0000000000
0.7246093750 0.2695312500 0.0000000000
0.7548828125 0.2695312500 0.0000000000
0.7861328125 0.2685546875 0.0000000000
0.8154296875 0.2685546875 0.0000000000
0.8457031250 0.2675781250 0.0000000000
0.8740234375 0.2675781250 0.0000000000
0.9033203125 0.2666015625 0.0000000000
0.9306640625 0.2666015625 0.0000000000
0.9580078125 0.2656250000 0.0000000000
0.9833984375 0.2656250000 0.0000000000
0.9990234375 0.2646484375 0.0000000000
0.9990234375 0.2646484375 0.0000000000
0.0000000000 0.3232421875 0.0000000000
0.0000000000 0.3232421875 0.0000000000
0.0234375000 0.3222656250 0.0000000000
0.0556640625 0.3222656250 0.0000000000
0.0898437500 0.3212890625 0.0000000000
0.1250000000 0.3212890625 0.0000000000
0.1611328125 0.3203125000 0.0000000000
0.1982421875 0.3193359375 0.0000000000
0.2363281250 0.3193359375 0.0000000000
0.2763671875 0.3183593750 0.0000000000
0.3173828125 0.3173828125 0.0000000000
0.3613281250 0.3173828125 0.0000000000
0.4062500000 0.3164062500 0.0000000000
0.4492187500 0.3154296875 0.0000000000
0.4873046875 0.3154296875 0.0000000000
0.5244140625 0.3144531250 0.0000000000
0.5595703125 0.3134765625 0.0000000000
0.5937500000 0.3134765625 0.0000000000
0.6269531250 0.3125000000 0.0000000000
0.6601562500 0.3125000000 0.0000000000
0.6923828125 0.3115234375 0.0000000000
0.7236328125 0.3115234375 0.0000000000
0.7548828125 0.3105468750 0.0000000000
0.7851562500 0.3105468750 0.0000000000
0.8154296875 0.3095703125 0.0000000000
0.8447265625 0.3095703125 0.0000000000
0.8740234375 0.3085937500 0.0000000000
0.9023437500 0.3085937500 0.0000000000
0.9296875000 0.3076171875 0.0000000000
0.9570312500 0.3076171875 0.0000000000
0.9833984375 0.3066406250 0.0000000000
0.9990234375 0.3066406250 0.0000000000
0.9990234375 0.3066406250 0.0000000000
0.0000000000 0.3671875000 0.0000000000
0.0000000000 0.3662109375 0.0000000000
0.0224609375 0.3662109375 0.0000000000
0.0556640625 0.3652343750 0.0000000000
0.0888671875 0.3652343750 0.0000000000
0.1240234375 0.3642578125 0.0000000000
0.1601562500 0.3632812500 0.0000000000
0.1972656250 0.3632812500 0.0000000000
0.2353515625 0.3623046875 0.0000000000
0.2753906250 0.3613281250 0.0000000000
0.3173828125 0.3613281250 0.0000000000
0.3603515625 0.3603515625 0.0000000000
0.4052734375 0.3593750000 0.0000000000
0.4482421875 0.3593750000 0.0000000000
0.4873046875 0.3583984375 0.0000000000
0.5234375000 0.3574218750 0.0000000000
0.5585937500 0.3574218750 0.0000000000
0.5927734375 0.3564453125 0.0000000000
0.6259765625 0.3564453125 0.0000000000
0.6591796875 0.3554687500 0.0000000000
0.6914062500 0.3554687500 0.0000000000
0.7226562500 0.3544921875 0.0000000000
0.7539062500 0.3544921875 0.0000000000
0.7841796875 0.3535156250 0.0000000000
0.8144531250 0.3535156250 0.0000000000
0.8437500000 0.3525390625 0.0000000000
0.8730468750 0.3525390625 0.0000000000
0.9013671875 0.3515625000 0.0000000000
0.9296875000 0.3515625000 0.0000000000
0.9560546875 0.3505859375 0.0000000000
0.9824218750 0.3505859375 0.0000000000
0.9990234375 0.3496093750 0.0000000000
0.9990234375 0.3496093750 0.0000000000
0.0000000000 0.4121093750 0.0000000000
0.0000000000 0.4111328125 0.0000000000
0.0214843750 0.4111328125 0.0000000000
0.0546875000 0.4101562500 0.0000000000
0.0888671875 0.4101562500 0.0000000000
0.1230468750 0.4091796875 0.0000000000
0.1591796875 0.4082031250 0.0000000000
0.1962890625 0.4082031250 0.0000000000
0.2353515625 0.4072265625 0.0000000000
0.2744140625 0.4072265625 0.0000000000
0.3164062500 0.4062500000 0.0000000000
0.3593750000 0.4052734375 0.0000000000
0.4042968750 0.4042968750 0.0000000000
0.4472656250 0.4042968750 0.0000000000
0.4863281250 0.4033203125 0.0000000000
0.5224609375 0.4023437500 0.0000000000
0.5576171875 0.4023437500 0.0000000000
0.5917968750 0.4013671875 0.0000000000
0.6259765625 0.4013671875 0.0000000000
0.6582031250 0.4003906250 0.0000000000
0.6904296875 0.4003906250 0.0000000000
0.7216796875 0.3994140625 0.0000000000
0.7529296875 0.3994140625 0.0000000000
0.7832031250 0.3984375000 0.0000000000
0.8134765625 0.3984375000 0.0000000000
0.8437500000 0.3974609375 0.0000000000
0.8720703125 0.3974609375 0.0000000000
0.9003906250 0.3964843750 0.0000000000
0.9287109375 0.3964843750 0.0000000000
0.9560546875 0.3955078125 0.0000000000
0.9814453125 0.3955078125 0.0000000000
0.9990234375 0.3945312500 0.0000000000
0.9990234375 0.3945312500 0.0000000000
0.0000000000 0.4541015625 0.0000000000
0.0000000000 0.4541015625 0.0000000000
0.0205078125 0.4541015625 0.0000000000
0.0537109375 0.4531250000 0.0000000000
0.0878906250 0.4521484375 0.0000000000
0.1230468750 0.4521484375 0.0000000000
0.1582031250 0.4511718750 0.0000000000
0.1953125000 0.4511718750 0.0000000000
0.2343750000 0.4501953125 0.0000000000
0.2744140625 0.4492187500 0.0000000000
0.3154296875 0.4492187500 0.0000000000
0.3593750000 0.4482421875 0.0000000000
0.4042968750 0.4472656250 0.0000000000
0.4462890625 0.4462890625 0.0000000000
0.4853515625 0.4462890625 0.0000000000
0.5224609375 0.4453125000 0.0000000000
0.5576171875 0.4453125000 0.0000000000
0.5917968750 0.4443359375 0.0000000000
0.6250000000 0.4443359375 0.0000000000
0.6572265625 0.4433593750 0.0000000000
0.6894531250 0.4423828125 0.0000000000
0.7216796875 0.4423828125 0.0000000000
0.7519531250 0.4414062500 0.0000000000
0.7832031250 0.4414062500 0.0000000000
0.8134765625 0.4404296875 0.0000000000
0.8427734375 0.4404296875 0.0000000000
0.8720703125 0.4394531250 0.0000000000
0.9003906250 0.4394531250 0.0000000000
0.9277343750 0.4394531250 0.0000000000
0.9550781250 0.4384765625 0.0000000000
0.9814453125 0.4384765625 0.0000000000
0.9990234375 0.4375000000 0.0000000000
0.9990234375 0.4375000000 0.0000000000
0.0000000000 0.4931640625 0.0000000000
0.0000000000 0.4931640625 0.0000000000
0.0205078125 0.4921875000 0.0000000000
0.0537109375 0.4921875000 0.0000000000
0.0869140625 0.4912109375 0.0000000000
0.1220703125 0.4902343750 0.0000000000
0.1582031250 0.4902343750 0.0000000000
0.1953125000 0.4892578125 0.0000000000
0.2333984375 0.4892578125 0.0000000000
0.2734375000 0.4882812500 0.0000000000
0.3154296875 0.4873046875 0.0000000000
0.3583984375 0.4873046875 0.0000000000
0.4033203125 0.4863281250 0.0000000000
0.4462890625 0.4853515625 0.0000000000
0.4843750000 0.4843750000 0.0000000000
0.5214843750 0.4843750000 0.0000000000
0.5566406250 0.4833984375 0.0000000000
0.5908203125 0.4833984375 0.0000000000
0.6240234375 0.4824218750 0.0000000000
0.6572265625 0.4824218750 0.0000000000
0.6894531250 0.4814453125 0.0000000000
0.7207031250 0.4814453125 0.0000000000
0.7519531250 0.4804687500 0.0000000000
0.7822265625 0.4804687500 0.0000000000
0.8125000000 0.4794921875 0.0000000000
0.8417968750 0.4794921875 0.0000000000
0.8710937500 0.4785156250 0.0000000000
0.8994140625 0.4785156250 0.0000000000
0.9277343750 0.4775390625 0.0000000000
0.9541015625 0.4775390625 0.0000000000
0.9804687500 0.4765625000 0.0000000000
0.9990234375 0.4765625000 0.0000000000
0.9990234375 0.4755859375 0.0000000000
0.0000000000 0.5302734375 0.0000000000
0.0000000000 0.5292968750 0.0000000000
0.0195312500 0.5292968750 0.0000000000
0.0527343750 0.5283203125 0.0000000000
0.0869140625 0.5273437500 0.0000000000
0.1210937500 0.5273437500 0.0000000000
0.1572265625 0.5263671875 0.0000000000
0.1943359375 0.5263671875 0.0000000000
0.2333984375 0.5253906250 0.0000000000
0.2724609375 0.5244140625 0.0000000000
0.3144531250 0.5244140625 0.0000000000
0.3574218750 0.5234375000 0.0000000000
0.4023437500 0.5224609375 0.0000000000
0.4453125000 0.5224609375 0.0000000000
0.4843750000 0.5214843750 0.0000000000
0.5205078125 0.5205078125 0.0000000000
0.5556640625 0.5205078125 0.0000000000
0.5898437500 0.5195312500 0.0000000000
0.6240234375 0.5195312500 0.0000000000
0.6562500000 0.5185546875 0.0000000000
0.6884765625 0.5185546875 0.0000000000
0.7197265625 0.5175781250 0.0000000000
0.7509765625 0.5175781250 0.0000000000
0.7822265625 0.5166015625 0.0000000000
0.8115234375 0.5166015625 0.0000000000
0.8417968750 0.5156250000 0.0000000000
0.8701171875 0.5156250000 0.0000000000
0.8984375000 0.5146484375 0.0000000000
0.9267578125 0.5146484375 0.0000000000
0.9541015625 0.5136718750 0.0000000000
0.9794921875 0.5136718750 0.0000000000
0.9990234375 0.5126953125 0.0000000000
0.9990234375 0.5126953125 0.0000000000
0.0000000000 0.5654296875 0.0000000000
0.0000000000 0.5644531250 0.0000000000
0.0195312500 0.5644531250 0.0000000000
0.0517578125 0.5634765625 0.0000000000
0.0859375000 0.5634765625 0.0000000000
0.1210937500 0.5625000000 0.0000000000
0.1572265625 0.5615234375 0.0000000000
0.1943359375 0.5615234375 0.0000000000
0.2324218750 0.5605468750 0.0000000000
0.2724609375 0.5605468750 0.0000000000
0.3134765625 0.5595703125 0.0000000000
0.3574218750 0.5585937500 0.0000000000
0.4023437500 0.5576171875 0.0000000000
0.4453125000 0.5576171875 0.0000000000
0.4833984375 0.5566406250 0.0000000000
0.5205078125 0.5556640625 0.0000000000
0.5556640625 0.5556640625 0.0000000000
0.5898437500 0.5546875000 0.0000000000
0.6230468750 0.5546875000 0.0000000000
0.6562500000 0.5537109375 0.0000000000
0.6884765625 0.5537109375 0.0000000000
0.7197265625 0.5527343750 0.0000000000
0.7509765625 0.5527343750 0.0000000000
0.7812500000 0.5517578125 0.0000000000
0.8115234375 0.5517578125 0.0000000000
0.8408203125 0.5507812500 0.0000000000
0.8701171875 0.5507812500 0.0000000000
0.8984375000 0.5498046875 0.0000000000
0.9257812500 0.5498046875 0.0000000000
0.9531250000 0.5488281250 0.0000000000
0.9794921875 0.5488281250 0.0000000000
0.9990234375 0.5478515625 0.0000000000
0.9990234375 0.5478515625 0.0000000000
0.0000000000 0.5996093750 0.0000000000
0.0000000000 0.5986328125 0.0000000000
0.0185546875 0.5986328125 0.0000000000
0.0517578125 0.5976562500 0.0000000000
0.0859375000 0.5976562500 0.0000000000
0.1201171875 0.5966796875 0.0000000000
0.1562500000 0.5957031250 0.0000000000
0.1933593750 0.5957031250 0.0000000000
0.2314453125 0.5947265625 0.0000000000
0.2714843750 0.5947265625 0.0000000000
0.3134765625 0.5937500000 0.0000000000
0.3564453125 0.5927734375 0.0000000000
0.4013671875 0.5917968750 0.0000000000
0.4443359375 0.5917968750 0.0000000000
0.4833984375 0.5908203125 0.0000000000
0.5195312500 0.5898437500 0.0000000000
0.5546875000 0.5898437500 0.0000000000
0.5888671875 0.5888671875 0.0000000000
0.6230468750 0.5888671875 0.0000000000
0.6552734375 0.5878906250 0.0000000000
0.6875000000 0.5878906250 0.0000000000
0.7187500000 0.5869140625 0.0000000000
0.7500000000 0.5869140625 0.0000000000
0.7802734375 0.5859375000 0.0000000000
0.8105468750 0.5859375000 0.0000000000
0.8398437500 0.5849609375 0.0000000000
0.8691406250 0.5849609375 0.0000000000
0.8974609375 0.5839843750 0.0000000000
0.9257812500 0.5839843750 0.0000000000
0.9521484375 0.5830078125 0.0000000000
0.9785156250 0.5830078125 0.0000000000
0.9990234375 0.5820312500 0.0000000000
0.9990234375 0.5820312500 0.0000000000
0.0000000000 0.6328125000 0.0000000000
0.0000000000 0.6318359375 0.0000000000
0.0185546875 0.6318359375 0.0000000000
0.0507812500 0.6308593750 0.0000000000
0.0849609375 0.6308593750 0.0000000000
0.1201171875 0.6298828125 0.0000000000
0.1562500000 0.6298828125 0.0000000000
0.1933593750 0.6289062500 0.0000000000
0.2314453125 0.6279296875 0.0000000000
0.2714843750 0.6279296875 0.0000000000
0.3125000000 0.6269531250 0.0000000000
0.3564453125 0.6259765625 0.0000000000
0.4013671875 0.6259765625 0.0000000000
0.4443359375 0.6250000000 0.0000000000
0.4824218750 0.6240234375 0.0000000000
0.5195312500 0.6240234375 0.0000000000
0.5546875000 0.6230468750 0.0000000000
0.5888671875 0.6230468750 0.0000000000
0.6220703125 0.6220703125 0.0000000000
0.6552734375 0.6210937500 0.0000000000
