Blackmagic Design/Blackmagic 4.6K Film to Rec709.cube
# DaVinci Resolve Cube (3D LUT).
#
#Blackmagic Design 4.6K Film to Rec709
LUT_3D_SIZE 5
LUT_3D_INPUT_RANGE 0.0000000000 1.0000000000
0.0000000000 0.0000000000 0.0000000000
0.7265177965 0.0000000000 0.0000000000
1.0000000000 0.0000000000 0.0000000000
1.0000000000 0.0000000000 0.0000000000
1.0000000000 0.0000000000 0.0000000000
0.0000000000 0.3455078602 0.0000000000
0.2910844088 0.2759167552 0.0000000000
0.7647537589 0.1391793936 0.0000000000
1.0000000000 0.0000000000 0.0000000000
1.0000000000 0.0000000000 0.0000000000
0.0000000000 0.6612790227 0.0000000000
0.1813835651 0.6572787166 0.0000000000
0.6839000583 0.6567164063 0.0000000000
1.0000000000 0.6297155023 0.0000000000
1.0000000000 0.4533161223 0.0000000000
0.0000000000 1.0000000000 0.0000000000
0.0000000000 1.0000000000 0.0000000000
0.7121980190 1.0000000000 0.0000000000
1.0000000000 1.0000000000 0.0000000000
1.0000000000 1.0000000000 0.0000000000
0.0000000000 1.0000000000 0.0000000000
0.0000000000 1.0000000000 0.0000000000
1.0000000000 1.0000000000 0.0000000000
1.0000000000 1.0000000000 0.5293618441
1.0000000000 1.0000000000 1.0000000000
0.0000000000 0.0000000000 0.7706334591
0.5899941325 0.0000000000 0.5465644002
1.0000000000 0.0000000000 0.0000000000
1.0000000000 0.0000000000 0.0000000000
1.0000000000 0.0000000000 0.0000000000
0.0000000000 0.2767473459 0.2931160331
0.2314259410 0.2314260453 0.2314244360
0.7079342604 0.1118799597 0.1601980329
1.0000000000 0.0000000000 0.0000000000
1.0000000000 0.0000000000 0.0000000000
0.0000000000 0.6478845477 0.0647575930
0.1146373972 0.6497187018 0.0988597050
0.6626943350 0.6545486450 0.0630338639
1.0000000000 0.6294354796 0.0000000000
1.0000000000 0.4486474991 0.0000000000
0.0000000000 1.0000000000 0.0000000000
0.0000000000 1.0000000000 0.0000000000
0.6828630567 1.0000000000 0.0000000000
1.0000000000 1.0000000000 0.0000000000
1.0000000000 1.0000000000 0.0000000000
0.0000000000 1.0000000000 0.0000000000
0.0000000000 1.0000000000 0.0000000000
1.0000000000 1.0000000000 0.3815011382
1.0000000000 1.0000000000 1.0000000000
1.0000000000 1.0000000000 1.0000000000
0.0000000000 0.0000000000 1.0000000000
0.0000000000 0.0000000000 1.0000000000
1.0000000000 0.0000000000 1.0000000000
1.0000000000 0.0000000000 1.0000000000
1.0000000000 0.0000000000 0.0000000000
0.0000000000 0.0000000000 0.8920855522
0.0000000000 0.0000000000 0.6979842782
0.6346049309 0.0000000000 0.6233182549
0.9916933179 0.0000000000 0.5179256201
1.0000000000 0.0000000000 0.4484434128
0.0000000000 0.6031610966 0.6267409325
0.0000000000 0.6169477105 0.6220142245
0.6237559319 0.6237564087 0.6237530112
1.0000000000 0.5932707787 0.6143267155
1.0000000000 0.3758400977 0.5316251516
0.0000000000 1.0000000000 0.5951539874
0.0000000000 1.0000000000 0.5948417187
0.6439716816 1.0000000000 0.6347443461
1.0000000000 1.0000000000 0.7724886537
1.0000000000 1.0000000000 0.9088789821
0.0000000000 1.0000000000 0.5487760901
0.0000000000 1.0000000000 0.8902288675
1.0000000000 1.0000000000 1.0000000000
1.0000000000 1.0000000000 1.0000000000
1.0000000000 1.0000000000 1.0000000000
0.0000000000 0.0000000000 1.0000000000
0.0000000000 0.0000000000 1.0000000000
1.0000000000 0.0000000000 1.0000000000
1.0000000000 0.0000000000 1.0000000000
1.0000000000 0.0000000000 1.0000000000
0.0000000000 0.0000000000 1.0000000000
0.0000000000 0.0000000000 1.0000000000
0.4765228331 0.0000000000 1.0000000000
0.9742588401 0.0000000000 0.9596522450
1.0000000000 0.0000000000 0.9859094024
0.0000000000 0.4510778785 1.0000000000
0.0000000000 0.5082747340 1.0000000000
0.5332159400 0.5111706257 1.0000000000
1.0000000000 0.4558699429 1.0000000000
1.0000000000 0.0000000000 1.0000000000
0.0000000000 1.0000000000 1.0000000000
0.0000000000 1.0000000000 1.0000000000
0.5206149817 1.0000000000 1.0000000000
1.0000000000 1.0000000000 1.0000000000
1.0000000000 1.0000000000 1.0000000000
0.0000000000 1.0000000000 1.0000000000
0.0000000000 1.0000000000 1.0000000000
1.0000000000 1.0000000000 1.0000000000
1.0000000000 1.0000000000 1.0000000000
1.0000000000 1.0000000000 1.0000000000
0.0000000000 0.0000000000 1.0000000000
0.0000000000 0.0000000000 1.0000000000
0.0000000000 0.0000000000 1.0000000000
1.0000000000 0.0000000000 1.0000000000
1.0000000000 0.0000000000 1.0000000000
0.0000000000 0.0000000000 1.0000000000
0.0000000000 0.0000000000 1.0000000000
0.0000000000 0.0000000000 1.0000000000
1.0000000000 0.0000000000 1.0000000000
1.0000000000 0.0000000000 1.0000000000
0.0000000000 0.0000000000 1.0000000000
0.0000000000 0.0000000000 1.0000000000
0.1807433665 0.0000000000 1.0000000000
0.9685769677 0.0000000000 1.0000000000
1.0000000000 0.0000000000 1.0000000000
0.0000000000 0.9368153811 1.0000000000
0.0000000000 0.9794525504 1.0000000000
0.0758136064 1.0000000000 1.0000000000
1.0000000000 1.0000000000 1.0000000000
1.0000000000 1.0000000000 1.0000000000
0.0000000000 1.0000000000 1.0000000000
0.0000000000 1.0000000000 1.0000000000
1.0000000000 1.0000000000 1.0000000000
1.0000000000 1.0000000000 1.0000000000
1.0000000000 1.0000000000 1.0000000000
