Blackmagic Design/Blackmagic 4K Film to Extended Video v4.cube
# (C) 2018 Blackmagic Design
LUT_3D_SIZE 5
0.0000000000 0.0000000000 0.0000000000
0.2421875000 0.0000000000 0.0000000000
0.5654296875 0.0000000000 0.0000000000
0.8212890625 0.0000000000 0.0000000000
0.9990234375 0.0000000000 0.0000000000
0.0000000000 0.2421875000 0.0000000000
0.2373046875 0.2373046875 0.0000000000
0.5605468750 0.2324218750 0.0000000000
0.8164062500 0.2285156250 0.0000000000
0.9990234375 0.2246093750 0.0000000000
0.0000000000 0.5654296875 0.0000000000
0.2324218750 0.5605468750 0.0000000000
0.5556640625 0.5556640625 0.0000000000
0.8115234375 0.5517578125 0.0000000000
0.9990234375 0.5478515625 0.0000000000
0.0000000000 0.8212890625 0.0000000000
0.2285156250 0.8164062500 0.0000000000
0.5517578125 0.8115234375 0.0000000000
0.8076171875 0.8076171875 0.0000000000
0.9990234375 0.8037109375 0.0000000000
0.0000000000 0.9990234375 0.0000000000
0.2246093750 0.9990234375 0.0000000000
0.5478515625 0.9990234375 0.0000000000
0.8037109375 0.9990234375 0.0000000000
0.9990234375 0.9990234375 0.0000000000
0.0000000000 0.0000000000 0.2421875000
0.2373046875 0.0000000000 0.2373046875
0.5605468750 0.0000000000 0.2324218750
0.8164062500 0.0000000000 0.2285156250
0.9990234375 0.0000000000 0.2246093750
0.0000000000 0.2373046875 0.2373046875
0.2333984375 0.2333984375 0.2333984375
0.5566406250 0.2285156250 0.2285156250
0.8125000000 0.2236328125 0.2236328125
0.9990234375 0.2207031250 0.2207031250
0.0000000000 0.5605468750 0.2324218750
0.2285156250 0.5566406250 0.2285156250
0.5507812500 0.5507812500 0.2226562500
0.8066406250 0.5468750000 0.2187500000
0.9990234375 0.5439453125 0.2148437500
0.0000000000 0.8164062500 0.2285156250
0.2236328125 0.8125000000 0.2236328125
0.5468750000 0.8066406250 0.2187500000
0.8027343750 0.8027343750 0.2148437500
0.9990234375 0.7998046875 0.2109375000
0.0000000000 0.9990234375 0.2246093750
0.2207031250 0.9990234375 0.2207031250
0.5439453125 0.9990234375 0.2148437500
0.7998046875 0.9990234375 0.2109375000
0.9990234375 0.9990234375 0.2080078125
0.0000000000 0.0000000000 0.5654296875
0.2324218750 0.0000000000 0.5605468750
0.5556640625 0.0000000000 0.5556640625
0.8115234375 0.0000000000 0.5517578125
0.9990234375 0.0000000000 0.5478515625
0.0000000000 0.2324218750 0.5605468750
0.2285156250 0.2285156250 0.5566406250
0.5507812500 0.2226562500 0.5507812500
0.8066406250 0.2187500000 0.5468750000
0.9990234375 0.2148437500 0.5439453125
0.0000000000 0.5556640625 0.5556640625
0.2226562500 0.5507812500 0.5507812500
0.5458984375 0.5458984375 0.5458984375
0.8017578125 0.5419921875 0.5419921875
0.9990234375 0.5380859375 0.5380859375
0.0000000000 0.8115234375 0.5517578125
0.2187500000 0.8066406250 0.5468750000
0.5419921875 0.8017578125 0.5419921875
0.7978515625 0.7978515625 0.5380859375
0.9990234375 0.7939453125 0.5341796875
0.0000000000 0.9990234375 0.5478515625
0.2148437500 0.9990234375 0.5439453125
0.5380859375 0.9990234375 0.5380859375
0.7939453125 0.9990234375 0.5341796875
0.9990234375 0.9990234375 0.5312500000
0.0000000000 0.0000000000 0.8212890625
0.2285156250 0.0000000000 0.8164062500
0.5517578125 0.0000000000 0.8115234375
0.8076171875 0.0000000000 0.8076171875
0.9990234375 0.0000000000 0.8037109375
0.0000000000 0.2285156250 0.8164062500
0.2236328125 0.2236328125 0.8125000000
0.5468750000 0.2187500000 0.8066406250
0.8027343750 0.2148437500 0.8027343750
0.9990234375 0.2109375000 0.7998046875
0.0000000000 0.5517578125 0.8115234375
0.2187500000 0.5468750000 0.8066406250
0.5419921875 0.5419921875 0.8017578125
0.7978515625 0.5380859375 0.7978515625
0.9990234375 0.5341796875 0.7939453125
0.0000000000 0.8076171875 0.8076171875
0.2148437500 0.8027343750 0.8027343750
0.5380859375 0.7978515625 0.7978515625
0.7939453125 0.7939453125 0.7939453125
0.9990234375 0.7900390625 0.7900390625
0.0000000000 0.9990234375 0.8037109375
0.2109375000 0.9990234375 0.7998046875
0.5341796875 0.9990234375 0.7939453125
0.7900390625 0.9990234375 0.7900390625
0.9990234375 0.9990234375 0.7861328125
0.0000000000 0.0000000000 0.9990234375
0.2246093750 0.0000000000 0.9990234375
0.5478515625 0.0000000000 0.9990234375
0.8037109375 0.0000000000 0.9990234375
0.9990234375 0.0000000000 0.9990234375
0.0000000000 0.2246093750 0.9990234375
0.2207031250 0.2207031250 0.9990234375
0.5439453125 0.2148437500 0.9990234375
0.7998046875 0.2109375000 0.9990234375
0.9990234375 0.2080078125 0.9990234375
0.0000000000 0.5478515625 0.9990234375
0.2148437500 0.5439453125 0.9990234375
0.5380859375 0.5380859375 0.9990234375
0.7939453125 0.5341796875 0.9990234375
0.9990234375 0.5312500000 0.9990234375
0.0000000000 0.8037109375 0.9990234375
0.2109375000 0.7998046875 0.9990234375
0.5341796875 0.7939453125 0.9990234375
0.7900390625 0.7900390625 0.9990234375
0.9990234375 0.7861328125 0.9990234375
0.0000000000 0.9990234375 0.9990234375
0.2080078125 0.9990234375 0.9990234375
0.5312500000 0.9990234375 0.9990234375
0.7861328125 0.9990234375 0.9990234375
0.9990234375 0.9990234375 0.9990234375
