Blackmagic Design/Blackmagic 4.6K Film to Video v4.cube
# (C) 2018 Blackmagic Design
LUT_3D_SIZE 5
0.0000000000 0.0000000000 0.0000000000
0.2597656250 0.0000000000 0.0000000000
0.7548828125 0.0000000000 0.0000000000
0.9990234375 0.0000000000 0.0000000000
0.9990234375 0.0000000000 0.0000000000
0.0000000000 0.2597656250 0.0000000000
0.2363281250 0.2363281250 0.0000000000
0.7314453125 0.2011718750 0.0000000000
0.9990234375 0.1630859375 0.0000000000
0.9990234375 0.1630859375 0.0000000000
0.0000000000 0.7548828125 0.0000000000
0.2011718750 0.7314453125 0.0000000000
0.6962890625 0.6962890625 0.0000000000
0.9990234375 0.6591796875 0.0000000000
0.9990234375 0.6591796875 0.0000000000
0.0000000000 0.9990234375 0.0000000000
0.1630859375 0.9990234375 0.0000000000
0.6591796875 0.9990234375 0.0000000000
0.9990234375 0.9990234375 0.0000000000
0.9990234375 0.9990234375 0.0000000000
0.0000000000 0.9990234375 0.0000000000
0.1630859375 0.9990234375 0.0000000000
0.6591796875 0.9990234375 0.0000000000
0.9990234375 0.9990234375 0.0000000000
0.9990234375 0.9990234375 0.0000000000
0.0000000000 0.0000000000 0.2597656250
0.2363281250 0.0000000000 0.2363281250
0.7314453125 0.0000000000 0.2011718750
0.9990234375 0.0000000000 0.1630859375
0.9990234375 0.0000000000 0.1630859375
0.0000000000 0.2363281250 0.2363281250
0.2128906250 0.2128906250 0.2128906250
0.7080078125 0.1777343750 0.1777343750
0.9990234375 0.1406250000 0.1406250000
0.9990234375 0.1406250000 0.1406250000
0.0000000000 0.7314453125 0.2011718750
0.1777343750 0.7080078125 0.1777343750
0.6728515625 0.6728515625 0.1425781250
0.9990234375 0.6357421875 0.1044921875
0.9990234375 0.6357421875 0.1044921875
0.0000000000 0.9990234375 0.1630859375
0.1406250000 0.9990234375 0.1406250000
0.6357421875 0.9990234375 0.1044921875
0.9990234375 0.9990234375 0.0673828125
0.9990234375 0.9990234375 0.0673828125
0.0000000000 0.9990234375 0.1630859375
0.1406250000 0.9990234375 0.1406250000
0.6357421875 0.9990234375 0.1044921875
0.9990234375 0.9990234375 0.0673828125
0.9990234375 0.9990234375 0.0673828125
0.0000000000 0.0000000000 0.7548828125
0.2011718750 0.0000000000 0.7314453125
0.6962890625 0.0000000000 0.6962890625
0.9990234375 0.0000000000 0.6591796875
0.9990234375 0.0000000000 0.6591796875
0.0000000000 0.2011718750 0.7314453125
0.1777343750 0.1777343750 0.7080078125
0.6728515625 0.1425781250 0.6728515625
0.9990234375 0.1044921875 0.6357421875
0.9990234375 0.1044921875 0.6357421875
0.0000000000 0.6962890625 0.6962890625
0.1425781250 0.6728515625 0.6728515625
0.6376953125 0.6376953125 0.6376953125
0.9990234375 0.5996093750 0.5996093750
0.9990234375 0.5996093750 0.5996093750
0.0000000000 0.9990234375 0.6591796875
0.1044921875 0.9990234375 0.6357421875
0.5996093750 0.9990234375 0.5996093750
0.9990234375 0.9990234375 0.5625000000
0.9990234375 0.9990234375 0.5625000000
0.0000000000 0.9990234375 0.6591796875
0.1044921875 0.9990234375 0.6357421875
0.5996093750 0.9990234375 0.5996093750
0.9990234375 0.9990234375 0.5625000000
0.9990234375 0.9990234375 0.5625000000
0.0000000000 0.0000000000 0.9990234375
0.1630859375 0.0000000000 0.9990234375
0.6591796875 0.0000000000 0.9990234375
0.9990234375 0.0000000000 0.9990234375
0.9990234375 0.0000000000 0.9990234375
0.0000000000 0.1630859375 0.9990234375
0.1406250000 0.1406250000 0.9990234375
0.6357421875 0.1044921875 0.9990234375
0.9990234375 0.0673828125 0.9990234375
0.9990234375 0.0673828125 0.9990234375
0.0000000000 0.6591796875 0.9990234375
0.1044921875 0.6357421875 0.9990234375
0.5996093750 0.5996093750 0.9990234375
0.9990234375 0.5625000000 0.9990234375
0.9990234375 0.5625000000 0.9990234375
0.0000000000 0.9990234375 0.9990234375
0.0673828125 0.9990234375 0.9990234375
0.5625000000 0.9990234375 0.9990234375
0.9990234375 0.9990234375 0.9990234375
0.9990234375 0.9990234375 0.9990234375
0.0000000000 0.9990234375 0.9990234375
0.0673828125 0.9990234375 0.9990234375
0.5625000000 0.9990234375 0.9990234375
0.9990234375 0.9990234375 0.9990234375
0.9990234375 0.9990234375 0.9990234375
0.0000000000 0.0000000000 0.9990234375
0.1630859375 0.0000000000 0.9990234375
0.6591796875 0.0000000000 0.9990234375
0.9990234375 0.0000000000 0.9990234375
0.9990234375 0.0000000000 0.9990234375
0.0000000000 0.1630859375 0.9990234375
0.1406250000 0.1406250000 0.9990234375
0.6357421875 0.1044921875 0.9990234375
0.9990234375 0.0673828125 0.9990234375
0.9990234375 0.0673828125 0.9990234375
0.0000000000 0.6591796875 0.9990234375
0.1044921875 0.6357421875 0.9990234375
0.5996093750 0.5996093750 0.9990234375
0.9990234375 0.5625000000 0.9990234375
0.9990234375 0.5625000000 0.9990234375
0.0000000000 0.9990234375 0.9990234375
0.0673828125 0.9990234375 0.9990234375
0.5625000000 0.9990234375 0.9990234375
0.9990234375 0.9990234375 0.9990234375
0.9990234375 0.9990234375 0.9990234375
0.0000000000 0.9990234375 0.9990234375
0.0673828125 0.9990234375 0.9990234375
0.5625000000 0.9990234375 0.9990234375
0.9990234375 0.9990234375 0.9990234375
0.9990234375 0.9990234375 0.9990234375
