Blackmagic Design/Blackmagic Pocket 4K Film to Video v4.cube
# (C) 2018 Blackmagic Design
LUT_3D_SIZE 33
0.0000000000 0.0000000000 0.0000000000
0.0000000000 0.0000000000 0.0000000000
0.0000000000 0.0000000000 0.0000000000
0.0312500000 0.0000000000 0.0000000000
0.0703125000 0.0000000000 0.0000000000
0.1162109375 0.0000000000 0.0000000000
0.1601562500 0.0000000000 0.0000000000
0.2041015625 0.0000000000 0.0000000000
0.2480468750 0.0000000000 0.0000000000
0.2929687500 0.0000000000 0.0000000000
0.3408203125 0.0000000000 0.0000000000
0.3906250000 0.0000000000 0.0000000000
0.4423828125 0.0000000000 0.0000000000
0.4990234375 0.0000000000 0.0000000000
0.5585937500 0.0000000000 0.0000000000
0.6220703125 0.0000000000 0.0000000000
0.6914062500 0.0000000000 0.0000000000
0.7646484375 0.0000000000 0.0000000000
0.8447265625 0.0000000000 0.0000000000
0.9316406250 0.0000000000 0.0000000000
0.9990234375 0.0000000000 0.0000000000
0.9990234375 0.0000000000 0.0000000000
0.9990234375 0.0000000000 0.0000000000
0.9990234375 0.0000000000 0.0000000000
0.9990234375 0.0000000000 0.0000000000
0.9990234375 0.0000000000 0.0000000000
0.9990234375 0.0000000000 0.0000000000
0.9990234375 0.0000000000 0.0000000000
0.9990234375 0.0000000000 0.0000000000
0.9990234375 0.0000000000 0.0000000000
0.9990234375 0.0000000000 0.0000000000
0.9990234375 0.0000000000 0.0000000000
0.9990234375 0.0000000000 0.0000000000
0.0000000000 0.0000000000 0.0000000000
0.0000000000 0.0000000000 0.0000000000
0.0000000000 0.0000000000 0.0000000000
0.0292968750 0.0000000000 0.0000000000
0.0683593750 0.0000000000 0.0000000000
0.1142578125 0.0000000000 0.0000000000
0.1591796875 0.0000000000 0.0000000000
0.2031250000 0.0000000000 0.0000000000
0.2470703125 0.0000000000 0.0000000000
0.2919921875 0.0000000000 0.0000000000
0.3388671875 0.0000000000 0.0000000000
0.3886718750 0.0000000000 0.0000000000
0.4414062500 0.0000000000 0.0000000000
0.4970703125 0.0000000000 0.0000000000
0.5566406250 0.0000000000 0.0000000000
0.6210937500 0.0000000000 0.0000000000
0.6894531250 0.0000000000 0.0000000000
0.7636718750 0.0000000000 0.0000000000
0.8437500000 0.0000000000 0.0000000000
0.9296875000 0.0000000000 0.0000000000
0.9990234375 0.0000000000 0.0000000000
0.9990234375 0.0000000000 0.0000000000
0.9990234375 0.0000000000 0.0000000000
0.9990234375 0.0000000000 0.0000000000
0.9990234375 0.0000000000 0.0000000000
0.9990234375 0.0000000000 0.0000000000
0.9990234375 0.0000000000 0.0000000000
0.9990234375 0.0000000000 0.0000000000
0.9990234375 0.0000000000 0.0000000000
0.9990234375 0.0000000000 0.0000000000
0.9990234375 0.0000000000 0.0000000000
0.9990234375 0.0000000000 0.0000000000
0.9990234375 0.0000000000 0.0000000000
0.0000000000 0.0000000000 0.0000000000
0.0000000000 0.0000000000 0.0000000000
0.0000000000 0.0000000000 0.0000000000
0.0283203125 0.0000000000 0.0000000000
0.0673828125 0.0000000000 0.0000000000
0.1132812500 0.0000000000 0.0000000000
0.1572265625 0.0000000000 0.0000000000
0.2011718750 0.0000000000 0.0000000000
0.2451171875 0.0000000000 0.0000000000
0.2910156250 0.0000000000 0.0000000000
0.3378906250 0.0000000000 0.0000000000
0.3876953125 0.0000000000 0.0000000000
0.4394531250 0.0000000000 0.0000000000
0.4960937500 0.0000000000 0.0000000000
0.5556640625 0.0000000000 0.0000000000
0.6191406250 0.0000000000 0.0000000000
0.6884765625 0.0000000000 0.0000000000
0.7626953125 0.0000000000 0.0000000000
0.8417968750 0.0000000000 0.0000000000
0.9287109375 0.0000000000 0.0000000000
0.9990234375 0.0000000000 0.0000000000
0.9990234375 0.0000000000 0.0000000000
0.9990234375 0.0000000000 0.0000000000
0.9990234375 0.0000000000 0.0000000000
0.9990234375 0.0000000000 0.0000000000
0.9990234375 0.0000000000 0.0000000000
0.9990234375 0.0000000000 0.0000000000
0.9990234375 0.0000000000 0.0000000000
0.9990234375 0.0000000000 0.0000000000
0.9990234375 0.0000000000 0.0000000000
0.9990234375 0.0000000000 0.0000000000
0.9990234375 0.0000000000 0.0000000000
0.9990234375 0.0000000000 0.0000000000
0.0000000000 0.0312500000 0.0000000000
0.0000000000 0.0292968750 0.0000000000
0.0000000000 0.0283203125 0.0000000000
0.0263671875 0.0263671875 0.0000000000
0.0654296875 0.0244140625 0.0000000000
0.1113281250 0.0224609375 0.0000000000
0.1562500000 0.0205078125 0.0000000000
0.1992187500 0.0185546875 0.0000000000
0.2441406250 0.0166015625 0.0000000000
0.2890625000 0.0146484375 0.0000000000
0.3359375000 0.0126953125 0.0000000000
0.3857421875 0.0097656250 0.0000000000
0.4384765625 0.0078125000 0.0000000000
0.4941406250 0.0048828125 0.0000000000
0.5537109375 0.0019531250 0.0000000000
0.6181640625 0.0000000000 0.0000000000
0.6865234375 0.0000000000 0.0000000000
0.7607421875 0.0000000000 0.0000000000
0.8408203125 0.0000000000 0.0000000000
0.9267578125 0.0000000000 0.0000000000
0.9990234375 0.0000000000 0.0000000000
0.9990234375 0.0000000000 0.0000000000
0.9990234375 0.0000000000 0.0000000000
0.9990234375 0.0000000000 0.0000000000
0.9990234375 0.0000000000 0.0000000000
0.9990234375 0.0000000000 0.0000000000
0.9990234375 0.0000000000 0.0000000000
0.9990234375 0.0000000000 0.0000000000
0.9990234375 0.0000000000 0.0000000000
0.9990234375 0.0000000000 0.0000000000
0.9990234375 0.0000000000 0.0000000000
0.9990234375 0.0000000000 0.0000000000
0.9990234375 0.0000000000 0.0000000000
0.0000000000 0.0703125000 0.0000000000
0.0000000000 0.0683593750 0.0000000000
0.0000000000 0.0673828125 0.0000000000
0.0244140625 0.0654296875 0.0000000000
0.0634765625 0.0634765625 0.0000000000
0.1093750000 0.0615234375 0.0000000000
0.1542968750 0.0595703125 0.0000000000
0.1982421875 0.0576171875 0.0000000000
0.2421875000 0.0556640625 0.0000000000
0.2871093750 0.0537109375 0.0000000000
0.3339843750 0.0517578125 0.0000000000
0.3837890625 0.0488281250 0.0000000000
0.4365234375 0.0468750000 0.0000000000
0.4921875000 0.0439453125 0.0000000000
0.5517578125 0.0410156250 0.0000000000
0.6162109375 0.0380859375 0.0000000000
0.6845703125 0.0351562500 0.0000000000
0.7587890625 0.0322265625 0.0000000000
0.8388671875 0.0283203125 0.0000000000
0.9248046875 0.0244140625 0.0000000000
0.9990234375 0.0214843750 0.0000000000
0.9990234375 0.0185546875 0.0000000000
0.9990234375 0.0166015625 0.0000000000
0.9990234375 0.0146484375 0.0000000000
0.9990234375 0.0136718750 0.0000000000
0.9990234375 0.0126953125 0.0000000000
0.9990234375 0.0126953125 0.0000000000
0.9990234375 0.0126953125 0.0000000000
0.9990234375 0.0126953125 0.0000000000
0.9990234375 0.0126953125 0.0000000000
0.9990234375 0.0126953125 0.0000000000
0.9990234375 0.0126953125 0.0000000000
0.9990234375 0.0126953125 0.0000000000
0.0000000000 0.1162109375 0.0000000000
0.0000000000 0.1142578125 0.0000000000
0.0000000000 0.1132812500 0.0000000000
0.0224609375 0.1113281250 0.0000000000
0.0615234375 0.1093750000 0.0000000000
0.1074218750 0.1074218750 0.0000000000
0.1523437500 0.1054687500 0.0000000000
0.1962890625 0.1035156250 0.0000000000
0.2402343750 0.1015625000 0.0000000000
0.2851562500 0.0996093750 0.0000000000
0.3320312500 0.0976562500 0.0000000000
0.3818359375 0.0947265625 0.0000000000
0.4345703125 0.0927734375 0.0000000000
0.4902343750 0.0898437500 0.0000000000
0.5498046875 0.0878906250 0.0000000000
0.6142578125 0.0849609375 0.0000000000
0.6826171875 0.0810546875 0.0000000000
0.7568359375 0.0781250000 0.0000000000
0.8369140625 0.0742187500 0.0000000000
0.9228515625 0.0703125000 0.0000000000
0.9990234375 0.0673828125 0.0000000000
0.9990234375 0.0644531250 0.0000000000
0.9990234375 0.0625000000 0.0000000000
0.9990234375 0.0605468750 0.0000000000
0.9990234375 0.0595703125 0.0000000000
0.9990234375 0.0585937500 0.0000000000
0.9990234375 0.0585937500 0.0000000000
0.9990234375 0.0585937500 0.0000000000
0.9990234375 0.0585937500 0.0000000000
0.9990234375 0.0585937500 0.0000000000
0.9990234375 0.0585937500 0.0000000000
0.9990234375 0.0585937500 0.0000000000
0.9990234375 0.0585937500 0.0000000000
0.0000000000 0.1601562500 0.0000000000
0.0000000000 0.1591796875 0.0000000000
0.0000000000 0.1572265625 0.0000000000
0.0205078125 0.1562500000 0.0000000000
0.0595703125 0.1542968750 0.0000000000
0.1054687500 0.1523437500 0.0000000000
0.1503906250 0.1503906250 0.0000000000
0.1933593750 0.1484375000 0.0000000000
0.2373046875 0.1464843750 0.0000000000
0.2832031250 0.1445312500 0.0000000000
0.3300781250 0.1416015625 0.0000000000
0.3798828125 0.1396484375 0.0000000000
0.4326171875 0.1376953125 0.0000000000
0.4882812500 0.1347656250 0.0000000000
0.5478515625 0.1318359375 0.0000000000
0.6123046875 0.1289062500 0.0000000000
0.6806640625 0.1259765625 0.0000000000
0.7548828125 0.1230468750 0.0000000000
0.8349609375 0.1191406250 0.0000000000
0.9208984375 0.1152343750 0.0000000000
0.9970703125 0.1113281250 0.0000000000
0.9990234375 0.1093750000 0.0000000000
0.9990234375 0.1074218750 0.0000000000
0.9990234375 0.1054687500 0.0000000000
0.9990234375 0.1035156250 0.0000000000
0.9990234375 0.1025390625 0.0000000000
0.9990234375 0.1025390625 0.0000000000
0.9990234375 0.1025390625 0.0000000000
0.9990234375 0.1025390625 0.0000000000
0.9990234375 0.1025390625 0.0000000000
0.9990234375 0.1025390625 0.0000000000
0.9990234375 0.1025390625 0.0000000000
0.9990234375 0.1025390625 0.0000000000
0.0000000000 0.2041015625 0.0000000000
0.0000000000 0.2031250000 0.0000000000
0.0000000000 0.2011718750 0.0000000000
0.0185546875 0.1992187500 0.0000000000
0.0576171875 0.1982421875 0.0000000000
0.1035156250 0.1962890625 0.0000000000
0.1484375000 0.1933593750 0.0000000000
0.1914062500 0.1914062500 0.0000000000
0.2353515625 0.1894531250 0.0000000000
0.2812500000 0.1875000000 0.0000000000
0.3281250000 0.1855468750 0.0000000000
0.3779296875 0.1835937500 0.0000000000
0.4306640625 0.1806640625 0.0000000000
0.4863281250 0.1787109375 0.0000000000
0.5458984375 0.1757812500 0.0000000000
0.6103515625 0.1728515625 0.0000000000
0.6787109375 0.1699218750 0.0000000000
0.7529296875 0.1660156250 0.0000000000
0.8330078125 0.1630859375 0.0000000000
0.9189453125 0.1591796875 0.0000000000
0.9951171875 0.1552734375 0.0000000000
0.9990234375 0.1523437500 0.0000000000
0.9990234375 0.1503906250 0.0000000000
0.9990234375 0.1494140625 0.0000000000
0.9990234375 0.1474609375 0.0000000000
0.9990234375 0.1464843750 0.0000000000
0.9990234375 0.1464843750 0.0000000000
0.9990234375 0.1464843750 0.0000000000
0.9990234375 0.1464843750 0.0000000000
0.9990234375 0.1464843750 0.0000000000
0.9990234375 0.1464843750 0.0000000000
0.9990234375 0.1464843750 0.0000000000
0.9990234375 0.1464843750 0.0000000000
0.0000000000 0.2480468750 0.0000000000
0.0000000000 0.2470703125 0.0000000000
0.0000000000 0.2451171875 0.0000000000
0.0166015625 0.2441406250 0.0000000000
0.0556640625 0.2421875000 0.0000000000
0.1015625000 0.2402343750 0.0000000000
0.1464843750 0.2373046875 0.0000000000
0.1894531250 0.2353515625 0.0000000000
0.2333984375 0.2333984375 0.0000000000
0.2792968750 0.2314453125 0.0000000000
0.3261718750 0.2294921875 0.0000000000
0.3759765625 0.2275390625 0.0000000000
0.4287109375 0.2246093750 0.0000000000
0.4843750000 0.2226562500 0.0000000000
0.5439453125 0.2197265625 0.0000000000
0.6074218750 0.2167968750 0.0000000000
0.6767578125 0.2138671875 0.0000000000
0.7509765625 0.2099609375 0.0000000000
0.8310546875 0.2070312500 0.0000000000
0.9169921875 0.2031250000 0.0000000000
0.9931640625 0.1992187500 0.0000000000
0.9990234375 0.1972656250 0.0000000000
0.9990234375 0.1943359375 0.0000000000
0.9990234375 0.1933593750 0.0000000000
0.9990234375 0.1914062500 0.0000000000
0.9990234375 0.1904296875 0.0000000000
0.9990234375 0.1904296875 0.0000000000
0.9990234375 0.1904296875 0.0000000000
0.9990234375 0.1904296875 0.0000000000
0.9990234375 0.1904296875 0.0000000000
0.9990234375 0.1904296875 0.0000000000
0.9990234375 0.1904296875 0.0000000000
0.9990234375 0.1904296875 0.0000000000
0.0000000000 0.2929687500 0.0000000000
0.0000000000 0.2919921875 0.0000000000
0.0000000000 0.2910156250 0.0000000000
0.0146484375 0.2890625000 0.0000000000
0.0537109375 0.2871093750 0.0000000000
0.0996093750 0.2851562500 0.0000000000
0.1445312500 0.2832031250 0.0000000000
0.1875000000 0.2812500000 0.0000000000
0.2314453125 0.2792968750 0.0000000000
0.2773437500 0.2773437500 0.0000000000
0.3242187500 0.2744140625 0.0000000000
0.3740234375 0.2724609375 0.0000000000
0.4257812500 0.2705078125 0.0000000000
0.4824218750 0.2675781250 0.0000000000
0.5419921875 0.2646484375 0.0000000000
0.6054687500 0.2617187500 0.0000000000
0.6748046875 0.2587890625 0.0000000000
0.7490234375 0.2558593750 0.0000000000
0.8281250000 0.2519531250 0.0000000000
0.9150390625 0.2480468750 0.0000000000
0.9912109375 0.2441406250 0.0000000000
0.9990234375 0.2421875000 0.0000000000
0.9990234375 0.2402343750 0.0000000000
0.9990234375 0.2382812500 0.0000000000
0.9990234375 0.2363281250 0.0000000000
0.9990234375 0.2353515625 0.0000000000
0.9990234375 0.2353515625 0.0000000000
0.9990234375 0.2353515625 0.0000000000
0.9990234375 0.2353515625 0.0000000000
0.9990234375 0.2353515625 0.0000000000
0.9990234375 0.2353515625 0.0000000000
0.9990234375 0.2353515625 0.0000000000
0.9990234375 0.2353515625 0.0000000000
0.0000000000 0.3408203125 0.0000000000
0.0000000000 0.3388671875 0.0000000000
0.0000000000 0.3378906250 0.0000000000
0.0126953125 0.3359375000 0.0000000000
0.0517578125 0.3339843750 0.0000000000
0.0976562500 0.3320312500 0.0000000000
0.1416015625 0.3300781250 0.0000000000
0.1855468750 0.3281250000 0.0000000000
0.2294921875 0.3261718750 0.0000000000
0.2744140625 0.3242187500 0.0000000000
0.3222656250 0.3222656250 0.0000000000
0.3710937500 0.3193359375 0.0000000000
0.4238281250 0.3173828125 0.0000000000
0.4794921875 0.3144531250 0.0000000000
0.5400390625 0.3125000000 0.0000000000
0.6035156250 0.3095703125 0.0000000000
0.6728515625 0.3056640625 0.0000000000
0.7460937500 0.3027343750 0.0000000000
0.8261718750 0.2988281250 0.0000000000
0.9130859375 0.2949218750 0.0000000000
0.9882812500 0.2919921875 0.0000000000
0.9990234375 0.2890625000 0.0000000000
0.9990234375 0.2871093750 0.0000000000
0.9990234375 0.2851562500 0.0000000000
0.9990234375 0.2841796875 0.0000000000
0.9990234375 0.2832031250 0.0000000000
0.9990234375 0.2832031250 0.0000000000
0.9990234375 0.2832031250 0.0000000000
0.9990234375 0.2832031250 0.0000000000
0.9990234375 0.2832031250 0.0000000000
0.9990234375 0.2832031250 0.0000000000
0.9990234375 0.2832031250 0.0000000000
0.9990234375 0.2832031250 0.0000000000
0.0000000000 0.3906250000 0.0000000000
0.0000000000 0.3886718750 0.0000000000
0.0000000000 0.3876953125 0.0000000000
0.0097656250 0.3857421875 0.0000000000
0.0488281250 0.3837890625 0.0000000000
0.0947265625 0.3818359375 0.0000000000
0.1396484375 0.3798828125 0.0000000000
0.1835937500 0.3779296875 0.0000000000
0.2275390625 0.3759765625 0.0000000000
0.2724609375 0.3740234375 0.0000000000
0.3193359375 0.3710937500 0.0000000000
0.3691406250 0.3691406250 0.0000000000
0.4218750000 0.3671875000 0.0000000000
0.4775390625 0.3642578125 0.0000000000
0.5371093750 0.3613281250 0.0000000000
0.6015625000 0.3583984375 0.0000000000
0.6699218750 0.3554687500 0.0000000000
0.7441406250 0.3525390625 0.0000000000
0.8242187500 0.3486328125 0.0000000000
0.9101562500 0.3447265625 0.0000000000
0.9863281250 0.3408203125 0.0000000000
0.9990234375 0.3388671875 0.0000000000
0.9990234375 0.3369140625 0.0000000000
0.9990234375 0.3349609375 0.0000000000
0.9990234375 0.3330078125 0.0000000000
0.9990234375 0.3320312500 0.0000000000
0.9990234375 0.3320312500 0.0000000000
0.9990234375 0.3320312500 0.0000000000
0.9990234375 0.3320312500 0.0000000000
0.9990234375 0.3320312500 0.0000000000
0.9990234375 0.3320312500 0.0000000000
0.9990234375 0.3320312500 0.0000000000
0.9990234375 0.3320312500 0.0000000000
0.0000000000 0.4423828125 0.0000000000
0.0000000000 0.4414062500 0.0000000000
0.0000000000 0.4394531250 0.0000000000
0.0078125000 0.4384765625 0.0000000000
0.0468750000 0.4365234375 0.0000000000
0.0927734375 0.4345703125 0.0000000000
0.1376953125 0.4326171875 0.0000000000
0.1806640625 0.4306640625 0.0000000000
0.2246093750 0.4287109375 0.0000000000
0.2705078125 0.4257812500 0.0000000000
0.3173828125 0.4238281250 0.0000000000
0.3671875000 0.4218750000 0.0000000000
0.4189453125 0.4189453125 0.0000000000
0.4755859375 0.4169921875 0.0000000000
0.5351562500 0.4140625000 0.0000000000
0.5986328125 0.4111328125 0.0000000000
0.6679687500 0.4082031250 0.0000000000
0.7421875000 0.4042968750 0.0000000000
0.8222656250 0.4013671875 0.0000000000
0.9082031250 0.3974609375 0.0000000000
0.9843750000 0.3935546875 0.0000000000
0.9990234375 0.3916015625 0.0000000000
0.9990234375 0.3896484375 0.0000000000
0.9990234375 0.3876953125 0.0000000000
0.9990234375 0.3857421875 0.0000000000
0.9990234375 0.3847656250 0.0000000000
0.9990234375 0.3847656250 0.0000000000
0.9990234375 0.3847656250 0.0000000000
0.9990234375 0.3847656250 0.0000000000
0.9990234375 0.3847656250 0.0000000000
0.9990234375 0.3847656250 0.0000000000
0.9990234375 0.3847656250 0.0000000000
0.9990234375 0.3847656250 0.0000000000
0.0000000000 0.4990234375 0.0000000000
0.0000000000 0.4970703125 0.0000000000
0.0000000000 0.4960937500 0.0000000000
0.0048828125 0.4941406250 0.0000000000
0.0439453125 0.4921875000 0.0000000000
0.0898437500 0.4902343750 0.0000000000
0.1347656250 0.4882812500 0.0000000000
0.1787109375 0.4863281250 0.0000000000
0.2226562500 0.4843750000 0.0000000000
0.2675781250 0.4824218750 0.0000000000
0.3144531250 0.4794921875 0.0000000000
0.3642578125 0.4775390625 0.0000000000
0.4169921875 0.4755859375 0.0000000000
0.4726562500 0.4726562500 0.0000000000
0.5322265625 0.4697265625 0.0000000000
0.5966796875 0.4667968750 0.0000000000
0.6650390625 0.4638671875 0.0000000000
0.7392578125 0.4609375000 0.0000000000
0.8193359375 0.4570312500 0.0000000000
0.9052734375 0.4531250000 0.0000000000
0.9814453125 0.4492187500 0.0000000000
0.9990234375 0.4472656250 0.0000000000
0.9990234375 0.4453125000 0.0000000000
0.9990234375 0.4433593750 0.0000000000
0.9990234375 0.4414062500 0.0000000000
0.9990234375 0.4404296875 0.0000000000
0.9990234375 0.4404296875 0.0000000000
0.9990234375 0.4404296875 0.0000000000
0.9990234375 0.4404296875 0.0000000000
0.9990234375 0.4404296875 0.0000000000
0.9990234375 0.4404296875 0.0000000000
0.9990234375 0.4404296875 0.0000000000
0.9990234375 0.4404296875 0.0000000000
0.0000000000 0.5585937500 0.0000000000
0.0000000000 0.5566406250 0.0000000000
0.0000000000 0.5556640625 0.0000000000
0.0019531250 0.5537109375 0.0000000000
0.0410156250 0.5517578125 0.0000000000
0.0878906250 0.5498046875 0.0000000000
0.1318359375 0.5478515625 0.0000000000
0.1757812500 0.5458984375 0.0000000000
0.2197265625 0.5439453125 0.0000000000
0.2646484375 0.5419921875 0.0000000000
0.3125000000 0.5400390625 0.0000000000
0.3613281250 0.5371093750 0.0000000000
0.4140625000 0.5351562500 0.0000000000
0.4697265625 0.5322265625 0.0000000000
0.5292968750 0.5292968750 0.0000000000
0.5937500000 0.5273437500 0.0000000000
0.6621093750 0.5234375000 0.0000000000
0.7363281250 0.5205078125 0.0000000000
0.8164062500 0.5166015625 0.0000000000
0.9023437500 0.5126953125 0.0000000000
0.9785156250 0.5097656250 0.0000000000
0.9990234375 0.5068359375 0.0000000000
0.9990234375 0.5048828125 0.0000000000
0.9990234375 0.5029296875 0.0000000000
0.9990234375 0.5019531250 0.0000000000
0.9990234375 0.5009765625 0.0000000000
0.9990234375 0.5009765625 0.0000000000
0.9990234375 0.5009765625 0.0000000000
0.9990234375 0.5009765625 0.0000000000
0.9990234375 0.5009765625 0.0000000000
0.9990234375 0.5009765625 0.0000000000
0.9990234375 0.5009765625 0.0000000000
0.9990234375 0.5009765625 0.0000000000
0.0000000000 0.6220703125 0.0000000000
0.0000000000 0.6210937500 0.0000000000
0.0000000000 0.6191406250 0.0000000000
0.0000000000 0.6181640625 0.0000000000
0.0380859375 0.6162109375 0.0000000000
0.0849609375 0.6142578125 0.0000000000
0.1289062500 0.6123046875 0.0000000000
0.1728515625 0.6103515625 0.0000000000
0.2167968750 0.6074218750 0.0000000000
0.2617187500 0.6054687500 0.0000000000
0.3095703125 0.6035156250 0.0000000000
0.3583984375 0.6015625000 0.0000000000
0.4111328125 0.5986328125 0.0000000000
0.4667968750 0.5966796875 0.0000000000
0.5273437500 0.5937500000 0.0000000000
0.5908203125 0.5908203125 0.0000000000
0.6601562500 0.5878906250 0.0000000000
0.7333984375 0.5839843750 0.0000000000
0.8134765625 0.5810546875 0.0000000000
0.8994140625 0.5771484375 0.0000000000
0.9755859375 0.5732421875 0.0000000000
0.9990234375 0.5712890625 0.0000000000
0.9990234375 0.5693359375 0.0000000000
0.9990234375 0.5673828125 0.0000000000
0.9990234375 0.5654296875 0.0000000000
0.9990234375 0.5644531250 0.0000000000
0.9990234375 0.5644531250 0.0000000000
0.9990234375 0.5644531250 0.0000000000
0.9990234375 0.5644531250 0.0000000000
0.9990234375 0.5644531250 0.0000000000
0.9990234375 0.5644531250 0.0000000000
0.9990234375 0.5644531250 0.0000000000
0.9990234375 0.5644531250 0.0000000000
0.0000000000 0.6914062500 0.0000000000
0.0000000000 0.6894531250 0.0000000000
0.0000000000 0.6884765625 0.0000000000
0.0000000000 0.6865234375 0.0000000000
0.0351562500 0.6845703125 0.0000000000
0.0810546875 0.6826171875 0.0000000000
0.1259765625 0.6806640625 0.0000000000
0.1699218750 0.6787109375 0.0000000000
0.2138671875 0.6767578125 0.0000000000
0.2587890625 0.6748046875 0.0000000000
0.3056640625 0.6728515625 0.0000000000
0.3554687500 0.6699218750 0.0000000000
0.4082031250 0.6679687500 0.0000000000
0.4638671875 0.6650390625 0.0000000000
0.5234375000 0.6621093750 0.0000000000
0.5878906250 0.6601562500 0.0000000000
0.6562500000 0.6562500000 0.0000000000
0.7304687500 0.6533203125 0.0000000000
0.8105468750 0.6494140625 0.0000000000
0.8964843750 0.6455078125 0.0000000000
0.9726562500 0.6425781250 0.0000000000
0.9990234375 0.6396484375 0.0000000000
0.9990234375 0.6376953125 0.0000000000
0.9990234375 0.6357421875 0.0000000000
0.9990234375 0.6347656250 0.0000000000
0.9990234375 0.6337890625 0.0000000000
0.9990234375 0.6337890625 0.0000000000
0.9990234375 0.6337890625 0.0000000000
0.9990234375 0.6337890625 0.0000000000
0.9990234375 0.6337890625 0.0000000000
0.9990234375 0.6337890625 0.0000000000
0.9990234375 0.6337890625 0.0000000000
0.9990234375 0.6337890625 0.0000000000
0.0000000000 0.7646484375 0.0000000000
0.0000000000 0.7636718750 0.0000000000
0.0000000000 0.7626953125 0.0000000000
0.0000000000 0.7607421875 0.0000000000
0.0322265625 0.7587890625 0.0000000000
0.0781250000 0.7568359375 0.0000000000
0.1230468750 0.7548828125 0.0000000000
0.1660156250 0.7529296875 0.0000000000
0.2099609375 0.7509765625 0.0000000000
0.2558593750 0.7490234375 0.0000000000
0.3027343750 0.7460937500 0.0000000000
0.3525390625 0.7441406250 0.0000000000
0.4042968750 0.7421875000 0.0000000000
0.4609375000 0.7392578125 0.0000000000
0.5205078125 0.7363281250 0.0000000000
0.5839843750 0.7333984375 0.0000000000
0.6533203125 0.7304687500 0.0000000000
0.7275390625 0.7275390625 0.0000000000
0.8076171875 0.7236328125 0.0000000000
0.8935546875 0.7197265625 0.0000000000
0.9697265625 0.7158203125 0.0000000000
0.9990234375 0.7138671875 0.0000000000
0.9990234375 0.7119140625 0.0000000000
0.9990234375 0.7099609375 0.0000000000
0.9990234375 0.7080078125 0.0000000000
0.9990234375 0.7070312500 0.0000000000
0.9990234375 0.7070312500 0.0000000000
0.9990234375 0.7070312500 0.0000000000
0.9990234375 0.7070312500 0.0000000000
0.9990234375 0.7070312500 0.0000000000
0.9990234375 0.7070312500 0.0000000000
0.9990234375 0.7070312500 0.0000000000
0.9990234375 0.7070312500 0.0000000000
0.0000000000 0.8447265625 0.0000000000
0.0000000000 0.8437500000 0.0000000000
0.0000000000 0.8417968750 0.0000000000
0.0000000000 0.8408203125 0.0000000000
0.0283203125 0.8388671875 0.0000000000
0.0742187500 0.8369140625 0.0000000000
0.1191406250 0.8349609375 0.0000000000
0.1630859375 0.8330078125 0.0000000000
0.2070312500 0.8310546875 0.0000000000
0.2519531250 0.8281250000 0.0000000000
0.2988281250 0.8261718750 0.0000000000
0.3486328125 0.8242187500 0.0000000000
0.4013671875 0.8222656250 0.0000000000
0.4570312500 0.8193359375 0.0000000000
0.5166015625 0.8164062500 0.0000000000
0.5810546875 0.8134765625 0.0000000000
0.6494140625 0.8105468750 0.0000000000
0.7236328125 0.8076171875 0.0000000000
0.8037109375 0.8037109375 0.0000000000
0.8896484375 0.7998046875 0.0000000000
